cubelut/2-Strip-Process.cube
# Created by: Lutify.me
# Copyright: (c) Copyright Lutify.me 2016, G.T. Colord LTD
# Website: https://lutify.me
# Contact: help@lutify.me
LUT_3D_SIZE 33
0.000000 0.000000 0.000000
0.002106 0.006989 0.013245
0.007172 0.015686 0.026611
0.024933 0.026001 0.029907
0.046051 0.031219 0.029602
0.067444 0.037018 0.026306
0.091339 0.042694 0.021881
0.115326 0.049164 0.018036
0.139526 0.055786 0.014252
0.166138 0.061829 0.008423
0.192505 0.067261 0.001709
0.213898 0.074371 0.000031
0.235077 0.081451 0.000031
0.256653 0.088684 0.000031
0.279388 0.095734 0.000031
0.302612 0.102875 0.000031
0.325714 0.110016 0.000031
0.348389 0.117310 0.000031
0.372223 0.124542 0.000031
0.395386 0.132080 0.000031
0.418060 0.140259 0.000031
0.440887 0.148804 0.000031
0.463531 0.157471 0.000031
0.485321 0.166504 0.000031
0.506775 0.175964 0.000031
0.527222 0.185760 0.000031
0.546997 0.196198 0.000031
0.565491 0.207245 0.000031
0.583313 0.219208 0.000031
0.599854 0.231689 0.000031
0.616425 0.244446 0.000031
0.631012 0.258698 0.000031
0.644257 0.272766 0.000031
0.005524 0.017090 0.031555
0.008575 0.024170 0.043365
0.030304 0.037811 0.047180
0.052063 0.048553 0.046600
0.074554 0.052765 0.038239
0.097748 0.057831 0.033539
0.120667 0.063263 0.028839
0.143494 0.068604 0.023438
0.166656 0.073578 0.017548
0.191925 0.078217 0.010773
0.218079 0.082397 0.002747
0.239655 0.087982 0.000031
0.259827 0.094482 0.000031
0.280762 0.100800 0.000031
0.302094 0.107574 0.000031
0.323700 0.114136 0.000031
0.344574 0.121002 0.000031
0.367096 0.127930 0.000031
0.389740 0.134857 0.000031
0.412231 0.142334 0.000031
0.434113 0.150330 0.000031
0.455475 0.158722 0.000031
0.476715 0.167297 0.000031
0.497559 0.176422 0.000031
0.517639 0.185791 0.000031
0.536743 0.195679 0.000031
0.554962 0.206390 0.000031
0.572266 0.217407 0.000031
0.588898 0.229187 0.000031
0.604858 0.241486 0.000031
0.619263 0.254639 0.000031
0.632782 0.267303 0.000031
0.645325 0.279205 0.000031
0.014313 0.034973 0.058411
0.018768 0.039856 0.063080
0.031952 0.050995 0.067902
0.062256 0.065857 0.070282
0.085205 0.074219 0.065338
0.109741 0.078247 0.054474
0.134003 0.080658 0.038940
0.158600 0.083221 0.025726
0.182709 0.088135 0.019745
0.207672 0.092438 0.012970
0.235840 0.095673 0.002289
0.257599 0.100891 0.000031
0.278229 0.106812 0.000031
0.298523 0.113068 0.000031
0.319153 0.119476 0.000031
0.340393 0.125916 0.000031
0.361755 0.132507 0.000031
0.383972 0.139130 0.000031
0.406555 0.145844 0.000031
0.428253 0.153320 0.000031
0.449127 0.161438 0.000031
0.469910 0.169830 0.000031
0.490204 0.178589 0.000031
0.509766 0.187683 0.000031
0.528229 0.197479 0.000031
0.545715 0.207611 0.000031
0.562775 0.218201 0.000031
0.579315 0.229431 0.000031
0.594574 0.241272 0.000031
0.608704 0.253723 0.000031
0.621887 0.265137 0.000031
0.634216 0.276276 0.000031
0.645935 0.285950 0.000031
0.025726 0.054352 0.079437
0.028839 0.056915 0.082520
0.037659 0.066528 0.089386
0.058380 0.079773 0.092468
0.093536 0.095093 0.094727
0.119873 0.099579 0.081665
0.143555 0.105286 0.072876
0.167175 0.109009 0.059784
0.191925 0.109955 0.040009
0.221283 0.107574 0.017548
0.250824 0.107452 0.000031
0.271301 0.113495 0.000031
0.292938 0.119263 0.000031
0.313751 0.125488 0.000031
0.334564 0.131622 0.000031
0.355408 0.138184 0.000031
0.377441 0.144440 0.000031
0.400177 0.150665 0.000031
0.421906 0.157837 0.000031
0.442871 0.165558 0.000031
0.463104 0.173798 0.000031
0.482758 0.182495 0.000031
0.501740 0.191376 0.000031
0.520111 0.200897 0.000031
0.537567 0.210785 0.000031
0.554535 0.220978 0.000031
0.570862 0.231934 0.000031
0.585541 0.243317 0.000031
0.599396 0.254364 0.000031
0.612061 0.265259 0.000031
0.624115 0.276154 0.000031
0.635437 0.286713 0.000031
0.646606 0.293976 0.000031
0.036041 0.073914 0.102020
0.037567 0.073730 0.102875
0.047363 0.083374 0.109772
0.061035 0.095245 0.116699
0.084564 0.108978 0.117920
0.126404 0.122040 0.115723
0.153656 0.126129 0.100464
0.178192 0.130981 0.088898
0.202240 0.136200 0.077698
0.226532 0.139160 0.061218
0.253448 0.139221 0.039001
0.286865 0.134064 0.010193
0.305176 0.130646 0.000031
0.326263 0.137451 0.000031
0.347504 0.143890 0.000031
0.369019 0.150208 0.000031
0.391693 0.156403 0.000031
0.414093 0.162903 0.000031
0.435181 0.170349 0.000031
0.455231 0.178528 0.000031
0.474548 0.187134 0.000031
0.493439 0.196167 0.000031
0.511780 0.205444 0.000031
0.529480 0.215149 0.000031
0.546051 0.225739 0.000031
0.561371 0.236053 0.000031
0.575958 0.246521 0.000031
0.589600 0.257111 0.000031
0.602173 0.267761 0.000031
0.613953 0.278534 0.000031
0.625000 0.288727 0.000031
0.636139 0.298218 0.000031
0.647430 0.302704 0.000031
0.045593 0.092896 0.125214
0.045135 0.089844 0.123169
0.053925 0.099609 0.131042
0.067596 0.111450 0.138245
0.085846 0.124481 0.143982
0.111053 0.138367 0.144165
0.159424 0.149261 0.137299
0.187103 0.153503 0.122101
0.214172 0.156281 0.104553
0.237946 0.162079 0.094360
0.262512 0.166077 0.078949
0.290283 0.167236 0.056061
0.320709 0.166412 0.032806
0.350220 0.163483 0.010437
0.367828 0.160675 0.000031
0.381470 0.161713 0.000031
0.403595 0.168732 0.000031
0.425140 0.175751 0.000031
0.445984 0.183594 0.000031
0.465515 0.192200 0.000031
0.484772 0.201233 0.000031
0.502869 0.210449 0.000031
0.520111 0.220093 0.000031
0.536011 0.229980 0.000031
0.551300 0.240143 0.000031
0.565704 0.250427 0.000031
0.579559 0.261078 0.000031
0.591187 0.271973 0.000031
0.602692 0.282837 0.000031
0.614624 0.293243 0.000031
0.626038 0.302795 0.000031
0.637665 0.310608 0.000031
0.648834 0.312408 0.000031
0.054535 0.111786 0.150757
0.052643 0.106445 0.146362
0.060974 0.115173 0.153351
0.072113 0.127655 0.162048
0.088623 0.139801 0.167206
0.111389 0.153809 0.171509
0.138855 0.168304 0.170013
0.191589 0.177063 0.159729
0.221466 0.180969 0.143860
0.249817 0.182709 0.123383
0.275085 0.187195 0.109039
0.301422 0.190918 0.091675
0.328918 0.193420 0.071136
0.354248 0.195190 0.049072
0.382965 0.195374 0.030487
0.411194 0.193146 0.008514
0.424896 0.190186 0.000031
0.435638 0.187653 0.000031
0.455475 0.196289 0.000031
0.473785 0.205231 0.000031
0.491638 0.214661 0.000031
0.509094 0.224121 0.000031
0.525330 0.234100 0.000031
0.540894 0.244324 0.000031
0.554352 0.255157 0.000031
0.567505 0.266052 0.000031
0.579926 0.277252 0.000031
0.592255 0.287933 0.000031
0.604919 0.298187 0.000031
0.616699 0.308228 0.000031
0.629272 0.316833 0.000031
0.641083 0.323395 0.000031
0.651337 0.322662 0.000031
0.062866 0.130188 0.176727
0.060699 0.124084 0.171295
0.066711 0.129944 0.175964
0.077728 0.143494 0.186707
0.090637 0.155701 0.193268
0.109894 0.168610 0.197632
0.136963 0.183472 0.200348
0.165588 0.199127 0.196899
0.223480 0.205566 0.183899
0.255219 0.208954 0.168213
0.285217 0.210571 0.145813
0.314331 0.211761 0.120911
0.340607 0.215790 0.104340
0.366211 0.219543 0.086792
0.390045 0.222931 0.067627
0.414459 0.224884 0.047302
0.442932 0.224792 0.026184
0.469788 0.222321 0.000031
0.477417 0.222076 0.000031
0.480560 0.218597 0.000031
0.497742 0.228485 0.000031
0.513733 0.238831 0.000031
0.528290 0.249329 0.000031
0.542236 0.260406 0.000031
0.556427 0.271210 0.000031
0.570038 0.282135 0.000031
0.583191 0.293060 0.000031
0.596497 0.303528 0.000031
0.610168 0.313599 0.000031
0.622803 0.323151 0.000031
0.634949 0.331146 0.000031
0.646454 0.336700 0.000031
0.655823 0.332916 0.000031
0.072083 0.148651 0.203003
0.069946 0.141785 0.196442
0.072906 0.144348 0.198700
0.083862 0.158813 0.211029
0.092804 0.171356 0.220123
0.108826 0.184418 0.225861
0.132843 0.198120 0.228210
0.162628 0.213531 0.229218
0.191711 0.229889 0.224609
0.254303 0.234436 0.209137
0.289062 0.237335 0.193390
0.321014 0.238403 0.168304
0.353149 0.236786 0.134888
0.378082 0.241852 0.120697
0.402100 0.246704 0.105774
0.425507 0.250854 0.088043
0.449066 0.253845 0.065582
0.472687 0.255341 0.039459
0.500641 0.254425 0.013702
0.515625 0.255066 0.000031
0.515717 0.255859 0.000031
0.517059 0.253876 0.000031
0.532410 0.264923 0.000031
0.547089 0.275696 0.000031
0.561401 0.286896 0.000031
0.576050 0.297913 0.000031
0.589874 0.308929 0.000031
0.603058 0.319550 0.000031
0.616241 0.329498 0.000031
0.629150 0.338715 0.000031
0.641144 0.346283 0.000031
0.652313 0.350739 0.000031
0.660828 0.344330 0.000031
0.081238 0.167297 0.229034
0.078827 0.159576 0.220978
0.079651 0.158417 0.219666
0.090210 0.173950 0.234985
0.098877 0.187256 0.245911
0.107391 0.199921 0.254272
0.128387 0.213257 0.258057
0.156067 0.227966 0.258392
0.186798 0.243958 0.258423
0.217102 0.260986 0.252747
0.285095 0.263885 0.234863
0.324097 0.265564 0.216553
0.357147 0.266174 0.189056
0.388916 0.265259 0.157440
0.413818 0.269043 0.139679
0.437225 0.274475 0.126434
0.460571 0.279388 0.110199
0.484406 0.283234 0.089172
0.508728 0.285400 0.063568
0.531158 0.287262 0.037354
0.548157 0.289001 0.010956
0.551331 0.290771 0.000031
0.545135 0.287231 0.000031
0.555206 0.291046 0.000031
0.571625 0.302307 0.000031
0.587830 0.313324 0.000031
0.604004 0.324005 0.000031
0.619720 0.334381 0.000031
0.634491 0.344086 0.000031
0.648163 0.353210 0.000031
0.659851 0.360382 0.000031
0.668182 0.363983 0.000031
0.667023 0.356018 0.000031
0.088776 0.186340 0.255127
0.086700 0.177917 0.246185
0.085052 0.172272 0.240112
0.096832 0.188690 0.257080
0.104919 0.203003 0.270294
0.111908 0.215698 0.280853
0.124115 0.229004 0.287720
0.147217 0.242676 0.290436
0.178253 0.258148 0.289734
0.210480 0.274384 0.287872
0.242615 0.291992 0.282471
0.316284 0.293518 0.260651
0.360260 0.293732 0.239441
0.393005 0.294769 0.212189
0.422943 0.294891 0.183319
0.449280 0.297180 0.160828
0.472412 0.302887 0.147797
0.495880 0.308319 0.132141
0.520050 0.312927 0.112366
0.544312 0.316620 0.091553
0.563293 0.321198 0.074554
0.579773 0.324829 0.054749
0.597137 0.324280 0.021362
0.597504 0.321838 0.000031
0.590637 0.316711 0.000031
0.607452 0.328217 0.000031
0.624146 0.339386 0.000031
0.639954 0.350006 0.000031
0.654877 0.359924 0.000031
0.668365 0.368622 0.000031
0.682190 0.374603 0.000031
0.690460 0.376801 0.000031
0.678375 0.367706 0.000031
0.095551 0.205292 0.281769
0.093384 0.196259 0.272034
0.091827 0.189941 0.265137
0.102325 0.203156 0.277710
0.111877 0.218506 0.293121
0.117615 0.231750 0.305725
0.123444 0.244781 0.315918
0.140991 0.258453 0.320770
0.167328 0.272552 0.322144
0.201141 0.288910 0.320923
0.234680 0.305267 0.317535
0.266296 0.323395 0.311646
0.349060 0.322845 0.285187
0.396484 0.322357 0.264404
0.427521 0.324310 0.239532
0.456818 0.325134 0.210846
0.484985 0.325775 0.183075
0.508453 0.332184 0.170258
0.532593 0.337891 0.153717
0.555420 0.343750 0.137787
0.576874 0.349792 0.124237
0.594696 0.356079 0.111542
0.613037 0.360382 0.091675
0.630859 0.361511 0.064789
0.645844 0.356750 0.022278
0.628265 0.343750 0.000031
0.645691 0.355194 0.000031
0.661987 0.366089 0.000031
0.677551 0.376007 0.000031
0.696045 0.384064 0.000031
0.709717 0.390411 0.000031
0.714264 0.393066 0.000031
0.694672 0.379761 0.000031
0.102203 0.224792 0.309509
0.099915 0.215271 0.298706
0.098236 0.208191 0.290802
0.106659 0.216522 0.298218
0.118683 0.234131 0.315125
0.124420 0.247894 0.329346
0.129028 0.260925 0.341309
0.137756 0.274445 0.349976
0.158478 0.288330 0.353455
0.189362 0.303070 0.352661
0.224609 0.319977 0.351135
0.258820 0.336670 0.346649
0.290039 0.356445 0.339539
0.383270 0.351532 0.305664
0.430847 0.351868 0.289520
0.461121 0.354340 0.265869
0.490295 0.355957 0.238678
0.520203 0.355743 0.207062
0.544037 0.362183 0.193512
0.566986 0.369293 0.179901
0.588745 0.376556 0.169067
0.607727 0.384644 0.160248
0.625854 0.391724 0.148041
0.645905 0.396576 0.129059
0.664337 0.398438 0.104095
0.679474 0.394775 0.065094
0.670837 0.372162 0.000031
0.686646 0.382599 0.000031
0.709595 0.393372 0.002563
0.720581 0.403778 0.013062
0.725067 0.414093 0.035095
0.726227 0.416565 0.040649
0.712769 0.392273 0.000031
0.108246 0.244965 0.337646
0.106110 0.234772 0.325958
0.104614 0.227051 0.317383
0.108734 0.229126 0.318665
0.124664 0.249573 0.337311
0.131653 0.264221 0.352295
0.135468 0.277405 0.365692
0.139313 0.290527 0.377167
0.151459 0.304321 0.384125
0.178101 0.318665 0.385590
0.211792 0.333984 0.383667
0.248413 0.351227 0.381531
0.283417 0.368164 0.375183
0.316498 0.389313 0.366211
0.416504 0.380859 0.326935
0.463318 0.382050 0.314575
0.494568 0.384918 0.291321
0.524384 0.386719 0.263916
0.555359 0.386810 0.232910
0.579132 0.393372 0.218536
0.599243 0.402588 0.211029
0.619537 0.411743 0.205139
0.639282 0.420166 0.196960
0.658447 0.427704 0.184937
0.679138 0.432922 0.166443
0.697571 0.435120 0.142273
0.713623 0.430389 0.100769
0.718353 0.401276 0.007874
0.726807 0.418213 0.043579
0.732666 0.431793 0.071533
0.736786 0.441193 0.088989
0.737274 0.442657 0.091583
0.722931 0.409027 0.024567
0.114655 0.265808 0.366028
0.112244 0.255005 0.353699
0.110443 0.246521 0.344360
0.109741 0.242065 0.339783
0.128937 0.264709 0.359985
0.138184 0.280579 0.375000
0.142548 0.294067 0.389435
0.145203 0.307190 0.402649
0.150024 0.320526 0.413055
0.163910 0.334564 0.419495
0.198761 0.349243 0.417816
0.234863 0.365082 0.415497
0.273651 0.382568 0.412292
0.309540 0.399872 0.404358
0.347412 0.422180 0.391998
0.449371 0.410522 0.349792
0.495117 0.412689 0.338959
0.528076 0.415649 0.316833
0.559631 0.417694 0.289215
0.589935 0.418915 0.260284
0.611145 0.426758 0.248932
0.631012 0.437134 0.245728
0.652222 0.446625 0.240051
0.671997 0.455933 0.233002
0.692352 0.463593 0.221527
0.713165 0.469177 0.204834
0.729767 0.472198 0.186523
0.743591 0.466919 0.146545
0.738739 0.446259 0.097748
0.743988 0.460510 0.127380
0.748169 0.469452 0.145386
0.748199 0.469696 0.145935
0.744049 0.460236 0.127655
0.121857 0.287598 0.394714
0.118805 0.276093 0.381958
0.116730 0.266998 0.372131
0.115875 0.261749 0.366943
0.131287 0.279572 0.382568
0.143585 0.296906 0.398346
0.149231 0.311157 0.412933
0.152405 0.324188 0.427063
0.154755 0.337402 0.439758
0.161926 0.351044 0.448914
0.184296 0.365112 0.452637
0.222168 0.379913 0.449982
0.260864 0.396118 0.447327
0.300934 0.413605 0.443146
0.338318 0.431610 0.433777
0.382721 0.454712 0.417267
0.482300 0.440521 0.375183
0.527344 0.443298 0.364441
0.563477 0.446075 0.342804
0.595337 0.448761 0.315979
0.622314 0.452393 0.292786
0.642487 0.461212 0.283783
0.663483 0.471954 0.281342
0.685059 0.482025 0.276428
0.705200 0.491791 0.270111
0.727020 0.499268 0.257050
0.744873 0.506073 0.248108
0.760254 0.508118 0.226837
0.763428 0.504059 0.210388
0.756744 0.489197 0.182404
0.760864 0.498230 0.199402
0.760742 0.497864 0.198792
0.769928 0.518799 0.238342
0.130005 0.310455 0.422852
0.126343 0.298431 0.409790
0.123627 0.288666 0.399750
0.122406 0.282654 0.393982
0.132629 0.293518 0.403503
0.148407 0.313812 0.422028
0.156036 0.328522 0.436401
0.159424 0.341766 0.451080
0.162201 0.354645 0.464691
0.165558 0.367981 0.476685
0.172272 0.381531 0.486603
0.211243 0.395966 0.484680
0.248322 0.410706 0.482513
0.288452 0.426910 0.479279
0.330933 0.444580 0.473755
0.369720 0.463440 0.462555
0.418610 0.486389 0.442566
0.515198 0.470703 0.401764
0.560730 0.473724 0.389252
0.599609 0.476532 0.369019
0.630157 0.480652 0.346008
0.654266 0.486389 0.327301
0.674927 0.495544 0.319458
0.697021 0.506561 0.316650
0.717773 0.517609 0.313873
0.738220 0.527496 0.308380
0.759552 0.535278 0.297211
0.776184 0.540985 0.282928
0.782166 0.545105 0.283173
0.773834 0.527588 0.252563
0.774261 0.528442 0.254181
0.782715 0.546234 0.285187
0.789185 0.560181 0.309875
0.138428 0.334167 0.451111
0.134644 0.321777 0.437958
0.131592 0.311340 0.427490
0.129913 0.304993 0.421326
0.132843 0.306305 0.422394
0.153046 0.330872 0.444519
0.162933 0.346405 0.459167
0.167023 0.359924 0.474213
0.170044 0.372833 0.488800
0.172577 0.385742 0.502045
0.177246 0.398956 0.513214
0.204834 0.412842 0.516144
0.240417 0.427094 0.515442
0.276611 0.441772 0.513550
0.319458 0.458069 0.509521
0.363922 0.475677 0.502808
0.402344 0.495544 0.491028
0.454193 0.517944 0.467590
0.549072 0.500610 0.427612
0.594391 0.504028 0.413635
0.635498 0.507111 0.396149
0.662354 0.513550 0.379364
0.685730 0.520264 0.362518
0.707794 0.529877 0.355377
0.729767 0.541504 0.353638
0.749939 0.552734 0.351044
0.771698 0.561951 0.342560
0.789948 0.569855 0.331635
0.797699 0.578735 0.340607
0.797943 0.579102 0.341339
0.787811 0.557495 0.304749
0.807190 0.598724 0.374847
0.802185 0.587921 0.356720
0.146881 0.358887 0.479065
0.142975 0.345947 0.465973
0.139832 0.335022 0.455322
0.138031 0.328339 0.448944
0.137115 0.324585 0.445740
0.156921 0.347839 0.466614
0.169312 0.364716 0.481842
0.175018 0.378601 0.496613
0.178223 0.391754 0.511658
0.180603 0.404327 0.525879
0.183807 0.417145 0.538177
0.198669 0.430481 0.546082
0.231171 0.444458 0.546997
0.270538 0.458496 0.545105
0.308533 0.472992 0.542419
0.353516 0.489349 0.538055
0.398438 0.506836 0.530731
0.435669 0.527527 0.519287
0.484528 0.549377 0.490051
0.583130 0.530273 0.453247
0.628296 0.533966 0.438141
0.665833 0.539246 0.424316
0.693695 0.546722 0.413971
0.716431 0.554047 0.397400
0.739807 0.564087 0.391571
0.762024 0.575684 0.388977
0.783386 0.586426 0.383240
0.802368 0.596161 0.375977
0.811371 0.607880 0.389984
0.814484 0.614502 0.401428
0.805145 0.594635 0.367432
0.824402 0.637268 0.441162
0.814178 0.613770 0.400452
0.155304 0.384125 0.506195
0.151245 0.370850 0.493408
0.148132 0.359711 0.483002
0.146210 0.352539 0.476471
0.145233 0.348602 0.473053
0.158905 0.363892 0.487122
0.174622 0.383484 0.504822
0.183228 0.398071 0.518616
0.186340 0.411102 0.534119
0.188538 0.423706 0.548767
0.190918 0.436188 0.561920
0.195160 0.449036 0.574249
0.218536 0.462311 0.578491
0.261108 0.476166 0.575836
0.304443 0.490204 0.572906
0.343231 0.504425 0.569672
0.389526 0.520721 0.565033
0.433044 0.537933 0.557953
0.468903 0.559479 0.547058
0.515045 0.580658 0.514252
0.617706 0.559509 0.477631
0.662384 0.563934 0.462463
0.694427 0.571838 0.454193
0.720673 0.580139 0.442871
0.744781 0.587097 0.425690
0.769348 0.597626 0.421509
0.792542 0.608948 0.418579
0.812744 0.620239 0.415924
0.822815 0.634155 0.435455
0.827972 0.644867 0.453918
0.831360 0.651825 0.465485
0.839874 0.669128 0.494019
0.824677 0.637726 0.442200
0.164093 0.409760 0.532806
0.159698 0.396423 0.520172
0.156342 0.385040 0.509827
0.154297 0.377716 0.503326
0.153198 0.373322 0.499847
0.157623 0.377350 0.503632
0.178558 0.402344 0.526306
0.189911 0.417816 0.540344
0.194885 0.431000 0.555084
0.196289 0.443634 0.570557
0.198395 0.455902 0.584198
0.201874 0.468475 0.597076
0.214935 0.481293 0.605560
0.246979 0.494629 0.606934
0.296539 0.508240 0.602386
0.340454 0.522125 0.598999
0.380310 0.536194 0.596161
0.425659 0.552063 0.591766
0.467010 0.568909 0.585510
0.500092 0.591064 0.575439
0.545990 0.610779 0.536987
0.653290 0.588226 0.500183
0.692566 0.595245 0.490845
0.721832 0.604492 0.483795
0.747589 0.612854 0.471100
0.772675 0.619110 0.448425
0.796051 0.630920 0.447052
0.816345 0.642975 0.445160
0.830902 0.656677 0.458618
0.838776 0.670319 0.487091
0.848022 0.684845 0.517975
0.853912 0.696838 0.536682
0.835419 0.660034 0.479279
0.173492 0.435272 0.558624
0.168854 0.422180 0.546295
0.165070 0.410828 0.536102
0.162720 0.403381 0.529572
0.161377 0.398804 0.525879
0.160767 0.396484 0.524292
0.181061 0.420258 0.546082
0.195038 0.437592 0.561798
0.202881 0.451324 0.575653
0.205139 0.463989 0.590973
0.206421 0.476288 0.605347
0.208984 0.488556 0.618378
0.214874 0.501007 0.629303
0.232208 0.513733 0.636658
0.284821 0.527039 0.631470
0.335571 0.540588 0.626343
0.378998 0.554260 0.623932
0.418823 0.567963 0.621429
0.461823 0.583466 0.618195
0.499939 0.599670 0.613342
0.531677 0.622009 0.604401
0.579407 0.638641 0.560120
0.687469 0.617096 0.524078
0.721985 0.626587 0.520020
0.750885 0.636139 0.510834
0.776703 0.644257 0.495056
0.800415 0.651367 0.474670
0.821533 0.664001 0.473907
0.838287 0.677460 0.480652
0.846924 0.693298 0.512726
0.858582 0.710449 0.546783
0.866333 0.720947 0.572723
0.846039 0.680634 0.511993
0.183167 0.460510 0.583740
0.178436 0.447662 0.571716
0.174500 0.436615 0.561798
0.171967 0.429199 0.555237
0.170471 0.424561 0.551422
0.169708 0.422028 0.549683
0.181610 0.435608 0.562439
0.199677 0.456879 0.582062
0.210327 0.471497 0.596222
0.215027 0.484406 0.610504
0.215515 0.496735 0.625732
0.217224 0.508850 0.639008
0.220947 0.521271 0.651062
0.226654 0.533447 0.662537
0.271149 0.546326 0.660736
0.325562 0.559540 0.655487
0.374329 0.572876 0.651703
0.417480 0.586334 0.649414
0.455688 0.599579 0.647614
0.495819 0.614563 0.645569
0.532440 0.630219 0.641602
0.563873 0.652802 0.632690
0.615356 0.664917 0.584625
0.718475 0.647186 0.552551
0.751587 0.657471 0.548401
0.780273 0.667084 0.536621
0.806396 0.674652 0.516296
0.827301 0.683472 0.501648
0.845703 0.696716 0.502838
0.856049 0.714050 0.535767
0.868011 0.731903 0.572876
0.876556 0.742065 0.600555
0.855652 0.700104 0.541779
0.193115 0.485565 0.608612
0.188202 0.473022 0.596680
0.184174 0.462189 0.586853
0.181580 0.454926 0.580597
0.179962 0.450256 0.576630
0.179108 0.447571 0.574677
0.178864 0.446625 0.574097
0.202911 0.474701 0.600494
0.216125 0.491119 0.616119
0.223541 0.504578 0.630157
0.226715 0.516968 0.644470
0.227051 0.529236 0.658905
0.229523 0.541382 0.671661
0.234375 0.553497 0.683868
0.261139 0.565979 0.689056
0.312042 0.578766 0.685547
0.366241 0.591766 0.680328
0.413025 0.604919 0.677246
0.454071 0.618134 0.675873
0.489166 0.630981 0.675507
0.527557 0.645294 0.674286
0.564270 0.660431 0.670593
0.596466 0.683044 0.661163
0.651703 0.690735 0.609192
0.749237 0.677185 0.580719
0.782074 0.688019 0.575043
0.810516 0.697235 0.560120
0.834747 0.704254 0.536804
0.853302 0.715454 0.527863
0.864960 0.733307 0.559265
0.878021 0.751221 0.597565
0.886475 0.760742 0.624786
0.865112 0.718536 0.569244
0.202789 0.510010 0.634186
0.198212 0.497803 0.621521
0.194183 0.487549 0.611694
0.191498 0.480438 0.605469
0.189819 0.475830 0.601471
0.188873 0.473083 0.599365
0.188538 0.471985 0.598785
0.203308 0.489227 0.615387
0.220459 0.509491 0.634827
0.230743 0.523895 0.649567
0.236969 0.536804 0.663696
0.238434 0.549072 0.678253
0.239502 0.561249 0.692383
0.242523 0.573456 0.705292
0.254120 0.585724 0.715790
0.293396 0.598145 0.716949
0.354950 0.611084 0.709747
0.405334 0.623962 0.705933
0.448486 0.636810 0.704254
0.486298 0.649628 0.704407
0.520386 0.662079 0.704620
0.557617 0.675751 0.703857
0.596191 0.690430 0.699768
0.629944 0.712433 0.689545
0.689056 0.716003 0.633575
0.779999 0.706879 0.608673
0.812592 0.717926 0.600830
0.840820 0.726685 0.581787
0.859955 0.733734 0.556763
0.874878 0.752045 0.584564
0.887238 0.769104 0.622711
0.895813 0.778137 0.649170
0.874481 0.736359 0.595490
0.212677 0.533875 0.659729
0.207611 0.522339 0.647430
0.203949 0.512390 0.637207
0.201538 0.505524 0.630432
0.199921 0.501007 0.626190
0.198914 0.498260 0.623932
0.198578 0.497192 0.623260
0.198608 0.497162 0.623505
0.222412 0.525452 0.651337
0.235168 0.542267 0.668335
0.244141 0.555939 0.683014
0.249939 0.568573 0.697052
0.250763 0.580780 0.711945
0.251953 0.593109 0.725800
0.255768 0.605316 0.738800
0.275574 0.617462 0.746918
0.333649 0.630310 0.741821
0.390839 0.642944 0.736206
0.439636 0.655792 0.733215
0.480133 0.668457 0.732697
0.516266 0.681030 0.733826
0.549957 0.693176 0.734528
0.586884 0.706116 0.733887
0.627106 0.720276 0.729767
0.663422 0.741486 0.718475
0.725311 0.742188 0.656921
0.810791 0.736267 0.635742
0.843811 0.747437 0.624969
0.869324 0.756042 0.602173
0.883881 0.768890 0.607971
0.896545 0.786072 0.647339
0.905090 0.794891 0.673401
0.884064 0.753906 0.621063
0.223206 0.557190 0.685059
0.218292 0.546082 0.673248
0.214203 0.536713 0.663361
0.211426 0.530182 0.656586
0.209595 0.525848 0.652161
0.208557 0.523285 0.649567
0.208160 0.521973 0.648529
0.208282 0.522034 0.648865
0.219513 0.536041 0.663208
0.237610 0.558472 0.686005
0.248108 0.573639 0.702118
0.256500 0.586975 0.716461
0.261749 0.599609 0.730682
0.263611 0.611938 0.745117
0.265106 0.624237 0.759247
0.271484 0.636475 0.771820
0.304230 0.648834 0.775848
0.371948 0.661804 0.767548
0.426147 0.674500 0.763214
0.471893 0.687286 0.761353
0.509857 0.699738 0.762299
0.544769 0.712097 0.764099
0.578461 0.723999 0.765289
0.614960 0.736298 0.764526
0.657410 0.749969 0.760101
