cubelut/2-Strip-Process.cube
# Created by: Lutify.me
# Copyright: (c) Copyright Lutify.me 2016, G.T. Colord LTD
# Website: https://lutify.me
# Contact: help@lutify.me
LUT_3D_SIZE 5
0.000000 0.000000 0.000000
0.139526 0.055786 0.014252
0.325714 0.110016 0.000031
0.506775 0.175964 0.000031
0.644257 0.272766 0.000031
0.072083 0.148651 0.203003
0.191711 0.229889 0.224609
0.449066 0.253845 0.065582
0.561401 0.286896 0.000031
0.660828 0.344330 0.000031
0.130005 0.310455 0.422852
0.162201 0.354645 0.464691
0.418610 0.486389 0.442566
0.717773 0.517609 0.313873
0.789185 0.560181 0.309875
0.202789 0.510010 0.634186
0.220459 0.509491 0.634827
0.354950 0.611084 0.709747
0.689056 0.716003 0.633575
0.874481 0.736359 0.595490
0.439423 0.789642 0.891663
0.348450 0.753235 0.877136
0.687805 0.858917 0.897766
0.825562 0.897736 0.899353
0.984070 0.958282 0.922302
0.008362 0.036163 0.072693
0.197174 0.063110 0.013641
0.345398 0.099365 0.000031
0.477051 0.132355 0.000031
0.654877 0.239532 0.000031
0.075897 0.156036 0.213318
0.214966 0.239258 0.260620
0.459534 0.215851 0.060425
0.569092 0.220795 0.000031
0.671173 0.309387 0.000031
0.116150 0.286652 0.376434
0.175079 0.388489 0.505676
0.487946 0.470825 0.419647
0.705811 0.444946 0.154724
0.756226 0.487335 0.179901
0.180450 0.457520 0.574097
0.226288 0.543610 0.668549
0.264343 0.624268 0.758057
0.737488 0.705444 0.615875
0.850677 0.689636 0.526031
0.275696 0.669403 0.805115
0.528320 0.813202 0.896179
0.644714 0.846619 0.897095
0.761536 0.882843 0.901855
0.984955 0.960449 0.926331
0.042786 0.100861 0.174866
0.299225 0.144318 0.086578
0.453400 0.125336 0.000031
0.581940 0.163483 0.009857
0.691864 0.224365 0.006256
0.105591 0.192932 0.299988
0.181366 0.263519 0.365936
0.528351 0.242096 0.125000
0.598145 0.184021 0.000031
0.739960 0.370911 0.072601
0.136139 0.327484 0.443390
0.186707 0.392731 0.531860
0.484100 0.498322 0.516052
0.729675 0.504517 0.447021
0.809265 0.602661 0.382507
0.189331 0.483246 0.599213
0.208435 0.526276 0.649597
0.493591 0.669098 0.735565
0.772339 0.718140 0.648499
0.881378 0.748718 0.614105
0.434204 0.787537 0.891022
0.554626 0.821930 0.897430
0.698517 0.865051 0.900818
0.821625 0.904572 0.907562
0.987488 0.967346 0.938934
0.078369 0.169983 0.285370
0.387482 0.225220 0.196045
0.551819 0.224579 0.137482
0.667145 0.183990 0.067261
0.763489 0.317200 0.186646
0.131195 0.245911 0.387085
0.170837 0.292511 0.444794
0.553711 0.313019 0.285156
0.724915 0.243103 0.139496
0.788971 0.442352 0.289764
0.168427 0.389984 0.549591
0.213776 0.425812 0.636597
0.467255 0.532837 0.628326
0.797729 0.483856 0.468506
0.845795 0.649231 0.503174
0.213257 0.535187 0.661163
0.230438 0.559143 0.690247
0.495728 0.695465 0.779602
0.785675 0.746307 0.715240
0.913483 0.806244 0.699646
0.435883 0.788147 0.891327
0.558716 0.825806 0.900177
0.738770 0.880615 0.905182
0.881134 0.933990 0.923920
0.992035 0.980255 0.961456
0.114014 0.238403 0.394440
0.380585 0.300659 0.350861
0.539673 0.312531 0.317963
0.676666 0.310547 0.326355
0.835541 0.346283 0.411865
0.118195 0.252319 0.419250
0.165680 0.319458 0.513458
0.502472 0.400085 0.495087
0.666626 0.392517 0.447052
0.838226 0.406860 0.482697
0.187317 0.385071 0.602692
0.261475 0.437775 0.657379
0.445557 0.560364 0.730530
0.757385 0.549286 0.629974
0.887848 0.564667 0.613495
0.236176 0.551788 0.726959
0.275024 0.588989 0.811981
0.554047 0.688965 0.837463
0.794403 0.763000 0.865540
0.940643 0.798340 0.779572
0.730774 0.875488 0.902496
0.759125 0.884766 0.904083
0.834686 0.912079 0.911407
0.928955 0.953705 0.935303
1.000000 1.000000 1.000000
