cubelut/2-Strip-Process.cube
# Created by: Lutify.me
# Copyright: (c) Copyright Lutify.me 2016, G.T. Colord LTD
# Website: https://lutify.me
# Contact: help@lutify.me
LUT_3D_SIZE 9
0.000000 0.000000 0.000000
0.046051 0.031219 0.029602
0.139526 0.055786 0.014252
0.235077 0.081451 0.000031
0.325714 0.110016 0.000031
0.418060 0.140259 0.000031
0.506775 0.175964 0.000031
0.583313 0.219208 0.000031
0.644257 0.272766 0.000031
0.036041 0.073914 0.102020
0.084564 0.108978 0.117920
0.202240 0.136200 0.077698
0.305176 0.130646 0.000031
0.391693 0.156403 0.000031
0.474548 0.187134 0.000031
0.546051 0.225739 0.000031
0.602173 0.267761 0.000031
0.647430 0.302704 0.000031
0.072083 0.148651 0.203003
0.092804 0.171356 0.220123
0.191711 0.229889 0.224609
0.353149 0.236786 0.134888
0.449066 0.253845 0.065582
0.515717 0.255859 0.000031
0.561401 0.286896 0.000031
0.616241 0.329498 0.000031
0.660828 0.344330 0.000031
0.102203 0.224792 0.309509
0.118683 0.234131 0.315125
0.158478 0.288330 0.353455
0.290039 0.356445 0.339539
0.490295 0.355957 0.238678
0.588745 0.376556 0.169067
0.664337 0.398438 0.104095
0.709595 0.393372 0.002563
0.712769 0.392273 0.000031
0.130005 0.310455 0.422852
0.132629 0.293518 0.403503
0.162201 0.354645 0.464691
0.248322 0.410706 0.482513
0.418610 0.486389 0.442566
0.630157 0.480652 0.346008
0.717773 0.517609 0.313873
0.782166 0.545105 0.283173
0.789185 0.560181 0.309875
0.164093 0.409760 0.532806
0.153198 0.373322 0.499847
0.194885 0.431000 0.555084
0.214935 0.481293 0.605560
0.380310 0.536194 0.596161
0.545990 0.610779 0.536987
0.747589 0.612854 0.471100
0.830902 0.656677 0.458618
0.835419 0.660034 0.479279
0.202789 0.510010 0.634186
0.189819 0.475830 0.601471
0.220459 0.509491 0.634827
0.239502 0.561249 0.692383
0.354950 0.611084 0.709747
0.520386 0.662079 0.704620
0.689056 0.716003 0.633575
0.859955 0.733734 0.556763
0.874481 0.736359 0.595490
0.243988 0.602020 0.734467
0.231415 0.574310 0.704620
0.230347 0.571289 0.701965
0.274841 0.632477 0.766754
0.292084 0.684265 0.825043
0.478577 0.736298 0.823456
0.658722 0.791138 0.825806
0.844086 0.835022 0.774841
0.909851 0.802521 0.686554
0.439423 0.789642 0.891663
0.329315 0.735596 0.868042
0.348450 0.753235 0.877136
0.506531 0.805237 0.894684
0.687805 0.858917 0.897766
0.745392 0.876038 0.899200
0.825562 0.897736 0.899353
0.890411 0.921661 0.909088
0.984070 0.958282 0.922302
0.003021 0.014160 0.028900
0.074554 0.034882 0.028259
0.154572 0.048126 0.008362
0.227081 0.066620 0.000031
0.289490 0.079529 0.000031
0.377655 0.105042 0.000031
0.476257 0.143402 0.000031
0.569061 0.186462 0.000031
0.644836 0.254272 0.000031
0.038361 0.078430 0.107452
0.096954 0.116638 0.133759
0.198212 0.120697 0.069305
0.285858 0.101654 0.000031
0.363861 0.124908 0.000031
0.447418 0.153168 0.000031
0.527618 0.187958 0.000031
0.596680 0.231659 0.000031
0.653229 0.282806 0.000031
0.063873 0.139374 0.179718
0.099670 0.186798 0.244293
0.225311 0.234253 0.223755
0.363129 0.214111 0.098907
0.436066 0.172272 0.000031
0.504700 0.197937 0.000031
0.567291 0.231995 0.000031
0.618286 0.272186 0.000031
0.659912 0.311127 0.000031
0.091644 0.207092 0.272339
0.120605 0.250519 0.335541
0.138733 0.290558 0.378632
0.321198 0.361328 0.332703
0.501282 0.322113 0.157379
0.551117 0.283112 0.000031
0.588440 0.301727 0.000031
0.635986 0.334778 0.000031
0.673615 0.348328 0.000031
0.116333 0.281494 0.376221
0.131592 0.315247 0.428223
0.162994 0.353546 0.466705
0.186646 0.410736 0.523834
0.436188 0.486542 0.432861
0.638794 0.451660 0.267609
0.710022 0.437805 0.128113
0.727539 0.419708 0.047058
0.724976 0.413574 0.034363
0.148407 0.369049 0.483490
0.165344 0.413483 0.536438
0.166718 0.415344 0.540985
0.212799 0.483582 0.609039
0.305054 0.539185 0.638153
0.561371 0.604828 0.534882
0.771332 0.592010 0.414429
0.806702 0.597748 0.372925
0.791992 0.566162 0.320038
0.185028 0.467163 0.587128
0.203735 0.512756 0.636932
0.205078 0.515106 0.640259
0.230042 0.548431 0.675140
0.261780 0.612640 0.745972
0.465790 0.667694 0.737823
0.698486 0.713928 0.633911
0.865295 0.732117 0.561768
0.842468 0.673950 0.501617
0.226685 0.565613 0.693481
0.244965 0.604126 0.736664
0.246368 0.606873 0.739899
0.249878 0.614227 0.748169
0.287445 0.668304 0.805725
0.319580 0.731659 0.867065
0.659851 0.807678 0.847900
0.845856 0.835815 0.776825
0.892334 0.768280 0.642242
0.276917 0.671783 0.807739
0.468994 0.797211 0.893738
0.519806 0.810455 0.895966
0.576965 0.825897 0.894989
0.633392 0.842468 0.896179
0.688110 0.859375 0.898132
0.749939 0.878418 0.900482
0.853699 0.908691 0.903809
0.984375 0.958954 0.923553
0.008362 0.036163 0.072693
0.117249 0.064178 0.055023
0.197174 0.063110 0.013641
0.272949 0.078796 0.000031
0.345398 0.099365 0.000031
0.418854 0.118439 0.000031
0.477051 0.132355 0.000031
0.541962 0.154572 0.000031
0.654877 0.239532 0.000031
0.053467 0.100861 0.159363
0.081146 0.127441 0.184723
0.234070 0.127686 0.076202
0.279755 0.078918 0.000031
0.364716 0.106781 0.000031
0.446960 0.139282 0.000031
0.529999 0.176270 0.000031
0.602783 0.220764 0.000031
0.662170 0.280670 0.000031
0.075897 0.156036 0.213318
0.103333 0.185181 0.261230
0.214966 0.239258 0.260620
0.351288 0.249237 0.209106
0.459534 0.215851 0.060425
0.529419 0.203979 0.000031
0.569092 0.220795 0.000031
0.623627 0.264954 0.000031
0.671173 0.309387 0.000031
0.095001 0.217712 0.286163
0.102844 0.231537 0.314789
0.177582 0.310486 0.398346
0.355103 0.358643 0.346252
0.499451 0.343353 0.221436
0.585022 0.300629 0.040192
0.594208 0.289154 0.000031
0.638916 0.324615 0.000031
0.673615 0.345551 0.000031
0.116150 0.286652 0.376434
0.129456 0.314911 0.421936
0.175079 0.388489 0.505676
0.212860 0.422943 0.531555
0.487946 0.470825 0.419647
0.637146 0.461029 0.292480
0.705811 0.444946 0.154724
0.720612 0.403931 0.013367
0.756226 0.487335 0.179901
0.145752 0.366455 0.474579
0.163177 0.409943 0.529388
0.209045 0.471283 0.591705
0.215027 0.502594 0.629486
0.328766 0.547485 0.639496
0.608887 0.590393 0.518097
0.771484 0.598083 0.428680
0.809753 0.604065 0.384033
0.806946 0.598053 0.374146
0.180450 0.457520 0.574097
0.201721 0.508728 0.631653
0.226288 0.543610 0.668549
0.251770 0.580505 0.707886
0.264343 0.624268 0.758057
0.475616 0.673431 0.741455
0.737488 0.705444 0.615875
0.870636 0.736481 0.580353
0.850677 0.689636 0.526031
0.221100 0.554474 0.680237
0.243591 0.601501 0.733551
0.247345 0.609253 0.742279
0.267731 0.638550 0.773499
0.304108 0.691711 0.830505
0.330902 0.740143 0.871613
0.675537 0.812927 0.848785
0.859711 0.835358 0.776215
0.895813 0.774719 0.652344
0.275696 0.669403 0.805115
0.471222 0.798096 0.894104
0.528320 0.813202 0.896179
0.585907 0.829132 0.895691
0.644714 0.846619 0.897095
0.701874 0.864197 0.899170
0.761536 0.882843 0.901855
0.855255 0.911102 0.906036
0.984955 0.960449 0.926331
0.022186 0.066406 0.123566
0.162262 0.106110 0.097107
0.255157 0.089050 0.026459
0.326904 0.093353 0.000031
0.394684 0.111420 0.000031
0.467621 0.131409 0.000031
0.537292 0.150482 0.000031
0.587708 0.164764 0.000031
0.669678 0.224335 0.000275
0.064392 0.122772 0.195801
0.078857 0.142395 0.221954
0.246063 0.162170 0.135498
0.373291 0.127991 0.017365
0.405548 0.114105 0.000031
0.443573 0.121857 0.000031
0.523041 0.152130 0.000031
0.617401 0.203674 0.000031
0.675903 0.276276 0.000031
0.091888 0.174072 0.259857
0.110168 0.192657 0.294312
0.196960 0.250610 0.317535
0.375641 0.260376 0.244019
0.504333 0.196564 0.033936
0.523193 0.169281 0.000031
0.586395 0.205902 0.000031
0.642670 0.253754 0.000031
0.681610 0.309296 0.001434
0.105591 0.235992 0.325317
0.123322 0.247284 0.348663
0.184784 0.312042 0.425018
0.337311 0.366394 0.392426
0.489319 0.374359 0.339508
0.597382 0.366791 0.228424
0.645355 0.362823 0.110840
0.687164 0.365448 0.024963
0.739777 0.432190 0.098938
0.123535 0.304108 0.403046
0.130707 0.320129 0.426270
0.175049 0.379608 0.497070
0.324127 0.443726 0.529022
0.502441 0.481598 0.454987
0.630005 0.482880 0.351807
0.703278 0.487701 0.264221
0.751953 0.480804 0.169556
0.785248 0.551147 0.294525
0.150269 0.380493 0.488281
0.162659 0.411316 0.526794
0.191498 0.450928 0.570892
0.262787 0.528717 0.648895
0.399841 0.561798 0.634827
0.636047 0.594574 0.534668
0.765717 0.612854 0.467407
0.823547 0.635559 0.438324
0.827667 0.643768 0.452911
0.182709 0.465210 0.580231
0.200562 0.507507 0.628784
0.206573 0.521332 0.644928
0.258972 0.614288 0.747498
0.351807 0.643494 0.751648
0.515900 0.683167 0.739075
0.760834 0.708801 0.626556
0.875671 0.740662 0.603668
0.865173 0.718475 0.569336
0.222046 0.557220 0.682587
0.243500 0.601746 0.733459
0.248077 0.611053 0.743988
0.303711 0.690857 0.829834
0.308197 0.719360 0.860901
0.471954 0.758545 0.853210
0.708649 0.819214 0.844940
0.873505 0.836426 0.772980
0.904877 0.790985 0.676544
0.295624 0.698456 0.835388
0.477020 0.800140 0.894775
0.541626 0.817474 0.896698
0.607666 0.836121 0.896759
0.668457 0.854767 0.898743
0.730072 0.873779 0.901123
0.788544 0.892151 0.903900
0.865448 0.917786 0.910950
0.985962 0.963257 0.931396
0.042786 0.100861 0.174866
0.208099 0.144531 0.135376
0.299225 0.144318 0.086578
0.394684 0.108826 0.000031
0.453400 0.125336 0.000031
0.520935 0.143005 0.000610
0.581940 0.163483 0.009857
0.640228 0.181641 0.013489
0.691864 0.224365 0.006256
0.073517 0.144714 0.233948
0.080261 0.158020 0.255646
0.264679 0.187469 0.179291
0.381409 0.191071 0.124512
0.478851 0.133301 0.000031
0.530975 0.148438 0.000031
0.573914 0.160736 0.000031
0.604309 0.172638 0.000031
0.690918 0.262146 0.002716
0.105591 0.192932 0.299988
0.114014 0.207977 0.324463
0.181366 0.263519 0.365936
0.411865 0.262878 0.216827
0.528351 0.242096 0.125000
0.490021 0.134003 0.000031
0.598145 0.184021 0.000031
0.665527 0.239380 0.000031
0.739960 0.370911 0.072601
0.120789 0.255005 0.372406
0.143250 0.260620 0.389801
0.189362 0.317810 0.458923
0.326324 0.380035 0.448578
0.496338 0.382141 0.414978
0.625519 0.350159 0.181458
0.680328 0.350281 0.108734
0.708282 0.353546 0.021912
0.762360 0.498474 0.216187
0.136139 0.327484 0.443390
0.138916 0.325836 0.450928
0.186707 0.392731 0.531860
0.338318 0.450836 0.554871
0.484100 0.498322 0.516052
0.628784 0.500519 0.466034
0.729675 0.504517 0.447021
0.766449 0.543701 0.307983
0.809265 0.602661 0.382507
0.159454 0.403748 0.516815
0.166443 0.421417 0.537201
0.186096 0.447754 0.570251
0.226257 0.528931 0.665283
0.503815 0.582581 0.630035
0.646210 0.606323 0.563965
0.753784 0.626251 0.511719
0.811523 0.651276 0.495789
0.848389 0.684448 0.518585
0.189331 0.483246 0.599213
0.202271 0.513733 0.633850
0.208435 0.526276 0.649597
0.261932 0.611328 0.743286
0.493591 0.669098 0.735565
0.576660 0.698761 0.741455
0.772339 0.718140 0.648499
0.862396 0.747192 0.635193
0.881378 0.748718 0.614105
0.227509 0.569580 0.695648
0.246094 0.607697 0.739471
0.250610 0.616852 0.750000
0.303619 0.688660 0.826721
0.496338 0.749237 0.833527
0.620178 0.785706 0.835419
0.760895 0.828705 0.838806
0.884277 0.842010 0.787994
0.916534 0.812042 0.707886
0.434204 0.787537 0.891022
0.482971 0.802338 0.895508
0.554626 0.821930 0.897430
0.627869 0.843262 0.898346
0.698517 0.865051 0.900818
0.762970 0.885284 0.903625
0.821625 0.904572 0.907562
0.880219 0.927551 0.917999
0.987488 0.967346 0.938934
0.060577 0.135315 0.229889
0.257172 0.178711 0.174988
0.344269 0.187408 0.142975
0.431915 0.182861 0.094238
0.507599 0.143585 0.013580
0.560211 0.160767 0.023407
0.617706 0.177948 0.037201
0.676025 0.195374 0.047424
0.733490 0.289581 0.101929
0.080383 0.168091 0.277863
0.082397 0.173859 0.288910
0.296722 0.210815 0.212372
0.394897 0.228821 0.192566
0.511200 0.221771 0.132935
0.579590 0.166412 0.025787
0.632202 0.182220 0.025726
0.675323 0.191223 0.007233
0.738647 0.316864 0.084229
0.118591 0.217590 0.339355
0.117432 0.222687 0.353271
0.174072 0.277893 0.407440
0.433746 0.281097 0.281586
0.541687 0.285339 0.223206
0.622620 0.255951 0.138611
0.647247 0.179047 0.000031
0.701904 0.230591 0.009705
0.768799 0.425659 0.199524
0.137634 0.279724 0.422089
0.153076 0.279663 0.434265
0.206451 0.333710 0.490021
0.311401 0.394104 0.500671
0.499603 0.392853 0.480042
0.650574 0.367523 0.252991
0.715851 0.323853 0.127502
0.752747 0.382965 0.117157
0.786072 0.538269 0.308411
0.152039 0.355255 0.493896
0.163147 0.347046 0.501526
0.200409 0.404816 0.576050
0.326172 0.458679 0.601654
0.478058 0.516571 0.571655
0.638702 0.503632 0.534271
0.745605 0.510010 0.387268
0.783478 0.555634 0.309052
0.824829 0.637695 0.442902
0.172485 0.432404 0.555878
0.174408 0.434692 0.562531
0.216064 0.485291 0.618073
0.255493 0.546265 0.693665
0.518005 0.593597 0.656555
0.645996 0.624268 0.611816
0.753387 0.631714 0.589081
0.830170 0.646423 0.588928
0.864288 0.716431 0.566803
0.199738 0.507416 0.626953
0.206970 0.524994 0.646301
0.212799 0.535400 0.660126
0.269043 0.615204 0.747711
0.471985 0.676208 0.754578
0.668640 0.716553 0.734589
0.781006 0.730652 0.677338
0.855835 0.756439 0.663147
0.897766 0.778046 0.657715
0.236145 0.587860 0.716187
0.250519 0.617401 0.749786
0.255127 0.626678 0.760406
0.300385 0.688477 0.826569
0.481354 0.755676 0.847229
0.694824 0.803284 0.833252
0.787445 0.834473 0.838623
0.891296 0.848999 0.800262
0.929962 0.836151 0.743530
0.433807 0.787292 0.890991
0.483795 0.803467 0.896057
0.563263 0.825439 0.898438
0.644073 0.849487 0.900116
0.723816 0.874268 0.903076
0.797852 0.897705 0.906647
0.853516 0.919495 0.914886
0.899902 0.939331 0.926636
0.989410 0.972992 0.948700
0.078369 0.169983 0.285370
0.306030 0.211548 0.213287
0.387482 0.225220 0.196045
0.469513 0.230896 0.171082
0.551819 0.224579 0.137482
0.611267 0.172089 0.054871
0.667145 0.183990 0.067261
0.724792 0.198120 0.080658
0.763489 0.317200 0.186646
0.088257 0.191132 0.319763
0.085205 0.189606 0.320923
0.272156 0.255981 0.315186
0.420349 0.255127 0.240082
0.529663 0.263489 0.218262
0.625854 0.254547 0.183624
0.682587 0.187256 0.070557
0.723816 0.206818 0.066986
0.760986 0.353882 0.191101
0.131195 0.245911 0.387085
0.120087 0.237305 0.383179
0.170837 0.292511 0.444794
0.386169 0.318573 0.407288
0.553711 0.313019 0.285156
0.664124 0.299500 0.254486
0.724915 0.243103 0.139496
0.763916 0.307404 0.180298
0.788971 0.442352 0.289764
0.153290 0.312103 0.477875
0.157288 0.300232 0.476349
0.215546 0.351746 0.520538
0.301361 0.408783 0.548401
0.502655 0.414154 0.530151
0.690826 0.383118 0.344177
0.765808 0.363007 0.284637
0.783905 0.422028 0.274902
0.817841 0.546143 0.393707
0.168427 0.389984 0.549591
0.190735 0.384827 0.567505
0.213776 0.425812 0.636597
0.334320 0.474091 0.645660
0.467255 0.532837 0.628326
0.644348 0.519745 0.605194
0.797729 0.483856 0.468506
0.790680 0.574066 0.374146
0.845795 0.649231 0.503174
0.188477 0.465759 0.602844
0.187164 0.451874 0.605774
0.237000 0.514465 0.670593
0.263489 0.563385 0.739044
0.502075 0.604706 0.709229
0.655945 0.630737 0.687866
0.774139 0.629852 0.649780
0.830261 0.682190 0.546204
0.875427 0.736725 0.602051
0.213257 0.535187 0.661163
0.215363 0.538422 0.666077
0.230438 0.559143 0.690247
0.276855 0.639526 0.781433
0.495728 0.695465 0.779602
0.682617 0.729034 0.759644
0.785675 0.746307 0.715240
0.865753 0.763855 0.720184
0.913483 0.806244 0.699646
0.246216 0.608612 0.739838
0.254944 0.627014 0.760101
0.259247 0.635651 0.769745
0.294708 0.685303 0.822906
0.549286 0.781006 0.854370
0.708252 0.817169 0.846558
0.827637 0.845367 0.842010
0.899292 0.857635 0.815125
0.943817 0.864960 0.786438
0.435883 0.788147 0.891327
0.472382 0.802063 0.895966
0.558716 0.825806 0.900177
0.648407 0.852356 0.901794
0.738770 0.880615 0.905182
0.822754 0.908325 0.910278
0.881134 0.933990 0.923920
0.930542 0.952820 0.934723
0.992035 0.980255 0.961456
0.096100 0.204193 0.339935
0.344513 0.246552 0.261597
0.427551 0.255859 0.244171
0.507294 0.264984 0.233490
0.588959 0.267731 0.221313
0.662811 0.262390 0.214203
0.737854 0.212891 0.162140
0.779144 0.176971 0.115753
0.817810 0.321198 0.248199
0.094971 0.210602 0.355194
0.089203 0.204895 0.350555
0.225586 0.299896 0.397827
0.445099 0.283417 0.286652
0.532379 0.298615 0.285675
0.639069 0.296906 0.277283
0.733124 0.277039 0.261017
0.781281 0.176086 0.119019
0.806335 0.358276 0.268616
0.138336 0.271057 0.434570
0.123413 0.252197 0.412933
0.168701 0.306641 0.479858
0.301788 0.382843 0.499969
0.564362 0.340576 0.342010
0.662933 0.339447 0.336670
0.752197 0.314667 0.338074
0.839691 0.281006 0.258453
0.839844 0.419189 0.349365
0.166870 0.343933 0.532623
0.161041 0.316162 0.507843
0.225830 0.367950 0.545532
0.293457 0.423737 0.594940
0.465942 0.446014 0.649963
0.700409 0.407806 0.410950
0.774200 0.388367 0.423492
0.865051 0.384888 0.377991
0.866211 0.508148 0.452271
0.184814 0.425385 0.608612
0.205139 0.404510 0.613647
0.219879 0.441010 0.689148
0.338165 0.492218 0.684113
0.459808 0.546814 0.686646
0.659973 0.524475 0.651031
0.764648 0.507355 0.562256
0.832947 0.550232 0.484894
0.878784 0.620178 0.561920
0.206726 0.501678 0.655487
0.227631 0.502747 0.684601
0.254608 0.542114 0.734680
0.312469 0.581299 0.787476
0.502838 0.617920 0.759277
0.649567 0.641327 0.771851
0.783112 0.649445 0.723633
0.859467 0.656799 0.619049
0.898560 0.729858 0.658691
0.230591 0.565643 0.702026
0.229767 0.558502 0.704376
0.273926 0.615936 0.764587
0.290863 0.664459 0.823486
0.538910 0.710205 0.805176
0.675812 0.738007 0.804077
0.801239 0.752838 0.781708
0.885223 0.763123 0.776306
0.931091 0.823761 0.754486
0.256409 0.628876 0.763245
0.258087 0.632019 0.766937
0.262268 0.640137 0.776123
0.324280 0.734467 0.869232
0.665283 0.807495 0.852234
0.782349 0.834747 0.850555
0.851715 0.856720 0.856476
0.905426 0.870392 0.840637
0.960846 0.898651 0.840515
0.452423 0.794891 0.893799
0.466309 0.800720 0.895691
0.540588 0.823364 0.902985
0.633820 0.850311 0.903687
0.730743 0.880554 0.907166
0.826782 0.912567 0.912933
0.898102 0.943909 0.929962
0.956696 0.960815 0.938690
0.995483 0.989258 0.978210
0.114014 0.238403 0.394440
0.220184 0.306427 0.417297
0.380585 0.300659 0.350861
0.478088 0.300171 0.310547
0.539673 0.312531 0.317963
0.609528 0.315002 0.316803
0.676666 0.310547 0.326355
0.738770 0.299072 0.337402
0.835541 0.346283 0.411865
0.082947 0.203888 0.355896
0.124939 0.259186 0.427734
0.219391 0.329895 0.471130
0.319946 0.364685 0.479340
0.505585 0.334717 0.359955
0.568665 0.342224 0.364380
0.641693 0.340088 0.365265
0.705994 0.328217 0.376923
0.835480 0.364349 0.434387
0.118195 0.252319 0.419250
0.123199 0.261505 0.434998
0.165680 0.319458 0.513458
0.304474 0.413818 0.571075
0.502472 0.400085 0.495087
0.611877 0.394165 0.437744
0.666626 0.392517 0.447052
0.709595 0.370789 0.453430
0.838226 0.406860 0.482697
0.150818 0.305603 0.496674
0.171082 0.318054 0.501129
0.228088 0.374756 0.559631
0.282837 0.434906 0.636719
0.563995 0.442383 0.634277
0.661743 0.464569 0.523285
0.705078 0.464172 0.538574
0.727814 0.430267 0.543457
0.855286 0.473969 0.546570
0.187317 0.385071 0.602692
0.190643 0.377502 0.607971
0.261475 0.437775 0.657379
0.354065 0.498535 0.682983
0.445557 0.560364 0.730530
0.715210 0.548065 0.669373
0.757385 0.549286 0.629974
0.785736 0.538452 0.633240
0.887848 0.564667 0.613495
0.212250 0.472565 0.688660
0.231262 0.453430 0.691315
0.254211 0.504333 0.777161
0.385681 0.564209 0.783997
0.497620 0.621490 0.779480
0.637207 0.661438 0.820435
0.816742 0.664948 0.729462
0.854370 0.660736 0.712738
0.929199 0.672302 0.685272
0.236176 0.551788 0.726959
0.257843 0.541138 0.746643
0.275024 0.588989 0.811981
0.403168 0.640900 0.839020
0.554047 0.688965 0.837463
0.671722 0.739655 0.826965
0.794403 0.763000 0.865540
0.916718 0.773651 0.787354
0.940643 0.798340 0.779572
0.273346 0.632355 0.779175
0.278534 0.622559 0.782166
0.299591 0.664246 0.829041
0.412842 0.712067 0.850250
0.583893 0.759491 0.853180
0.724426 0.802307 0.868774
0.829651 0.849365 0.875702
0.921143 0.878571 0.894806
0.969086 0.904388 0.871338
0.730774 0.875488 0.902496
0.738892 0.878204 0.902954
0.759125 0.884766 0.904083
0.792938 0.895935 0.906158
0.834686 0.912079 0.911407
0.878082 0.932373 0.922882
0.928955 0.953705 0.935303
0.976929 0.966919 0.942078
1.000000 1.000000 1.000000
