cubelut/Adanmq_AgfaColor Futura 200.cube
TITLE "Generated by Foundry::LUT"
LUT_3D_SIZE 32
0.000000 0.000000 0.000000
0.042084 0.000000 0.000000
0.093628 0.000000 0.000000
0.147095 0.000000 0.000000
0.202637 0.000000 0.000000
0.254395 0.000000 0.000000
0.302002 0.000000 0.000000
0.345947 0.000000 0.000000
0.386719 0.000000 0.000000
0.425293 0.000000 0.000000
0.461914 0.000000 0.000000
0.496826 0.000000 0.000000
0.530273 0.000000 0.000000
0.562012 0.000000 0.000000
0.592773 0.000000 0.000000
0.622559 0.000000 0.000000
0.651367 0.000000 0.000000
0.679199 0.000000 0.000000
0.706055 0.000000 0.000000
0.732422 0.000000 0.000000
0.757813 0.000000 0.000000
0.782715 0.000000 0.000000
0.807129 0.000000 0.000000
0.831055 0.000000 0.000000
0.854492 0.000000 0.000000
0.877441 0.000000 0.000000
0.899902 0.000000 0.000000
0.921387 0.000000 0.000000
0.942383 0.000000 0.000000
0.962891 0.000000 0.000000
0.981934 0.000000 0.000000
1.000000 0.000000 0.000000
0.000000 0.043488 0.000000
0.042084 0.043488 0.000000
0.093628 0.043488 0.000000
0.147095 0.043488 0.000000
0.202637 0.043488 0.000000
0.254395 0.043488 0.000000
0.302002 0.043488 0.000000
0.345947 0.043488 0.000000
0.386719 0.043488 0.000000
0.425293 0.043488 0.000000
0.461914 0.043488 0.000000
0.496826 0.043488 0.000000
0.530273 0.043488 0.000000
0.562012 0.043488 0.000000
0.592773 0.043488 0.000000
0.622559 0.043488 0.000000
0.651367 0.043488 0.000000
0.679199 0.043488 0.000000
0.706055 0.043488 0.000000
0.732422 0.043488 0.000000
0.757813 0.043488 0.000000
0.782715 0.043488 0.000000
0.807129 0.043518 0.000000
0.831055 0.043518 0.000000
0.854492 0.043518 0.000000
0.877441 0.043518 0.000000
0.899902 0.043518 0.000000
0.921387 0.043518 0.000000
0.942383 0.043518 0.000000
0.962891 0.043518 0.000000
0.981934 0.043518 0.000000
1.000000 0.043518 0.000000
0.000000 0.097473 0.000000
0.042084 0.097473 0.000000
0.093628 0.097473 0.000000
0.147095 0.097473 0.000000
0.202637 0.097473 0.000000
0.254395 0.097473 0.000000
0.302002 0.097473 0.000000
0.345947 0.097473 0.000000
0.386719 0.097473 0.000000
0.425293 0.097473 0.000000
0.461914 0.097473 0.000000
0.496826 0.097473 0.000000
0.530273 0.097473 0.000000
0.562012 0.097473 0.000000
0.592773 0.097473 0.000000
0.622559 0.097473 0.000000
0.651367 0.097473 0.000000
0.679199 0.097473 0.000000
0.706055 0.097473 0.000000
0.732422 0.097473 0.000000
0.757813 0.097473 0.000000
0.782715 0.097473 0.000000
0.807129 0.097473 0.000000
0.831055 0.097473 0.000000
0.854492 0.097473 0.000000
0.877441 0.097473 0.000000
0.899902 0.097473 0.000000
0.921387 0.097473 0.000000
0.942383 0.097473 0.000000
0.962891 0.097473 0.000000
0.981934 0.097473 0.000000
1.000000 0.097473 0.000000
0.000000 0.151855 0.000000
0.042084 0.151855 0.000000
0.093628 0.151855 0.000000
0.147095 0.151855 0.000000
0.202637 0.151855 0.000000
0.254395 0.151855 0.000000
0.302002 0.151855 0.000000
0.345947 0.151855 0.000000
0.386719 0.151855 0.000000
0.425293 0.151855 0.000000
0.461914 0.151855 0.000000
0.496826 0.151855 0.000000
0.530273 0.151855 0.000000
0.562012 0.151855 0.000000
0.592773 0.151855 0.000000
0.622559 0.151855 0.000000
0.651367 0.151855 0.000000
0.679199 0.151855 0.000000
0.706055 0.151855 0.000000
0.732422 0.151855 0.000000
0.757813 0.151855 0.000000
0.782715 0.151855 0.000000
0.807129 0.151855 0.000000
0.831055 0.151855 0.000000
0.854492 0.151855 0.000000
0.877441 0.151855 0.000000
0.899902 0.151855 0.000000
0.921387 0.151855 0.000000
0.942383 0.151855 0.000000
0.962891 0.151855 0.000000
0.981934 0.151855 0.000000
1.000000 0.151855 0.000000
0.000000 0.205566 0.000000
0.042084 0.205566 0.000000
0.093628 0.205566 0.000000
0.147095 0.205566 0.000000
0.202637 0.205566 0.000000
0.254395 0.205566 0.000000
0.302002 0.205566 0.000000
0.345947 0.205566 0.000000
0.386719 0.205566 0.000000
0.425293 0.205566 0.000000
0.461914 0.205566 0.000000
0.496826 0.205566 0.000000
0.530273 0.205566 0.000000
0.562012 0.205566 0.000000
0.592773 0.205566 0.000000
0.622559 0.205566 0.000000
0.651367 0.205566 0.000000
0.679199 0.205566 0.000000
0.706055 0.205566 0.000000
0.732422 0.205566 0.000000
0.757813 0.205566 0.000000
0.782715 0.205566 0.000000
0.807129 0.205566 0.000000
0.831055 0.205566 0.000000
0.854492 0.205566 0.000000
0.877441 0.205566 0.000000
0.899902 0.205566 0.000000
0.921387 0.205566 0.000000
0.942383 0.205566 0.000000
0.962891 0.205566 0.000000
0.981934 0.205566 0.000000
1.000000 0.205566 0.000000
0.000000 0.257080 0.000000
0.042084 0.257080 0.000000
0.093628 0.257080 0.000000
0.147095 0.257080 0.000000
0.202637 0.257080 0.000000
0.254395 0.257080 0.000000
0.302002 0.257080 0.000000
0.345947 0.257080 0.000000
0.386719 0.257080 0.000000
0.425293 0.257080 0.000000
0.461914 0.257080 0.000000
0.496826 0.257080 0.000000
0.530273 0.257080 0.000000
0.562012 0.257080 0.000000
0.592773 0.257080 0.000000
0.622559 0.257080 0.000000
0.651367 0.257080 0.000000
0.679199 0.257080 0.000000
0.706055 0.257080 0.000000
0.732422 0.257080 0.000000
0.757813 0.257080 0.000000
0.782715 0.257080 0.000000
0.807129 0.257080 0.000000
0.831055 0.257080 0.000000
0.854492 0.257080 0.000000
0.877441 0.257080 0.000000
0.899902 0.257080 0.000000
0.921387 0.257080 0.000000
0.942383 0.257080 0.000000
0.962891 0.257080 0.000000
0.981934 0.257080 0.000000
1.000000 0.257080 0.000000
0.000000 0.305908 0.000000
0.042084 0.305908 0.000000
0.093628 0.305908 0.000000
0.147095 0.305908 0.000000
0.202637 0.305908 0.000000
0.254395 0.305908 0.000000
0.302002 0.305908 0.000000
0.345947 0.305908 0.000000
0.386719 0.305908 0.000000
0.425293 0.305908 0.000000
0.461914 0.305908 0.000000
0.496826 0.305908 0.000000
0.530273 0.305908 0.000000
0.562012 0.305908 0.000000
0.592773 0.305908 0.000000
0.622559 0.305908 0.000000
0.651367 0.305908 0.000000
0.679199 0.305908 0.000000
0.706055 0.305908 0.000000
0.732422 0.305908 0.000000
0.757813 0.305908 0.000000
0.782715 0.305908 0.000000
0.807129 0.305908 0.000000
0.831055 0.305908 0.000000
0.854492 0.305908 0.000000
0.877441 0.305908 0.000000
0.899902 0.305908 0.000000
0.921387 0.305908 0.000000
0.942383 0.305908 0.000000
0.962891 0.305908 0.000000
0.981934 0.305908 0.000000
1.000000 0.305908 0.000000
0.000000 0.351807 0.000000
0.042084 0.351807 0.000000
0.093628 0.351807 0.000000
0.147095 0.351807 0.000000
0.202637 0.351807 0.000000
0.254395 0.351807 0.000000
0.302002 0.351807 0.000000
0.345947 0.351807 0.000000
0.386719 0.351807 0.000000
0.425293 0.351807 0.000000
0.461914 0.351807 0.000000
0.496826 0.351807 0.000000
0.530273 0.351807 0.000000
0.562012 0.351807 0.000000
0.592773 0.351807 0.000000
0.622559 0.351807 0.000000
0.651367 0.351807 0.000000
0.679199 0.351807 0.000000
0.706055 0.351807 0.000000
0.732422 0.351807 0.000000
0.757813 0.351807 0.000000
0.782715 0.351807 0.000000
0.807129 0.351807 0.000000
0.831055 0.351807 0.000000
0.854492 0.351807 0.000000
0.877441 0.351807 0.000000
0.899902 0.351807 0.000000
0.921387 0.351807 0.000000
0.942383 0.351807 0.000000
0.962891 0.351807 0.000000
0.981934 0.351807 0.000000
1.000000 0.351807 0.000000
0.000000 0.395020 0.000000
0.042084 0.395020 0.000000
0.093628 0.395020 0.000000
0.147095 0.395020 0.000000
0.202637 0.395020 0.000000
0.254395 0.395020 0.000000
0.302002 0.395020 0.000000
0.345947 0.395020 0.000000
0.386719 0.395020 0.000000
0.425293 0.395020 0.000000
0.461914 0.395020 0.000000
0.496826 0.395020 0.000000
0.530273 0.395020 0.000000
0.562012 0.395020 0.000000
0.592773 0.395020 0.000000
0.622559 0.395020 0.000000
0.651367 0.395020 0.000000
0.679199 0.395020 0.000000
0.706055 0.395020 0.000000
0.732422 0.395020 0.000000
0.757813 0.395020 0.000000
0.782715 0.395020 0.000000
0.807129 0.395020 0.000000
0.831055 0.395020 0.000000
0.854492 0.395020 0.000000
0.877441 0.395020 0.000000
0.899902 0.395020 0.000000
0.921387 0.395020 0.000000
0.942383 0.395020 0.000000
0.962891 0.395020 0.000000
0.981934 0.395020 0.000000
1.000000 0.395020 0.000000
0.000000 0.435791 0.000000
0.042084 0.435791 0.000000
0.093628 0.435791 0.000000
0.147095 0.435791 0.000000
0.202637 0.435791 0.000000
0.254395 0.435791 0.000000
0.302002 0.435791 0.000000
0.345947 0.435791 0.000000
0.386719 0.435791 0.000000
0.425293 0.435791 0.000000
0.461914 0.435791 0.000000
0.496826 0.435791 0.000000
0.530273 0.435791 0.000000
0.562012 0.435791 0.000000
0.592773 0.435791 0.000000
0.622559 0.435791 0.000000
0.651367 0.435791 0.000000
0.679199 0.435791 0.000000
0.706055 0.435791 0.000000
0.732422 0.435791 0.000000
0.757813 0.435791 0.000000
0.782715 0.435791 0.000000
0.807129 0.435791 0.000000
0.831055 0.435791 0.000000
0.854492 0.435791 0.000000
0.877441 0.435791 0.000000
0.899902 0.435791 0.000000
0.921387 0.435791 0.000000
0.942383 0.435791 0.000000
0.962891 0.435791 0.000000
0.981934 0.435791 0.000000
1.000000 0.435791 0.000000
0.000000 0.474121 0.000000
0.042084 0.474121 0.000000
0.093628 0.474121 0.000000
0.147095 0.474121 0.000000
0.202637 0.474121 0.000000
0.254395 0.474121 0.000000
0.302002 0.474121 0.000000
0.345947 0.474121 0.000000
0.386719 0.474121 0.000000
0.425293 0.474121 0.000000
0.461914 0.474121 0.000000
0.496826 0.474121 0.000000
0.530273 0.474121 0.000000
0.562012 0.474121 0.000000
0.592773 0.474121 0.000000
0.622559 0.474121 0.000000
0.651367 0.474121 0.000000
0.679199 0.474121 0.000000
0.706055 0.474121 0.000000
0.732422 0.474121 0.000000
0.757813 0.474121 0.000000
0.782715 0.474121 0.000000
0.807129 0.474121 0.000000
0.831055 0.474121 0.000000
0.854492 0.474121 0.000000
0.877441 0.474121 0.000000
0.899902 0.474121 0.000000
0.921387 0.474121 0.000000
0.942383 0.474121 0.000000
0.962891 0.474121 0.000000
0.981934 0.474121 0.000000
1.000000 0.474121 0.000000
0.000000 0.509766 0.000000
0.042084 0.509766 0.000000
0.093628 0.509766 0.000000
0.147095 0.509766 0.000000
0.202637 0.509766 0.000000
0.254395 0.509766 0.000000
0.302002 0.509766 0.000000
0.345947 0.509766 0.000000
0.386719 0.509766 0.000000
0.425293 0.509766 0.000000
0.461914 0.510254 0.000000
0.496826 0.510254 0.000000
0.530273 0.510254 0.000000
0.562012 0.510254 0.000000
0.592773 0.510254 0.000000
0.622559 0.510254 0.000000
0.651367 0.510254 0.000000
0.679199 0.510254 0.000000
0.706055 0.510254 0.000000
0.732422 0.510254 0.000000
0.757813 0.510254 0.000000
0.782715 0.510254 0.000000
0.807129 0.510254 0.000000
0.831055 0.510254 0.000000
0.854492 0.510254 0.000000
0.877441 0.510254 0.000000
0.899902 0.510254 0.000000
0.921387 0.510254 0.000000
0.942383 0.510254 0.000000
0.962891 0.510254 0.000000
0.981934 0.510254 0.000000
1.000000 0.510254 0.000000
0.000000 0.544434 0.000000
0.042084 0.544434 0.000000
0.093628 0.544434 0.000000
0.147095 0.544434 0.000000
0.202637 0.544434 0.000000
0.254395 0.544434 0.000000
0.302002 0.544434 0.000000
0.345947 0.544434 0.000000
0.386719 0.544434 0.000000
0.425293 0.544434 0.000000
0.461914 0.544434 0.000000
0.496826 0.544434 0.000000
0.530273 0.544434 0.000000
0.562012 0.544434 0.000000
0.592773 0.544434 0.000000
0.622559 0.544434 0.000000
0.651367 0.544434 0.000000
0.679199 0.544434 0.000000
0.706055 0.544434 0.000000
0.732422 0.544434 0.000000
0.757813 0.544434 0.000000
0.782715 0.544434 0.000000
0.807129 0.544434 0.000000
0.831055 0.544434 0.000000
0.854492 0.544434 0.000000
0.877441 0.544434 0.000000
0.899902 0.544434 0.000000
0.921387 0.544434 0.000000
0.942383 0.544434 0.000000
0.962891 0.544434 0.000000
0.981934 0.544434 0.000000
1.000000 0.544434 0.000000
0.000000 0.576660 0.000000
0.042084 0.576660 0.000000
0.093628 0.576660 0.000000
0.147095 0.576660 0.000000
0.202637 0.576660 0.000000
0.254395 0.576660 0.000000
0.302002 0.576660 0.000000
0.345947 0.576660 0.000000
0.386719 0.577148 0.000000
0.425293 0.577148 0.000000
0.461914 0.577148 0.000000
0.496826 0.577148 0.000000
0.530273 0.577148 0.000000
0.562012 0.577148 0.000000
0.592773 0.577148 0.000000
0.622559 0.577148 0.000000
0.651367 0.577148 0.000000
0.679199 0.577148 0.000000
0.706055 0.577148 0.000000
0.732422 0.577148 0.000000
0.757813 0.577148 0.000000
0.782715 0.577148 0.000000
0.807129 0.577148 0.000000
0.831055 0.577148 0.000000
0.854492 0.577148 0.000000
0.877441 0.577148 0.000000
0.899902 0.577148 0.000000
0.921387 0.577148 0.000000
0.942383 0.577148 0.000000
0.962891 0.577148 0.000000
0.981934 0.577148 0.000000
1.000000 0.577148 0.000000
0.000000 0.607910 0.000000
0.042084 0.607910 0.000000
0.093628 0.607910 0.000000
0.147095 0.607910 0.000000
0.202637 0.607910 0.000000
0.254395 0.607910 0.000000
0.302002 0.607910 0.000000
0.345947 0.607910 0.000000
0.386719 0.607910 0.000000
0.425293 0.607910 0.000000
0.461914 0.607910 0.000000
0.496826 0.607910 0.000000
0.530273 0.607910 0.000000
0.562012 0.607910 0.000000
0.592773 0.607910 0.000000
0.622559 0.607910 0.000000
0.651367 0.607910 0.000000
0.679199 0.607910 0.000000
0.706055 0.607910 0.000000
0.732422 0.607910 0.000000
0.757813 0.607910 0.000000
0.782715 0.607910 0.000000
0.807129 0.607910 0.000000
0.831055 0.607910 0.000000
0.854492 0.607910 0.000000
0.877441 0.607910 0.000000
0.899902 0.607910 0.000000
0.921387 0.607910 0.000000
0.942383 0.607910 0.000000
0.962891 0.607910 0.000000
0.981934 0.607910 0.000000
1.000000 0.607910 0.000000
0.000000 0.637207 0.000000
0.042084 0.637207 0.000000
0.093628 0.637207 0.000000
0.147095 0.637207 0.000000
0.202637 0.637207 0.000000
0.254395 0.637207 0.000000
0.302002 0.637207 0.000000
0.345947 0.637207 0.000000
0.386719 0.637207 0.000000
0.425293 0.637207 0.000000
0.461914 0.637207 0.000000
0.496826 0.637207 0.000000
0.530273 0.637207 0.000000
0.562012 0.637207 0.000000
0.592773 0.637207 0.000000
0.622559 0.637207 0.000000
0.651367 0.637207 0.000000
0.679199 0.637207 0.000000
0.706055 0.637207 0.000000
0.732422 0.637207 0.000000
0.757813 0.637207 0.000000
0.782715 0.637207 0.000000
0.807129 0.637207 0.000000
0.831055 0.637207 0.000000
0.854492 0.637207 0.000000
0.877441 0.637207 0.000000
0.899902 0.637207 0.000000
0.921387 0.637207 0.000000
0.942383 0.637207 0.000000
0.962891 0.637207 0.000000
0.981934 0.637207 0.000000
1.000000 0.637207 0.000000
0.000000 0.665527 0.000000
0.042084 0.665527 0.000000
0.093628 0.665527 0.000000
0.147095 0.665527 0.000000
0.202637 0.665527 0.000000
0.254395 0.665527 0.000000
0.302002 0.665527 0.000000
0.345947 0.665527 0.000000
0.386719 0.665527 0.000000
0.425293 0.665527 0.000000
0.461914 0.665527 0.000000
0.496826 0.665527 0.000000
0.530273 0.665527 0.000000
0.562012 0.665527 0.000000
0.592773 0.665527 0.000000
0.622559 0.665527 0.000000
0.651367 0.665527 0.000000
0.679199 0.665527 0.000000
0.706055 0.665527 0.000000
0.732422 0.665527 0.000000
0.757813 0.665527 0.000000
0.782715 0.665527 0.000000
0.807129 0.665527 0.000000
0.831055 0.665527 0.000000
0.854492 0.665527 0.000000
0.877441 0.665527 0.000000
0.899902 0.665527 0.000000
0.921387 0.665527 0.000000
0.942383 0.665527 0.000000
0.962891 0.665527 0.000000
0.981934 0.665527 0.000000
1.000000 0.665527 0.000000
0.000000 0.692383 0.000000
0.042084 0.692383 0.000000
0.093628 0.692383 0.000000
0.147095 0.692383 0.000000
0.202637 0.692383 0.000000
0.254395 0.692383 0.000000
0.302002 0.692383 0.000000
0.345947 0.692383 0.000000
0.386719 0.692383 0.000000
0.425293 0.692383 0.000000
0.461914 0.692383 0.000000
0.496826 0.692383 0.000000
0.530273 0.692383 0.000000
0.562012 0.692383 0.000000
0.592773 0.692383 0.000000
0.622559 0.692383 0.000000
0.651367 0.692383 0.000000
0.679199 0.692383 0.000000
0.706055 0.692383 0.000000
0.732422 0.692383 0.000000
0.757813 0.692383 0.000000
0.782715 0.692383 0.000000
0.807129 0.692383 0.000000
0.831055 0.692383 0.000000
0.854492 0.692383 0.000000
0.877441 0.692383 0.000000
0.899902 0.692383 0.000000
0.921387 0.692383 0.000000
0.942383 0.692383 0.000000
0.962891 0.692383 0.000000
0.981934 0.692383 0.000000
1.000000 0.692383 0.000000
0.000000 0.718262 0.000000
0.042084 0.718262 0.000000
0.093628 0.718262 0.000000
0.147095 0.718262 0.000000
0.202637 0.718262 0.000000
0.254395 0.718262 0.000000
0.302002 0.718262 0.000000
0.345947 0.718262 0.000000
0.386719 0.718262 0.000000
0.425293 0.718262 0.000000
0.461914 0.718262 0.000000
0.496826 0.718262 0.000000
0.530273 0.718262 0.000000
0.562012 0.718262 0.000000
0.592773 0.718262 0.000000
0.622559 0.718262 0.000000
0.651367 0.718262 0.000000
0.679199 0.718262 0.000000
0.706055 0.718262 0.000000
0.732422 0.718262 0.000000
0.757813 0.718262 0.000000
0.782715 0.718262 0.000000
0.807129 0.718262 0.000000
0.831055 0.718262 0.000000
0.854492 0.718262 0.000000
0.877441 0.718262 0.000000
0.899902 0.718262 0.000000
0.921387 0.718262 0.000000
0.942383 0.718262 0.000000
0.962891 0.718262 0.000000
0.981934 0.718262 0.000000
1.000000 0.718262 0.000000
0.000000 0.743652 0.000000
0.042084 0.743652 0.000000
0.093628 0.743652 0.000000
0.147095 0.743652 0.000000
0.202637 0.743652 0.000000
0.254395 0.743652 0.000000
0.302002 0.743652 0.000000
0.345947 0.743652 0.000000
0.386719 0.743652 0.000000
0.425293 0.743652 0.000000
0.461914 0.743652 0.000000
0.496826 0.743652 0.000000
0.530273 0.743652 0.000000
0.562012 0.743652 0.000000
0.592773 0.743652 0.000000
0.622559 0.743652 0.000000
0.651367 0.743652 0.000000
0.679199 0.743652 0.000000
0.706055 0.743652 0.000000
0.732422 0.743652 0.000000
0.757813 0.743652 0.000000
0.782715 0.743652 0.000000
0.807129 0.743652 0.000000
0.831055 0.743652 0.000000
0.854492 0.743652 0.000000
0.877441 0.743652 0.000000
0.899902 0.743652 0.000000
0.921387 0.743652 0.000000
0.942383 0.743652 0.000000
0.962891 0.743652 0.000000
0.981934 0.743652 0.000000
1.000000 0.743652 0.000000
0.000000 0.768066 0.000000
0.042084 0.768066 0.000000
0.093628 0.768066 0.000000
0.147095 0.768066 0.000000
0.202637 0.768066 0.000000
0.254395 0.768066 0.000000
0.302002 0.768066 0.000000
0.345947 0.768066 0.000000
0.386719 0.768066 0.000000
0.425293 0.768066 0.000000
0.461914 0.768066 0.000000
0.496826 0.768066 0.000000
0.530273 0.768066 0.000000
0.562012 0.768066 0.000000
0.592773 0.768066 0.000000
0.622559 0.768066 0.000000
0.651367 0.768066 0.000000
0.679199 0.768066 0.000000
0.706055 0.768066 0.000000
0.732422 0.768066 0.000000
0.757813 0.768066 0.000000
0.782715 0.768066 0.000000
0.807129 0.768066 0.000000
0.831055 0.768066 0.000000
0.854492 0.768066 0.000000
0.877441 0.768066 0.000000
0.899902 0.768066 0.000000
0.921387 0.768066 0.000000
0.942383 0.768066 0.000000
0.962891 0.768066 0.000000
0.981934 0.768066 0.000000
1.000000 0.768066 0.000000
0.000000 0.791992 0.000000
0.042084 0.791992 0.000000
0.093628 0.791992 0.000000
0.147095 0.791992 0.000000
0.202637 0.791992 0.000000
0.254395 0.791992 0.000000
0.302002 0.791992 0.000000
0.345947 0.791992 0.000000
0.386719 0.791992 0.000000
0.425293 0.791992 0.000000
0.461914 0.791992 0.000000
0.496826 0.791992 0.000000
0.530273 0.791992 0.000000
0.562012 0.791992 0.000000
0.592773 0.791992 0.000000
0.622559 0.791992 0.000000
0.651367 0.791992 0.000000
0.679199 0.791992 0.000000
0.706055 0.791992 0.000000
0.732422 0.791992 0.000000
0.757813 0.791992 0.000000
0.782715 0.791992 0.000000
0.807129 0.791992 0.000000
0.831055 0.791992 0.000000
0.854492 0.791992 0.000000
0.877441 0.791992 0.000000
0.899902 0.791992 0.000000
0.921387 0.791992 0.000000
0.942383 0.791992 0.000000
0.962891 0.791992 0.000000
0.981934 0.791992 0.000000
1.000000 0.791992 0.000000
0.000000 0.814941 0.000000
0.042084 0.814941 0.000000
0.093628 0.814941 0.000000
0.147095 0.814941 0.000000
0.202637 0.814941 0.000000
0.254395 0.814941 0.000000
0.302002 0.814941 0.000000
0.345947 0.814941 0.000000
0.386719 0.814941 0.000000
0.425293 0.814941 0.000000
0.461914 0.814941 0.000000
0.496826 0.814941 0.000000
0.530273 0.814941 0.000000
0.562012 0.814941 0.000000
0.592773 0.814941 0.000000
0.622559 0.814941 0.000000
0.651367 0.814941 0.000000
0.679199 0.814941 0.000000
0.706055 0.814941 0.000000
0.732422 0.814941 0.000000
0.757813 0.814941 0.000000
0.782715 0.814941 0.000000
0.807129 0.814941 0.000000
0.831055 0.814941 0.000000
0.854492 0.814941 0.000000
0.877441 0.814941 0.000000
0.899902 0.814941 0.000000
0.921387 0.814941 0.000000
0.942383 0.814941 0.000000
0.962891 0.814941 0.000000
0.981934 0.814941 0.000000
1.000000 0.814941 0.000000
0.000000 0.837402 0.000000
0.042084 0.837402 0.000000
0.093628 0.837402 0.000000
0.147095 0.837402 0.000000
0.202637 0.837402 0.000000
0.254395 0.837402 0.000000
0.302002 0.837402 0.000000
0.345947 0.837402 0.000000
0.386719 0.837402 0.000000
0.425293 0.837402 0.000000
0.461914 0.837402 0.000000
0.496826 0.837402 0.000000
0.530273 0.837402 0.000000
0.562012 0.837402 0.000000
0.592773 0.837402 0.000000
0.622559 0.837402 0.000000
0.651367 0.837402 0.000000
0.679199 0.837402 0.000000
0.706055 0.837402 0.000000
0.732422 0.837402 0.000000
0.757813 0.837402 0.000000
0.782715 0.837402 0.000000
0.807129 0.837402 0.000000
0.831055 0.837402 0.000000
0.854492 0.837402 0.000000
0.877441 0.837402 0.000000
0.899902 0.837402 0.000000
0.921387 0.837402 0.000000
0.942383 0.837402 0.000000
0.962891 0.837402 0.000000
0.981934 0.837402 0.000000
1.000000 0.837402 0.000000
0.000000 0.859863 0.000000
0.042084 0.859863 0.000000
0.093628 0.859863 0.000000
0.147095 0.859863 0.000000
0.202637 0.859863 0.000000
0.254395 0.859863 0.000000
0.302002 0.859863 0.000000
0.345947 0.859863 0.000000
0.386719 0.859863 0.000000
0.425293 0.859863 0.000000
0.461914 0.859863 0.000000
0.496826 0.859863 0.000000
0.530273 0.859863 0.000000
0.562012 0.859863 0.000000
0.592773 0.859863 0.000000
0.622559 0.859863 0.000000
0.651367 0.859863 0.000000
0.679199 0.859863 0.000000
0.706055 0.859863 0.000000
0.732422 0.859863 0.000000
0.757813 0.859863 0.000000
0.782715 0.859863 0.000000
0.807129 0.859863 0.000000
0.831055 0.859863 0.000000
0.854492 0.859863 0.000000
0.877441 0.859863 0.000000
0.899902 0.859863 0.000000
0.921387 0.859863 0.000000
0.942383 0.859863 0.000000
0.962891 0.859863 0.000000
0.981934 0.859863 0.000000
1.000000 0.859863 0.000000
0.000000 0.881348 0.000000
0.042084 0.881348 0.000000
0.093628 0.881348 0.000000
0.147095 0.881348 0.000000
0.202637 0.881348 0.000000
0.254395 0.881348 0.000000
0.302002 0.881348 0.000000
0.345947 0.881348 0.000000
0.386719 0.881348 0.000000
0.425293 0.881348 0.000000
0.461914 0.881348 0.000000
0.496826 0.881348 0.000000
0.530273 0.881348 0.000000
0.562012 0.881348 0.000000
0.592773 0.881348 0.000000
0.622559 0.881348 0.000000
0.651367 0.881348 0.000000
0.679199 0.881348 0.000000
0.706055 0.881348 0.000000
0.732422 0.881348 0.000000
0.757813 0.881348 0.000000
0.782715 0.881348 0.000000
0.807129 0.881348 0.000000
0.831055 0.881348 0.000000
0.854492 0.881348 0.000000
0.877441 0.881348 0.000000
0.899902 0.881348 0.000000
0.921387 0.881348 0.000000
0.942383 0.881348 0.000000
0.962891 0.881348 0.000000
0.981934 0.881348 0.000000
1.000000 0.881348 0.000000
0.000000 0.902344 0.000000
0.042084 0.902344 0.000000
0.093628 0.902344 0.000000
0.147095 0.902344 0.000000
0.202637 0.902344 0.000000
0.254395 0.902344 0.000000
0.302002 0.902344 0.000000
0.345947 0.902344 0.000000
0.386719 0.902344 0.000000
0.425293 0.902344 0.000000
0.461914 0.902344 0.000000
0.496826 0.902344 0.000000
0.530273 0.902344 0.000000
0.562012 0.902344 0.000000
0.592773 0.902344 0.000000
0.622559 0.902344 0.000000
0.651367 0.902344 0.000000
0.679199 0.902344 0.000000
0.706055 0.902344 0.000000
0.732422 0.902344 0.000000
0.757813 0.902344 0.000000
0.782715 0.902344 0.000000
0.807129 0.902344 0.000000
0.831055 0.902344 0.000000
0.854492 0.902344 0.000000
0.877441 0.902344 0.000000
0.899902 0.902344 0.000000
0.921387 0.902344 0.000000
0.942383 0.902344 0.000000
0.962891 0.902344 0.000000
0.981934 0.902344 0.000000
1.000000 0.902344 0.000000
0.000000 0.922852 0.000000
0.042084 0.922852 0.000000
0.093628 0.922852 0.000000
0.147095 0.922852 0.000000
0.202637 0.922852 0.000000
0.254395 0.922852 0.000000
0.302002 0.922852 0.000000
0.345947 0.922852 0.000000
0.386719 0.922852 0.000000
0.425293 0.922852 0.000000
0.461914 0.922852 0.000000
0.496826 0.922852 0.000000
0.530273 0.922852 0.000000
0.562012 0.922852 0.000000
0.592773 0.922852 0.000000
0.622559 0.922852 0.000000
0.651367 0.922852 0.000000
0.679199 0.922852 0.000000
0.706055 0.922852 0.000000
0.732422 0.922852 0.000000
0.757813 0.922852 0.000000
0.782715 0.922852 0.000000
0.807129 0.922852 0.000000
