cubelut/Adanmq_Advantix 100.cube
TITLE "Generated by Foundry::LUT"
LUT_3D_SIZE 8
DOMAIN_MIN 0.000000 0.000000 0.000000
DOMAIN_MAX 0.903226 0.903226 0.903226
0.000000 0.000000 0.000000
0.112976 0.000000 0.000000
0.263672 0.000000 0.000000
0.410889 0.000000 0.000000
0.546387 0.000000 0.000000
0.675293 0.000000 0.000000
0.800781 0.000000 0.000000
0.920898 0.000000 0.000000
0.000000 0.097229 0.000000
0.112976 0.097229 0.000000
0.263672 0.097229 0.000000
0.410889 0.097229 0.000000
0.546387 0.097229 0.000000
0.675293 0.097229 0.000000
0.800781 0.097290 0.000000
0.920898 0.097290 0.000000
0.000000 0.241089 0.000000
0.112976 0.241089 0.000000
0.263672 0.241089 0.000000
0.410889 0.241089 0.000000
0.546387 0.241089 0.000000
0.675293 0.241089 0.000000
0.800781 0.241089 0.000000
0.920898 0.241089 0.000000
0.000000 0.386719 0.000000
0.112976 0.386719 0.000000
0.263672 0.386719 0.000000
0.410889 0.386719 0.000000
0.546387 0.386719 0.000000
0.675293 0.386719 0.000000
0.800781 0.386719 0.000000
0.920898 0.386719 0.000000
0.000000 0.523926 0.000000
0.112976 0.523926 0.000000
0.263672 0.523926 0.000000
0.410889 0.523926 0.000000
0.546387 0.523926 0.000000
0.675293 0.523926 0.000000
0.800781 0.523926 0.000000
0.920898 0.523926 0.000000
0.000000 0.655762 0.000000
0.112976 0.655762 0.000000
0.263672 0.655762 0.000000
0.410889 0.655762 0.000000
0.546387 0.655762 0.000000
0.675293 0.655762 0.000000
0.800781 0.655762 0.000000
0.920898 0.655762 0.000000
0.000000 0.787109 0.000000
0.112976 0.787109 0.000000
0.263672 0.787109 0.000000
0.410889 0.787109 0.000000
0.546387 0.787109 0.000000
0.675293 0.787109 0.000000
0.800781 0.787109 0.000000
0.920898 0.787109 0.000000
0.000000 0.912598 0.000000
0.112976 0.912598 0.000000
0.263672 0.912598 0.000000
0.410889 0.912598 0.000000
0.546387 0.912598 0.000000
0.675293 0.912598 0.000000
0.800781 0.912598 0.000000
0.920898 0.912598 0.000000
0.000000 0.000000 0.077942
0.113037 0.000000 0.077942
0.263672 0.000000 0.077942
0.410889 0.000000 0.077942
0.546387 0.000000 0.077942
0.675293 0.000000 0.077942
0.800781 0.000000 0.077942
0.920898 0.000000 0.077942
0.000000 0.097229 0.077942
0.113037 0.097229 0.077942
0.263672 0.097229 0.077942
0.410889 0.097229 0.077942
0.546387 0.097229 0.077942
0.675293 0.097229 0.077942
0.800781 0.097229 0.077942
0.920898 0.097290 0.077942
0.000000 0.241089 0.077942
0.113037 0.241089 0.077942
0.263672 0.241089 0.077942
0.410889 0.241089 0.077942
0.546387 0.241089 0.077942
0.675293 0.241089 0.077942
0.800781 0.241089 0.077942
0.920898 0.241089 0.077942
0.000000 0.386719 0.077942
0.113037 0.386719 0.077942
0.263672 0.386719 0.077942
0.410889 0.386719 0.077942
0.546387 0.386719 0.077942
0.675293 0.386719 0.077942
0.800781 0.386719 0.077942
0.920898 0.386719 0.077942
0.000000 0.523926 0.077942
0.113037 0.523926 0.077942
0.263672 0.523926 0.077942
0.410889 0.523926 0.077942
0.546387 0.523926 0.077942
0.675293 0.523926 0.077942
0.800781 0.523926 0.077942
0.920898 0.523926 0.077942
0.000000 0.655762 0.077942
0.113037 0.655762 0.077942
0.263672 0.655762 0.077942
0.410889 0.655762 0.077942
0.546387 0.655762 0.077942
0.675293 0.655762 0.077942
0.800781 0.655762 0.077942
0.920898 0.655762 0.077942
0.000000 0.787109 0.077942
0.113037 0.787109 0.077942
0.263672 0.787109 0.077942
0.410889 0.787109 0.077942
0.546387 0.787109 0.077942
0.675293 0.787109 0.077942
0.800781 0.787109 0.077942
0.920898 0.787109 0.077942
0.000000 0.912598 0.077942
0.113037 0.912598 0.077942
0.263672 0.912598 0.077942
0.410889 0.912598 0.077942
0.546387 0.912598 0.077942
0.675293 0.912598 0.077942
0.800781 0.912598 0.077942
0.920898 0.912598 0.077942
0.000000 0.000000 0.209229
0.113037 0.000000 0.209229
0.263672 0.000000 0.209229
0.410889 0.000000 0.209229
0.546387 0.000000 0.209229
0.675781 0.000000 0.209229
0.800781 0.000000 0.209229
0.920898 0.000000 0.209229
0.000000 0.097229 0.209229
0.113037 0.097229 0.209229
0.263672 0.097229 0.209229
0.410889 0.097229 0.209229
0.546387 0.097229 0.209229
0.675781 0.097229 0.209229
0.800781 0.097229 0.209229
0.920898 0.097229 0.209229
0.000000 0.241089 0.209229
0.113037 0.241089 0.209229
0.263672 0.241089 0.209229
0.410889 0.241089 0.209229
0.546387 0.241089 0.209229
0.675781 0.241089 0.209229
0.800781 0.241089 0.209229
0.920898 0.241089 0.209229
0.000000 0.386719 0.209229
0.113037 0.386719 0.209229
0.263672 0.386719 0.209229
0.410889 0.386719 0.209229
0.546387 0.386719 0.209229
0.675781 0.386719 0.209229
0.800781 0.386719 0.209229
0.920898 0.386719 0.209229
0.000000 0.523926 0.209229
0.113037 0.523926 0.209229
0.263672 0.523926 0.209229
0.410889 0.523926 0.209229
0.546387 0.523926 0.209229
0.675781 0.523926 0.209229
0.800781 0.523926 0.209229
0.920898 0.523926 0.209229
0.000000 0.655762 0.209229
0.113037 0.655762 0.209229
0.263672 0.655762 0.209229
0.410889 0.655762 0.209229
0.546387 0.655762 0.209229
0.675781 0.655762 0.209229
0.800781 0.655762 0.209229
0.920898 0.655762 0.209229
0.000000 0.787109 0.209229
0.113037 0.787109 0.209229
0.263672 0.787109 0.209229
0.410889 0.787109 0.209229
0.546387 0.787109 0.209229
0.675781 0.787109 0.209229
0.800781 0.787109 0.209229
0.920898 0.787109 0.209229
0.000000 0.912598 0.209229
0.113037 0.912598 0.209229
0.263672 0.912598 0.209229
0.410889 0.912598 0.209229
0.546387 0.912598 0.209229
0.675781 0.912598 0.209229
0.800781 0.912598 0.209229
0.920898 0.912598 0.209229
0.000000 0.000000 0.350098
0.113037 0.000000 0.350098
0.263672 0.000000 0.350098
0.410889 0.000000 0.350098
0.546387 0.000000 0.350098
0.675781 0.000000 0.350098
0.800781 0.000000 0.350098
0.920898 0.000000 0.350098
0.000000 0.097229 0.350098
0.113037 0.097229 0.350098
0.263672 0.097229 0.350098
0.410889 0.097229 0.350098
0.546387 0.097229 0.350098
0.675781 0.097229 0.350098
0.800781 0.097229 0.350098
0.920898 0.097229 0.350098
0.000000 0.241089 0.350098
0.113037 0.241089 0.350098
0.263672 0.241089 0.350098
0.410889 0.241089 0.350098
0.546387 0.241089 0.350098
0.675781 0.241089 0.350098
0.800781 0.241089 0.350098
0.920898 0.241089 0.350098
0.000000 0.386719 0.350098
0.113037 0.386719 0.350098
0.263672 0.386719 0.350098
0.410889 0.386719 0.350098
0.546387 0.386719 0.350098
0.675781 0.386719 0.350098
0.800781 0.386719 0.350098
0.920898 0.386719 0.350098
0.000000 0.523926 0.350098
0.113037 0.523926 0.350098
0.263672 0.523926 0.350098
0.410889 0.523926 0.350098
0.546387 0.523926 0.350098
0.675781 0.523926 0.350098
0.800781 0.523926 0.350098
0.920898 0.523926 0.350098
0.000000 0.655762 0.350098
0.113037 0.655762 0.350098
0.263672 0.655762 0.350098
0.410889 0.655762 0.350098
0.546387 0.655762 0.350098
0.675781 0.655762 0.350098
0.800781 0.655762 0.350098
0.920898 0.655762 0.350098
0.000000 0.787109 0.350098
0.113037 0.787109 0.350098
0.263672 0.787109 0.350098
0.410889 0.787109 0.350098
0.546387 0.787109 0.350098
0.675781 0.787109 0.350098
0.800781 0.787109 0.350098
0.920898 0.787109 0.350098
0.000000 0.912598 0.350098
0.113037 0.912598 0.350098
0.263672 0.912598 0.350098
0.410889 0.912598 0.350098
0.546387 0.912598 0.350098
0.675781 0.912598 0.350098
0.800781 0.912598 0.350098
0.920898 0.912598 0.350098
0.000000 0.000000 0.489990
0.113098 0.000000 0.489990
0.263916 0.000000 0.489990
0.410889 0.000000 0.489990
0.546387 0.000000 0.489990
0.675781 0.000000 0.489990
0.800781 0.000000 0.489990
0.920898 0.000000 0.489990
0.000000 0.097229 0.489990
0.113098 0.097229 0.489990
0.263916 0.097229 0.489990
0.410889 0.097229 0.489990
0.546387 0.097229 0.489990
0.675781 0.097229 0.489990
0.800781 0.097229 0.489990
0.920898 0.097229 0.489990
0.000000 0.241089 0.489990
0.113098 0.241089 0.489990
0.263916 0.241089 0.489990
0.410889 0.241089 0.489990
0.546387 0.241089 0.489990
0.675781 0.241089 0.489990
0.800781 0.241089 0.489990
0.920898 0.241089 0.489990
0.000000 0.386719 0.489990
0.113098 0.386719 0.489990
0.263916 0.386719 0.489990
0.410889 0.386719 0.489990
0.546387 0.386719 0.489990
0.675781 0.386719 0.489990
0.800781 0.386719 0.489990
0.920898 0.386719 0.489990
0.000000 0.523926 0.489990
0.113098 0.523926 0.489990
0.263916 0.523926 0.489990
0.410889 0.523926 0.489990
0.546387 0.523926 0.489990
0.675781 0.523926 0.489990
0.800781 0.523926 0.489990
0.920898 0.523926 0.489990
0.000000 0.655762 0.489990
0.113098 0.655762 0.489990
0.263916 0.655762 0.489990
0.410889 0.655762 0.489990
0.546387 0.655762 0.489990
0.675781 0.655762 0.489990
0.800781 0.655762 0.489990
0.920898 0.655762 0.489990
0.000000 0.787109 0.489990
0.113098 0.787109 0.489990
0.263916 0.787109 0.489990
0.410889 0.787109 0.489990
0.546387 0.787109 0.489990
0.675781 0.787109 0.489990
0.800781 0.787109 0.489990
0.920898 0.787109 0.489990
0.000000 0.912598 0.489990
0.113098 0.912598 0.489990
0.263916 0.912598 0.489990
0.410889 0.912598 0.489990
0.546387 0.912598 0.489990
0.675781 0.912598 0.489990
0.800781 0.912598 0.489990
0.920898 0.912598 0.489990
0.000000 0.000000 0.627441
0.113098 0.000000 0.627441
0.263916 0.000000 0.627441
0.410889 0.000000 0.627441
0.546387 0.000000 0.627441
0.675781 0.000000 0.627441
0.800781 0.000000 0.627441
0.920898 0.000000 0.627441
0.000000 0.097229 0.627441
0.113098 0.097229 0.627441
0.263916 0.097229 0.627441
0.410889 0.097229 0.627441
0.546387 0.097229 0.627441
0.675781 0.097229 0.627441
0.800781 0.097229 0.627441
0.920898 0.097229 0.627441
0.000000 0.241089 0.627441
0.113098 0.241089 0.627441
0.263916 0.241089 0.627441
0.410889 0.241089 0.627441
0.546387 0.241089 0.627441
0.675781 0.241089 0.627441
0.800781 0.241089 0.627441
0.920898 0.241089 0.627441
0.000000 0.386719 0.627441
0.113098 0.386719 0.627441
0.263916 0.386719 0.627441
0.410889 0.386719 0.627441
0.546387 0.386719 0.627441
0.675781 0.386719 0.627441
0.800781 0.386719 0.627441
0.920898 0.386719 0.627441
0.000000 0.523926 0.627441
0.113098 0.523926 0.627441
0.263916 0.523926 0.627441
0.410889 0.523926 0.627441
0.546387 0.523926 0.627441
0.675781 0.523926 0.627441
0.800781 0.523926 0.627441
0.920898 0.523926 0.627441
0.000000 0.655762 0.627930
0.113098 0.655762 0.627930
0.263916 0.655762 0.627930
0.410889 0.655762 0.627930
0.546387 0.655762 0.627930
0.675781 0.655762 0.627930
0.800781 0.655762 0.627930
0.920898 0.655762 0.627930
0.000000 0.787109 0.627930
0.113098 0.787109 0.627930
0.263916 0.787109 0.627930
0.410889 0.787109 0.627930
0.546387 0.787109 0.627930
0.675781 0.787109 0.627930
0.800781 0.787109 0.627930
0.920898 0.787109 0.627930
0.000000 0.912598 0.627930
0.113098 0.912598 0.627930
0.263916 0.912598 0.627930
0.410889 0.912598 0.627930
0.546387 0.912598 0.627930
0.675781 0.912598 0.627930
0.800781 0.912598 0.627930
0.920898 0.912598 0.627930
0.000000 0.000000 0.767090
0.113159 0.000000 0.767090
0.263916 0.000000 0.767090
0.410889 0.000000 0.767090
0.546387 0.000000 0.767090
0.675781 0.000000 0.767090
0.800781 0.000000 0.767090
0.920898 0.000000 0.767090
0.000000 0.097229 0.767090
0.113159 0.097229 0.767090
0.263916 0.097229 0.767090
0.410889 0.097229 0.767090
0.546387 0.097229 0.767090
0.675781 0.097229 0.767090
0.800781 0.097229 0.767090
0.920898 0.097229 0.767090
0.000000 0.241089 0.767090
0.113159 0.241089 0.767090
0.263916 0.241089 0.767090
0.410889 0.241089 0.767090
0.546387 0.241089 0.767090
0.675781 0.241089 0.767090
0.800781 0.241089 0.767090
0.920898 0.241089 0.767090
0.000000 0.386719 0.767090
0.113159 0.386719 0.767090
0.263916 0.386719 0.767090
0.410889 0.386719 0.767090
0.546387 0.386719 0.767090
0.675781 0.386719 0.767090
0.800781 0.386719 0.767090
0.920898 0.386719 0.767090
0.000000 0.523926 0.767090
0.113159 0.523926 0.767090
0.263916 0.523926 0.767090
0.410889 0.523926 0.767090
0.546387 0.523926 0.767090
0.675781 0.523926 0.767090
0.800781 0.523926 0.767090
0.920898 0.523926 0.767090
0.000000 0.655762 0.767090
0.113159 0.655762 0.767090
0.263916 0.655762 0.767090
0.410889 0.655762 0.767090
0.546387 0.655762 0.767090
0.675781 0.655762 0.767090
0.800781 0.655762 0.767090
0.920898 0.655762 0.767090
0.000000 0.787109 0.767090
0.113159 0.787109 0.767090
0.263916 0.787109 0.767090
0.410889 0.787109 0.767090
0.546387 0.787109 0.767090
0.675781 0.787109 0.767090
0.800781 0.787109 0.767090
0.920898 0.787109 0.767090
0.000000 0.912598 0.767090
0.113159 0.912598 0.767090
0.263916 0.912598 0.767090
0.410889 0.912598 0.767090
0.546387 0.912598 0.767090
0.675781 0.912598 0.767090
0.800781 0.912598 0.767090
0.920898 0.912598 0.767090
0.000001 0.000000 0.904785
0.113159 0.000000 0.904785
0.263916 0.000000 0.904785
0.410889 0.000000 0.904785
0.546387 0.000000 0.904785
0.675781 0.000000 0.904785
0.800781 0.000000 0.904785
0.920898 0.000000 0.904785
0.000001 0.097229 0.904785
0.113159 0.097229 0.904785
0.263916 0.097229 0.904785
0.410889 0.097229 0.904785
0.546387 0.097229 0.904785
0.675781 0.097229 0.904785
0.800781 0.097229 0.904785
0.920898 0.097229 0.904785
0.000001 0.241089 0.904785
0.113159 0.241089 0.904785
0.263916 0.241089 0.904785
0.410889 0.241089 0.904785
0.546387 0.241089 0.904785
0.675781 0.241089 0.904785
0.800781 0.241089 0.904785
0.920898 0.241089 0.904785
0.000001 0.386719 0.904785
0.113159 0.386719 0.904785
0.263916 0.386719 0.904785
0.410889 0.386719 0.904785
0.546387 0.386719 0.904785
0.675781 0.386719 0.904785
0.800781 0.386719 0.904785
0.920898 0.386719 0.904785
0.000001 0.523926 0.904785
0.113159 0.523926 0.904785
0.263916 0.523926 0.904785
0.410889 0.523926 0.904785
0.546387 0.523926 0.904785
0.675781 0.523926 0.904785
0.800781 0.523926 0.904785
0.920898 0.523926 0.904785
0.000001 0.655762 0.904785
0.113159 0.655762 0.904785
0.263916 0.655762 0.904785
0.410889 0.655762 0.904785
0.546387 0.655762 0.904785
0.675781 0.655762 0.904785
0.800781 0.655762 0.904785
0.920898 0.655762 0.904785
0.000001 0.787109 0.904785
0.113159 0.787109 0.904785
0.263916 0.787109 0.904785
0.410889 0.787109 0.904785
0.546387 0.787109 0.904785
0.675781 0.787109 0.904785
0.800781 0.787109 0.904785
0.920898 0.787109 0.904785
0.000001 0.912598 0.904785
0.113159 0.912598 0.904785
0.263916 0.912598 0.904785
0.410889 0.912598 0.904785
0.546387 0.912598 0.904785
0.675781 0.912598 0.904785
0.800781 0.912598 0.904785
0.920898 0.912598 0.904785
