cubelut/Adanmq_Portra 400v.cube
TITLE "Generated by Foundry::LUT"
LUT_3D_SIZE 5
DOMAIN_MIN 0.000000 0.000000 0.000000
DOMAIN_MAX 0.903226 0.903226 0.903226
0.000000 0.000000 0.000000
0.146606 0.000000 0.000000
0.363281 0.000000 0.000000
0.615234 0.000000 0.000000
0.894043 0.000000 0.000000
0.000000 0.134521 0.000000
0.146606 0.134521 0.000000
0.363281 0.134521 0.000000
0.615234 0.134521 0.000000
0.894043 0.134521 0.000000
0.000000 0.345459 0.000000
0.146606 0.345459 0.000000
0.363281 0.345459 0.000000
0.615234 0.345459 0.000000
0.894043 0.345459 0.000000
0.000000 0.597656 0.000000
0.146606 0.597656 0.000000
0.363281 0.597656 0.000000
0.615234 0.597656 0.000000
0.894043 0.597656 0.000000
0.000000 0.878906 0.000000
0.146606 0.878906 0.000000
0.363281 0.878906 0.000000
0.615234 0.878906 0.000000
0.894043 0.878906 0.000000
0.000000 0.000000 0.112915
0.146729 0.000000 0.112915
0.363281 0.000000 0.112915
0.615234 0.000000 0.112915
0.894043 0.000000 0.112915
0.000000 0.134521 0.112915
0.146729 0.134521 0.112915
0.363281 0.134521 0.112915
0.615234 0.134521 0.112915
0.894043 0.134521 0.112915
0.000000 0.345215 0.112915
0.146729 0.345459 0.112915
0.363281 0.345459 0.112915
0.615234 0.345459 0.112915
0.894043 0.345459 0.112915
0.000000 0.597656 0.112915
0.146729 0.597656 0.112915
0.363281 0.597656 0.112915
0.615234 0.597656 0.112915
0.894043 0.597656 0.112915
0.000000 0.878906 0.112915
0.146729 0.878906 0.112915
0.363281 0.878906 0.112915
0.615234 0.878906 0.112915
0.894043 0.878906 0.112915
0.000000 0.000000 0.316895
0.146729 0.000000 0.316895
0.363281 0.000000 0.316895
0.615234 0.000000 0.316895
0.894043 0.000000 0.316895
0.000000 0.134521 0.316895
0.146729 0.134521 0.316895
0.363281 0.134521 0.316895
0.615234 0.134521 0.316895
0.894043 0.134521 0.316895
0.000000 0.345215 0.316895
0.146729 0.345215 0.316895
0.363281 0.345459 0.316895
0.615234 0.345459 0.316895
0.894043 0.345459 0.316895
0.000000 0.597656 0.316895
0.146729 0.597656 0.316895
0.363281 0.597656 0.316895
0.615234 0.597656 0.316895
0.894043 0.597656 0.316895
0.000000 0.878906 0.316895
0.146729 0.878906 0.316895
0.363281 0.878906 0.316895
0.615234 0.878906 0.316895
0.894043 0.878906 0.316895
0.000000 0.000000 0.577637
0.146729 0.000000 0.577637
0.363281 0.000000 0.577637
0.615234 0.000000 0.577637
0.894043 0.000000 0.577637
0.000000 0.134521 0.577637
0.146729 0.134521 0.577637
0.363281 0.134521 0.577637
0.615234 0.134521 0.577637
0.894043 0.134521 0.577637
0.000000 0.345215 0.577637
0.146729 0.345215 0.577637
0.363281 0.345215 0.577637
0.615234 0.345459 0.577637
0.894043 0.345459 0.577637
0.000000 0.597656 0.577637
0.146729 0.597656 0.577637
0.363281 0.597656 0.577637
0.615234 0.597656 0.577637
0.894043 0.597656 0.577637
0.000000 0.878906 0.577637
0.146729 0.878906 0.577637
0.363281 0.878906 0.577637
0.615234 0.878906 0.577637
0.894043 0.878906 0.577637
0.000001 0.000000 0.882813
0.146851 0.000000 0.882813
0.363281 0.000000 0.882813
0.615234 0.000000 0.882813
0.894043 0.000000 0.882813
0.000001 0.134521 0.882813
0.146851 0.134521 0.882813
0.363281 0.134521 0.882813
0.615234 0.134521 0.882813
0.894043 0.134521 0.882813
0.000001 0.345215 0.882813
0.146851 0.345215 0.882813
0.363281 0.345215 0.882813
0.615234 0.345459 0.882813
0.894043 0.345459 0.882813
0.000001 0.597656 0.882813
0.146851 0.597656 0.882813
0.363281 0.597656 0.882813
0.615234 0.597656 0.882813
0.894043 0.597656 0.882813
0.000001 0.878906 0.882813
0.146851 0.878906 0.882813
0.363281 0.878906 0.882813
0.615234 0.878906 0.882813
0.894043 0.878906 0.882813
