cubelut/Adanmq_AgfaColor HDC 100+.cube
TITLE "Generated by Foundry::LUT"
LUT_3D_SIZE 32
0.000000 0.000000 0.000000
0.015045 0.000000 0.000000
0.040985 0.000000 0.000000
0.071411 0.000000 0.000000
0.104492 0.000000 0.000000
0.139282 0.000000 0.000000
0.175415 0.000000 0.000000
0.212036 0.000000 0.000000
0.249146 0.000000 0.000000
0.286621 0.000000 0.000000
0.324219 0.000000 0.000000
0.361572 0.000000 0.000000
0.398926 0.000000 0.000000
0.435547 0.000000 0.000000
0.471680 0.000000 0.000000
0.507324 0.000000 0.000000
0.542480 0.000000 0.000000
0.577637 0.000000 0.000000
0.612305 0.000000 0.000000
0.645996 0.000000 0.000000
0.679199 0.000000 0.000000
0.712402 0.000000 0.000000
0.744629 0.000000 0.000000
0.776367 0.000000 0.000000
0.808594 0.000000 0.000000
0.839355 0.000000 0.000000
0.870117 0.000000 0.000000
0.899414 0.000000 0.000000
0.927734 0.000000 0.000000
0.954590 0.000000 0.000000
0.979492 0.000000 0.000000
1.000000 0.000000 0.000000
0.000000 0.017365 0.000000
0.015045 0.017365 0.000000
0.040985 0.017380 0.000000
0.071411 0.017380 0.000000
0.104492 0.017380 0.000000
0.139282 0.017380 0.000000
0.175415 0.017380 0.000000
0.212036 0.017380 0.000000
0.249146 0.017380 0.000000
0.286621 0.017380 0.000000
0.324219 0.017380 0.000000
0.361572 0.017380 0.000000
0.398926 0.017380 0.000000
0.435547 0.017380 0.000000
0.471680 0.017380 0.000000
0.507324 0.017380 0.000000
0.542480 0.017380 0.000000
0.577637 0.017380 0.000000
0.612305 0.017380 0.000000
0.645996 0.017380 0.000000
0.679199 0.017380 0.000000
0.712402 0.017380 0.000000
0.744629 0.017380 0.000000
0.776367 0.017380 0.000000
0.808594 0.017380 0.000000
0.839355 0.017380 0.000000
0.870117 0.017380 0.000000
0.899414 0.017380 0.000000
0.927734 0.017395 0.000000
0.954590 0.017395 0.000000
0.979492 0.017395 0.000000
1.000000 0.017395 0.000000
0.000000 0.047180 0.000000
0.015045 0.047180 0.000000
0.040985 0.047180 0.000000
0.071411 0.047180 0.000000
0.104492 0.047180 0.000000
0.139282 0.047180 0.000000
0.175415 0.047180 0.000000
0.212036 0.047180 0.000000
0.249146 0.047180 0.000000
0.286621 0.047180 0.000000
0.324219 0.047211 0.000000
0.361572 0.047211 0.000000
0.398926 0.047211 0.000000
0.435547 0.047211 0.000000
0.471680 0.047211 0.000000
0.507324 0.047211 0.000000
0.542480 0.047211 0.000000
0.577637 0.047211 0.000000
0.612305 0.047211 0.000000
0.645996 0.047211 0.000000
0.679199 0.047211 0.000000
0.712402 0.047211 0.000000
0.744629 0.047211 0.000000
0.776367 0.047211 0.000000
0.808594 0.047211 0.000000
0.839355 0.047211 0.000000
0.870117 0.047211 0.000000
0.899414 0.047211 0.000000
0.927734 0.047211 0.000000
0.954590 0.047211 0.000000
0.979492 0.047211 0.000000
1.000000 0.047211 0.000000
0.000000 0.080322 0.000000
0.015045 0.080322 0.000000
0.040985 0.080322 0.000000
0.071411 0.080322 0.000000
0.104492 0.080322 0.000000
0.139282 0.080322 0.000000
0.175415 0.080322 0.000000
0.212036 0.080322 0.000000
0.249146 0.080322 0.000000
0.286621 0.080322 0.000000
0.324219 0.080322 0.000000
0.361572 0.080322 0.000000
0.398926 0.080322 0.000000
0.435547 0.080322 0.000000
0.471680 0.080322 0.000000
0.507324 0.080322 0.000000
0.542480 0.080322 0.000000
0.577637 0.080322 0.000000
0.612305 0.080322 0.000000
0.645996 0.080322 0.000000
0.679199 0.080322 0.000000
0.712402 0.080322 0.000000
0.744629 0.080322 0.000000
0.776367 0.080322 0.000000
0.808594 0.080322 0.000000
0.839355 0.080322 0.000000
0.870117 0.080322 0.000000
0.899414 0.080322 0.000000
0.927734 0.080322 0.000000
0.954590 0.080322 0.000000
0.979492 0.080322 0.000000
1.000000 0.080322 0.000000
0.000000 0.115295 0.000000
0.015045 0.115295 0.000000
0.040985 0.115295 0.000000
0.071411 0.115295 0.000000
0.104492 0.115295 0.000000
0.139282 0.115295 0.000000
0.175415 0.115295 0.000000
0.212036 0.115295 0.000000
0.249146 0.115356 0.000000
0.286621 0.115356 0.000000
0.324219 0.115356 0.000000
0.361572 0.115356 0.000000
0.398926 0.115356 0.000000
0.435547 0.115356 0.000000
0.471680 0.115356 0.000000
0.507324 0.115356 0.000000
0.542480 0.115356 0.000000
0.577637 0.115356 0.000000
0.612305 0.115356 0.000000
0.645996 0.115356 0.000000
0.679199 0.115356 0.000000
0.712402 0.115356 0.000000
0.744629 0.115356 0.000000
0.776367 0.115356 0.000000
0.808594 0.115356 0.000000
0.839355 0.115356 0.000000
0.870117 0.115356 0.000000
0.899414 0.115356 0.000000
0.927734 0.115356 0.000000
0.954590 0.115356 0.000000
0.979492 0.115356 0.000000
1.000000 0.115356 0.000000
0.000000 0.152222 0.000000
0.015045 0.152222 0.000000
0.040985 0.152222 0.000000
0.071411 0.152222 0.000000
0.104492 0.152222 0.000000
0.139282 0.152222 0.000000
0.175415 0.152222 0.000000
0.212036 0.152222 0.000000
0.249146 0.152222 0.000000
0.286621 0.152222 0.000000
0.324219 0.152222 0.000000
0.361572 0.152222 0.000000
0.398926 0.152222 0.000000
0.435547 0.152222 0.000000
0.471680 0.152222 0.000000
0.507324 0.152222 0.000000
0.542480 0.152222 0.000000
0.577637 0.152222 0.000000
0.612305 0.152222 0.000000
0.645996 0.152222 0.000000
0.679199 0.152222 0.000000
0.712402 0.152222 0.000000
0.744629 0.152222 0.000000
0.776367 0.152222 0.000000
0.808594 0.152222 0.000000
0.839355 0.152222 0.000000
0.870117 0.152222 0.000000
0.899414 0.152222 0.000000
0.927734 0.152222 0.000000
0.954590 0.152222 0.000000
0.979492 0.152222 0.000000
1.000000 0.152222 0.000000
0.000000 0.190430 0.000000
0.015045 0.190430 0.000000
0.040985 0.190430 0.000000
0.071411 0.190430 0.000000
0.104492 0.190430 0.000000
0.139282 0.190430 0.000000
0.175415 0.190430 0.000000
0.212036 0.190430 0.000000
0.249146 0.190430 0.000000
0.286621 0.190430 0.000000
0.324219 0.190430 0.000000
0.361572 0.190430 0.000000
0.398926 0.190430 0.000000
0.435547 0.190430 0.000000
0.471680 0.190430 0.000000
0.507324 0.190430 0.000000
0.542480 0.190430 0.000000
0.577637 0.190430 0.000000
0.612305 0.190430 0.000000
0.645996 0.190430 0.000000
0.679199 0.190430 0.000000
0.712402 0.190430 0.000000
0.744629 0.190430 0.000000
0.776367 0.190430 0.000000
0.808594 0.190430 0.000000
0.839355 0.190430 0.000000
0.870117 0.190430 0.000000
0.899414 0.190430 0.000000
0.927734 0.190430 0.000000
0.954590 0.190430 0.000000
0.979492 0.190430 0.000000
1.000000 0.190430 0.000000
0.000000 0.229492 0.000000
0.015045 0.229492 0.000000
0.040985 0.229492 0.000000
0.071411 0.229492 0.000000
0.104492 0.229492 0.000000
0.139282 0.229492 0.000000
0.175415 0.229492 0.000000
0.212036 0.229492 0.000000
0.249146 0.229492 0.000000
0.286621 0.229492 0.000000
0.324219 0.229492 0.000000
0.361572 0.229492 0.000000
0.398926 0.229492 0.000000
0.435547 0.229492 0.000000
0.471680 0.229492 0.000000
0.507324 0.229492 0.000000
0.542480 0.229492 0.000000
0.577637 0.229492 0.000000
0.612305 0.229492 0.000000
0.645996 0.229492 0.000000
0.679199 0.229492 0.000000
0.712402 0.229492 0.000000
0.744629 0.229492 0.000000
0.776367 0.229492 0.000000
0.808594 0.229492 0.000000
0.839355 0.229492 0.000000
0.870117 0.229492 0.000000
0.899414 0.229492 0.000000
0.927734 0.229492 0.000000
0.954590 0.229492 0.000000
0.979492 0.229492 0.000000
1.000000 0.229492 0.000000
0.000000 0.268799 0.000000
0.015045 0.268799 0.000000
0.040985 0.268799 0.000000
0.071411 0.268799 0.000000
0.104492 0.268799 0.000000
0.139282 0.268799 0.000000
0.175415 0.268799 0.000000
0.212036 0.268799 0.000000
0.249146 0.268799 0.000000
0.286621 0.268799 0.000000
0.324219 0.268799 0.000000
0.361572 0.268799 0.000000
0.398926 0.268799 0.000000
0.435547 0.268799 0.000000
0.471680 0.268799 0.000000
0.507324 0.268799 0.000000
0.542480 0.268799 0.000000
0.577637 0.268799 0.000000
0.612305 0.268799 0.000000
0.645996 0.268799 0.000000
0.679199 0.268799 0.000000
0.712402 0.268799 0.000000
0.744629 0.268799 0.000000
0.776367 0.268799 0.000000
0.808594 0.268799 0.000000
0.839355 0.268799 0.000000
0.870117 0.268799 0.000000
0.899414 0.268799 0.000000
0.927734 0.268799 0.000000
0.954590 0.268799 0.000000
0.979492 0.268799 0.000000
1.000000 0.268799 0.000000
0.000000 0.308594 0.000000
0.015045 0.308594 0.000000
0.040985 0.308594 0.000000
0.071411 0.308594 0.000000
0.104492 0.308594 0.000000
0.139282 0.308594 0.000000
0.175415 0.308594 0.000000
0.212036 0.308594 0.000000
0.249146 0.308594 0.000000
0.286621 0.308594 0.000000
0.324219 0.308594 0.000000
0.361572 0.308594 0.000000
0.398926 0.308594 0.000000
0.435547 0.308594 0.000000
0.471680 0.308594 0.000000
0.507324 0.308594 0.000000
0.542480 0.308594 0.000000
0.577637 0.308594 0.000000
0.612305 0.308594 0.000000
0.645996 0.308594 0.000000
0.679199 0.308594 0.000000
0.712402 0.308594 0.000000
0.744629 0.308594 0.000000
0.776367 0.308594 0.000000
0.808594 0.308594 0.000000
0.839355 0.308594 0.000000
0.870117 0.308594 0.000000
0.899414 0.308594 0.000000
0.927734 0.308594 0.000000
0.954590 0.308594 0.000000
0.979492 0.308594 0.000000
1.000000 0.308594 0.000000
0.000000 0.348877 0.000000
0.015045 0.348877 0.000000
0.040985 0.348877 0.000000
0.071411 0.348877 0.000000
0.104492 0.348877 0.000000
0.139282 0.348877 0.000000
0.175415 0.348877 0.000000
0.212036 0.348877 0.000000
0.249146 0.348877 0.000000
0.286621 0.348877 0.000000
0.324219 0.348877 0.000000
0.361572 0.348877 0.000000
0.398926 0.348877 0.000000
0.435547 0.348877 0.000000
0.471680 0.348877 0.000000
0.507324 0.348877 0.000000
0.542480 0.348877 0.000000
0.577637 0.348877 0.000000
0.612305 0.348877 0.000000
0.645996 0.348877 0.000000
0.679199 0.348877 0.000000
0.712402 0.348877 0.000000
0.744629 0.348877 0.000000
0.776367 0.348877 0.000000
0.808594 0.348877 0.000000
0.839355 0.348877 0.000000
0.870117 0.348877 0.000000
0.899414 0.348877 0.000000
0.927734 0.349121 0.000000
0.954590 0.349121 0.000000
0.979492 0.349121 0.000000
1.000000 0.349121 0.000000
0.000000 0.388672 0.000000
0.015045 0.388672 0.000000
0.040985 0.388672 0.000000
0.071411 0.388672 0.000000
0.104492 0.388672 0.000000
0.139282 0.388672 0.000000
0.175415 0.388672 0.000000
0.212036 0.388672 0.000000
0.249146 0.388672 0.000000
0.286621 0.388672 0.000000
0.324219 0.388672 0.000000
0.361572 0.388672 0.000000
0.398926 0.388672 0.000000
0.435547 0.388672 0.000000
0.471680 0.388672 0.000000
0.507324 0.388672 0.000000
0.542480 0.388672 0.000000
0.577637 0.388672 0.000000
0.612305 0.388672 0.000000
0.645996 0.388672 0.000000
0.679199 0.388672 0.000000
0.712402 0.388672 0.000000
0.744629 0.388672 0.000000
0.776367 0.388672 0.000000
0.808594 0.388672 0.000000
0.839355 0.388672 0.000000
0.870117 0.388672 0.000000
0.899414 0.388672 0.000000
0.927734 0.388672 0.000000
0.954590 0.388672 0.000000
0.979492 0.388672 0.000000
1.000000 0.388672 0.000000
0.000000 0.427246 0.000000
0.015045 0.427246 0.000000
0.040985 0.427246 0.000000
0.071411 0.427246 0.000000
0.104492 0.427246 0.000000
0.139282 0.427246 0.000000
0.175415 0.427246 0.000000
0.212036 0.427246 0.000000
0.249146 0.427246 0.000000
0.286621 0.427246 0.000000
0.324219 0.427246 0.000000
0.361572 0.427246 0.000000
0.398926 0.427246 0.000000
0.435547 0.427246 0.000000
0.471680 0.427246 0.000000
0.507324 0.427246 0.000000
0.542480 0.427246 0.000000
0.577637 0.427246 0.000000
0.612305 0.427246 0.000000
0.645996 0.427246 0.000000
0.679199 0.427246 0.000000
0.712402 0.427246 0.000000
0.744629 0.427246 0.000000
0.776367 0.427246 0.000000
0.808594 0.427246 0.000000
0.839355 0.427246 0.000000
0.870117 0.427246 0.000000
0.899414 0.427246 0.000000
0.927734 0.427246 0.000000
0.954590 0.427246 0.000000
0.979492 0.427246 0.000000
1.000000 0.427246 0.000000
0.000000 0.465332 0.000000
0.015045 0.465332 0.000000
0.040985 0.465332 0.000000
0.071411 0.465332 0.000000
0.104492 0.465332 0.000000
0.139282 0.465332 0.000000
0.175415 0.465332 0.000000
0.212036 0.465332 0.000000
0.249146 0.465332 0.000000
0.286621 0.465332 0.000000
0.324219 0.465332 0.000000
0.361572 0.465332 0.000000
0.398926 0.465332 0.000000
0.435547 0.465332 0.000000
0.471680 0.465332 0.000000
0.507324 0.465332 0.000000
0.542480 0.465332 0.000000
0.577637 0.465332 0.000000
0.612305 0.465332 0.000000
0.645996 0.465332 0.000000
0.679199 0.465332 0.000000
0.712402 0.465332 0.000000
0.744629 0.465332 0.000000
0.776367 0.465332 0.000000
0.808594 0.465332 0.000000
0.839355 0.465332 0.000000
0.870117 0.465332 0.000000
0.899414 0.465332 0.000000
0.927734 0.465332 0.000000
0.954590 0.465332 0.000000
0.979492 0.465332 0.000000
1.000000 0.465332 0.000000
0.000000 0.502930 0.000000
0.015045 0.502930 0.000000
0.040985 0.502930 0.000000
0.071411 0.502930 0.000000
0.104492 0.502930 0.000000
0.139282 0.502930 0.000000
0.175415 0.502930 0.000000
0.212036 0.502930 0.000000
0.249146 0.502930 0.000000
0.286621 0.502930 0.000000
0.324219 0.502930 0.000000
0.361572 0.502930 0.000000
0.398926 0.502930 0.000000
0.435547 0.502930 0.000000
0.471680 0.502930 0.000000
0.507324 0.502930 0.000000
0.542480 0.502930 0.000000
0.577637 0.502930 0.000000
0.612305 0.502930 0.000000
0.645996 0.502930 0.000000
0.679199 0.502930 0.000000
0.712402 0.502930 0.000000
0.744629 0.502930 0.000000
0.776367 0.502930 0.000000
0.808594 0.502930 0.000000
0.839355 0.502930 0.000000
0.870117 0.502930 0.000000
0.899414 0.502930 0.000000
0.927734 0.502930 0.000000
0.954590 0.502930 0.000000
0.979492 0.502930 0.000000
1.000000 0.502930 0.000000
0.000000 0.540039 0.000000
0.015045 0.540039 0.000000
0.040985 0.540039 0.000000
0.071411 0.540039 0.000000
0.104492 0.540039 0.000000
0.139282 0.540039 0.000000
0.175415 0.540039 0.000000
0.212036 0.540039 0.000000
0.249146 0.540039 0.000000
0.286621 0.540039 0.000000
0.324219 0.540039 0.000000
0.361572 0.540039 0.000000
0.398926 0.540039 0.000000
0.435547 0.540039 0.000000
0.471680 0.540039 0.000000
0.507324 0.540039 0.000000
0.542480 0.540039 0.000000
0.577637 0.540039 0.000000
0.612305 0.540039 0.000000
0.645996 0.540039 0.000000
0.679199 0.540039 0.000000
0.712402 0.540039 0.000000
0.744629 0.540039 0.000000
0.776367 0.540039 0.000000
0.808594 0.540039 0.000000
0.839355 0.540039 0.000000
0.870117 0.540039 0.000000
0.899414 0.540039 0.000000
0.927734 0.540039 0.000000
0.954590 0.540039 0.000000
0.979492 0.540039 0.000000
1.000000 0.540039 0.000000
0.000000 0.575684 0.000000
0.015045 0.575684 0.000000
0.040985 0.575684 0.000000
0.071411 0.575684 0.000000
0.104492 0.575684 0.000000
0.139282 0.575684 0.000000
0.175415 0.575684 0.000000
0.212036 0.575684 0.000000
0.249146 0.575684 0.000000
0.286621 0.575684 0.000000
0.324219 0.575684 0.000000
0.361572 0.575684 0.000000
0.398926 0.575684 0.000000
0.435547 0.575684 0.000000
0.471680 0.575684 0.000000
0.507324 0.575684 0.000000
0.542480 0.575684 0.000000
0.577637 0.575684 0.000000
0.612305 0.575684 0.000000
0.645996 0.575684 0.000000
0.679199 0.575684 0.000000
0.712402 0.575684 0.000000
0.744629 0.575684 0.000000
0.776367 0.575684 0.000000
0.808594 0.575684 0.000000
0.839355 0.575684 0.000000
0.870117 0.575684 0.000000
0.899414 0.575684 0.000000
0.927734 0.575684 0.000000
0.954590 0.575684 0.000000
0.979492 0.575684 0.000000
1.000000 0.575684 0.000000
0.000000 0.610352 0.000000
0.015045 0.610840 0.000000
0.040985 0.610840 0.000000
0.071411 0.610840 0.000000
0.104492 0.610840 0.000000
0.139282 0.610840 0.000000
0.175415 0.610840 0.000000
0.212036 0.610840 0.000000
0.249146 0.610840 0.000000
0.286621 0.610840 0.000000
0.324219 0.610840 0.000000
0.361572 0.610840 0.000000
0.398926 0.610840 0.000000
0.435547 0.610840 0.000000
0.471680 0.610840 0.000000
0.507324 0.610840 0.000000
0.542480 0.610840 0.000000
0.577637 0.610840 0.000000
0.612305 0.610840 0.000000
0.645996 0.610840 0.000000
0.679199 0.610840 0.000000
0.712402 0.610840 0.000000
0.744629 0.610840 0.000000
0.776367 0.610840 0.000000
0.808594 0.610840 0.000000
0.839355 0.610840 0.000000
0.870117 0.610840 0.000000
0.899414 0.610840 0.000000
0.927734 0.610840 0.000000
0.954590 0.610840 0.000000
0.979492 0.610840 0.000000
1.000000 0.610840 0.000000
0.000000 0.644531 0.000000
0.015045 0.644531 0.000000
0.040985 0.644531 0.000000
0.071411 0.644531 0.000000
0.104492 0.644531 0.000000
0.139282 0.644531 0.000000
0.175415 0.644531 0.000000
0.212036 0.644531 0.000000
0.249146 0.644531 0.000000
0.286621 0.644531 0.000000
0.324219 0.644531 0.000000
0.361572 0.644531 0.000000
0.398926 0.644531 0.000000
0.435547 0.644531 0.000000
0.471680 0.644531 0.000000
0.507324 0.644531 0.000000
0.542480 0.644531 0.000000
0.577637 0.644531 0.000000
0.612305 0.644531 0.000000
0.645996 0.644531 0.000000
0.679199 0.644531 0.000000
0.712402 0.644531 0.000000
0.744629 0.644531 0.000000
0.776367 0.644531 0.000000
0.808594 0.644531 0.000000
0.839355 0.644531 0.000000
0.870117 0.644531 0.000000
0.899414 0.644531 0.000000
0.927734 0.644531 0.000000
0.954590 0.644531 0.000000
0.979492 0.644531 0.000000
1.000000 0.644531 0.000000
0.000000 0.677734 0.000000
0.015045 0.677734 0.000000
0.040985 0.677734 0.000000
0.071411 0.677734 0.000000
0.104492 0.677734 0.000000
0.139282 0.677734 0.000000
0.175415 0.677734 0.000000
0.212036 0.677734 0.000000
0.249146 0.677734 0.000000
0.286621 0.677734 0.000000
0.324219 0.677734 0.000000
0.361572 0.677734 0.000000
0.398926 0.677734 0.000000
0.435547 0.677734 0.000000
0.471680 0.677734 0.000000
0.507324 0.677734 0.000000
0.542480 0.677734 0.000000
0.577637 0.677734 0.000000
0.612305 0.677734 0.000000
0.645996 0.677734 0.000000
0.679199 0.677734 0.000000
0.712402 0.677734 0.000000
0.744629 0.677734 0.000000
0.776367 0.677734 0.000000
0.808594 0.677734 0.000000
0.839355 0.677734 0.000000
0.870117 0.677734 0.000000
0.899414 0.677734 0.000000
0.927734 0.677734 0.000000
0.954590 0.677734 0.000000
0.979492 0.677734 0.000000
1.000000 0.677734 0.000000
0.000000 0.709961 0.000000
0.015045 0.709961 0.000000
0.040985 0.709961 0.000000
0.071411 0.709961 0.000000
0.104492 0.709961 0.000000
0.139282 0.709961 0.000000
0.175415 0.709961 0.000000
0.212036 0.709961 0.000000
0.249146 0.709961 0.000000
0.286621 0.709961 0.000000
0.324219 0.709961 0.000000
0.361572 0.709961 0.000000
0.398926 0.709961 0.000000
0.435547 0.709961 0.000000
0.471680 0.709961 0.000000
0.507324 0.709961 0.000000
0.542480 0.709961 0.000000
0.577637 0.709961 0.000000
0.612305 0.709961 0.000000
0.645996 0.709961 0.000000
0.679199 0.709961 0.000000
0.712402 0.709961 0.000000
0.744629 0.709961 0.000000
0.776367 0.709961 0.000000
0.808594 0.709961 0.000000
0.839355 0.709961 0.000000
0.870117 0.709961 0.000000
0.899414 0.709961 0.000000
0.927734 0.709961 0.000000
0.954590 0.709961 0.000000
0.979492 0.709961 0.000000
1.000000 0.709961 0.000000
0.000000 0.740723 0.000000
0.015045 0.740723 0.000000
0.040985 0.740723 0.000000
0.071411 0.740723 0.000000
0.104492 0.740723 0.000000
0.139282 0.740723 0.000000
0.175415 0.740723 0.000000
0.212036 0.740723 0.000000
0.249146 0.740723 0.000000
0.286621 0.740723 0.000000
0.324219 0.740723 0.000000
0.361572 0.740723 0.000000
0.398926 0.740723 0.000000
0.435547 0.741211 0.000000
0.471680 0.741211 0.000000
0.507324 0.741211 0.000000
0.542480 0.741211 0.000000
0.577637 0.741211 0.000000
0.612305 0.741211 0.000000
0.645996 0.741211 0.000000
0.679199 0.741211 0.000000
0.712402 0.741211 0.000000
0.744629 0.741211 0.000000
0.776367 0.741211 0.000000
0.808594 0.741211 0.000000
0.839355 0.741211 0.000000
0.870117 0.741211 0.000000
0.899414 0.741211 0.000000
0.927734 0.741211 0.000000
0.954590 0.741211 0.000000
0.979492 0.741211 0.000000
1.000000 0.741211 0.000000
0.000000 0.771484 0.000000
0.015045 0.771484 0.000000
0.040985 0.771484 0.000000
0.071411 0.771484 0.000000
0.104492 0.771484 0.000000
0.139282 0.771484 0.000000
0.175415 0.771484 0.000000
0.212036 0.771484 0.000000
0.249146 0.771484 0.000000
0.286621 0.771484 0.000000
0.324219 0.771484 0.000000
0.361572 0.771484 0.000000
0.398926 0.771484 0.000000
0.435547 0.771484 0.000000
0.471680 0.771484 0.000000
0.507324 0.771484 0.000000
0.542480 0.771484 0.000000
0.577637 0.771484 0.000000
0.612305 0.771484 0.000000
0.645996 0.771484 0.000000
0.679199 0.771484 0.000000
0.712402 0.771484 0.000000
0.744629 0.771484 0.000000
0.776367 0.771484 0.000000
0.808594 0.771484 0.000000
0.839355 0.771484 0.000000
0.870117 0.771484 0.000000
0.899414 0.771484 0.000000
0.927734 0.771484 0.000000
0.954590 0.771484 0.000000
0.979492 0.771484 0.000000
1.000000 0.771484 0.000000
0.000000 0.800293 0.000000
0.015045 0.800293 0.000000
0.040985 0.800293 0.000000
0.071411 0.800293 0.000000
0.104492 0.800293 0.000000
0.139282 0.800293 0.000000
0.175415 0.800293 0.000000
0.212036 0.800293 0.000000
0.249146 0.800293 0.000000
0.286621 0.800293 0.000000
0.324219 0.800293 0.000000
0.361572 0.800293 0.000000
0.398926 0.800293 0.000000
0.435547 0.800293 0.000000
0.471680 0.800293 0.000000
0.507324 0.800293 0.000000
0.542480 0.800293 0.000000
0.577637 0.800293 0.000000
0.612305 0.800293 0.000000
0.645996 0.800293 0.000000
0.679199 0.800293 0.000000
0.712402 0.800293 0.000000
0.744629 0.800293 0.000000
0.776367 0.800293 0.000000
0.808594 0.800293 0.000000
0.839355 0.800293 0.000000
0.870117 0.800293 0.000000
0.899414 0.800293 0.000000
0.927734 0.800293 0.000000
0.954590 0.800293 0.000000
0.979492 0.800293 0.000000
1.000000 0.800293 0.000000
0.000000 0.829102 0.000000
0.015045 0.829102 0.000000
0.040985 0.829102 0.000000
0.071411 0.829102 0.000000
0.104492 0.829102 0.000000
0.139282 0.829102 0.000000
0.175415 0.829102 0.000000
0.212036 0.829102 0.000000
0.249146 0.829102 0.000000
0.286621 0.829102 0.000000
0.324219 0.829102 0.000000
0.361572 0.829102 0.000000
0.398926 0.829102 0.000000
0.435547 0.829102 0.000000
0.471680 0.829102 0.000000
0.507324 0.829102 0.000000
0.542480 0.829102 0.000000
0.577637 0.829102 0.000000
0.612305 0.829102 0.000000
0.645996 0.829102 0.000000
0.679199 0.829102 0.000000
0.712402 0.829102 0.000000
0.744629 0.829102 0.000000
0.776367 0.829102 0.000000
0.808594 0.829102 0.000000
0.839355 0.829102 0.000000
0.870117 0.829102 0.000000
0.899414 0.829102 0.000000
0.927734 0.829102 0.000000
0.954590 0.829102 0.000000
0.979492 0.829102 0.000000
1.000000 0.829102 0.000000
0.000000 0.856445 0.000000
0.015045 0.856445 0.000000
0.040985 0.856445 0.000000
0.071411 0.856445 0.000000
0.104492 0.856445 0.000000
0.139282 0.856445 0.000000
0.175415 0.856445 0.000000
0.212036 0.856445 0.000000
0.249146 0.856445 0.000000
0.286621 0.856445 0.000000
0.324219 0.856445 0.000000
0.361572 0.856445 0.000000
0.398926 0.856445 0.000000
0.435547 0.856445 0.000000
0.471680 0.856445 0.000000
0.507324 0.856445 0.000000
0.542480 0.856445 0.000000
0.577637 0.856445 0.000000
0.612305 0.856445 0.000000
0.645996 0.856445 0.000000
0.679199 0.856445 0.000000
0.712402 0.856445 0.000000
0.744629 0.856445 0.000000
0.776367 0.856445 0.000000
0.808594 0.856445 0.000000
0.839355 0.856445 0.000000
0.870117 0.856445 0.000000
0.899414 0.856445 0.000000
0.927734 0.856445 0.000000
0.954590 0.856445 0.000000
0.979492 0.856445 0.000000
1.000000 0.856445 0.000000
0.000000 0.883301 0.000000
0.015045 0.883301 0.000000
0.040985 0.883301 0.000000
0.071411 0.883301 0.000000
0.104492 0.883301 0.000000
0.139282 0.883301 0.000000
0.175415 0.883301 0.000000
0.212036 0.883301 0.000000
0.249146 0.883301 0.000000
0.286621 0.883301 0.000000
0.324219 0.883301 0.000000
0.361572 0.883301 0.000000
0.398926 0.883301 0.000000
0.435547 0.883301 0.000000
0.471680 0.883301 0.000000
0.507324 0.883301 0.000000
0.542480 0.883301 0.000000
0.577637 0.883301 0.000000
0.612305 0.883301 0.000000
0.645996 0.883301 0.000000
0.679199 0.883301 0.000000
0.712402 0.883301 0.000000
0.744629 0.883301 0.000000
0.776367 0.883301 0.000000
0.808594 0.883301 0.000000
0.839355 0.883301 0.000000
0.870117 0.883301 0.000000
0.899414 0.883301 0.000000
0.927734 0.883301 0.000000
0.954590 0.883301 0.000000
0.979492 0.883301 0.000000
1.000000 0.883301 0.000000
0.000000 0.908691 0.000000
0.015045 0.908691 0.000000
0.040985 0.908691 0.000000
0.071411 0.908691 0.000000
0.104492 0.908691 0.000000
0.139282 0.908691 0.000000
0.175415 0.908691 0.000000
0.212036 0.908691 0.000000
0.249146 0.908691 0.000000
0.286621 0.908691 0.000000
0.324219 0.908691 0.000000
0.361572 0.908691 0.000000
0.398926 0.908691 0.000000
0.435547 0.908691 0.000000
0.471680 0.908691 0.000000
0.507324 0.908691 0.000000
0.542480 0.908691 0.000000
0.577637 0.908691 0.000000
0.612305 0.908691 0.000000
0.645996 0.908691 0.000000
0.679199 0.908691 0.000000
0.712402 0.908691 0.000000
0.744629 0.908691 0.000000
