cubelut/Adanmq_AgfaColor HDC 100+.cube
TITLE "Generated by Foundry::LUT"
LUT_3D_SIZE 5
DOMAIN_MIN 0.000000 0.000000 0.000000
DOMAIN_MAX 0.903226 0.903226 0.903226
0.000000 0.000000 0.000000
0.212036 0.000000 0.000000
0.471680 0.000000 0.000000
0.712402 0.000000 0.000000
0.927734 0.000000 0.000000
0.000000 0.229492 0.000000
0.212036 0.229492 0.000000
0.471680 0.229492 0.000000
0.712402 0.229492 0.000000
0.927734 0.229492 0.000000
0.000000 0.502930 0.000000
0.212036 0.502930 0.000000
0.471680 0.502930 0.000000
0.712402 0.502930 0.000000
0.927734 0.502930 0.000000
0.000000 0.740723 0.000000
0.212036 0.740723 0.000000
0.471680 0.741211 0.000000
0.712402 0.741211 0.000000
0.927734 0.741211 0.000000
0.000000 0.933594 0.000000
0.212036 0.933594 0.000000
0.471680 0.933594 0.000000
0.712402 0.933594 0.000000
0.927734 0.933594 0.000000
0.000000 0.000000 0.212036
0.212158 0.000000 0.212036
0.471680 0.000000 0.212036
0.712402 0.000000 0.212036
0.927734 0.000000 0.212036
0.000000 0.229492 0.212036
0.212158 0.229492 0.212036
0.471680 0.229492 0.212036
0.712402 0.229492 0.212036
0.927734 0.229492 0.212036
0.000000 0.502930 0.212036
0.212158 0.502930 0.212036
0.471680 0.502930 0.212036
0.712402 0.502930 0.212036
0.927734 0.502930 0.212036
0.000000 0.740723 0.212036
0.212158 0.740723 0.212036
0.471680 0.740723 0.212036
0.712402 0.741211 0.212036
0.927734 0.741211 0.212036
0.000000 0.933594 0.212036
0.212158 0.933594 0.212036
0.471680 0.933594 0.212036
0.712402 0.933594 0.212036
0.927734 0.933594 0.212036
0.000000 0.000000 0.471436
0.212158 0.000000 0.471436
0.471680 0.000000 0.471436
0.712402 0.000000 0.471436
0.927734 0.000000 0.471436
0.000000 0.229492 0.471436
0.212158 0.229492 0.471436
0.471680 0.229492 0.471436
0.712402 0.229492 0.471436
0.927734 0.229492 0.471436
0.000000 0.502930 0.471436
0.212158 0.502930 0.471436
0.471680 0.502930 0.471436
0.712402 0.502930 0.471436
0.927734 0.502930 0.471436
0.000000 0.740723 0.471436
0.212158 0.740723 0.471436
0.471680 0.740723 0.471436
0.712402 0.740723 0.471436
0.927734 0.741211 0.471436
0.000000 0.933594 0.471436
0.212158 0.933594 0.471436
0.471680 0.933594 0.471436
0.712402 0.933594 0.471436
0.927734 0.933594 0.471436
0.000000 0.000000 0.711914
0.212158 0.000000 0.711914
0.471680 0.000000 0.711914
0.712402 0.000000 0.711914
0.927734 0.000000 0.711914
0.000000 0.229492 0.711914
0.212158 0.229492 0.711914
0.471680 0.229492 0.711914
0.712402 0.229492 0.711914
0.927734 0.229492 0.711914
0.000000 0.502930 0.711914
0.212158 0.502930 0.711914
0.471680 0.502930 0.711914
0.712402 0.502930 0.711914
0.927734 0.502930 0.711914
0.000000 0.740723 0.711914
0.212158 0.740723 0.711914
0.471680 0.740723 0.711914
0.712402 0.740723 0.711914
0.927734 0.740723 0.711914
0.000000 0.933594 0.711914
0.212158 0.933594 0.711914
0.471680 0.933594 0.711914
0.712402 0.933594 0.711914
0.927734 0.933594 0.711914
0.000000 0.000000 0.927734
0.212280 0.000000 0.927734
0.471680 0.000000 0.927734
0.712402 0.000000 0.927734
0.927734 0.000000 0.927734
0.000000 0.229492 0.927734
0.212280 0.229492 0.927734
0.471680 0.229492 0.927734
0.712402 0.229492 0.927734
0.927734 0.229492 0.927734
0.000000 0.502930 0.927734
0.212280 0.502930 0.927734
0.471680 0.502930 0.927734
0.712402 0.502930 0.927734
0.927734 0.502930 0.927734
0.000000 0.740723 0.927734
0.212280 0.740723 0.927734
0.471680 0.740723 0.927734
0.712402 0.740723 0.927734
0.927734 0.740723 0.927734
0.000000 0.933594 0.927734
0.212280 0.933594 0.927734
0.471680 0.933594 0.927734
0.712402 0.933594 0.927734
0.927734 0.933594 0.927734
