cubelut/Adanmq_AgfaColor Vista 400.cube
TITLE "Generated by Foundry::LUT"
LUT_3D_SIZE 5
DOMAIN_MIN 0.000000 0.000000 0.000000
DOMAIN_MAX 0.903226 0.903226 0.903226
0.000000 0.000000 0.000000
0.330078 0.000000 0.000000
0.572754 0.000000 0.000000
0.767090 0.000000 0.000000
0.936523 0.000000 0.000000
0.000000 0.325439 0.000000
0.330078 0.325439 0.000000
0.572754 0.325439 0.000000
0.767090 0.325439 0.000000
0.936523 0.325439 0.000000
0.000000 0.585938 0.000000
0.330078 0.585938 0.000000
0.572754 0.585938 0.000000
0.767090 0.585938 0.000000
0.936523 0.585938 0.000000
0.000000 0.778320 0.000000
0.330078 0.778320 0.000000
0.572754 0.778320 0.000000
0.767090 0.778320 0.000000
0.936523 0.778320 0.000000
0.000000 0.939453 0.000000
0.330078 0.939453 0.000000
0.572754 0.939453 0.000000
0.767090 0.939453 0.000000
0.936523 0.939453 0.000000
0.000000 0.000000 0.267090
0.330078 0.000000 0.267090
0.572754 0.000000 0.267090
0.767090 0.000000 0.267090
0.936523 0.000000 0.267090
0.000000 0.325439 0.267090
0.330078 0.325439 0.267090
0.572754 0.325439 0.267090
0.767090 0.325439 0.267090
0.936523 0.325439 0.267090
0.000000 0.585938 0.267090
0.330078 0.585938 0.267090
0.572754 0.585938 0.267090
0.767090 0.585938 0.267090
0.936523 0.585938 0.267090
0.000000 0.778320 0.267090
0.330078 0.778320 0.267090
0.572754 0.778320 0.267090
0.767090 0.778320 0.267090
0.936523 0.778320 0.267090
0.000000 0.939453 0.267090
0.330078 0.939453 0.267090
0.572754 0.939453 0.267090
0.767090 0.939453 0.267090
0.936523 0.939453 0.267090
0.000001 0.000000 0.515625
0.330078 0.000000 0.515625
0.572754 0.000000 0.515625
0.767090 0.000000 0.515625
0.936523 0.000000 0.515625
0.000001 0.325439 0.515625
0.330078 0.325439 0.515625
0.572754 0.325439 0.515625
0.767090 0.325439 0.515625
0.936523 0.325439 0.515625
0.000001 0.585938 0.515625
0.330078 0.585938 0.515625
0.572754 0.585938 0.515625
0.767090 0.585938 0.515625
0.936523 0.585938 0.515625
0.000001 0.778320 0.515625
0.330078 0.778320 0.515625
0.572754 0.778320 0.515625
0.767090 0.778320 0.515625
0.936523 0.778320 0.515625
0.000001 0.939453 0.515625
0.330078 0.939453 0.515625
0.572754 0.939453 0.515625
0.767090 0.939453 0.515625
0.936523 0.939453 0.515625
0.000001 0.000000 0.719238
0.330078 0.000000 0.719238
0.572754 0.000000 0.719238
0.767090 0.000000 0.719238
0.936523 0.000000 0.719238
0.000001 0.325439 0.719238
0.330078 0.325439 0.719238
0.572754 0.325439 0.719238
0.767090 0.325439 0.719238
0.936523 0.325439 0.719238
0.000001 0.585938 0.719727
0.330078 0.585938 0.719727
0.572754 0.585938 0.719727
0.767090 0.585938 0.719727
0.936523 0.585938 0.719727
0.000001 0.778320 0.719727
0.330078 0.778320 0.719727
0.572754 0.778320 0.719727
0.767090 0.778320 0.719727
0.936523 0.778320 0.719727
0.000001 0.939453 0.719727
0.330078 0.939453 0.719727
0.572754 0.939453 0.719727
0.767090 0.939453 0.719727
0.936523 0.939453 0.719727
0.000002 0.000000 0.916504
0.330078 0.000000 0.916504
0.572754 0.000000 0.916504
0.767090 0.000000 0.916504
0.936523 0.000000 0.916504
0.000002 0.325439 0.916504
0.330078 0.325439 0.916504
0.572754 0.325439 0.916504
0.767090 0.325439 0.916504
0.936523 0.325439 0.916504
0.000002 0.585938 0.916504
0.330078 0.585938 0.916504
0.572754 0.585938 0.916504
0.767090 0.585938 0.916504
0.936523 0.585938 0.916504
0.000002 0.778320 0.916504
0.330078 0.778320 0.916504
0.572754 0.778320 0.916504
0.767090 0.778320 0.916504
0.936523 0.778320 0.916504
0.000002 0.939453 0.916504
0.330078 0.939453 0.916504
0.572754 0.939453 0.916504
0.767090 0.939453 0.916504
0.936523 0.939453 0.916504
