cubelut/Adanmq_AgfaColor Vista 800.cube
TITLE "Generated by Foundry::LUT"
LUT_3D_SIZE 8
DOMAIN_MIN 0.000000 0.000000 0.000000
DOMAIN_MAX 0.903226 0.903226 0.903226
0.000000 0.000000 0.000000
0.215210 0.000000 0.000000
0.403320 0.000000 0.000000
0.544434 0.000000 0.000000
0.661621 0.000000 0.000000
0.764160 0.000000 0.000000
0.858398 0.000000 0.000000
0.944824 0.000000 0.000000
0.000000 0.196533 0.000000
0.215210 0.196533 0.000000
0.403320 0.196533 0.000000
0.544434 0.196533 0.000000
0.661621 0.196533 0.000000
0.764160 0.196533 0.000000
0.858398 0.196533 0.000000
0.944824 0.196533 0.000000
0.000000 0.393799 0.000000
0.215210 0.393799 0.000000
0.403320 0.393799 0.000000
0.544434 0.393799 0.000000
0.661621 0.393799 0.000000
0.764160 0.393799 0.000000
0.858398 0.393799 0.000000
0.944824 0.393799 0.000000
0.000000 0.547363 0.000000
0.215210 0.547363 0.000000
0.403320 0.547363 0.000000
0.544434 0.547363 0.000000
0.661621 0.547363 0.000000
0.764160 0.547363 0.000000
0.858398 0.547363 0.000000
0.944824 0.547363 0.000000
0.000000 0.670898 0.000000
0.215210 0.670898 0.000000
0.403320 0.670898 0.000000
0.544434 0.670898 0.000000
0.661621 0.670898 0.000000
0.764160 0.671387 0.000000
0.858398 0.671387 0.000000
0.944824 0.671387 0.000000
0.000000 0.775879 0.000000
0.215210 0.775879 0.000000
0.403320 0.775879 0.000000
0.544434 0.775879 0.000000
0.661621 0.775879 0.000000
0.764160 0.775879 0.000000
0.858398 0.775879 0.000000
0.944824 0.775879 0.000000
0.000000 0.867188 0.000000
0.215210 0.867188 0.000000
0.403320 0.867188 0.000000
0.544434 0.867188 0.000000
0.661621 0.867188 0.000000
0.764160 0.867188 0.000000
0.858398 0.867188 0.000000
0.944824 0.867188 0.000000
0.000000 0.949219 0.000000
0.215210 0.949219 0.000000
0.403320 0.949219 0.000000
0.544434 0.949219 0.000000
0.661621 0.949219 0.000000
0.764160 0.949219 0.000000
0.858398 0.949219 0.000000
0.944824 0.949219 0.000000
0.000000 0.000000 0.152466
0.215210 0.000000 0.152466
0.403320 0.000000 0.152466
0.544434 0.000000 0.152466
0.661621 0.000000 0.152466
0.764160 0.000000 0.152466
0.858398 0.000000 0.152466
0.944824 0.000000 0.152466
0.000000 0.196533 0.152466
0.215210 0.196533 0.152466
0.403320 0.196533 0.152466
0.544434 0.196533 0.152466
0.661621 0.196533 0.152466
0.764160 0.196533 0.152466
0.858398 0.196533 0.152466
0.944824 0.196533 0.152466
0.000000 0.393799 0.152466
0.215210 0.393799 0.152466
0.403320 0.393799 0.152466
0.544434 0.393799 0.152466
0.661621 0.393799 0.152466
0.764160 0.393799 0.152466
0.858398 0.393799 0.152466
0.944824 0.393799 0.152466
0.000000 0.547363 0.152466
0.215210 0.547363 0.152466
0.403320 0.547363 0.152466
0.544434 0.547363 0.152466
0.661621 0.547363 0.152466
0.764160 0.547363 0.152466
0.858398 0.547363 0.152466
0.944824 0.547363 0.152466
0.000000 0.670898 0.152466
0.215210 0.670898 0.152466
0.403320 0.670898 0.152466
0.544434 0.670898 0.152466
0.661621 0.670898 0.152466
0.764160 0.670898 0.152466
0.858398 0.671387 0.152466
0.944824 0.671387 0.152466
0.000000 0.775879 0.152466
0.215210 0.775879 0.152466
0.403320 0.775879 0.152466
0.544434 0.775879 0.152466
0.661621 0.775879 0.152466
0.764160 0.775879 0.152466
0.858398 0.775879 0.152466
0.944824 0.775879 0.152466
0.000000 0.867188 0.152466
0.215210 0.867188 0.152466
0.403320 0.867188 0.152466
0.544434 0.867188 0.152466
0.661621 0.867188 0.152466
0.764160 0.867188 0.152466
0.858398 0.867188 0.152466
0.944824 0.867188 0.152466
0.000000 0.949219 0.152466
0.215210 0.949219 0.152466
0.403320 0.949219 0.152466
0.544434 0.949219 0.152466
0.661621 0.949219 0.152466
0.764160 0.949219 0.152466
0.858398 0.949219 0.152466
0.944824 0.949219 0.152466
0.000000 0.000000 0.325439
0.215210 0.000000 0.325439
0.403564 0.000000 0.325439
0.544434 0.000000 0.325439
0.661621 0.000000 0.325439
0.764160 0.000000 0.325439
0.858398 0.000000 0.325439
0.944824 0.000000 0.325439
0.000000 0.196533 0.325439
0.215210 0.196533 0.325439
0.403564 0.196533 0.325439
0.544434 0.196533 0.325439
0.661621 0.196533 0.325439
0.764160 0.196533 0.325439
0.858398 0.196533 0.325439
0.944824 0.196533 0.325439
0.000000 0.393799 0.325439
0.215210 0.393799 0.325439
0.403564 0.393799 0.325439
0.544434 0.393799 0.325439
0.661621 0.393799 0.325439
0.764160 0.393799 0.325439
0.858398 0.393799 0.325439
0.944824 0.393799 0.325439
0.000000 0.547363 0.325439
0.215210 0.547363 0.325439
0.403564 0.547363 0.325439
0.544434 0.547363 0.325439
0.661621 0.547363 0.325439
0.764160 0.547363 0.325439
0.858398 0.547363 0.325439
0.944824 0.547363 0.325439
0.000000 0.670898 0.325439
0.215210 0.670898 0.325439
0.403564 0.670898 0.325439
0.544434 0.670898 0.325439
0.661621 0.670898 0.325439
0.764160 0.670898 0.325439
0.858398 0.671387 0.325439
0.944824 0.671387 0.325439
0.000000 0.775879 0.325439
0.215210 0.775879 0.325439
0.403564 0.775879 0.325439
0.544434 0.775879 0.325439
0.661621 0.775879 0.325439
0.764160 0.775879 0.325439
0.858398 0.775879 0.325439
0.944824 0.775879 0.325439
0.000000 0.867188 0.325439
0.215210 0.867188 0.325439
0.403564 0.867188 0.325439
0.544434 0.867188 0.325439
0.661621 0.867188 0.325439
0.764160 0.867188 0.325439
0.858398 0.867188 0.325439
0.944824 0.867188 0.325439
0.000000 0.949219 0.325439
0.215210 0.949219 0.325439
0.403564 0.949219 0.325439
0.544434 0.949219 0.325439
0.661621 0.949219 0.325439
0.764160 0.949219 0.325439
0.858398 0.949219 0.325439
0.944824 0.949219 0.325439
0.000000 0.000000 0.479492
0.215332 0.000000 0.479492
0.403564 0.000000 0.479492
0.544434 0.000000 0.479492
0.661621 0.000000 0.479492
0.764160 0.000000 0.479492
0.858398 0.000000 0.479492
0.944824 0.000000 0.479492
0.000000 0.196533 0.479492
0.215332 0.196533 0.479492
0.403564 0.196533 0.479492
0.544434 0.196533 0.479492
0.661621 0.196533 0.479492
0.764160 0.196533 0.479492
0.858398 0.196533 0.479492
0.944824 0.196533 0.479492
0.000000 0.393799 0.479492
0.215332 0.393799 0.479492
0.403564 0.393799 0.479492
0.544434 0.393799 0.479492
0.661621 0.393799 0.479492
0.764160 0.393799 0.479492
0.858398 0.393799 0.479492
0.944824 0.393799 0.479492
0.000000 0.547363 0.479492
0.215332 0.547363 0.479492
0.403564 0.547363 0.479492
0.544434 0.547363 0.479492
0.661621 0.547363 0.479492
0.764160 0.547363 0.479492
0.858398 0.547363 0.479492
0.944824 0.547363 0.479492
0.000000 0.670898 0.479492
0.215332 0.670898 0.479492
0.403564 0.670898 0.479492
0.544434 0.670898 0.479492
0.661621 0.670898 0.479492
0.764160 0.670898 0.479492
0.858398 0.670898 0.479492
0.944824 0.671387 0.479492
0.000000 0.775879 0.479492
0.215332 0.775879 0.479492
0.403564 0.775879 0.479492
0.544434 0.775879 0.479492
0.661621 0.775879 0.479492
0.764160 0.775879 0.479492
0.858398 0.775879 0.479492
0.944824 0.775879 0.479492
0.000000 0.867188 0.479492
0.215332 0.867188 0.479492
0.403564 0.867188 0.479492
0.544434 0.867188 0.479492
0.661621 0.867188 0.479492
0.764160 0.867188 0.479492
0.858398 0.867188 0.479492
0.944824 0.867188 0.479492
0.000000 0.949219 0.479492
0.215332 0.949219 0.479492
0.403564 0.949219 0.479492
0.544434 0.949219 0.479492
0.661621 0.949219 0.479492
0.764160 0.949219 0.479492
0.858398 0.949219 0.479492
0.944824 0.949219 0.479492
0.000001 0.000000 0.611816
0.215332 0.000000 0.611816
0.403564 0.000000 0.611816
0.544434 0.000000 0.611816
0.661621 0.000000 0.611816
0.764160 0.000000 0.611816
0.858398 0.000000 0.611816
0.944824 0.000000 0.611816
0.000001 0.196533 0.611816
0.215332 0.196533 0.611816
0.403564 0.196533 0.611816
0.544434 0.196533 0.611816
0.661621 0.196533 0.611816
0.764160 0.196533 0.611816
0.858398 0.196533 0.611816
0.944824 0.196533 0.611816
0.000001 0.393799 0.611816
0.215332 0.393799 0.611816
0.403564 0.393799 0.611816
0.544434 0.393799 0.611816
0.661621 0.393799 0.611816
0.764160 0.393799 0.611816
0.858398 0.393799 0.611816
0.944824 0.393799 0.611816
0.000001 0.547363 0.611816
0.215332 0.547363 0.611816
0.403564 0.547363 0.611816
0.544434 0.547363 0.611816
0.661621 0.547363 0.611816
0.764160 0.547363 0.611816
0.858398 0.547363 0.611816
0.944824 0.547363 0.611816
0.000001 0.670898 0.611816
0.215332 0.670898 0.611816
0.403564 0.670898 0.611816
0.544434 0.670898 0.611816
0.661621 0.670898 0.611816
0.764160 0.670898 0.611816
0.858398 0.670898 0.611816
0.944824 0.670898 0.611816
0.000001 0.775879 0.611816
0.215332 0.775879 0.611816
0.403564 0.775879 0.611816
0.544434 0.775879 0.611816
0.661621 0.775879 0.611816
0.764160 0.775879 0.611816
0.858398 0.775879 0.611816
0.944824 0.775879 0.611816
0.000001 0.867188 0.611816
0.215332 0.867188 0.611816
0.403564 0.867188 0.611816
0.544434 0.867188 0.611816
0.661621 0.867188 0.611816
0.764160 0.867188 0.611816
0.858398 0.867188 0.611816
0.944824 0.867188 0.611816
0.000001 0.949219 0.611816
0.215332 0.949219 0.611816
0.403564 0.949219 0.611816
0.544434 0.949219 0.611816
0.661621 0.949219 0.611816
0.764160 0.949219 0.611816
0.858398 0.949219 0.611816
0.944824 0.949219 0.611816
0.000001 0.000000 0.728516
0.215332 0.000000 0.728516
0.403564 0.000000 0.728516
0.544434 0.000000 0.728516
0.661621 0.000000 0.728516
0.764160 0.000000 0.728516
0.858398 0.000000 0.728516
0.944824 0.000000 0.728516
0.000001 0.196411 0.728516
0.215332 0.196533 0.728516
0.403564 0.196533 0.728516
0.544434 0.196533 0.728516
0.661621 0.196533 0.728516
0.764160 0.196533 0.728516
0.858398 0.196533 0.728516
0.944824 0.196533 0.728516
0.000001 0.393799 0.728516
0.215332 0.393799 0.728516
0.403564 0.393799 0.728516
0.544434 0.393799 0.728516
0.661621 0.393799 0.728516
0.764160 0.393799 0.728516
0.858398 0.393799 0.728516
0.944824 0.393799 0.728516
0.000001 0.547363 0.728516
0.215332 0.547363 0.728516
0.403564 0.547363 0.728516
0.544434 0.547363 0.728516
0.661621 0.547363 0.728516
0.764160 0.547363 0.728516
0.858398 0.547363 0.728516
0.944824 0.547363 0.728516
0.000001 0.670898 0.728516
0.215332 0.670898 0.728516
0.403564 0.670898 0.728516
0.544434 0.670898 0.728516
0.661621 0.670898 0.728516
0.764160 0.670898 0.728516
0.858398 0.670898 0.728516
0.944824 0.670898 0.728516
0.000001 0.775879 0.728516
0.215332 0.775879 0.728516
0.403564 0.775879 0.728516
0.544434 0.775879 0.728516
0.661621 0.775879 0.728516
0.764160 0.775879 0.728516
0.858398 0.775879 0.728516
0.944824 0.775879 0.728516
0.000001 0.867188 0.728516
0.215332 0.867188 0.728516
0.403564 0.867188 0.728516
0.544434 0.867188 0.728516
0.661621 0.867188 0.728516
0.764160 0.867188 0.728516
0.858398 0.867188 0.728516
0.944824 0.867188 0.728516
0.000001 0.949219 0.728516
0.215332 0.949219 0.728516
0.403564 0.949219 0.728516
0.544434 0.949219 0.728516
0.661621 0.949219 0.728516
0.764160 0.949219 0.728516
0.858398 0.949219 0.728516
0.944824 0.949219 0.728516
0.000002 0.000000 0.834961
0.215332 0.000000 0.834961
0.403564 0.000000 0.834961
0.544434 0.000000 0.834961
0.661621 0.000000 0.834961
0.764160 0.000000 0.834961
0.858398 0.000000 0.834961
0.944824 0.000000 0.834961
0.000002 0.196411 0.834961
0.215332 0.196411 0.834961
0.403564 0.196533 0.834961
0.544434 0.196533 0.834961
0.661621 0.196533 0.834961
0.764160 0.196533 0.834961
0.858398 0.196533 0.834961
0.944824 0.196533 0.834961
0.000002 0.393799 0.834961
0.215332 0.393799 0.834961
0.403564 0.393799 0.834961
0.544434 0.393799 0.834961
0.661621 0.393799 0.834961
0.764160 0.393799 0.834961
0.858398 0.393799 0.834961
0.944824 0.393799 0.834961
0.000002 0.547363 0.834961
0.215332 0.547363 0.834961
0.403564 0.547363 0.834961
0.544434 0.547363 0.834961
0.661621 0.547363 0.834961
0.764160 0.547363 0.834961
0.858398 0.547363 0.834961
0.944824 0.547363 0.834961
0.000002 0.670898 0.834961
0.215332 0.670898 0.834961
0.403564 0.670898 0.834961
0.544434 0.670898 0.834961
0.661621 0.670898 0.834961
0.764160 0.670898 0.834961
0.858398 0.670898 0.834961
0.944824 0.670898 0.834961
0.000002 0.775879 0.834961
0.215332 0.775879 0.834961
0.403564 0.775879 0.834961
0.544434 0.775879 0.834961
0.661621 0.775879 0.834961
0.764160 0.775879 0.834961
0.858398 0.775879 0.834961
0.944824 0.775879 0.834961
0.000002 0.867188 0.834961
0.215332 0.867188 0.834961
0.403564 0.867188 0.834961
0.544434 0.867188 0.834961
0.661621 0.867188 0.834961
0.764160 0.867188 0.834961
0.858398 0.867188 0.834961
0.944824 0.867188 0.834961
0.000002 0.949219 0.834961
0.215332 0.949219 0.834961
0.403564 0.949219 0.834961
0.544434 0.949219 0.834961
0.661621 0.949219 0.834961
0.764160 0.949219 0.834961
0.858398 0.949219 0.834961
0.944824 0.949219 0.834961
0.000003 0.000000 0.934082
0.215454 0.000000 0.934082
0.403564 0.000000 0.934082
0.544434 0.000000 0.934082
0.661621 0.000000 0.934082
0.764648 0.000000 0.934082
0.858398 0.000000 0.934082
0.944824 0.000000 0.934082
0.000003 0.196411 0.934082
0.215454 0.196411 0.934082
0.403564 0.196411 0.934082
0.544434 0.196533 0.934082
0.661621 0.196533 0.934082
0.764648 0.196533 0.934082
0.858398 0.196533 0.934082
0.944824 0.196533 0.934082
0.000003 0.393799 0.934082
0.215454 0.393799 0.934082
0.403564 0.393799 0.934082
0.544434 0.393799 0.934082
0.661621 0.393799 0.934082
0.764648 0.393799 0.934082
0.858398 0.393799 0.934082
0.944824 0.393799 0.934082
0.000003 0.547363 0.934082
0.215454 0.547363 0.934082
0.403564 0.547363 0.934082
0.544434 0.547363 0.934082
0.661621 0.547363 0.934082
0.764648 0.547363 0.934082
0.858398 0.547363 0.934082
0.944824 0.547363 0.934082
0.000003 0.670898 0.934082
0.215454 0.670898 0.934082
0.403564 0.670898 0.934082
0.544434 0.670898 0.934082
0.661621 0.670898 0.934082
0.764648 0.670898 0.934082
0.858398 0.670898 0.934082
0.944824 0.670898 0.934082
0.000003 0.775879 0.934082
0.215454 0.775879 0.934082
0.403564 0.775879 0.934082
0.544434 0.775879 0.934082
0.661621 0.775879 0.934082
0.764648 0.775879 0.934082
0.858398 0.775879 0.934082
0.944824 0.775879 0.934082
0.000003 0.867188 0.934082
0.215454 0.867188 0.934082
0.403564 0.867188 0.934082
0.544434 0.867188 0.934082
0.661621 0.867188 0.934082
0.764648 0.867188 0.934082
0.858398 0.867188 0.934082
0.944824 0.867188 0.934082
0.000003 0.949219 0.934082
0.215454 0.949219 0.934082
0.403564 0.949219 0.934082
0.544434 0.949219 0.934082
0.661621 0.949219 0.934082
0.764648 0.949219 0.934082
0.858398 0.949219 0.934082
0.944824 0.949219 0.934082
