cubelut/Adanmq_Canon DSC S315 n1.cube
TITLE "Generated by Foundry::LUT"
LUT_3D_SIZE 32
0.000000 0.000000 0.000000
0.012077 0.000000 0.000000
0.043945 0.000000 0.000000
0.084839 0.000000 0.000000
0.133057 0.000000 0.000000
0.188721 0.000000 0.000000
0.250732 0.000000 0.000000
0.315430 0.000000 0.000000
0.378418 0.000000 0.000000
0.436035 0.000000 0.000000
0.487793 0.000000 0.000000
0.534180 0.000000 0.000000
0.575684 0.000000 0.000000
0.612793 0.000000 0.000000
0.646973 0.000000 0.000000
0.678223 0.000000 0.000000
0.707031 0.000000 0.000000
0.733887 0.000000 0.000000
0.759277 0.000000 0.000000
0.783203 0.000000 0.000000
0.805664 0.000000 0.000000
0.827148 0.000000 0.000000
0.847656 0.000000 0.000000
0.867188 0.000000 0.000000
0.886230 0.000000 0.000000
0.904297 0.000000 0.000000
0.921387 0.000000 0.000000
0.937988 0.000000 0.000000
0.954590 0.000000 0.000000
0.969727 0.000000 0.000000
0.985352 0.000000 0.000000
1.000000 0.000000 0.000000
0.000000 0.013519 0.000000
0.012077 0.013519 0.000000
0.043945 0.013519 0.000000
0.084839 0.013519 0.000000
0.133057 0.013519 0.000000
0.188721 0.013519 0.000000
0.250732 0.013519 0.000000
0.315430 0.013527 0.000000
0.378418 0.013527 0.000000
0.436035 0.013527 0.000000
0.487793 0.013527 0.000000
0.534180 0.013527 0.000000
0.575684 0.013527 0.000000
0.612793 0.013527 0.000000
0.646973 0.013527 0.000000
0.678223 0.013527 0.000000
0.707031 0.013527 0.000000
0.733887 0.013527 0.000000
0.759277 0.013535 0.000000
0.783203 0.013535 0.000000
0.805664 0.013535 0.000000
0.827148 0.013535 0.000000
0.847656 0.013535 0.000000
0.867188 0.013535 0.000000
0.886230 0.013535 0.000000
0.904297 0.013535 0.000000
0.921387 0.013535 0.000000
0.937988 0.013535 0.000000
0.954590 0.013535 0.000000
0.969727 0.013542 0.000000
0.985352 0.013542 0.000000
1.000000 0.013542 0.000000
0.000000 0.052002 0.000000
0.012077 0.052002 0.000000
0.043945 0.052002 0.000000
0.084839 0.052002 0.000000
0.133057 0.052002 0.000000
0.188721 0.052002 0.000000
0.250732 0.052002 0.000000
0.315430 0.052002 0.000000
0.378418 0.052002 0.000000
0.436035 0.052002 0.000000
0.487793 0.052002 0.000000
0.534180 0.052002 0.000000
0.575684 0.052002 0.000000
0.612793 0.052002 0.000000
0.646973 0.052002 0.000000
0.678223 0.052002 0.000000
0.707031 0.052002 0.000000
0.733887 0.052002 0.000000
0.759277 0.052002 0.000000
0.783203 0.052002 0.000000
0.805664 0.052002 0.000000
0.827148 0.052002 0.000000
0.847656 0.052002 0.000000
0.867188 0.052002 0.000000
0.886230 0.052002 0.000000
0.904297 0.052032 0.000000
0.921387 0.052032 0.000000
0.937988 0.052032 0.000000
0.954590 0.052032 0.000000
0.969727 0.052032 0.000000
0.985352 0.052032 0.000000
1.000000 0.052032 0.000000
0.000000 0.095520 0.000000
0.012077 0.095520 0.000000
0.043945 0.095520 0.000000
0.084839 0.095520 0.000000
0.133057 0.095520 0.000000
0.188721 0.095520 0.000000
0.250732 0.095520 0.000000
0.315430 0.095520 0.000000
0.378418 0.095520 0.000000
0.436035 0.095520 0.000000
0.487793 0.095520 0.000000
0.534180 0.095520 0.000000
0.575684 0.095520 0.000000
0.612793 0.095520 0.000000
0.646973 0.095520 0.000000
0.678223 0.095520 0.000000
0.707031 0.095520 0.000000
0.733887 0.095520 0.000000
0.759277 0.095520 0.000000
0.783203 0.095520 0.000000
0.805664 0.095520 0.000000
0.827148 0.095520 0.000000
0.847656 0.095520 0.000000
0.867188 0.095520 0.000000
0.886230 0.095581 0.000000
0.904297 0.095581 0.000000
0.921387 0.095581 0.000000
0.937988 0.095581 0.000000
0.954590 0.095581 0.000000
0.969727 0.095581 0.000000
0.985352 0.095581 0.000000
1.000000 0.095581 0.000000
0.000000 0.144287 0.000000
0.012077 0.144287 0.000000
0.043945 0.144287 0.000000
0.084839 0.144287 0.000000
0.133057 0.144287 0.000000
0.188721 0.144287 0.000000
0.250732 0.144287 0.000000
0.315430 0.144287 0.000000
0.378418 0.144287 0.000000
0.436035 0.144287 0.000000
0.487793 0.144287 0.000000
0.534180 0.144287 0.000000
0.575684 0.144287 0.000000
0.612793 0.144287 0.000000
0.646973 0.144287 0.000000
0.678223 0.144287 0.000000
0.707031 0.144287 0.000000
0.733887 0.144287 0.000000
0.759277 0.144287 0.000000
0.783203 0.144287 0.000000
0.805664 0.144287 0.000000
0.827148 0.144287 0.000000
0.847656 0.144287 0.000000
0.867188 0.144287 0.000000
0.886230 0.144287 0.000000
0.904297 0.144287 0.000000
0.921387 0.144287 0.000000
0.937988 0.144287 0.000000
0.954590 0.144287 0.000000
0.969727 0.144287 0.000000
0.985352 0.144287 0.000000
1.000000 0.144287 0.000000
0.000000 0.200073 0.000000
0.012077 0.200073 0.000000
0.043945 0.200073 0.000000
0.084839 0.200073 0.000000
0.133057 0.200073 0.000000
0.188721 0.200073 0.000000
0.250732 0.200073 0.000000
0.315430 0.200073 0.000000
0.378418 0.200073 0.000000
0.436035 0.200073 0.000000
0.487793 0.200073 0.000000
0.534180 0.200073 0.000000
0.575684 0.200073 0.000000
0.612793 0.200073 0.000000
0.646973 0.200073 0.000000
0.678223 0.200073 0.000000
0.707031 0.200073 0.000000
0.733887 0.200073 0.000000
0.759277 0.200073 0.000000
0.783203 0.200073 0.000000
0.805664 0.200195 0.000000
0.827148 0.200195 0.000000
0.847656 0.200195 0.000000
0.867188 0.200195 0.000000
0.886230 0.200195 0.000000
0.904297 0.200195 0.000000
0.921387 0.200195 0.000000
0.937988 0.200195 0.000000
0.954590 0.200195 0.000000
0.969727 0.200195 0.000000
0.985352 0.200195 0.000000
1.000000 0.200195 0.000000
0.000000 0.263916 0.000000
0.012077 0.263916 0.000000
0.043945 0.263916 0.000000
0.084839 0.263916 0.000000
0.133057 0.263916 0.000000
0.188721 0.263916 0.000000
0.250732 0.263916 0.000000
0.315430 0.263916 0.000000
0.378418 0.263916 0.000000
0.436035 0.263916 0.000000
0.487793 0.263916 0.000000
0.534180 0.263916 0.000000
0.575684 0.263916 0.000000
0.612793 0.263916 0.000000
0.646973 0.263916 0.000000
0.678223 0.263916 0.000000
0.707031 0.263916 0.000000
0.733887 0.263916 0.000000
0.759277 0.263916 0.000000
0.783203 0.263916 0.000000
0.805664 0.263916 0.000000
0.827148 0.263916 0.000000
0.847656 0.263916 0.000000
0.867188 0.263916 0.000000
0.886230 0.263916 0.000000
0.904297 0.263916 0.000000
0.921387 0.263916 0.000000
0.937988 0.263916 0.000000
0.954590 0.263916 0.000000
0.969727 0.263916 0.000000
0.985352 0.263916 0.000000
1.000000 0.263916 0.000000
0.000000 0.332520 0.000000
0.012077 0.332520 0.000000
0.043945 0.332520 0.000000
0.084839 0.332520 0.000000
0.133057 0.332520 0.000000
0.188721 0.332520 0.000000
0.250732 0.332520 0.000000
0.315430 0.332520 0.000000
0.378418 0.332520 0.000000
0.436035 0.332520 0.000000
0.487793 0.332520 0.000000
0.534180 0.332520 0.000000
0.575684 0.332520 0.000000
0.612793 0.332520 0.000000
0.646973 0.332520 0.000000
0.678223 0.332520 0.000000
0.707031 0.332520 0.000000
0.733887 0.332520 0.000000
0.759277 0.332520 0.000000
0.783203 0.332520 0.000000
0.805664 0.332520 0.000000
0.827148 0.332520 0.000000
0.847656 0.332520 0.000000
0.867188 0.332520 0.000000
0.886230 0.332520 0.000000
0.904297 0.332520 0.000000
0.921387 0.332520 0.000000
0.937988 0.332520 0.000000
0.954590 0.332520 0.000000
0.969727 0.332520 0.000000
0.985352 0.332520 0.000000
1.000000 0.332520 0.000000
0.000000 0.400391 0.000000
0.012077 0.400391 0.000000
0.043945 0.400391 0.000000
0.084839 0.400391 0.000000
0.133057 0.400391 0.000000
0.188721 0.400391 0.000000
0.250732 0.400391 0.000000
0.315430 0.400391 0.000000
0.378418 0.400391 0.000000
0.436035 0.400391 0.000000
0.487793 0.400391 0.000000
0.534180 0.400391 0.000000
0.575684 0.400391 0.000000
0.612793 0.400391 0.000000
0.646973 0.400391 0.000000
0.678223 0.400391 0.000000
0.707031 0.400391 0.000000
0.733887 0.400391 0.000000
0.759277 0.400391 0.000000
0.783203 0.400391 0.000000
0.805664 0.400391 0.000000
0.827148 0.400391 0.000000
0.847656 0.400391 0.000000
0.867188 0.400391 0.000000
0.886230 0.400391 0.000000
0.904297 0.400391 0.000000
0.921387 0.400391 0.000000
0.937988 0.400391 0.000000
0.954590 0.400391 0.000000
0.969727 0.400391 0.000000
0.985352 0.400391 0.000000
1.000000 0.400391 0.000000
0.000000 0.461914 0.000000
0.012077 0.461914 0.000000
0.043945 0.461914 0.000000
0.084839 0.461914 0.000000
0.133057 0.461914 0.000000
0.188721 0.461914 0.000000
0.250732 0.461914 0.000000
0.315430 0.461914 0.000000
0.378418 0.461914 0.000000
0.436035 0.461914 0.000000
0.487793 0.461914 0.000000
0.534180 0.461914 0.000000
0.575684 0.461914 0.000000
0.612793 0.461914 0.000000
0.646973 0.461914 0.000000
0.678223 0.461914 0.000000
0.707031 0.461914 0.000000
0.733887 0.461914 0.000000
0.759277 0.461914 0.000000
0.783203 0.461914 0.000000
0.805664 0.461914 0.000000
0.827148 0.461914 0.000000
0.847656 0.461914 0.000000
0.867188 0.461914 0.000000
0.886230 0.461914 0.000000
0.904297 0.461914 0.000000
0.921387 0.461914 0.000000
0.937988 0.461914 0.000000
0.954590 0.462158 0.000000
0.969727 0.462158 0.000000
0.985352 0.462158 0.000000
1.000000 0.462158 0.000000
0.000000 0.516113 0.000000
0.012077 0.516113 0.000000
0.043945 0.516113 0.000000
0.084839 0.516113 0.000000
0.133057 0.516113 0.000000
0.188721 0.516113 0.000000
0.250732 0.516113 0.000000
0.315430 0.516113 0.000000
0.378418 0.516113 0.000000
0.436035 0.516113 0.000000
0.487793 0.516113 0.000000
0.534180 0.516113 0.000000
0.575684 0.516113 0.000000
0.612793 0.516113 0.000000
0.646973 0.516113 0.000000
0.678223 0.516113 0.000000
0.707031 0.516113 0.000000
0.733887 0.516113 0.000000
0.759277 0.516113 0.000000
0.783203 0.516113 0.000000
0.805664 0.516113 0.000000
0.827148 0.516113 0.000000
0.847656 0.516113 0.000000
0.867188 0.516113 0.000000
0.886230 0.516113 0.000000
0.904297 0.516113 0.000000
0.921387 0.516113 0.000000
0.937988 0.516113 0.000000
0.954590 0.516113 0.000000
0.969727 0.516113 0.000000
0.985352 0.516113 0.000000
1.000000 0.516113 0.000000
0.000000 0.562500 0.000000
0.012077 0.562500 0.000000
0.043945 0.562500 0.000000
0.084839 0.562500 0.000000
0.133057 0.562500 0.000000
0.188721 0.562500 0.000000
0.250732 0.562500 0.000000
0.315430 0.562500 0.000000
0.378418 0.562500 0.000000
0.436035 0.562500 0.000000
0.487793 0.562500 0.000000
0.534180 0.562500 0.000000
0.575684 0.562500 0.000000
0.612793 0.562500 0.000000
0.646973 0.562500 0.000000
0.678223 0.562500 0.000000
0.707031 0.562500 0.000000
0.733887 0.562500 0.000000
0.759277 0.562500 0.000000
0.783203 0.562500 0.000000
0.805664 0.562500 0.000000
0.827148 0.562500 0.000000
0.847656 0.562500 0.000000
0.867188 0.562988 0.000000
0.886230 0.562988 0.000000
0.904297 0.562988 0.000000
0.921387 0.562988 0.000000
0.937988 0.562988 0.000000
0.954590 0.562988 0.000000
0.969727 0.562988 0.000000
0.985352 0.562988 0.000000
1.000000 0.562988 0.000000
0.000000 0.604004 0.000000
0.012077 0.604004 0.000000
0.043945 0.604004 0.000000
0.084839 0.604004 0.000000
0.133057 0.604004 0.000000
0.188721 0.604004 0.000000
0.250732 0.604004 0.000000
0.315430 0.604004 0.000000
0.378418 0.604004 0.000000
0.436035 0.604004 0.000000
0.487793 0.604004 0.000000
0.534180 0.604004 0.000000
0.575684 0.604004 0.000000
0.612793 0.604004 0.000000
0.646973 0.604004 0.000000
0.678223 0.604004 0.000000
0.707031 0.604004 0.000000
0.733887 0.604004 0.000000
0.759277 0.604004 0.000000
0.783203 0.604004 0.000000
0.805664 0.604004 0.000000
0.827148 0.604004 0.000000
0.847656 0.604004 0.000000
0.867188 0.604004 0.000000
0.886230 0.604004 0.000000
0.904297 0.604004 0.000000
0.921387 0.604004 0.000000
0.937988 0.604004 0.000000
0.954590 0.604004 0.000000
0.969727 0.604004 0.000000
0.985352 0.604004 0.000000
1.000000 0.604004 0.000000
0.000000 0.640137 0.000000
0.012077 0.640137 0.000000
0.043945 0.640137 0.000000
0.084839 0.640137 0.000000
0.133057 0.640137 0.000000
0.188721 0.640137 0.000000
0.250732 0.640137 0.000000
0.315430 0.640137 0.000000
0.378418 0.640137 0.000000
0.436035 0.640137 0.000000
0.487793 0.640137 0.000000
0.534180 0.640137 0.000000
0.575684 0.640137 0.000000
0.612793 0.640137 0.000000
0.646973 0.640137 0.000000
0.678223 0.640137 0.000000
0.707031 0.640137 0.000000
0.733887 0.640137 0.000000
0.759277 0.640137 0.000000
0.783203 0.640137 0.000000
0.805664 0.640137 0.000000
0.827148 0.640137 0.000000
0.847656 0.640137 0.000000
0.867188 0.640137 0.000000
0.886230 0.640137 0.000000
0.904297 0.640137 0.000000
0.921387 0.640137 0.000000
0.937988 0.640137 0.000000
0.954590 0.640137 0.000000
0.969727 0.640137 0.000000
0.985352 0.640137 0.000000
1.000000 0.640137 0.000000
0.000000 0.672852 0.000000
0.012077 0.672852 0.000000
0.043945 0.672852 0.000000
0.084839 0.672852 0.000000
0.133057 0.672852 0.000000
0.188721 0.672852 0.000000
0.250732 0.672852 0.000000
0.315430 0.672852 0.000000
0.378418 0.672852 0.000000
0.436035 0.672852 0.000000
0.487793 0.672852 0.000000
0.534180 0.672852 0.000000
0.575684 0.672852 0.000000
0.612793 0.672852 0.000000
0.646973 0.672852 0.000000
0.678223 0.672852 0.000000
0.707031 0.672852 0.000000
0.733887 0.672852 0.000000
0.759277 0.672852 0.000000
0.783203 0.672852 0.000000
0.805664 0.672852 0.000000
0.827148 0.672852 0.000000
0.847656 0.672852 0.000000
0.867188 0.672852 0.000000
0.886230 0.672852 0.000000
0.904297 0.672852 0.000000
0.921387 0.672852 0.000000
0.937988 0.672852 0.000000
0.954590 0.672852 0.000000
0.969727 0.672852 0.000000
0.985352 0.672852 0.000000
1.000000 0.672852 0.000000
0.000000 0.702637 0.000000
0.012077 0.702637 0.000000
0.043945 0.702637 0.000000
0.084839 0.702637 0.000000
0.133057 0.702637 0.000000
0.188721 0.702637 0.000000
0.250732 0.702637 0.000000
0.315430 0.702637 0.000000
0.378418 0.702637 0.000000
0.436035 0.702637 0.000000
0.487793 0.702637 0.000000
0.534180 0.702637 0.000000
0.575684 0.702637 0.000000
0.612793 0.702637 0.000000
0.646973 0.702637 0.000000
0.678223 0.702637 0.000000
0.707031 0.702637 0.000000
0.733887 0.702637 0.000000
0.759277 0.702637 0.000000
0.783203 0.702637 0.000000
0.805664 0.702637 0.000000
0.827148 0.702637 0.000000
0.847656 0.702637 0.000000
0.867188 0.702637 0.000000
0.886230 0.702637 0.000000
0.904297 0.702637 0.000000
0.921387 0.702637 0.000000
0.937988 0.702637 0.000000
0.954590 0.702637 0.000000
0.969727 0.702637 0.000000
0.985352 0.702637 0.000000
1.000000 0.702637 0.000000
0.000000 0.729980 0.000000
0.012077 0.729980 0.000000
0.043945 0.729980 0.000000
0.084839 0.729980 0.000000
0.133057 0.729980 0.000000
0.188721 0.729980 0.000000
0.250732 0.729980 0.000000
0.315430 0.729980 0.000000
0.378418 0.729980 0.000000
0.436035 0.729980 0.000000
0.487793 0.729980 0.000000
0.534180 0.729980 0.000000
0.575684 0.729980 0.000000
0.612793 0.729980 0.000000
0.646973 0.729980 0.000000
0.678223 0.729980 0.000000
0.707031 0.729980 0.000000
0.733887 0.729980 0.000000
0.759277 0.729980 0.000000
0.783203 0.729980 0.000000
0.805664 0.729980 0.000000
0.827148 0.729980 0.000000
0.847656 0.729980 0.000000
0.867188 0.729980 0.000000
0.886230 0.729980 0.000000
0.904297 0.729980 0.000000
0.921387 0.729980 0.000000
0.937988 0.729980 0.000000
0.954590 0.729980 0.000000
0.969727 0.729980 0.000000
0.985352 0.729980 0.000000
1.000000 0.729980 0.000000
0.000000 0.755371 0.000000
0.012077 0.755371 0.000000
0.043945 0.755371 0.000000
0.084839 0.755371 0.000000
0.133057 0.755371 0.000000
0.188721 0.755371 0.000000
0.250732 0.755371 0.000000
0.315430 0.755371 0.000000
0.378418 0.755371 0.000000
0.436035 0.755371 0.000000
0.487793 0.755371 0.000000
0.534180 0.755371 0.000000
0.575684 0.755371 0.000000
0.612793 0.755371 0.000000
0.646973 0.755371 0.000000
0.678223 0.755371 0.000000
0.707031 0.755371 0.000000
0.733887 0.755371 0.000000
0.759277 0.755371 0.000000
0.783203 0.755371 0.000000
0.805664 0.755371 0.000000
0.827148 0.755371 0.000000
0.847656 0.755371 0.000000
0.867188 0.755371 0.000000
0.886230 0.755371 0.000000
0.904297 0.755371 0.000000
0.921387 0.755371 0.000000
0.937988 0.755371 0.000000
0.954590 0.755371 0.000000
0.969727 0.755371 0.000000
0.985352 0.755371 0.000000
1.000000 0.755371 0.000000
0.000000 0.779297 0.000000
0.012077 0.779297 0.000000
0.043945 0.779297 0.000000
0.084839 0.779297 0.000000
0.133057 0.779297 0.000000
0.188721 0.779297 0.000000
0.250732 0.779297 0.000000
0.315430 0.779297 0.000000
0.378418 0.779297 0.000000
0.436035 0.779297 0.000000
0.487793 0.779297 0.000000
0.534180 0.779297 0.000000
0.575684 0.779297 0.000000
0.612793 0.779297 0.000000
0.646973 0.779297 0.000000
0.678223 0.779297 0.000000
0.707031 0.779297 0.000000
0.733887 0.779297 0.000000
0.759277 0.779297 0.000000
0.783203 0.779297 0.000000
0.805664 0.779297 0.000000
0.827148 0.779297 0.000000
0.847656 0.779297 0.000000
0.867188 0.779297 0.000000
0.886230 0.779297 0.000000
0.904297 0.779297 0.000000
0.921387 0.779297 0.000000
0.937988 0.779297 0.000000
0.954590 0.779297 0.000000
0.969727 0.779297 0.000000
0.985352 0.779297 0.000000
1.000000 0.779297 0.000000
0.000000 0.801270 0.000000
0.012077 0.801270 0.000000
0.043945 0.801270 0.000000
0.084839 0.801270 0.000000
0.133057 0.801270 0.000000
0.188721 0.801270 0.000000
0.250732 0.801270 0.000000
0.315430 0.801270 0.000000
0.378418 0.801270 0.000000
0.436035 0.801270 0.000000
0.487793 0.801270 0.000000
0.534180 0.801270 0.000000
0.575684 0.801270 0.000000
0.612793 0.801270 0.000000
0.646973 0.801270 0.000000
0.678223 0.801270 0.000000
0.707031 0.801270 0.000000
0.733887 0.801270 0.000000
0.759277 0.801270 0.000000
0.783203 0.801270 0.000000
0.805664 0.801270 0.000000
0.827148 0.801270 0.000000
0.847656 0.801270 0.000000
0.867188 0.801270 0.000000
0.886230 0.801270 0.000000
0.904297 0.801270 0.000000
0.921387 0.801270 0.000000
0.937988 0.801270 0.000000
0.954590 0.801270 0.000000
0.969727 0.801270 0.000000
0.985352 0.801270 0.000000
1.000000 0.801270 0.000000
0.000000 0.822266 0.000000
0.012077 0.822266 0.000000
0.043945 0.822266 0.000000
0.084839 0.822266 0.000000
0.133057 0.822266 0.000000
0.188721 0.822266 0.000000
0.250732 0.822266 0.000000
0.315430 0.822266 0.000000
0.378418 0.822266 0.000000
0.436035 0.822266 0.000000
0.487793 0.822266 0.000000
0.534180 0.822266 0.000000
0.575684 0.822266 0.000000
0.612793 0.822266 0.000000
0.646973 0.822266 0.000000
0.678223 0.822266 0.000000
0.707031 0.822266 0.000000
0.733887 0.822266 0.000000
0.759277 0.822266 0.000000
0.783203 0.822266 0.000000
0.805664 0.822266 0.000000
0.827148 0.822266 0.000000
0.847656 0.822266 0.000000
0.867188 0.822266 0.000000
0.886230 0.822266 0.000000
0.904297 0.822266 0.000000
0.921387 0.822266 0.000000
0.937988 0.822266 0.000000
0.954590 0.822266 0.000000
0.969727 0.822266 0.000000
0.985352 0.822266 0.000000
1.000000 0.822266 0.000000
0.000000 0.841797 0.000000
0.012077 0.841797 0.000000
0.043945 0.841797 0.000000
0.084839 0.841797 0.000000
0.133057 0.841797 0.000000
0.188721 0.841797 0.000000
0.250732 0.841797 0.000000
0.315430 0.841797 0.000000
0.378418 0.841797 0.000000
0.436035 0.841797 0.000000
0.487793 0.841797 0.000000
0.534180 0.841797 0.000000
0.575684 0.841797 0.000000
0.612793 0.841797 0.000000
0.646973 0.841797 0.000000
0.678223 0.841797 0.000000
0.707031 0.841797 0.000000
0.733887 0.841797 0.000000
0.759277 0.841797 0.000000
0.783203 0.841797 0.000000
0.805664 0.841797 0.000000
0.827148 0.841797 0.000000
0.847656 0.841797 0.000000
0.867188 0.841797 0.000000
0.886230 0.841797 0.000000
0.904297 0.841797 0.000000
0.921387 0.841797 0.000000
0.937988 0.841797 0.000000
0.954590 0.841797 0.000000
0.969727 0.841797 0.000000
0.985352 0.841797 0.000000
1.000000 0.841797 0.000000
0.000000 0.860840 0.000000
0.012077 0.860840 0.000000
0.043945 0.860840 0.000000
0.084839 0.860840 0.000000
0.133057 0.860840 0.000000
0.188721 0.860840 0.000000
0.250732 0.860840 0.000000
0.315430 0.860840 0.000000
0.378418 0.860840 0.000000
0.436035 0.860840 0.000000
0.487793 0.860840 0.000000
0.534180 0.860840 0.000000
0.575684 0.860840 0.000000
0.612793 0.860840 0.000000
0.646973 0.860840 0.000000
0.678223 0.860840 0.000000
0.707031 0.860840 0.000000
0.733887 0.860840 0.000000
0.759277 0.860840 0.000000
0.783203 0.860840 0.000000
0.805664 0.860840 0.000000
0.827148 0.860840 0.000000
0.847656 0.860840 0.000000
0.867188 0.860840 0.000000
0.886230 0.860840 0.000000
0.904297 0.860840 0.000000
0.921387 0.860840 0.000000
0.937988 0.860840 0.000000
0.954590 0.860840 0.000000
0.969727 0.860840 0.000000
0.985352 0.860840 0.000000
1.000000 0.860840 0.000000
0.000000 0.878906 0.000000
0.012077 0.878906 0.000000
0.043945 0.878906 0.000000
0.084839 0.878906 0.000000
0.133057 0.878906 0.000000
0.188721 0.878906 0.000000
0.250732 0.878906 0.000000
0.315430 0.878906 0.000000
0.378418 0.878906 0.000000
0.436035 0.878906 0.000000
0.487793 0.878906 0.000000
0.534180 0.878906 0.000000
0.575684 0.878906 0.000000
0.612793 0.878906 0.000000
0.646973 0.878906 0.000000
0.678223 0.878906 0.000000
0.707031 0.878906 0.000000
0.733887 0.878906 0.000000
0.759277 0.878906 0.000000
0.783203 0.878906 0.000000
0.805664 0.878906 0.000000
0.827148 0.878906 0.000000
0.847656 0.878906 0.000000
0.867188 0.878906 0.000000
0.886230 0.878906 0.000000
0.904297 0.878906 0.000000
0.921387 0.878906 0.000000
0.937988 0.878906 0.000000
0.954590 0.878906 0.000000
0.969727 0.878906 0.000000
0.985352 0.878906 0.000000
1.000000 0.878906 0.000000
0.000000 0.895996 0.000000
0.012077 0.895996 0.000000
0.043945 0.895996 0.000000
0.084839 0.895996 0.000000
0.133057 0.895996 0.000000
0.188721 0.895996 0.000000
0.250732 0.895996 0.000000
0.315430 0.895996 0.000000
0.378418 0.895996 0.000000
0.436035 0.895996 0.000000
0.487793 0.895996 0.000000
0.534180 0.895996 0.000000
0.575684 0.895996 0.000000
0.612793 0.895996 0.000000
0.646973 0.895996 0.000000
0.678223 0.895996 0.000000
0.707031 0.895996 0.000000
0.733887 0.895996 0.000000
0.759277 0.895996 0.000000
0.783203 0.895996 0.000000
0.805664 0.895996 0.000000
0.827148 0.895996 0.000000
0.847656 0.895996 0.000000
0.867188 0.895996 0.000000
0.886230 0.895996 0.000000
0.904297 0.895996 0.000000
0.921387 0.895996 0.000000
0.937988 0.895996 0.000000
0.954590 0.895996 0.000000
0.969727 0.895996 0.000000
0.985352 0.895996 0.000000
1.000000 0.895996 0.000000
0.000000 0.912598 0.000000
0.012077 0.912598 0.000000
0.043945 0.912598 0.000000
0.084839 0.912598 0.000000
0.133057 0.912598 0.000000
0.188721 0.912598 0.000000
0.250732 0.912598 0.000000
0.315430 0.912598 0.000000
0.378418 0.912598 0.000000
0.436035 0.912598 0.000000
0.487793 0.912598 0.000000
0.534180 0.912598 0.000000
0.575684 0.912598 0.000000
0.612793 0.912598 0.000000
0.646973 0.912598 0.000000
0.678223 0.912598 0.000000
0.707031 0.912598 0.000000
0.733887 0.912598 0.000000
0.759277 0.912598 0.000000
0.783203 0.912598 0.000000
0.805664 0.912598 0.000000
0.827148 0.912598 0.000000
0.847656 0.912598 0.000000
0.867188 0.912598 0.000000
0.886230 0.912598 0.000000
0.904297 0.912598 0.000000
0.921387 0.912598 0.000000
0.937988 0.912598 0.000000
0.954590 0.912598 0.000000
0.969727 0.912598 0.000000
0.985352 0.912598 0.000000
1.000000 0.912598 0.000000
0.000000 0.928223 0.000000
0.012077 0.928223 0.000000
0.043945 0.928711 0.000000
0.084839 0.928711 0.000000
0.133057 0.928711 0.000000
0.188721 0.928711 0.000000
0.250732 0.928711 0.000000
0.315430 0.928711 0.000000
0.378418 0.928711 0.000000
0.436035 0.928711 0.000000
0.487793 0.928711 0.000000
0.534180 0.928711 0.000000
0.575684 0.928711 0.000000
0.612793 0.928711 0.000000
0.646973 0.928711 0.000000
0.678223 0.928711 0.000000
0.707031 0.928711 0.000000
0.733887 0.928711 0.000000
0.759277 0.928711 0.000000
0.783203 0.928711 0.000000
0.805664 0.928711 0.000000
0.827148 0.928711 0.000000
0.847656 0.928711 0.000000
0.867188 0.928711 0.000000
0.886230 0.928711 0.000000
0.904297 0.928711 0.000000
0.921387 0.928711 0.000000
0.937988 0.928711 0.000000
0.954590 0.928711 0.000000
0.969727 0.928711 0.000000
0.985352 0.928711 0.000000
1.000000 0.928711 0.000000
0.000000 0.943848 0.000000
0.012077 0.943848 0.000000
0.043945 0.943848 0.000000
0.084839 0.943848 0.000000
0.133057 0.943848 0.000000
0.188721 0.943848 0.000000
0.250732 0.943848 0.000000
0.315430 0.943848 0.000000
0.378418 0.943848 0.000000
0.436035 0.943848 0.000000
0.487793 0.943848 0.000000
0.534180 0.943848 0.000000
0.575684 0.943848 0.000000
0.612793 0.943848 0.000000
0.646973 0.943848 0.000000
0.678223 0.943848 0.000000
0.707031 0.943848 0.000000
0.733887 0.943848 0.000000
0.759277 0.943848 0.000000
0.783203 0.943848 0.000000
0.805664 0.943848 0.000000
0.827148 0.943848 0.000000
0.847656 0.943848 0.000000
