cubelut/Adanmq_Canon DSC S315 n3.cube
TITLE "Generated by Foundry::LUT"
LUT_3D_SIZE 5
DOMAIN_MIN 0.000000 0.000000 0.000000
DOMAIN_MAX 0.903226 0.903226 0.903226
0.000000 0.000000 0.000000
0.306641 0.000000 0.000000
0.653320 0.000000 0.000000
0.833008 0.000000 0.000000
0.956055 0.000000 0.000000
0.000000 0.342285 0.000000
0.306641 0.342285 0.000000
0.653320 0.342285 0.000000
0.833008 0.342285 0.000000
0.956055 0.342285 0.000000
0.000000 0.666504 0.000000
0.306641 0.666504 0.000000
0.653320 0.666504 0.000000
0.833008 0.666504 0.000000
0.956055 0.666504 0.000000
0.000000 0.837402 0.000000
0.306641 0.837402 0.000000
0.653320 0.837402 0.000000
0.833008 0.837402 0.000000
0.956055 0.837402 0.000000
0.000000 0.957031 0.000000
0.306641 0.957031 0.000000
0.653320 0.957031 0.000000
0.833008 0.957031 0.000000
0.956055 0.957031 0.000000
0.000000 0.000000 0.332520
0.306641 0.000000 0.332520
0.653320 0.000000 0.332520
0.833008 0.000000 0.332520
0.956055 0.000000 0.332520
0.000000 0.342285 0.332520
0.306641 0.342285 0.332520
0.653320 0.342285 0.332520
0.833008 0.342285 0.332520
0.956055 0.342285 0.332520
0.000000 0.666504 0.332520
0.306641 0.666504 0.332520
0.653320 0.666504 0.332520
0.833008 0.666504 0.332520
0.956055 0.666504 0.332520
0.000000 0.837402 0.332520
0.306641 0.837402 0.332520
0.653320 0.837402 0.332520
0.833008 0.837402 0.332520
0.956055 0.837402 0.332520
0.000000 0.957031 0.332520
0.306641 0.957031 0.332520
0.653320 0.957031 0.332520
0.833008 0.957031 0.332520
0.956055 0.957031 0.332520
0.000000 0.000000 0.679688
0.306641 0.000000 0.679688
0.653320 0.000000 0.679688
0.833008 0.000000 0.679688
0.956055 0.000000 0.679688
0.000000 0.342285 0.679688
0.306641 0.342285 0.679688
0.653320 0.342285 0.679688
0.833008 0.342285 0.679688
0.956055 0.342285 0.679688
0.000000 0.666504 0.679688
0.306641 0.666504 0.679688
0.653320 0.666504 0.679688
0.833008 0.666504 0.679688
0.956055 0.666504 0.679688
0.000000 0.837402 0.679688
0.306641 0.837402 0.679688
0.653320 0.837402 0.679688
0.833008 0.837402 0.679688
0.956055 0.837402 0.679688
0.000000 0.957031 0.679688
0.306641 0.957031 0.679688
0.653320 0.957031 0.679688
0.833008 0.957031 0.679688
0.956055 0.957031 0.679688
0.000000 0.000000 0.846191
0.306885 0.000000 0.846191
0.653320 0.000000 0.846191
0.833008 0.000000 0.846191
0.956055 0.000000 0.846191
0.000000 0.342285 0.846191
0.306885 0.342285 0.846191
0.653320 0.342285 0.846191
0.833008 0.342285 0.846191
0.956055 0.342285 0.846191
0.000000 0.666504 0.846191
0.306885 0.666504 0.846191
0.653320 0.666504 0.846191
0.833008 0.666504 0.846191
0.956055 0.666504 0.846191
0.000000 0.837402 0.846191
0.306885 0.837402 0.846191
0.653320 0.837402 0.846191
0.833008 0.837402 0.846191
0.956055 0.837402 0.846191
0.000000 0.957031 0.846191
0.306885 0.957031 0.846191
0.653320 0.957031 0.846191
0.833008 0.957031 0.846191
0.956055 0.957031 0.846191
0.000000 0.000000 0.959961
0.306885 0.000000 0.959961
0.653320 0.000000 0.959961
0.833008 0.000000 0.959961
0.956055 0.000000 0.959961
0.000000 0.342285 0.959961
0.306885 0.342285 0.959961
0.653320 0.342285 0.959961
0.833008 0.342285 0.959961
0.956055 0.342285 0.959961
0.000000 0.666504 0.959961
0.306885 0.666504 0.959961
0.653320 0.666504 0.959961
0.833008 0.666504 0.959961
0.956055 0.666504 0.959961
0.000000 0.837402 0.959961
0.306885 0.837402 0.959961
0.653320 0.837402 0.959961
0.833008 0.837402 0.959961
0.956055 0.837402 0.959961
0.000000 0.957031 0.959961
0.306885 0.957031 0.959961
0.653320 0.957031 0.959961
0.833008 0.957031 0.959961
0.956055 0.957031 0.959961
