cubelut/Adanmq_AgfaColor HDC 200+.cube
TITLE "Generated by Foundry::LUT"
LUT_3D_SIZE 8
DOMAIN_MIN 0.000000 0.000000 0.000000
DOMAIN_MAX 0.903226 0.903226 0.903226
0.000000 0.000000 0.000000
0.130493 0.000000 0.000000
0.288818 0.000000 0.000000
0.443359 0.000000 0.000000
0.585938 0.000000 0.000000
0.715332 0.000000 0.000000
0.832031 0.000000 0.000000
0.936523 0.000000 0.000000
0.000000 0.145142 0.000000
0.130493 0.145142 0.000000
0.288818 0.145142 0.000000
0.443359 0.145142 0.000000
0.585938 0.145142 0.000000
0.715332 0.145142 0.000000
0.832031 0.145142 0.000000
0.936523 0.145142 0.000000
0.000000 0.317871 0.000000
0.130493 0.317871 0.000000
0.288818 0.317871 0.000000
0.443359 0.318115 0.000000
0.585938 0.318115 0.000000
0.715332 0.318115 0.000000
0.832031 0.318115 0.000000
0.936523 0.318115 0.000000
0.000000 0.476563 0.000000
0.130493 0.476563 0.000000
0.288818 0.476563 0.000000
0.443359 0.476563 0.000000
0.585938 0.476563 0.000000
0.715332 0.476563 0.000000
0.832031 0.476563 0.000000
0.936523 0.476563 0.000000
0.000000 0.614258 0.000000
0.130493 0.614258 0.000000
0.288818 0.614258 0.000000
0.443359 0.614258 0.000000
0.585938 0.614258 0.000000
0.715332 0.614258 0.000000
0.832031 0.614258 0.000000
0.936523 0.614258 0.000000
0.000000 0.734863 0.000000
0.130493 0.734863 0.000000
0.288818 0.734863 0.000000
0.443359 0.734863 0.000000
0.585938 0.734863 0.000000
0.715332 0.734863 0.000000
0.832031 0.734863 0.000000
0.936523 0.734863 0.000000
0.000000 0.842285 0.000000
0.130493 0.842285 0.000000
0.288818 0.842285 0.000000
0.443359 0.842285 0.000000
0.585938 0.842285 0.000000
0.715332 0.842285 0.000000
0.832031 0.842285 0.000000
0.936523 0.842285 0.000000
0.000000 0.938477 0.000000
0.130493 0.938477 0.000000
0.288818 0.938477 0.000000
0.443359 0.938477 0.000000
0.585938 0.938477 0.000000
0.715332 0.938477 0.000000
0.832031 0.938477 0.000000
0.936523 0.938477 0.000000
0.000000 0.000000 0.103271
0.130493 0.000000 0.103271
0.288818 0.000000 0.103271
0.443359 0.000000 0.103271
0.585938 0.000000 0.103271
0.715332 0.000000 0.103271
0.832031 0.000000 0.103271
0.936523 0.000000 0.103271
0.000000 0.145142 0.103271
0.130493 0.145142 0.103271
0.288818 0.145142 0.103271
0.443359 0.145142 0.103271
0.585938 0.145142 0.103271
0.715332 0.145142 0.103271
0.832031 0.145142 0.103271
0.936523 0.145142 0.103271
0.000000 0.317871 0.103271
0.130493 0.317871 0.103271
0.288818 0.317871 0.103271
0.443359 0.318115 0.103271
0.585938 0.318115 0.103271
0.715332 0.318115 0.103271
0.832031 0.318115 0.103271
0.936523 0.318115 0.103271
0.000000 0.476563 0.103271
0.130493 0.476563 0.103271
0.288818 0.476563 0.103271
0.443359 0.476563 0.103271
0.585938 0.476563 0.103271
0.715332 0.476563 0.103271
0.832031 0.476563 0.103271
0.936523 0.476563 0.103271
0.000000 0.614258 0.103271
0.130493 0.614258 0.103271
0.288818 0.614258 0.103271
0.443359 0.614258 0.103271
0.585938 0.614258 0.103271
0.715332 0.614258 0.103271
0.832031 0.614258 0.103271
0.936523 0.614258 0.103271
0.000000 0.734863 0.103271
0.130493 0.734863 0.103271
0.288818 0.734863 0.103271
0.443359 0.734863 0.103271
0.585938 0.734863 0.103271
0.715332 0.734863 0.103271
0.832031 0.734863 0.103271
0.936523 0.734863 0.103271
0.000000 0.842285 0.103271
0.130493 0.842285 0.103271
0.288818 0.842285 0.103271
0.443359 0.842285 0.103271
0.585938 0.842285 0.103271
0.715332 0.842285 0.103271
0.832031 0.842285 0.103271
0.936523 0.842285 0.103271
0.000000 0.938477 0.103271
0.130493 0.938477 0.103271
0.288818 0.938477 0.103271
0.443359 0.938477 0.103271
0.585938 0.938477 0.103271
0.715332 0.938477 0.103271
0.832031 0.938477 0.103271
0.936523 0.938477 0.103271
0.000000 0.000000 0.249512
0.130615 0.000000 0.249512
0.288818 0.000000 0.249512
0.443359 0.000000 0.249512
0.585938 0.000000 0.249512
0.715332 0.000000 0.249512
0.832031 0.000000 0.249512
0.936523 0.000000 0.249512
0.000000 0.145142 0.249512
0.130615 0.145142 0.249512
0.288818 0.145142 0.249512
0.443359 0.145142 0.249512
0.585938 0.145142 0.249512
0.715332 0.145142 0.249512
0.832031 0.145142 0.249512
0.936523 0.145142 0.249512
0.000000 0.317871 0.249512
0.130615 0.317871 0.249512
0.288818 0.317871 0.249512
0.443359 0.317871 0.249512
0.585938 0.318115 0.249512
0.715332 0.318115 0.249512
0.832031 0.318115 0.249512
0.936523 0.318115 0.249512
0.000000 0.476563 0.249512
0.130615 0.476563 0.249512
0.288818 0.476563 0.249512
0.443359 0.476563 0.249512
0.585938 0.476563 0.249512
0.715332 0.476563 0.249512
0.832031 0.476563 0.249512
0.936523 0.476563 0.249512
0.000000 0.614258 0.249512
0.130615 0.614258 0.249512
0.288818 0.614258 0.249512
0.443359 0.614258 0.249512
0.585938 0.614258 0.249512
0.715332 0.614258 0.249512
0.832031 0.614258 0.249512
0.936523 0.614258 0.249512
0.000000 0.734863 0.249512
0.130615 0.734863 0.249512
0.288818 0.734863 0.249512
0.443359 0.734863 0.249512
0.585938 0.734863 0.249512
0.715332 0.734863 0.249512
0.832031 0.734863 0.249512
0.936523 0.734863 0.249512
0.000000 0.842285 0.249512
0.130615 0.842285 0.249512
0.288818 0.842285 0.249512
0.443359 0.842285 0.249512
0.585938 0.842285 0.249512
0.715332 0.842285 0.249512
0.832031 0.842285 0.249512
0.936523 0.842285 0.249512
0.000000 0.938477 0.249512
0.130615 0.938477 0.249512
0.288818 0.938477 0.249512
0.443359 0.938477 0.249512
0.585938 0.938477 0.249512
0.715332 0.938477 0.249512
0.832031 0.938477 0.249512
0.936523 0.938477 0.249512
0.000000 0.000000 0.396973
0.130615 0.000000 0.396973
0.288818 0.000000 0.396973
0.443359 0.000000 0.396973
0.585938 0.000000 0.396973
0.715332 0.000000 0.396973
0.832031 0.000000 0.396973
0.936523 0.000000 0.396973
0.000000 0.145142 0.396973
0.130615 0.145142 0.396973
0.288818 0.145142 0.396973
0.443359 0.145142 0.396973
0.585938 0.145142 0.396973
0.715332 0.145142 0.396973
0.832031 0.145142 0.396973
0.936523 0.145142 0.396973
0.000000 0.317871 0.396973
0.130615 0.317871 0.396973
0.288818 0.317871 0.396973
0.443359 0.317871 0.396973
0.585938 0.317871 0.396973
0.715332 0.318115 0.396973
0.832031 0.318115 0.396973
0.936523 0.318115 0.396973
0.000000 0.476563 0.396973
0.130615 0.476563 0.396973
0.288818 0.476563 0.396973
0.443359 0.476563 0.396973
0.585938 0.476563 0.396973
0.715332 0.476563 0.396973
0.832031 0.476563 0.396973
0.936523 0.476563 0.396973
0.000000 0.614258 0.396973
0.130615 0.614258 0.396973
0.288818 0.614258 0.396973
0.443359 0.614258 0.396973
0.585938 0.614258 0.396973
0.715332 0.614258 0.396973
0.832031 0.614258 0.396973
0.936523 0.614258 0.396973
0.000000 0.734863 0.396973
0.130615 0.734863 0.396973
0.288818 0.734863 0.396973
0.443359 0.734863 0.396973
0.585938 0.734863 0.396973
0.715332 0.734863 0.396973
0.832031 0.734863 0.396973
0.936523 0.734863 0.396973
0.000000 0.842285 0.396973
0.130615 0.842285 0.396973
0.288818 0.842285 0.396973
0.443359 0.842285 0.396973
0.585938 0.842285 0.396973
0.715332 0.842285 0.396973
0.832031 0.842285 0.396973
0.936523 0.842285 0.396973
0.000000 0.938477 0.396973
0.130615 0.938477 0.396973
0.288818 0.938477 0.396973
0.443359 0.938477 0.396973
0.585938 0.938477 0.396973
0.715332 0.938477 0.396973
0.832031 0.938477 0.396973
0.936523 0.938477 0.396973
0.000000 0.000000 0.539551
0.130615 0.000000 0.539551
0.289063 0.000000 0.539551
0.443359 0.000000 0.539551
0.585938 0.000000 0.539551
0.715332 0.000000 0.539551
0.832031 0.000000 0.539551
0.936523 0.000000 0.539551
0.000000 0.145142 0.539551
0.130615 0.145142 0.539551
0.289063 0.145142 0.539551
0.443359 0.145142 0.539551
0.585938 0.145142 0.539551
0.715332 0.145142 0.539551
0.832031 0.145142 0.539551
0.936523 0.145142 0.539551
0.000000 0.317871 0.539551
0.130615 0.317871 0.539551
0.289063 0.317871 0.539551
0.443359 0.317871 0.539551
0.585938 0.317871 0.539551
0.715332 0.317871 0.539551
0.832031 0.318115 0.539551
0.936523 0.318115 0.539551
0.000000 0.476563 0.539551
0.130615 0.476563 0.539551
0.289063 0.476563 0.539551
0.443359 0.476563 0.539551
0.585938 0.476563 0.539551
0.715332 0.476563 0.539551
0.832031 0.476563 0.539551
0.936523 0.476563 0.539551
0.000000 0.614258 0.539551
0.130615 0.614258 0.539551
0.289063 0.614258 0.539551
0.443359 0.614258 0.539551
0.585938 0.614258 0.539551
0.715332 0.614258 0.539551
0.832031 0.614258 0.539551
0.936523 0.614258 0.539551
0.000000 0.734863 0.539551
0.130615 0.734863 0.539551
0.289063 0.734863 0.539551
0.443359 0.734863 0.539551
0.585938 0.734863 0.539551
0.715332 0.734863 0.539551
0.832031 0.734863 0.539551
0.936523 0.734863 0.539551
0.000000 0.842285 0.539551
0.130615 0.842285 0.539551
0.289063 0.842285 0.539551
0.443359 0.842285 0.539551
0.585938 0.842285 0.539551
0.715332 0.842285 0.539551
0.832031 0.842285 0.539551
0.936523 0.842285 0.539551
0.000000 0.938477 0.539551
0.130615 0.938477 0.539551
0.289063 0.938477 0.539551
0.443359 0.938477 0.539551
0.585938 0.938477 0.539551
0.715332 0.938477 0.539551
0.832031 0.938477 0.539551
0.936523 0.938477 0.539551
0.000001 0.000000 0.672363
0.130615 0.000000 0.672363
0.289063 0.000000 0.672363
0.443359 0.000000 0.672363
0.586426 0.000000 0.672363
0.715332 0.000000 0.672363
0.832031 0.000000 0.672363
0.936523 0.000000 0.672363
0.000001 0.145020 0.672363
0.130615 0.145142 0.672363
0.289063 0.145142 0.672363
0.443359 0.145142 0.672363
0.586426 0.145142 0.672363
0.715332 0.145142 0.672363
0.832031 0.145142 0.672363
0.936523 0.145142 0.672363
0.000001 0.317871 0.672363
0.130615 0.317871 0.672363
0.289063 0.317871 0.672363
0.443359 0.317871 0.672363
0.586426 0.317871 0.672363
0.715332 0.317871 0.672363
0.832031 0.317871 0.672363
0.936523 0.318115 0.672363
0.000001 0.476563 0.672363
0.130615 0.476563 0.672363
0.289063 0.476563 0.672363
0.443359 0.476563 0.672363
0.586426 0.476563 0.672363
0.715332 0.476563 0.672363
0.832031 0.476563 0.672363
0.936523 0.476563 0.672363
0.000001 0.614258 0.672363
0.130615 0.614258 0.672363
0.289063 0.614258 0.672363
0.443359 0.614258 0.672363
0.586426 0.614258 0.672363
0.715332 0.614258 0.672363
0.832031 0.614258 0.672363
0.936523 0.614258 0.672363
0.000001 0.734863 0.672363
0.130615 0.734863 0.672363
0.289063 0.734863 0.672363
0.443359 0.734863 0.672363
0.586426 0.734863 0.672363
0.715332 0.734863 0.672363
0.832031 0.734863 0.672363
0.936523 0.734863 0.672363
0.000001 0.842285 0.672363
0.130615 0.842285 0.672363
0.289063 0.842285 0.672363
0.443359 0.842285 0.672363
0.586426 0.842285 0.672363
0.715332 0.842285 0.672363
0.832031 0.842285 0.672363
0.936523 0.842285 0.672363
0.000001 0.938477 0.672363
0.130615 0.938477 0.672363
0.289063 0.938477 0.672363
0.443359 0.938477 0.672363
0.586426 0.938477 0.672363
0.715332 0.938477 0.672363
0.832031 0.938477 0.672363
0.936523 0.938477 0.672363
0.000001 0.000000 0.800781
0.130615 0.000000 0.800781
0.289063 0.000000 0.800781
0.443604 0.000000 0.800781
0.586426 0.000000 0.800781
0.715332 0.000000 0.800781
0.832031 0.000000 0.800781
0.936523 0.000000 0.800781
0.000001 0.145020 0.800781
0.130615 0.145020 0.800781
0.289063 0.145142 0.800781
0.443604 0.145142 0.800781
0.586426 0.145142 0.800781
0.715332 0.145142 0.800781
0.832031 0.145142 0.800781
0.936523 0.145142 0.800781
0.000001 0.317871 0.800781
0.130615 0.317871 0.800781
0.289063 0.317871 0.800781
0.443604 0.317871 0.800781
0.586426 0.317871 0.800781
0.715332 0.317871 0.800781
0.832031 0.317871 0.800781
0.936523 0.317871 0.800781
0.000001 0.476563 0.800781
0.130615 0.476563 0.800781
0.289063 0.476563 0.800781
0.443604 0.476563 0.800781
0.586426 0.476563 0.800781
0.715332 0.476563 0.800781
0.832031 0.476563 0.800781
0.936523 0.476563 0.800781
0.000001 0.614258 0.800781
0.130615 0.614258 0.800781
0.289063 0.614258 0.800781
0.443604 0.614258 0.800781
0.586426 0.614258 0.800781
0.715332 0.614258 0.800781
0.832031 0.614258 0.800781
0.936523 0.614258 0.800781
0.000001 0.734863 0.800781
0.130615 0.734863 0.800781
0.289063 0.734863 0.800781
0.443604 0.734863 0.800781
0.586426 0.734863 0.800781
0.715332 0.734863 0.800781
0.832031 0.734863 0.800781
0.936523 0.734863 0.800781
0.000001 0.842285 0.800781
0.130615 0.842285 0.800781
0.289063 0.842285 0.800781
0.443604 0.842285 0.800781
0.586426 0.842285 0.800781
0.715332 0.842285 0.800781
0.832031 0.842285 0.800781
0.936523 0.842285 0.800781
0.000001 0.938477 0.800781
0.130615 0.938477 0.800781
0.289063 0.938477 0.800781
0.443604 0.938477 0.800781
0.586426 0.938477 0.800781
0.715332 0.938477 0.800781
0.832031 0.938477 0.800781
0.936523 0.938477 0.800781
0.000001 0.000000 0.922363
0.130737 0.000000 0.922363
0.289063 0.000000 0.922363
0.443604 0.000000 0.922363
0.586426 0.000000 0.922363
0.715332 0.000000 0.922363
0.832031 0.000000 0.922363
0.936523 0.000000 0.922363
0.000001 0.145020 0.922363
0.130737 0.145020 0.922363
0.289063 0.145020 0.922363
0.443604 0.145142 0.922363
0.586426 0.145142 0.922363
0.715332 0.145142 0.922363
0.832031 0.145142 0.922363
0.936523 0.145142 0.922363
0.000001 0.317871 0.922363
0.130737 0.317871 0.922363
0.289063 0.317871 0.922363
0.443604 0.317871 0.922363
0.586426 0.317871 0.922363
0.715332 0.317871 0.922363
0.832031 0.317871 0.922363
0.936523 0.317871 0.922363
0.000001 0.476563 0.922363
0.130737 0.476563 0.922363
0.289063 0.476563 0.922363
0.443604 0.476563 0.922363
0.586426 0.476563 0.922363
0.715332 0.476563 0.922363
0.832031 0.476563 0.922363
0.936523 0.476563 0.922363
0.000001 0.614258 0.922363
0.130737 0.614258 0.922363
0.289063 0.614258 0.922363
0.443604 0.614258 0.922363
0.586426 0.614258 0.922363
0.715332 0.614258 0.922363
0.832031 0.614258 0.922363
0.936523 0.614258 0.922363
0.000001 0.734863 0.922363
0.130737 0.734863 0.922363
0.289063 0.734863 0.922363
0.443604 0.734863 0.922363
0.586426 0.734863 0.922363
0.715332 0.734863 0.922363
0.832031 0.734863 0.922363
0.936523 0.734863 0.922363
0.000001 0.842285 0.922363
0.130737 0.842285 0.922363
0.289063 0.842285 0.922363
0.443604 0.842285 0.922363
0.586426 0.842285 0.922363
0.715332 0.842285 0.922363
0.832031 0.842285 0.922363
0.936523 0.842285 0.922363
0.000001 0.938477 0.922363
0.130737 0.938477 0.922363
0.289063 0.938477 0.922363
0.443604 0.938477 0.922363
0.586426 0.938477 0.922363
0.715332 0.938477 0.922363
0.832031 0.938477 0.922363
0.936523 0.938477 0.922363
