cubelut/Adanmq_Ektachrome 64t.cube
TITLE "Generated by Foundry::LUT"
LUT_3D_SIZE 5
DOMAIN_MIN 0.000000 0.000000 0.000000
DOMAIN_MAX 0.903226 0.903226 0.903226
0.000000 0.000000 0.000000
0.655273 0.000000 0.000000
0.913574 0.000000 0.000000
0.979980 0.000000 0.000000
0.992188 0.000000 0.000000
0.000000 0.586914 0.000000
0.655273 0.586914 0.000000
0.913574 0.586914 0.000000
0.979980 0.586914 0.000000
0.992188 0.586914 0.000000
0.000000 0.878906 0.000000
0.655273 0.878906 0.000000
0.913574 0.878906 0.000000
0.979980 0.878906 0.000000
0.992188 0.878906 0.000000
0.000000 0.965820 0.000000
0.655273 0.965820 0.000000
0.913574 0.965820 0.000000
0.979980 0.965820 0.000000
0.992188 0.965820 0.000000
0.000000 0.986816 0.000000
0.655273 0.986816 0.000000
0.913574 0.986816 0.000000
0.979980 0.986816 0.000000
0.992188 0.986816 0.000000
0.000000 0.000000 0.401611
0.655273 0.000000 0.401611
0.913574 0.000000 0.401611
0.979980 0.000000 0.401611
0.992188 0.000000 0.401611
0.000000 0.586914 0.401611
0.655273 0.586914 0.401611
0.913574 0.586914 0.401611
0.979980 0.586914 0.401611
0.992188 0.586914 0.401611
0.000000 0.878906 0.401611
0.655273 0.878906 0.401611
0.913574 0.878906 0.401611
0.979980 0.878906 0.401611
0.992188 0.878906 0.401611
0.000000 0.965820 0.401611
0.655273 0.965820 0.401611
0.913574 0.965820 0.401611
0.979980 0.965820 0.401611
0.992188 0.965820 0.401611
0.000000 0.986816 0.401611
0.655273 0.986816 0.401611
0.913574 0.986816 0.401611
0.979980 0.986816 0.401611
0.992188 0.986816 0.401611
0.000000 0.000000 0.824219
0.655273 0.000000 0.824219
0.913574 0.000000 0.824219
0.979980 0.000000 0.824219
0.992188 0.000000 0.824219
0.000000 0.586914 0.824219
0.655273 0.586914 0.824219
0.913574 0.586914 0.824219
0.979980 0.586914 0.824219
0.992188 0.586914 0.824219
0.000000 0.878906 0.824219
0.655273 0.878906 0.824219
0.913574 0.878906 0.824219
0.979980 0.878906 0.824219
0.992188 0.878906 0.824219
0.000000 0.965820 0.824219
0.655273 0.965820 0.824219
0.913574 0.965820 0.824219
0.979980 0.965820 0.824219
0.992188 0.965820 0.824219
0.000000 0.986816 0.824219
0.655273 0.986816 0.824219
0.913574 0.986816 0.824219
0.979980 0.986816 0.824219
0.992188 0.986816 0.824219
0.000000 0.000000 0.952637
0.655273 0.000000 0.952637
0.913574 0.000000 0.952637
0.979980 0.000000 0.952637
0.992188 0.000000 0.952637
0.000000 0.586914 0.952637
0.655273 0.586914 0.952637
0.913574 0.586914 0.952637
0.979980 0.586914 0.952637
0.992188 0.586914 0.952637
0.000000 0.878906 0.952637
0.655273 0.878906 0.952637
0.913574 0.878906 0.952637
0.979980 0.878906 0.952637
0.992188 0.878906 0.952637
0.000000 0.965820 0.952637
0.655273 0.965820 0.952637
0.913574 0.965820 0.952637
0.979980 0.965820 0.952637
0.992188 0.965820 0.952637
0.000000 0.986816 0.952637
0.655273 0.986816 0.952637
0.913574 0.986816 0.952637
0.979980 0.986816 0.952637
0.992188 0.986816 0.952637
0.000000 0.000000 0.989746
0.655762 0.000000 0.989746
0.913574 0.000000 0.989746
0.979980 0.000000 0.989746
0.992188 0.000000 0.989746
0.000000 0.586914 0.989746
0.655762 0.586914 0.989746
0.913574 0.586914 0.989746
0.979980 0.586914 0.989746
0.992188 0.586914 0.989746
0.000000 0.878906 0.989746
0.655762 0.878906 0.989746
0.913574 0.878906 0.989746
0.979980 0.878906 0.989746
0.992188 0.878906 0.989746
0.000000 0.965820 0.989746
0.655762 0.965820 0.989746
0.913574 0.965820 0.989746
0.979980 0.965820 0.989746
0.992188 0.965820 0.989746
0.000000 0.986816 0.989746
0.655762 0.986816 0.989746
0.913574 0.986816 0.989746
0.979980 0.986816 0.989746
0.992188 0.986816 0.989746
