cubelut/Adanmq_Kodachrome 64.cube
TITLE "Generated by Foundry::LUT"
LUT_3D_SIZE 8
DOMAIN_MIN 0.000000 0.000000 0.000000
DOMAIN_MAX 0.903226 0.903226 0.903226
0.000000 0.000000 0.000000
0.020966 0.000000 0.000000
0.187012 0.000000 0.000000
0.432373 0.000000 0.000000
0.665527 0.000000 0.000000
0.821777 0.000000 0.000000
0.913086 0.000000 0.000000
0.970215 0.000000 0.000000
0.000000 0.017273 0.000000
0.020966 0.017273 0.000000
0.187012 0.017273 0.000000
0.432373 0.017273 0.000000
0.665527 0.017273 0.000000
0.821777 0.017288 0.000000
0.913086 0.017288 0.000000
0.970215 0.017288 0.000000
0.000000 0.192871 0.000000
0.020966 0.192993 0.000000
0.187012 0.192993 0.000000
0.432373 0.192993 0.000000
0.665527 0.192993 0.000000
0.821777 0.192993 0.000000
0.913086 0.192993 0.000000
0.970215 0.192993 0.000000
0.000000 0.469971 0.000000
0.020966 0.469971 0.000000
0.187012 0.469971 0.000000
0.432373 0.469971 0.000000
0.665527 0.469971 0.000000
0.821777 0.469971 0.000000
0.913086 0.469971 0.000000
0.970215 0.469971 0.000000
0.000000 0.687500 0.000000
0.020966 0.687500 0.000000
0.187012 0.687500 0.000000
0.432373 0.687500 0.000000
0.665527 0.687500 0.000000
0.821777 0.687500 0.000000
0.913086 0.687500 0.000000
0.970215 0.687500 0.000000
0.000000 0.820801 0.000000
0.020966 0.820801 0.000000
0.187012 0.820801 0.000000
0.432373 0.820801 0.000000
0.665527 0.820801 0.000000
0.821777 0.820801 0.000000
0.913086 0.820801 0.000000
0.970215 0.820801 0.000000
0.000000 0.906738 0.000000
0.020966 0.906738 0.000000
0.187012 0.906738 0.000000
0.432373 0.906738 0.000000
0.665527 0.906738 0.000000
0.821777 0.906738 0.000000
0.913086 0.906738 0.000000
0.970215 0.906738 0.000000
0.000000 0.960938 0.000000
0.020966 0.960938 0.000000
0.187012 0.960938 0.000000
0.432373 0.960938 0.000000
0.665527 0.960938 0.000000
0.821777 0.960938 0.000000
0.913086 0.960938 0.000000
0.970215 0.960938 0.000000
0.000000 0.000000 0.020935
0.020981 0.000000 0.020935
0.187012 0.000000 0.020935
0.432373 0.000000 0.020935
0.665527 0.000000 0.020935
0.821777 0.000000 0.020935
0.913086 0.000000 0.020935
0.970215 0.000000 0.020935
0.000000 0.017273 0.020935
0.020981 0.017273 0.020935
0.187012 0.017273 0.020935
0.432373 0.017273 0.020935
0.665527 0.017273 0.020935
0.821777 0.017273 0.020935
0.913086 0.017288 0.020935
0.970215 0.017288 0.020935
0.000000 0.192871 0.020950
0.020981 0.192871 0.020950
0.187012 0.192993 0.020950
0.432373 0.192993 0.020950
0.665527 0.192993 0.020950
0.821777 0.192993 0.020950
0.913086 0.192993 0.020950
0.970215 0.192993 0.020950
0.000000 0.469971 0.020950
0.020981 0.469971 0.020950
0.187012 0.469971 0.020950
0.432373 0.469971 0.020950
0.665527 0.469971 0.020950
0.821777 0.469971 0.020950
0.913086 0.469971 0.020950
0.970215 0.469971 0.020950
0.000000 0.687500 0.020950
0.020981 0.687500 0.020950
0.187012 0.687500 0.020950
0.432373 0.687500 0.020950
0.665527 0.687500 0.020950
0.821777 0.687500 0.020950
0.913086 0.687500 0.020950
0.970215 0.687500 0.020950
0.000000 0.820801 0.020950
0.020981 0.820801 0.020950
0.187012 0.820801 0.020950
0.432373 0.820801 0.020950
0.665527 0.820801 0.020950
0.821777 0.820801 0.020950
0.913086 0.820801 0.020950
0.970215 0.820801 0.020950
0.000000 0.906738 0.020950
0.020981 0.906738 0.020950
0.187012 0.906738 0.020950
0.432373 0.906738 0.020950
0.665527 0.906738 0.020950
0.821777 0.906738 0.020950
0.913086 0.906738 0.020950
0.970215 0.906738 0.020950
0.000000 0.960938 0.020950
0.020981 0.960938 0.020950
0.187012 0.960938 0.020950
0.432373 0.960938 0.020950
0.665527 0.960938 0.020950
0.821777 0.960938 0.020950
0.913086 0.960938 0.020950
0.970215 0.960938 0.020950
0.000000 0.000000 0.186890
0.020996 0.000000 0.186890
0.187012 0.000000 0.186890
0.432373 0.000000 0.186890
0.665527 0.000000 0.186890
0.821777 0.000000 0.186890
0.913086 0.000000 0.186890
0.970215 0.000000 0.186890
0.000000 0.017273 0.186890
0.020996 0.017273 0.186890
0.187012 0.017273 0.186890
0.432373 0.017273 0.186890
0.665527 0.017273 0.186890
0.821777 0.017273 0.186890
0.913086 0.017288 0.186890
0.970215 0.017288 0.186890
0.000000 0.192871 0.186890
0.020996 0.192871 0.186890
0.187012 0.192871 0.186890
0.432373 0.192993 0.186890
0.665527 0.192993 0.186890
0.821777 0.192993 0.186890
0.913086 0.192993 0.186890
0.970215 0.192993 0.186890
0.000000 0.469971 0.186890
0.020996 0.469971 0.186890
0.187012 0.469971 0.186890
0.432373 0.469971 0.186890
0.665527 0.469971 0.186890
0.821777 0.469971 0.186890
0.913086 0.469971 0.186890
0.970215 0.469971 0.186890
0.000000 0.687500 0.186890
0.020996 0.687500 0.186890
0.187012 0.687500 0.186890
0.432373 0.687500 0.186890
0.665527 0.687500 0.186890
0.821777 0.687500 0.186890
0.913086 0.687500 0.186890
0.970215 0.687500 0.186890
0.000000 0.820801 0.186890
0.020996 0.820801 0.186890
0.187012 0.820801 0.186890
0.432373 0.820801 0.186890
0.665527 0.820801 0.186890
0.821777 0.820801 0.186890
0.913086 0.820801 0.186890
0.970215 0.820801 0.186890
0.000000 0.906738 0.186890
0.020996 0.906738 0.186890
0.187012 0.906738 0.186890
0.432373 0.906738 0.186890
0.665527 0.906738 0.186890
0.821777 0.906738 0.186890
0.913086 0.906738 0.186890
0.970215 0.906738 0.186890
0.000000 0.960938 0.186890
0.020996 0.960938 0.186890
0.187012 0.960938 0.186890
0.432373 0.960938 0.186890
0.665527 0.960938 0.186890
0.821777 0.960938 0.186890
0.913086 0.960938 0.186890
0.970215 0.960938 0.186890
0.000000 0.000000 0.432129
0.021011 0.000000 0.432129
0.187134 0.000000 0.432129
0.432373 0.000000 0.432129
0.665527 0.000000 0.432129
0.821777 0.000000 0.432129
0.913086 0.000000 0.432129
0.970215 0.000000 0.432129
0.000000 0.017273 0.432129
0.021011 0.017273 0.432129
0.187134 0.017273 0.432129
0.432373 0.017273 0.432129
0.665527 0.017273 0.432129
0.821777 0.017273 0.432129
0.913086 0.017273 0.432129
0.970215 0.017288 0.432129
0.000000 0.192871 0.432129
0.021011 0.192871 0.432129
0.187134 0.192871 0.432129
0.432373 0.192993 0.432129
0.665527 0.192993 0.432129
0.821777 0.192993 0.432129
0.913086 0.192993 0.432129
0.970215 0.192993 0.432129
0.000000 0.469971 0.432129
0.021011 0.469971 0.432129
0.187134 0.469971 0.432129
0.432373 0.469971 0.432129
0.665527 0.469971 0.432129
0.821777 0.469971 0.432129
0.913086 0.469971 0.432129
0.970215 0.469971 0.432129
0.000000 0.687500 0.432129
0.021011 0.687500 0.432129
0.187134 0.687500 0.432129
0.432373 0.687500 0.432129
0.665527 0.687500 0.432129
0.821777 0.687500 0.432129
0.913086 0.687500 0.432129
0.970215 0.687500 0.432129
0.000000 0.820313 0.432129
0.021011 0.820801 0.432129
0.187134 0.820801 0.432129
0.432373 0.820801 0.432129
0.665527 0.820801 0.432129
0.821777 0.820801 0.432129
0.913086 0.820801 0.432129
0.970215 0.820801 0.432129
0.000000 0.906738 0.432129
0.021011 0.906738 0.432129
0.187134 0.906738 0.432129
0.432373 0.906738 0.432129
0.665527 0.906738 0.432129
0.821777 0.906738 0.432129
0.913086 0.906738 0.432129
0.970215 0.906738 0.432129
0.000000 0.960938 0.432129
0.021011 0.960938 0.432129
0.187134 0.960938 0.432129
0.432373 0.960938 0.432129
0.665527 0.960938 0.432129
0.821777 0.960938 0.432129
0.913086 0.960938 0.432129
0.970215 0.960938 0.432129
0.000000 0.000000 0.665039
0.021027 0.000000 0.665039
0.187134 0.000000 0.665039
0.432617 0.000000 0.665039
0.665527 0.000000 0.665039
0.821777 0.000000 0.665039
0.913086 0.000000 0.665039
0.970215 0.000000 0.665039
0.000000 0.017273 0.665039
0.021027 0.017273 0.665039
0.187134 0.017273 0.665039
0.432617 0.017273 0.665039
0.665527 0.017273 0.665039
0.821777 0.017273 0.665039
0.913086 0.017273 0.665039
0.970215 0.017273 0.665039
0.000000 0.192871 0.665039
0.021027 0.192871 0.665039
0.187134 0.192871 0.665039
0.432617 0.192871 0.665039
0.665527 0.192993 0.665039
0.821777 0.192993 0.665039
0.913086 0.192993 0.665039
0.970215 0.192993 0.665039
0.000000 0.469971 0.665039
0.021027 0.469971 0.665039
0.187134 0.469971 0.665039
0.432617 0.469971 0.665039
0.665527 0.469971 0.665039
0.821777 0.469971 0.665039
0.913086 0.469971 0.665039
0.970215 0.469971 0.665039
0.000000 0.687500 0.665039
0.021027 0.687500 0.665039
0.187134 0.687500 0.665039
0.432617 0.687500 0.665039
0.665527 0.687500 0.665039
0.821777 0.687500 0.665039
0.913086 0.687500 0.665039
0.970215 0.687500 0.665039
0.000000 0.820313 0.665039
0.021027 0.820313 0.665039
0.187134 0.820801 0.665039
0.432617 0.820801 0.665039
0.665527 0.820801 0.665039
0.821777 0.820801 0.665039
0.913086 0.820801 0.665039
0.970215 0.820801 0.665039
0.000000 0.906738 0.665039
0.021027 0.906738 0.665039
0.187134 0.906738 0.665039
0.432617 0.906738 0.665039
0.665527 0.906738 0.665039
0.821777 0.906738 0.665039
0.913086 0.906738 0.665039
0.970215 0.906738 0.665039
0.000000 0.960938 0.665039
0.021027 0.960938 0.665039
0.187134 0.960938 0.665039
0.432617 0.960938 0.665039
0.665527 0.960938 0.665039
0.821777 0.960938 0.665039
0.913086 0.960938 0.665039
0.970215 0.960938 0.665039
0.000000 0.000000 0.821289
0.021042 0.000000 0.821289
0.187134 0.000000 0.821289
0.432617 0.000000 0.821289
0.665527 0.000000 0.821289
0.821777 0.000000 0.821289
0.913086 0.000000 0.821289
0.970215 0.000000 0.821289
0.000000 0.017273 0.821289
0.021042 0.017273 0.821289
0.187134 0.017273 0.821289
0.432617 0.017273 0.821289
0.665527 0.017273 0.821289
0.821777 0.017273 0.821289
0.913086 0.017273 0.821289
0.970215 0.017273 0.821289
0.000000 0.192871 0.821289
0.021042 0.192871 0.821289
0.187134 0.192871 0.821289
0.432617 0.192871 0.821289
0.665527 0.192871 0.821289
0.821777 0.192993 0.821289
0.913086 0.192993 0.821289
0.970215 0.192993 0.821289
0.000000 0.469971 0.821289
0.021042 0.469971 0.821289
0.187134 0.469971 0.821289
0.432617 0.469971 0.821289
0.665527 0.469971 0.821289
0.821777 0.469971 0.821289
0.913086 0.469971 0.821289
0.970215 0.469971 0.821289
0.000000 0.687500 0.821289
0.021042 0.687500 0.821289
0.187134 0.687500 0.821289
0.432617 0.687500 0.821289
0.665527 0.687500 0.821289
0.821777 0.687500 0.821289
0.913086 0.687500 0.821289
0.970215 0.687500 0.821289
0.000000 0.820313 0.821289
0.021042 0.820313 0.821289
0.187134 0.820313 0.821289
0.432617 0.820801 0.821289
0.665527 0.820801 0.821289
0.821777 0.820801 0.821289
0.913086 0.820801 0.821289
0.970215 0.820801 0.821289
0.000000 0.906738 0.821289
0.021042 0.906738 0.821289
0.187134 0.906738 0.821289
0.432617 0.906738 0.821289
0.665527 0.906738 0.821289
0.821777 0.906738 0.821289
0.913086 0.906738 0.821289
0.970215 0.906738 0.821289
0.000000 0.960938 0.821289
0.021042 0.960938 0.821289
0.187134 0.960938 0.821289
0.432617 0.960938 0.821289
0.665527 0.960938 0.821289
0.821777 0.960938 0.821289
0.913086 0.960938 0.821289
0.970215 0.960938 0.821289
0.000000 0.000000 0.913086
0.021057 0.000000 0.913086
0.187256 0.000000 0.913086
0.432617 0.000000 0.913086
0.665527 0.000000 0.913086
0.821777 0.000000 0.913086
0.913086 0.000000 0.913086
0.970215 0.000000 0.913086
0.000000 0.017273 0.913086
0.021057 0.017273 0.913086
0.187256 0.017273 0.913086
0.432617 0.017273 0.913086
0.665527 0.017273 0.913086
0.821777 0.017273 0.913086
0.913086 0.017273 0.913086
0.970215 0.017273 0.913086
0.000000 0.192871 0.913086
0.021057 0.192871 0.913086
0.187256 0.192871 0.913086
0.432617 0.192871 0.913086
0.665527 0.192871 0.913086
0.821777 0.192871 0.913086
0.913086 0.192993 0.913086
0.970215 0.192993 0.913086
0.000000 0.469971 0.913086
0.021057 0.469971 0.913086
0.187256 0.469971 0.913086
0.432617 0.469971 0.913086
0.665527 0.469971 0.913086
0.821777 0.469971 0.913086
0.913086 0.469971 0.913086
0.970215 0.469971 0.913086
0.000000 0.687500 0.913086
0.021057 0.687500 0.913086
0.187256 0.687500 0.913086
0.432617 0.687500 0.913086
0.665527 0.687500 0.913086
0.821777 0.687500 0.913086
0.913086 0.687500 0.913086
0.970215 0.687500 0.913086
0.000000 0.820313 0.913086
0.021057 0.820313 0.913086
0.187256 0.820313 0.913086
0.432617 0.820313 0.913086
0.665527 0.820801 0.913086
0.821777 0.820801 0.913086
0.913086 0.820801 0.913086
0.970215 0.820801 0.913086
0.000000 0.906738 0.913086
0.021057 0.906738 0.913086
0.187256 0.906738 0.913086
0.432617 0.906738 0.913086
0.665527 0.906738 0.913086
0.821777 0.906738 0.913086
0.913086 0.906738 0.913086
0.970215 0.906738 0.913086
0.000000 0.960938 0.913086
0.021057 0.960938 0.913086
0.187256 0.960938 0.913086
0.432617 0.960938 0.913086
0.665527 0.960938 0.913086
0.821777 0.960938 0.913086
0.913086 0.960938 0.913086
0.970215 0.960938 0.913086
0.000000 0.000000 0.970215
0.021072 0.000000 0.970215
0.187256 0.000000 0.970215
0.432617 0.000000 0.970215
0.665527 0.000000 0.970215
0.821777 0.000000 0.970215
0.913086 0.000000 0.970215
0.970703 0.000000 0.970215
0.000000 0.017258 0.970215
0.021072 0.017273 0.970215
0.187256 0.017273 0.970215
0.432617 0.017273 0.970215
0.665527 0.017273 0.970215
0.821777 0.017273 0.970215
0.913086 0.017273 0.970215
0.970703 0.017273 0.970215
0.000000 0.192871 0.970215
0.021072 0.192871 0.970215
0.187256 0.192871 0.970215
0.432617 0.192871 0.970215
0.665527 0.192871 0.970215
0.821777 0.192871 0.970215
0.913086 0.192871 0.970215
0.970703 0.192993 0.970215
0.000000 0.469971 0.970215
0.021072 0.469971 0.970215
0.187256 0.469971 0.970215
0.432617 0.469971 0.970215
0.665527 0.469971 0.970215
0.821777 0.469971 0.970215
0.913086 0.469971 0.970215
0.970703 0.469971 0.970215
0.000000 0.687500 0.970215
0.021072 0.687500 0.970215
0.187256 0.687500 0.970215
0.432617 0.687500 0.970215
0.665527 0.687500 0.970215
0.821777 0.687500 0.970215
0.913086 0.687500 0.970215
0.970703 0.687500 0.970215
0.000000 0.820313 0.970215
0.021072 0.820313 0.970215
0.187256 0.820313 0.970215
0.432617 0.820313 0.970215
0.665527 0.820313 0.970215
0.821777 0.820801 0.970215
0.913086 0.820801 0.970215
0.970703 0.820801 0.970215
0.000000 0.906738 0.970215
0.021072 0.906738 0.970215
0.187256 0.906738 0.970215
0.432617 0.906738 0.970215
0.665527 0.906738 0.970215
0.821777 0.906738 0.970215
0.913086 0.906738 0.970215
0.970703 0.906738 0.970215
0.000000 0.960938 0.970215
0.021072 0.960938 0.970215
0.187256 0.960938 0.970215
0.432617 0.960938 0.970215
0.665527 0.960938 0.970215
0.821777 0.960938 0.970215
0.913086 0.960938 0.970215
0.970703 0.960938 0.970215
