cubelut/Adanmq_F250.cube
TITLE "Generated by Foundry::LUT"
LUT_3D_SIZE 8
DOMAIN_MIN 0.000000 0.000000 0.000000
DOMAIN_MAX 0.903226 0.903226 0.903226
0.000000 0.000000 0.000000
0.239990 0.000000 0.000000
0.426514 0.000000 0.000000
0.560059 0.000000 0.000000
0.673340 0.000000 0.000000
0.778809 0.000000 0.000000
0.874023 0.000000 0.000000
0.952637 0.000000 0.000000
0.000000 0.128296 0.000000
0.239990 0.128296 0.000000
0.426514 0.128296 0.000000
0.560059 0.128296 0.000000
0.673340 0.128296 0.000000
0.778809 0.128296 0.000000
0.874023 0.128296 0.000000
0.952637 0.128296 0.000000
0.000000 0.267822 0.000000
0.239990 0.267822 0.000000
0.426514 0.267822 0.000000
0.560059 0.267822 0.000000
0.673340 0.267822 0.000000
0.778809 0.267822 0.000000
0.874023 0.267822 0.000000
0.952637 0.267822 0.000000
0.000000 0.402832 0.000000
0.239990 0.402832 0.000000
0.426514 0.402832 0.000000
0.560059 0.402832 0.000000
0.673340 0.402832 0.000000
0.778809 0.402832 0.000000
0.874023 0.402832 0.000000
0.952637 0.403076 0.000000
0.000000 0.541504 0.000000
0.239990 0.541504 0.000000
0.426514 0.541504 0.000000
0.560059 0.541504 0.000000
0.673340 0.541504 0.000000
0.778809 0.541504 0.000000
0.874023 0.541504 0.000000
0.952637 0.541504 0.000000
0.000000 0.687012 0.000000
0.239990 0.687012 0.000000
0.426514 0.687012 0.000000
0.560059 0.687012 0.000000
0.673340 0.687012 0.000000
0.778809 0.687012 0.000000
0.874023 0.687012 0.000000
0.952637 0.687012 0.000000
0.000000 0.815918 0.000000
0.239990 0.815918 0.000000
0.426514 0.815918 0.000000
0.560059 0.815918 0.000000
0.673340 0.815918 0.000000
0.778809 0.815918 0.000000
0.874023 0.815918 0.000000
0.952637 0.815918 0.000000
0.000000 0.927246 0.000000
0.239990 0.927246 0.000000
0.426514 0.927246 0.000000
0.560059 0.927246 0.000000
0.673340 0.927246 0.000000
0.778809 0.927246 0.000000
0.874023 0.927246 0.000000
0.952637 0.927246 0.000000
0.000000 0.000000 0.121460
0.239990 0.000000 0.121460
0.426514 0.000000 0.121460
0.560059 0.000000 0.121460
0.673340 0.000000 0.121460
0.778809 0.000000 0.121460
0.874023 0.000000 0.121460
0.952637 0.000000 0.121460
0.000000 0.128296 0.121460
0.239990 0.128296 0.121460
0.426514 0.128296 0.121460
0.560059 0.128296 0.121460
0.673340 0.128296 0.121460
0.778809 0.128296 0.121460
0.874023 0.128296 0.121460
0.952637 0.128296 0.121460
0.000000 0.267822 0.121460
0.239990 0.267822 0.121460
0.426514 0.267822 0.121460
0.560059 0.267822 0.121460
0.673340 0.267822 0.121460
0.778809 0.267822 0.121460
0.874023 0.267822 0.121460
0.952637 0.267822 0.121460
0.000000 0.402832 0.121460
0.239990 0.402832 0.121460
0.426514 0.402832 0.121460
0.560059 0.402832 0.121460
0.673340 0.402832 0.121460
0.778809 0.402832 0.121460
0.874023 0.402832 0.121460
0.952637 0.402832 0.121460
0.000000 0.541504 0.121460
0.239990 0.541504 0.121460
0.426514 0.541504 0.121460
0.560059 0.541504 0.121460
0.673340 0.541504 0.121460
0.778809 0.541504 0.121460
0.874023 0.541504 0.121460
0.952637 0.541504 0.121460
0.000000 0.687012 0.121460
0.239990 0.687012 0.121460
0.426514 0.687012 0.121460
0.560059 0.687012 0.121460
0.673340 0.687012 0.121460
0.778809 0.687012 0.121460
0.874023 0.687012 0.121460
0.952637 0.687012 0.121460
0.000000 0.815918 0.121460
0.239990 0.815918 0.121460
0.426514 0.815918 0.121460
0.560059 0.815918 0.121460
0.673340 0.815918 0.121460
0.778809 0.815918 0.121460
0.874023 0.815918 0.121460
0.952637 0.815918 0.121460
0.000000 0.927246 0.121460
0.239990 0.927246 0.121460
0.426514 0.927246 0.121460
0.560059 0.927246 0.121460
0.673340 0.927246 0.121460
0.778809 0.927246 0.121460
0.874023 0.927246 0.121460
0.952637 0.927246 0.121460
0.000001 0.000000 0.264404
0.239990 0.000000 0.264404
0.426758 0.000000 0.264404
0.560059 0.000000 0.264404
0.673340 0.000000 0.264404
0.779297 0.000000 0.264404
0.874023 0.000000 0.264404
0.952637 0.000000 0.264404
0.000001 0.128296 0.264404
0.239990 0.128296 0.264404
0.426758 0.128296 0.264404
0.560059 0.128296 0.264404
0.673340 0.128296 0.264404
0.779297 0.128296 0.264404
0.874023 0.128296 0.264404
0.952637 0.128296 0.264404
0.000001 0.267822 0.264404
0.239990 0.267822 0.264404
0.426758 0.267822 0.264404
0.560059 0.267822 0.264404
0.673340 0.267822 0.264404
0.779297 0.267822 0.264404
0.874023 0.267822 0.264404
0.952637 0.267822 0.264404
0.000001 0.402832 0.264404
0.239990 0.402832 0.264404
0.426758 0.402832 0.264404
0.560059 0.402832 0.264404
0.673340 0.402832 0.264404
0.779297 0.402832 0.264404
0.874023 0.402832 0.264404
0.952637 0.402832 0.264404
0.000001 0.541504 0.264404
0.239990 0.541504 0.264404
0.426758 0.541504 0.264404
0.560059 0.541504 0.264404
0.673340 0.541504 0.264404
0.779297 0.541504 0.264404
0.874023 0.541504 0.264404
0.952637 0.541504 0.264404
0.000001 0.687012 0.264404
0.239990 0.687012 0.264404
0.426758 0.687012 0.264404
0.560059 0.687012 0.264404
0.673340 0.687012 0.264404
0.779297 0.687012 0.264404
0.874023 0.687012 0.264404
0.952637 0.687012 0.264404
0.000001 0.815918 0.264404
0.239990 0.815918 0.264404
0.426758 0.815918 0.264404
0.560059 0.815918 0.264404
0.673340 0.815918 0.264404
0.779297 0.815918 0.264404
0.874023 0.815918 0.264404
0.952637 0.815918 0.264404
0.000001 0.927246 0.264404
0.239990 0.927246 0.264404
0.426758 0.927246 0.264404
0.560059 0.927246 0.264404
0.673340 0.927246 0.264404
0.779297 0.927246 0.264404
0.874023 0.927246 0.264404
0.952637 0.927246 0.264404
0.000002 0.000000 0.416992
0.240112 0.000000 0.416992
0.426758 0.000000 0.416992
0.560547 0.000000 0.416992
0.673340 0.000000 0.416992
0.779297 0.000000 0.416992
0.874023 0.000000 0.416992
0.952637 0.000000 0.416992
0.000002 0.128296 0.416992
0.240112 0.128296 0.416992
0.426758 0.128296 0.416992
0.560547 0.128296 0.416992
0.673340 0.128296 0.416992
0.779297 0.128296 0.416992
0.874023 0.128296 0.416992
0.952637 0.128296 0.416992
0.000002 0.267822 0.416992
0.240112 0.267822 0.416992
0.426758 0.267822 0.416992
0.560547 0.267822 0.416992
0.673340 0.267822 0.416992
0.779297 0.267822 0.416992
0.874023 0.267822 0.416992
0.952637 0.267822 0.416992
0.000002 0.402832 0.416992
0.240112 0.402832 0.416992
0.426758 0.402832 0.416992
0.560547 0.402832 0.416992
0.673340 0.402832 0.416992
0.779297 0.402832 0.416992
0.874023 0.402832 0.416992
0.952637 0.402832 0.416992
0.000002 0.541504 0.416992
0.240112 0.541504 0.416992
0.426758 0.541504 0.416992
0.560547 0.541504 0.416992
0.673340 0.541504 0.416992
0.779297 0.541504 0.416992
0.874023 0.541504 0.416992
0.952637 0.541504 0.416992
0.000002 0.687012 0.416992
0.240112 0.687012 0.416992
0.426758 0.687012 0.416992
0.560547 0.687012 0.416992
0.673340 0.687012 0.416992
0.779297 0.687012 0.416992
0.874023 0.687012 0.416992
0.952637 0.687012 0.416992
0.000002 0.815918 0.416992
0.240112 0.815918 0.416992
0.426758 0.815918 0.416992
0.560547 0.815918 0.416992
0.673340 0.815918 0.416992
0.779297 0.815918 0.416992
0.874023 0.815918 0.416992
0.952637 0.815918 0.416992
0.000002 0.927246 0.416992
0.240112 0.927246 0.416992
0.426758 0.927246 0.416992
0.560547 0.927246 0.416992
0.673340 0.927246 0.416992
0.779297 0.927246 0.416992
0.874023 0.927246 0.416992
0.952637 0.927246 0.416992
0.000003 0.000000 0.553223
0.240112 0.000000 0.553223
0.426758 0.000000 0.553223
0.560547 0.000000 0.553223
0.673340 0.000000 0.553223
0.779297 0.000000 0.553223
0.874023 0.000000 0.553223
0.952637 0.000000 0.553223
0.000003 0.128296 0.553223
0.240112 0.128296 0.553223
0.426758 0.128296 0.553223
0.560547 0.128296 0.553223
0.673340 0.128296 0.553223
0.779297 0.128296 0.553223
0.874023 0.128296 0.553223
0.952637 0.128296 0.553223
0.000003 0.267822 0.553223
0.240112 0.267822 0.553223
0.426758 0.267822 0.553223
0.560547 0.267822 0.553223
0.673340 0.267822 0.553223
0.779297 0.267822 0.553223
0.874023 0.267822 0.553223
0.952637 0.267822 0.553223
0.000003 0.402832 0.553223
0.240112 0.402832 0.553223
0.426758 0.402832 0.553223
0.560547 0.402832 0.553223
0.673340 0.402832 0.553223
0.779297 0.402832 0.553223
0.874023 0.402832 0.553223
0.952637 0.402832 0.553223
0.000003 0.541504 0.553223
0.240112 0.541504 0.553223
0.426758 0.541504 0.553223
0.560547 0.541504 0.553223
0.673340 0.541504 0.553223
0.779297 0.541504 0.553223
0.874023 0.541504 0.553223
0.952637 0.541504 0.553223
0.000003 0.687012 0.553223
0.240112 0.687012 0.553223
0.426758 0.687012 0.553223
0.560547 0.687012 0.553223
0.673340 0.687012 0.553223
0.779297 0.687012 0.553223
0.874023 0.687012 0.553223
0.952637 0.687012 0.553223
0.000003 0.815918 0.553223
0.240112 0.815918 0.553223
0.426758 0.815918 0.553223
0.560547 0.815918 0.553223
0.673340 0.815918 0.553223
0.779297 0.815918 0.553223
0.874023 0.815918 0.553223
0.952637 0.815918 0.553223
0.000003 0.927246 0.553223
0.240112 0.927246 0.553223
0.426758 0.927246 0.553223
0.560547 0.927246 0.553223
0.673340 0.927246 0.553223
0.779297 0.927246 0.553223
0.874023 0.927246 0.553223
0.952637 0.927246 0.553223
0.000005 0.000000 0.662598
0.240112 0.000000 0.662598
0.426758 0.000000 0.662598
0.560547 0.000000 0.662598
0.673340 0.000000 0.662598
0.779297 0.000000 0.662598
0.874023 0.000000 0.662598
0.952637 0.000000 0.662598
0.000005 0.128296 0.662598
0.240112 0.128296 0.662598
0.426758 0.128296 0.662598
0.560547 0.128296 0.662598
0.673340 0.128296 0.662598
0.779297 0.128296 0.662598
0.874023 0.128296 0.662598
0.952637 0.128296 0.662598
0.000005 0.267822 0.662598
0.240112 0.267822 0.662598
0.426758 0.267822 0.662598
0.560547 0.267822 0.662598
0.673340 0.267822 0.662598
0.779297 0.267822 0.662598
0.874023 0.267822 0.662598
0.952637 0.267822 0.662598
0.000005 0.402832 0.662598
0.240112 0.402832 0.662598
0.426758 0.402832 0.662598
0.560547 0.402832 0.662598
0.673340 0.402832 0.662598
0.779297 0.402832 0.662598
0.874023 0.402832 0.662598
0.952637 0.402832 0.662598
0.000005 0.541504 0.662598
0.240112 0.541504 0.662598
0.426758 0.541504 0.662598
0.560547 0.541504 0.662598
0.673340 0.541504 0.662598
0.779297 0.541504 0.662598
0.874023 0.541504 0.662598
0.952637 0.541504 0.662598
0.000005 0.687012 0.662598
0.240112 0.687012 0.662598
0.426758 0.687012 0.662598
0.560547 0.687012 0.662598
0.673340 0.687012 0.662598
0.779297 0.687012 0.662598
0.874023 0.687012 0.662598
0.952637 0.687012 0.662598
0.000005 0.815918 0.662598
0.240112 0.815918 0.662598
0.426758 0.815918 0.662598
0.560547 0.815918 0.662598
0.673340 0.815918 0.662598
0.779297 0.815918 0.662598
0.874023 0.815918 0.662598
0.952637 0.815918 0.662598
0.000005 0.927246 0.662598
0.240112 0.927246 0.662598
0.426758 0.927246 0.662598
0.560547 0.927246 0.662598
0.673340 0.927246 0.662598
0.779297 0.927246 0.662598
0.874023 0.927246 0.662598
0.952637 0.927246 0.662598
0.000007 0.000000 0.770996
0.240112 0.000000 0.770996
0.426758 0.000000 0.770996
0.560547 0.000000 0.770996
0.673340 0.000000 0.770996
0.779297 0.000000 0.770996
0.874023 0.000000 0.770996
0.952637 0.000000 0.770996
0.000007 0.128296 0.770996
0.240112 0.128296 0.770996
0.426758 0.128296 0.770996
0.560547 0.128296 0.770996
0.673340 0.128296 0.770996
0.779297 0.128296 0.770996
0.874023 0.128296 0.770996
0.952637 0.128296 0.770996
0.000007 0.267822 0.770996
0.240112 0.267822 0.770996
0.426758 0.267822 0.770996
0.560547 0.267822 0.770996
0.673340 0.267822 0.770996
0.779297 0.267822 0.770996
0.874023 0.267822 0.770996
0.952637 0.267822 0.770996
0.000007 0.402832 0.770996
0.240112 0.402832 0.770996
0.426758 0.402832 0.770996
0.560547 0.402832 0.770996
0.673340 0.402832 0.770996
0.779297 0.402832 0.770996
0.874023 0.402832 0.770996
0.952637 0.402832 0.770996
0.000007 0.541504 0.770996
0.240112 0.541504 0.770996
0.426758 0.541504 0.770996
0.560547 0.541504 0.770996
0.673340 0.541504 0.770996
0.779297 0.541504 0.770996
0.874023 0.541504 0.770996
0.952637 0.541504 0.770996
0.000007 0.687012 0.770996
0.240112 0.687012 0.770996
0.426758 0.687012 0.770996
0.560547 0.687012 0.770996
0.673340 0.687012 0.770996
0.779297 0.687012 0.770996
0.874023 0.687012 0.770996
0.952637 0.687012 0.770996
0.000007 0.815918 0.770996
0.240112 0.815918 0.770996
0.426758 0.815918 0.770996
0.560547 0.815918 0.770996
0.673340 0.815918 0.770996
0.779297 0.815918 0.770996
0.874023 0.815918 0.770996
0.952637 0.815918 0.770996
0.000007 0.927246 0.770996
0.240112 0.927246 0.770996
0.426758 0.927246 0.770996
0.560547 0.927246 0.770996
0.673340 0.927246 0.770996
0.779297 0.927246 0.770996
0.874023 0.927246 0.770996
0.952637 0.927246 0.770996
0.000010 0.000000 0.897949
0.240234 0.000000 0.897949
0.426758 0.000000 0.897949
0.560547 0.000000 0.897949
0.673340 0.000000 0.897949
0.779297 0.000000 0.897949
0.874023 0.000000 0.897949
0.952637 0.000000 0.897949
0.000010 0.128296 0.897949
0.240234 0.128296 0.897949
0.426758 0.128296 0.897949
0.560547 0.128296 0.897949
0.673340 0.128296 0.897949
0.779297 0.128296 0.897949
0.874023 0.128296 0.897949
0.952637 0.128296 0.897949
0.000010 0.267822 0.897949
0.240234 0.267822 0.897949
0.426758 0.267822 0.897949
0.560547 0.267822 0.897949
0.673340 0.267822 0.897949
0.779297 0.267822 0.897949
0.874023 0.267822 0.897949
0.952637 0.267822 0.897949
0.000010 0.402832 0.897949
0.240234 0.402832 0.897949
0.426758 0.402832 0.897949
0.560547 0.402832 0.897949
0.673340 0.402832 0.897949
0.779297 0.402832 0.897949
0.874023 0.402832 0.897949
0.952637 0.402832 0.897949
0.000010 0.541504 0.897949
0.240234 0.541504 0.897949
0.426758 0.541504 0.897949
0.560547 0.541504 0.897949
0.673340 0.541504 0.897949
0.779297 0.541504 0.897949
0.874023 0.541504 0.897949
0.952637 0.541504 0.897949
0.000010 0.687012 0.897949
0.240234 0.687012 0.897949
0.426758 0.687012 0.897949
0.560547 0.687012 0.897949
0.673340 0.687012 0.897949
0.779297 0.687012 0.897949
0.874023 0.687012 0.897949
0.952637 0.687012 0.897949
0.000010 0.815918 0.897949
0.240234 0.815918 0.897949
0.426758 0.815918 0.897949
0.560547 0.815918 0.897949
0.673340 0.815918 0.897949
0.779297 0.815918 0.897949
0.874023 0.815918 0.897949
0.952637 0.815918 0.897949
0.000010 0.927246 0.897949
0.240234 0.927246 0.897949
0.426758 0.927246 0.897949
0.560547 0.927246 0.897949
0.673340 0.927246 0.897949
0.779297 0.927246 0.897949
0.874023 0.927246 0.897949
0.952637 0.927246 0.897949
