cubelut/Adanmq_Canon DSC S315 n3.cube
TITLE "Generated by Foundry::LUT"
LUT_3D_SIZE 8
DOMAIN_MIN 0.000000 0.000000 0.000000
DOMAIN_MAX 0.903226 0.903226 0.903226
0.000000 0.000000 0.000000
0.131714 0.000000 0.000000
0.371582 0.000000 0.000000
0.580078 0.000000 0.000000
0.713867 0.000000 0.000000
0.812012 0.000000 0.000000
0.890137 0.000000 0.000000
0.956055 0.000000 0.000000
0.000000 0.152832 0.000000
0.131714 0.152954 0.000000
0.371582 0.152954 0.000000
0.580078 0.152954 0.000000
0.713867 0.152954 0.000000
0.812012 0.152954 0.000000
0.890137 0.152954 0.000000
0.956055 0.152954 0.000000
0.000000 0.405762 0.000000
0.131714 0.405762 0.000000
0.371582 0.405762 0.000000
0.580078 0.405762 0.000000
0.713867 0.405762 0.000000
0.812012 0.405762 0.000000
0.890137 0.405762 0.000000
0.956055 0.405762 0.000000
0.000000 0.598633 0.000000
0.131714 0.598633 0.000000
0.371582 0.598633 0.000000
0.580078 0.598633 0.000000
0.713867 0.598633 0.000000
0.812012 0.598633 0.000000
0.890137 0.598633 0.000000
0.956055 0.598633 0.000000
0.000000 0.723633 0.000000
0.131714 0.723633 0.000000
0.371582 0.723633 0.000000
0.580078 0.723633 0.000000
0.713867 0.723633 0.000000
0.812012 0.723633 0.000000
0.890137 0.723633 0.000000
0.956055 0.723633 0.000000
0.000000 0.816895 0.000000
0.131714 0.816895 0.000000
0.371582 0.816895 0.000000
0.580078 0.816895 0.000000
0.713867 0.816895 0.000000
0.812012 0.816895 0.000000
0.890137 0.816895 0.000000
0.956055 0.816895 0.000000
0.000000 0.893066 0.000000
0.131714 0.893066 0.000000
0.371582 0.893066 0.000000
0.580078 0.893066 0.000000
0.713867 0.893066 0.000000
0.812012 0.893066 0.000000
0.890137 0.893066 0.000000
0.956055 0.893066 0.000000
0.000000 0.957031 0.000000
0.131714 0.957031 0.000000
0.371582 0.957031 0.000000
0.580078 0.957031 0.000000
0.713867 0.957031 0.000000
0.812012 0.957031 0.000000
0.890137 0.957031 0.000000
0.956055 0.957031 0.000000
0.000000 0.000000 0.147705
0.131714 0.000000 0.147705
0.371582 0.000000 0.147705
0.580078 0.000000 0.147705
0.713867 0.000000 0.147705
0.812012 0.000000 0.147705
0.890137 0.000000 0.147705
0.956055 0.000000 0.147705
0.000000 0.152832 0.147705
0.131714 0.152832 0.147705
0.371582 0.152954 0.147705
0.580078 0.152954 0.147705
0.713867 0.152954 0.147705
0.812012 0.152954 0.147705
0.890137 0.152954 0.147705
0.956055 0.152954 0.147705
0.000000 0.405762 0.147705
0.131714 0.405762 0.147705
0.371582 0.405762 0.147705
0.580078 0.405762 0.147705
0.713867 0.405762 0.147705
0.812012 0.405762 0.147705
0.890137 0.405762 0.147705
0.956055 0.405762 0.147705
0.000000 0.598633 0.147705
0.131714 0.598633 0.147705
0.371582 0.598633 0.147705
0.580078 0.598633 0.147705
0.713867 0.598633 0.147705
0.812012 0.598633 0.147705
0.890137 0.598633 0.147705
0.956055 0.598633 0.147705
0.000000 0.723633 0.147705
0.131714 0.723633 0.147705
0.371582 0.723633 0.147705
0.580078 0.723633 0.147705
0.713867 0.723633 0.147705
0.812012 0.723633 0.147705
0.890137 0.723633 0.147705
0.956055 0.723633 0.147705
0.000000 0.816895 0.147705
0.131714 0.816895 0.147705
0.371582 0.816895 0.147705
0.580078 0.816895 0.147705
0.713867 0.816895 0.147705
0.812012 0.816895 0.147705
0.890137 0.816895 0.147705
0.956055 0.816895 0.147705
0.000000 0.893066 0.147705
0.131714 0.893066 0.147705
0.371582 0.893066 0.147705
0.580078 0.893066 0.147705
0.713867 0.893066 0.147705
0.812012 0.893066 0.147705
0.890137 0.893066 0.147705
0.956055 0.893066 0.147705
0.000000 0.957031 0.147705
0.131714 0.957031 0.147705
0.371582 0.957031 0.147705
0.580078 0.957031 0.147705
0.713867 0.957031 0.147705
0.812012 0.957031 0.147705
0.890137 0.957031 0.147705
0.956055 0.957031 0.147705
0.000000 0.000000 0.401367
0.131714 0.000000 0.401367
0.371826 0.000000 0.401367
0.580078 0.000000 0.401367
0.713867 0.000000 0.401367
0.812012 0.000000 0.401367
0.890137 0.000000 0.401367
0.956055 0.000000 0.401367
0.000000 0.152832 0.401367
0.131714 0.152832 0.401367
0.371826 0.152832 0.401367
0.580078 0.152954 0.401367
0.713867 0.152954 0.401367
0.812012 0.152954 0.401367
0.890137 0.152954 0.401367
0.956055 0.152954 0.401367
0.000000 0.405762 0.401367
0.131714 0.405762 0.401367
0.371826 0.405762 0.401367
0.580078 0.405762 0.401367
0.713867 0.405762 0.401367
0.812012 0.405762 0.401367
0.890137 0.405762 0.401367
0.956055 0.405762 0.401367
0.000000 0.598633 0.401367
0.131714 0.598633 0.401367
0.371826 0.598633 0.401367
0.580078 0.598633 0.401367
0.713867 0.598633 0.401367
0.812012 0.598633 0.401367
0.890137 0.598633 0.401367
0.956055 0.598633 0.401367
0.000000 0.723633 0.401367
0.131714 0.723633 0.401367
0.371826 0.723633 0.401367
0.580078 0.723633 0.401367
0.713867 0.723633 0.401367
0.812012 0.723633 0.401367
0.890137 0.723633 0.401367
0.956055 0.723633 0.401367
0.000000 0.816895 0.401367
0.131714 0.816895 0.401367
0.371826 0.816895 0.401367
0.580078 0.816895 0.401367
0.713867 0.816895 0.401367
0.812012 0.816895 0.401367
0.890137 0.816895 0.401367
0.956055 0.816895 0.401367
0.000000 0.893066 0.401367
0.131714 0.893066 0.401367
0.371826 0.893066 0.401367
0.580078 0.893066 0.401367
0.713867 0.893066 0.401367
0.812012 0.893066 0.401367
0.890137 0.893066 0.401367
0.956055 0.893066 0.401367
0.000000 0.957031 0.401367
0.131714 0.957031 0.401367
0.371826 0.957031 0.401367
0.580078 0.957031 0.401367
0.713867 0.957031 0.401367
0.812012 0.957031 0.401367
0.890137 0.957031 0.401367
0.956055 0.957031 0.401367
0.000000 0.000000 0.610352
0.131714 0.000000 0.610352
0.371826 0.000000 0.610352
0.580078 0.000000 0.610352
0.713867 0.000000 0.610352
0.812012 0.000000 0.610352
0.890137 0.000000 0.610352
0.956055 0.000000 0.610352
0.000000 0.152832 0.610352
0.131714 0.152832 0.610352
0.371826 0.152832 0.610352
0.580078 0.152832 0.610352
0.713867 0.152954 0.610352
0.812012 0.152954 0.610352
0.890137 0.152954 0.610352
0.956055 0.152954 0.610352
0.000000 0.405762 0.610352
0.131714 0.405762 0.610352
0.371826 0.405762 0.610352
0.580078 0.405762 0.610352
0.713867 0.405762 0.610352
0.812012 0.405762 0.610352
0.890137 0.405762 0.610352
0.956055 0.405762 0.610352
0.000000 0.598633 0.610352
0.131714 0.598633 0.610352
0.371826 0.598633 0.610352
0.580078 0.598633 0.610352
0.713867 0.598633 0.610352
0.812012 0.598633 0.610352
0.890137 0.598633 0.610352
0.956055 0.598633 0.610352
0.000000 0.723633 0.610352
0.131714 0.723633 0.610352
0.371826 0.723633 0.610352
0.580078 0.723633 0.610352
0.713867 0.723633 0.610352
0.812012 0.723633 0.610352
0.890137 0.723633 0.610352
0.956055 0.723633 0.610352
0.000000 0.816895 0.610352
0.131714 0.816895 0.610352
0.371826 0.816895 0.610352
0.580078 0.816895 0.610352
0.713867 0.816895 0.610352
0.812012 0.816895 0.610352
0.890137 0.816895 0.610352
0.956055 0.816895 0.610352
0.000000 0.893066 0.610352
0.131714 0.893066 0.610352
0.371826 0.893066 0.610352
0.580078 0.893066 0.610352
0.713867 0.893066 0.610352
0.812012 0.893066 0.610352
0.890137 0.893066 0.610352
0.956055 0.893066 0.610352
0.000000 0.957031 0.610352
0.131714 0.957031 0.610352
0.371826 0.957031 0.610352
0.580078 0.957031 0.610352
0.713867 0.957031 0.610352
0.812012 0.957031 0.610352
0.890137 0.957031 0.610352
0.956055 0.957031 0.610352
0.000000 0.000000 0.736816
0.131836 0.000000 0.736816
0.371826 0.000000 0.736816
0.580566 0.000000 0.736816
0.713867 0.000000 0.736816
0.812012 0.000000 0.736816
0.890137 0.000000 0.736816
0.956055 0.000000 0.736816
0.000000 0.152832 0.736816
0.131836 0.152832 0.736816
0.371826 0.152832 0.736816
0.580566 0.152832 0.736816
0.713867 0.152832 0.736816
0.812012 0.152954 0.736816
0.890137 0.152954 0.736816
0.956055 0.152954 0.736816
0.000000 0.405762 0.736816
0.131836 0.405762 0.736816
0.371826 0.405762 0.736816
0.580566 0.405762 0.736816
0.713867 0.405762 0.736816
0.812012 0.405762 0.736816
0.890137 0.405762 0.736816
0.956055 0.405762 0.736816
0.000000 0.598633 0.736816
0.131836 0.598633 0.736816
0.371826 0.598633 0.736816
0.580566 0.598633 0.736816
0.713867 0.598633 0.736816
0.812012 0.598633 0.736816
0.890137 0.598633 0.736816
0.956055 0.598633 0.736816
0.000000 0.723633 0.736816
0.131836 0.723633 0.736816
0.371826 0.723633 0.736816
0.580566 0.723633 0.736816
0.713867 0.723633 0.736816
0.812012 0.723633 0.736816
0.890137 0.723633 0.736816
0.956055 0.723633 0.736816
0.000000 0.816895 0.736816
0.131836 0.816895 0.736816
0.371826 0.816895 0.736816
0.580566 0.816895 0.736816
0.713867 0.816895 0.736816
0.812012 0.816895 0.736816
0.890137 0.816895 0.736816
0.956055 0.816895 0.736816
0.000000 0.893066 0.736816
0.131836 0.893066 0.736816
0.371826 0.893066 0.736816
0.580566 0.893066 0.736816
0.713867 0.893066 0.736816
0.812012 0.893066 0.736816
0.890137 0.893066 0.736816
0.956055 0.893066 0.736816
0.000000 0.957031 0.736816
0.131836 0.957031 0.736816
0.371826 0.957031 0.736816
0.580566 0.957031 0.736816
0.713867 0.957031 0.736816
0.812012 0.957031 0.736816
0.890137 0.957031 0.736816
0.956055 0.957031 0.736816
0.000000 0.000000 0.827148
0.131836 0.000000 0.827148
0.371826 0.000000 0.827148
0.580566 0.000000 0.827148
0.713867 0.000000 0.827148
0.812012 0.000000 0.827148
0.890137 0.000000 0.827148
0.956055 0.000000 0.827148
0.000000 0.152832 0.827148
0.131836 0.152832 0.827148
0.371826 0.152832 0.827148
0.580566 0.152832 0.827148
0.713867 0.152832 0.827148
0.812012 0.152832 0.827148
0.890137 0.152954 0.827148
0.956055 0.152954 0.827148
0.000000 0.405762 0.827148
0.131836 0.405762 0.827148
0.371826 0.405762 0.827148
0.580566 0.405762 0.827148
0.713867 0.405762 0.827148
0.812012 0.405762 0.827148
0.890137 0.405762 0.827148
0.956055 0.405762 0.827148
0.000000 0.598633 0.827148
0.131836 0.598633 0.827148
0.371826 0.598633 0.827148
0.580566 0.598633 0.827148
0.713867 0.598633 0.827148
0.812012 0.598633 0.827148
0.890137 0.598633 0.827148
0.956055 0.598633 0.827148
0.000000 0.723633 0.827148
0.131836 0.723633 0.827148
0.371826 0.723633 0.827148
0.580566 0.723633 0.827148
0.713867 0.723633 0.827148
0.812012 0.723633 0.827148
0.890137 0.723633 0.827148
0.956055 0.723633 0.827148
0.000000 0.816895 0.827148
0.131836 0.816895 0.827148
0.371826 0.816895 0.827148
0.580566 0.816895 0.827148
0.713867 0.816895 0.827148
0.812012 0.816895 0.827148
0.890137 0.816895 0.827148
0.956055 0.816895 0.827148
0.000000 0.893066 0.827148
0.131836 0.893066 0.827148
0.371826 0.893066 0.827148
0.580566 0.893066 0.827148
0.713867 0.893066 0.827148
0.812012 0.893066 0.827148
0.890137 0.893066 0.827148
0.956055 0.893066 0.827148
0.000000 0.957031 0.827148
0.131836 0.957031 0.827148
0.371826 0.957031 0.827148
0.580566 0.957031 0.827148
0.713867 0.957031 0.827148
0.812012 0.957031 0.827148
0.890137 0.957031 0.827148
0.956055 0.957031 0.827148
0.000000 0.000000 0.899414
0.131836 0.000000 0.899414
0.371826 0.000000 0.899414
0.580566 0.000000 0.899414
0.714355 0.000000 0.899414
0.812012 0.000000 0.899414
0.890137 0.000000 0.899414
0.956055 0.000000 0.899414
0.000000 0.152832 0.899414
0.131836 0.152832 0.899414
0.371826 0.152832 0.899414
0.580566 0.152832 0.899414
0.714355 0.152832 0.899414
0.812012 0.152832 0.899414
0.890137 0.152832 0.899414
0.956055 0.152954 0.899414
0.000000 0.405762 0.899414
0.131836 0.405762 0.899414
0.371826 0.405762 0.899414
0.580566 0.405762 0.899414
0.714355 0.405762 0.899414
0.812012 0.405762 0.899414
0.890137 0.405762 0.899414
0.956055 0.405762 0.899414
0.000000 0.598633 0.899414
0.131836 0.598633 0.899414
0.371826 0.598633 0.899414
0.580566 0.598633 0.899414
0.714355 0.598633 0.899414
0.812012 0.598633 0.899414
0.890137 0.598633 0.899414
0.956055 0.598633 0.899414
0.000000 0.723633 0.899414
0.131836 0.723633 0.899414
0.371826 0.723633 0.899414
0.580566 0.723633 0.899414
0.714355 0.723633 0.899414
0.812012 0.723633 0.899414
0.890137 0.723633 0.899414
0.956055 0.723633 0.899414
0.000000 0.816895 0.899414
0.131836 0.816895 0.899414
0.371826 0.816895 0.899414
0.580566 0.816895 0.899414
0.714355 0.816895 0.899414
0.812012 0.816895 0.899414
0.890137 0.816895 0.899414
0.956055 0.816895 0.899414
0.000000 0.893066 0.899414
0.131836 0.893066 0.899414
0.371826 0.893066 0.899414
0.580566 0.893066 0.899414
0.714355 0.893066 0.899414
0.812012 0.893066 0.899414
0.890137 0.893066 0.899414
0.956055 0.893066 0.899414
0.000000 0.957031 0.899414
0.131836 0.957031 0.899414
0.371826 0.957031 0.899414
0.580566 0.957031 0.899414
0.714355 0.957031 0.899414
0.812012 0.957031 0.899414
0.890137 0.957031 0.899414
0.956055 0.957031 0.899414
0.000000 0.000000 0.959961
0.131958 0.000000 0.959961
0.371826 0.000000 0.959961
0.580566 0.000000 0.959961
0.714355 0.000000 0.959961
0.812012 0.000000 0.959961
0.890137 0.000000 0.959961
0.956055 0.000000 0.959961
0.000000 0.152832 0.959961
0.131958 0.152832 0.959961
0.371826 0.152832 0.959961
0.580566 0.152832 0.959961
0.714355 0.152832 0.959961
0.812012 0.152832 0.959961
0.890137 0.152832 0.959961
0.956055 0.152832 0.959961
0.000000 0.405762 0.959961
0.131958 0.405762 0.959961
0.371826 0.405762 0.959961
0.580566 0.405762 0.959961
0.714355 0.405762 0.959961
0.812012 0.405762 0.959961
0.890137 0.405762 0.959961
0.956055 0.405762 0.959961
0.000000 0.598633 0.959961
0.131958 0.598633 0.959961
0.371826 0.598633 0.959961
0.580566 0.598633 0.959961
0.714355 0.598633 0.959961
0.812012 0.598633 0.959961
0.890137 0.598633 0.959961
0.956055 0.598633 0.959961
0.000000 0.723633 0.959961
0.131958 0.723633 0.959961
0.371826 0.723633 0.959961
0.580566 0.723633 0.959961
0.714355 0.723633 0.959961
0.812012 0.723633 0.959961
0.890137 0.723633 0.959961
0.956055 0.723633 0.959961
0.000000 0.816895 0.959961
0.131958 0.816895 0.959961
0.371826 0.816895 0.959961
0.580566 0.816895 0.959961
0.714355 0.816895 0.959961
0.812012 0.816895 0.959961
0.890137 0.816895 0.959961
0.956055 0.816895 0.959961
0.000000 0.893066 0.959961
0.131958 0.893066 0.959961
0.371826 0.893066 0.959961
0.580566 0.893066 0.959961
0.714355 0.893066 0.959961
0.812012 0.893066 0.959961
0.890137 0.893066 0.959961
0.956055 0.893066 0.959961
0.000000 0.957031 0.959961
0.131958 0.957031 0.959961
0.371826 0.957031 0.959961
0.580566 0.957031 0.959961
0.714355 0.957031 0.959961
0.812012 0.957031 0.959961
0.890137 0.957031 0.959961
0.956055 0.957031 0.959961
