cubelut/Adanmq_Portra 160n.cube
TITLE "Generated by Foundry::LUT"
LUT_3D_SIZE 5
DOMAIN_MIN 0.000000 0.000000 0.000000
DOMAIN_MAX 0.903226 0.903226 0.903226
0.000000 0.000000 0.000000
0.170532 0.000000 0.000000
0.395020 0.000000 0.000000
0.640625 0.000000 0.000000
0.900391 0.000000 0.000000
0.000000 0.160156 0.000000
0.170532 0.160156 0.000000
0.395020 0.160156 0.000000
0.640625 0.160156 0.000000
0.900391 0.160156 0.000000
0.000000 0.380859 0.000000
0.170532 0.380859 0.000000
0.395020 0.381104 0.000000
0.640625 0.381104 0.000000
0.900391 0.381104 0.000000
0.000000 0.630371 0.000000
0.170532 0.630371 0.000000
0.395020 0.630859 0.000000
0.640625 0.630859 0.000000
0.900391 0.630859 0.000000
0.000000 0.898438 0.000000
0.170532 0.898438 0.000000
0.395020 0.898438 0.000000
0.640625 0.898438 0.000000
0.900391 0.898438 0.000000
0.000000 0.000000 0.134888
0.170532 0.000000 0.134888
0.395020 0.000000 0.134888
0.640625 0.000000 0.134888
0.900391 0.000000 0.134888
0.000000 0.160156 0.134888
0.170532 0.160156 0.134888
0.395020 0.160156 0.134888
0.640625 0.160156 0.134888
0.900391 0.160156 0.134888
0.000000 0.380859 0.134888
0.170532 0.380859 0.134888
0.395020 0.380859 0.134888
0.640625 0.381104 0.134888
0.900391 0.381104 0.134888
0.000000 0.630371 0.134888
0.170532 0.630371 0.134888
0.395020 0.630371 0.134888
0.640625 0.630859 0.134888
0.900391 0.630859 0.134888
0.000000 0.898438 0.134888
0.170532 0.898438 0.134888
0.395020 0.898438 0.134888
0.640625 0.898438 0.134888
0.900391 0.898438 0.134888
0.000000 0.000000 0.348633
0.170654 0.000000 0.348633
0.395264 0.000000 0.348633
0.640625 0.000000 0.348633
0.900391 0.000000 0.348633
0.000000 0.160156 0.348633
0.170654 0.160156 0.348633
0.395264 0.160156 0.348633
0.640625 0.160156 0.348633
0.900391 0.160156 0.348633
0.000000 0.380859 0.348633
0.170654 0.380859 0.348633
0.395264 0.380859 0.348633
0.640625 0.380859 0.348633
0.900391 0.381104 0.348633
0.000000 0.630371 0.348633
0.170654 0.630371 0.348633
0.395264 0.630371 0.348633
0.640625 0.630859 0.348633
0.900391 0.630859 0.348633
0.000000 0.898438 0.348633
0.170654 0.898438 0.348633
0.395264 0.898438 0.348633
0.640625 0.898438 0.348633
0.900391 0.898438 0.348633
0.000000 0.000000 0.603516
0.170654 0.000000 0.603516
0.395264 0.000000 0.603516
0.640625 0.000000 0.603516
0.900391 0.000000 0.603516
0.000000 0.160156 0.603516
0.170654 0.160156 0.603516
0.395264 0.160156 0.603516
0.640625 0.160156 0.603516
0.900391 0.160156 0.603516
0.000000 0.380859 0.603516
0.170654 0.380859 0.603516
0.395264 0.380859 0.603516
0.640625 0.380859 0.603516
0.900391 0.380859 0.603516
0.000000 0.630371 0.603516
0.170654 0.630371 0.603516
0.395264 0.630371 0.603516
0.640625 0.630371 0.603516
0.900391 0.630859 0.603516
0.000000 0.898438 0.603516
0.170654 0.898438 0.603516
0.395264 0.898438 0.603516
0.640625 0.898438 0.603516
0.900391 0.898438 0.603516
0.000001 0.000000 0.887695
0.170654 0.000000 0.887695
0.395264 0.000000 0.887695
0.641113 0.000000 0.887695
0.900391 0.000000 0.887695
0.000001 0.160156 0.887695
0.170654 0.160156 0.887695
0.395264 0.160156 0.887695
0.641113 0.160156 0.887695
0.900391 0.160156 0.887695
0.000001 0.380859 0.887695
0.170654 0.380859 0.887695
0.395264 0.380859 0.887695
0.641113 0.380859 0.887695
0.900391 0.380859 0.887695
0.000001 0.630371 0.887695
0.170654 0.630371 0.887695
0.395264 0.630371 0.887695
0.641113 0.630371 0.887695
0.900391 0.630371 0.887695
0.000001 0.898438 0.887695
0.170654 0.898438 0.887695
0.395264 0.898438 0.887695
0.641113 0.898438 0.887695
0.900391 0.898438 0.887695
