cubelut/Adanmq_Ektachrome 400x.cube
TITLE "Generated by Foundry::LUT"
LUT_3D_SIZE 8
DOMAIN_MIN 0.000000 0.000000 0.000000
DOMAIN_MAX 0.903226 0.903226 0.903226
0.000000 0.000000 0.000000
0.126953 0.000000 0.000000
0.534668 0.000000 0.000000
0.794922 0.000000 0.000000
0.904785 0.000000 0.000000
0.959961 0.000000 0.000000
0.987305 0.000000 0.000000
0.990234 0.000000 0.000000
0.000000 0.066772 0.000000
0.126953 0.066772 0.000000
0.534668 0.066772 0.000000
0.794922 0.066772 0.000000
0.904785 0.066772 0.000000
0.959961 0.066772 0.000000
0.987305 0.066772 0.000000
0.990234 0.066772 0.000000
0.000000 0.413818 0.000000
0.126953 0.413818 0.000000
0.534668 0.413818 0.000000
0.794922 0.414063 0.000000
0.904785 0.414063 0.000000
0.959961 0.414063 0.000000
0.987305 0.414063 0.000000
0.990234 0.414063 0.000000
0.000000 0.687012 0.000000
0.126953 0.687012 0.000000
0.534668 0.687012 0.000000
0.794922 0.687012 0.000000
0.904785 0.687012 0.000000
0.959961 0.687012 0.000000
0.987305 0.687012 0.000000
0.990234 0.687012 0.000000
0.000000 0.847656 0.000000
0.126953 0.847656 0.000000
0.534668 0.847656 0.000000
0.794922 0.847656 0.000000
0.904785 0.847656 0.000000
0.959961 0.847656 0.000000
0.987305 0.847656 0.000000
0.990234 0.847656 0.000000
0.000000 0.934082 0.000000
0.126953 0.934082 0.000000
0.534668 0.934082 0.000000
0.794922 0.934082 0.000000
0.904785 0.934082 0.000000
0.959961 0.934082 0.000000
0.987305 0.934570 0.000000
0.990234 0.934570 0.000000
0.000000 0.976074 0.000000
0.126953 0.976074 0.000000
0.534668 0.976563 0.000000
0.794922 0.976563 0.000000
0.904785 0.976563 0.000000
0.959961 0.976563 0.000000
0.987305 0.976563 0.000000
0.990234 0.976563 0.000000
0.000000 0.989746 0.000000
0.126953 0.989746 0.000000
0.534668 0.989746 0.000000
0.794922 0.989746 0.000000
0.904785 0.989746 0.000000
0.959961 0.989746 0.000000
0.987305 0.989746 0.000000
0.990234 0.989746 0.000000
0.000000 0.000000 0.012840
0.126953 0.000000 0.012840
0.534668 0.000000 0.012840
0.794922 0.000000 0.012840
0.904785 0.000000 0.012840
0.959961 0.000000 0.012840
0.987305 0.000000 0.012840
0.990234 0.000000 0.012840
0.000000 0.066772 0.012840
0.126953 0.066772 0.012840
0.534668 0.066772 0.012840
0.794922 0.066772 0.012840
0.904785 0.066772 0.012840
0.959961 0.066772 0.012840
0.987305 0.066772 0.012840
0.990234 0.066772 0.012840
0.000000 0.413818 0.012840
0.126953 0.413818 0.012840
0.534668 0.413818 0.012840
0.794922 0.413818 0.012840
0.904785 0.414063 0.012840
0.959961 0.414063 0.012840
0.987305 0.414063 0.012840
0.990234 0.414063 0.012840
0.000000 0.687012 0.012840
0.126953 0.687012 0.012840
0.534668 0.687012 0.012840
0.794922 0.687012 0.012848
0.904785 0.687012 0.012848
0.959961 0.687012 0.012848
0.987305 0.687012 0.012848
0.990234 0.687012 0.012848
0.000000 0.847656 0.012848
0.126953 0.847656 0.012848
0.534668 0.847656 0.012848
0.794922 0.847656 0.012848
0.904785 0.847656 0.012848
0.959961 0.847656 0.012848
0.987305 0.847656 0.012848
0.990234 0.847656 0.012848
0.000000 0.934082 0.012848
0.126953 0.934082 0.012848
0.534668 0.934082 0.012848
0.794922 0.934082 0.012848
0.904785 0.934082 0.012848
0.959961 0.934082 0.012848
0.987305 0.934570 0.012848
0.990234 0.934570 0.012848
0.000000 0.976074 0.012848
0.126953 0.976074 0.012848
0.534668 0.976074 0.012848
0.794922 0.976563 0.012848
0.904785 0.976563 0.012848
0.959961 0.976563 0.012848
0.987305 0.976563 0.012848
0.990234 0.976563 0.012848
0.000000 0.989746 0.012848
0.126953 0.989746 0.012848
0.534668 0.989746 0.012848
0.794922 0.989746 0.012848
0.904785 0.989746 0.012848
0.959961 0.989746 0.012848
0.987305 0.989746 0.012848
0.990234 0.989746 0.012848
0.000000 0.000000 0.176270
0.127075 0.000000 0.176270
0.534668 0.000000 0.176270
0.794922 0.000000 0.176270
0.904785 0.000000 0.176270
0.959961 0.000000 0.176270
0.987305 0.000000 0.176270
0.990234 0.000000 0.176270
0.000000 0.066772 0.176270
0.127075 0.066772 0.176270
0.534668 0.066772 0.176270
0.794922 0.066772 0.176270
0.904785 0.066772 0.176270
0.959961 0.066772 0.176270
0.987305 0.066772 0.176270
0.990234 0.066772 0.176270
0.000000 0.413818 0.176270
0.127075 0.413818 0.176270
0.534668 0.413818 0.176270
0.794922 0.413818 0.176270
0.904785 0.413818 0.176270
0.959961 0.414063 0.176270
0.987305 0.414063 0.176270
0.990234 0.414063 0.176270
0.000000 0.687012 0.176392
0.127075 0.687012 0.176392
0.534668 0.687012 0.176392
0.794922 0.687012 0.176392
0.904785 0.687012 0.176392
0.959961 0.687012 0.176392
0.987305 0.687012 0.176392
0.990234 0.687012 0.176392
0.000000 0.847656 0.176392
0.127075 0.847656 0.176392
0.534668 0.847656 0.176392
0.794922 0.847656 0.176392
0.904785 0.847656 0.176392
0.959961 0.847656 0.176392
0.987305 0.847656 0.176392
0.990234 0.847656 0.176392
0.000000 0.934082 0.176392
0.127075 0.934082 0.176392
0.534668 0.934082 0.176392
0.794922 0.934082 0.176392
0.904785 0.934082 0.176392
0.959961 0.934082 0.176392
0.987305 0.934082 0.176392
0.990234 0.934570 0.176392
0.000000 0.976074 0.176392
0.127075 0.976074 0.176392
0.534668 0.976074 0.176392
0.794922 0.976074 0.176392
0.904785 0.976563 0.176392
0.959961 0.976563 0.176392
0.987305 0.976563 0.176392
0.990234 0.976563 0.176392
0.000000 0.989746 0.176392
0.127075 0.989746 0.176392
0.534668 0.989746 0.176392
0.794922 0.989746 0.176392
0.904785 0.989746 0.176392
0.959961 0.989746 0.176392
0.987305 0.989746 0.176392
0.990234 0.989746 0.176392
0.000000 0.000000 0.436768
0.127075 0.000000 0.436768
0.534668 0.000000 0.436768
0.795410 0.000000 0.436768
0.904785 0.000000 0.436768
0.959961 0.000000 0.436768
0.987305 0.000000 0.436768
0.990234 0.000000 0.436768
0.000000 0.066772 0.436768
0.127075 0.066772 0.436768
0.534668 0.066772 0.436768
0.795410 0.066772 0.436768
0.904785 0.066772 0.436768
0.959961 0.066772 0.436768
0.987305 0.066772 0.436768
0.990234 0.066772 0.436768
0.000000 0.413818 0.436768
0.127075 0.413818 0.436768
0.534668 0.413818 0.436768
0.795410 0.413818 0.436768
0.904785 0.413818 0.436768
0.959961 0.413818 0.436768
0.987305 0.414063 0.436768
0.990234 0.414063 0.436768
0.000000 0.687012 0.436768
0.127075 0.687012 0.436768
0.534668 0.687012 0.436768
0.795410 0.687012 0.436768
0.904785 0.687012 0.436768
0.959961 0.687012 0.436768
0.987305 0.687012 0.436768
0.990234 0.687012 0.436768
0.000000 0.847656 0.436768
0.127075 0.847656 0.436768
0.534668 0.847656 0.436768
0.795410 0.847656 0.436768
0.904785 0.847656 0.436768
0.959961 0.847656 0.436768
0.987305 0.847656 0.436768
0.990234 0.847656 0.436768
0.000000 0.934082 0.436768
0.127075 0.934082 0.436768
0.534668 0.934082 0.436768
0.795410 0.934082 0.436768
0.904785 0.934082 0.436768
0.959961 0.934082 0.436768
0.987305 0.934082 0.436768
0.990234 0.934082 0.436768
0.000000 0.976074 0.436768
0.127075 0.976074 0.436768
0.534668 0.976074 0.436768
0.795410 0.976074 0.436768
0.904785 0.976074 0.436768
0.959961 0.976563 0.436768
0.987305 0.976563 0.436768
0.990234 0.976563 0.436768
0.000000 0.989746 0.436768
0.127075 0.989746 0.436768
0.534668 0.989746 0.436768
0.795410 0.989746 0.436768
0.904785 0.989746 0.436768
0.959961 0.989746 0.436768
0.987305 0.989746 0.436768
0.990234 0.989746 0.436768
0.000000 0.000000 0.659668
0.127197 0.000000 0.659668
0.534668 0.000000 0.659668
0.795410 0.000000 0.659668
0.904785 0.000000 0.659668
0.959961 0.000000 0.659668
0.987305 0.000000 0.659668
0.990234 0.000000 0.659668
0.000000 0.066772 0.659668
0.127197 0.066772 0.659668
0.534668 0.066772 0.659668
0.795410 0.066772 0.659668
0.904785 0.066772 0.659668
0.959961 0.066772 0.659668
0.987305 0.066772 0.659668
0.990234 0.066772 0.659668
0.000000 0.413818 0.659668
0.127197 0.413818 0.659668
0.534668 0.413818 0.659668
0.795410 0.413818 0.659668
0.904785 0.413818 0.659668
0.959961 0.413818 0.659668
0.987305 0.413818 0.659668
0.990234 0.414063 0.659668
0.000000 0.687012 0.659668
0.127197 0.687012 0.659668
0.534668 0.687012 0.659668
0.795410 0.687012 0.659668
0.904785 0.687012 0.659668
0.959961 0.687012 0.659668
0.987305 0.687012 0.659668
0.990234 0.687012 0.659668
0.000000 0.847656 0.659668
0.127197 0.847656 0.659668
0.534668 0.847656 0.659668
0.795410 0.847656 0.659668
0.904785 0.847656 0.659668
0.959961 0.847656 0.659668
0.987305 0.847656 0.659668
0.990234 0.847656 0.659668
0.000000 0.934082 0.659668
0.127197 0.934082 0.659668
0.534668 0.934082 0.659668
0.795410 0.934082 0.659668
0.904785 0.934082 0.659668
0.959961 0.934082 0.659668
0.987305 0.934082 0.659668
0.990234 0.934082 0.659668
0.000000 0.976074 0.659668
0.127197 0.976074 0.659668
0.534668 0.976074 0.659668
0.795410 0.976074 0.659668
0.904785 0.976074 0.659668
0.959961 0.976074 0.659668
0.987305 0.976563 0.659668
0.990234 0.976563 0.659668
0.000000 0.989746 0.659668
0.127197 0.989746 0.659668
0.534668 0.989746 0.659668
0.795410 0.989746 0.659668
0.904785 0.989746 0.659668
0.959961 0.989746 0.659668
0.987305 0.989746 0.659668
0.990234 0.989746 0.659668
0.000000 0.000000 0.815430
0.127197 0.000000 0.815430
0.534668 0.000000 0.815430
0.795410 0.000000 0.815430
0.904785 0.000000 0.815430
0.959961 0.000000 0.815430
0.987305 0.000000 0.815430
0.990234 0.000000 0.815430
0.000000 0.066711 0.815430
0.127197 0.066772 0.815430
0.534668 0.066772 0.815430
0.795410 0.066772 0.815430
0.904785 0.066772 0.815430
0.959961 0.066772 0.815430
0.987305 0.066772 0.815430
0.990234 0.066772 0.815430
0.000000 0.413818 0.815430
0.127197 0.413818 0.815430
0.534668 0.413818 0.815430
0.795410 0.413818 0.815430
0.904785 0.413818 0.815430
0.959961 0.413818 0.815430
0.987305 0.413818 0.815430
0.990234 0.413818 0.815430
0.000000 0.687012 0.815430
0.127197 0.687012 0.815430
0.534668 0.687012 0.815430
0.795410 0.687012 0.815430
0.904785 0.687012 0.815430
0.959961 0.687012 0.815430
0.987305 0.687012 0.815430
0.990234 0.687012 0.815430
0.000000 0.847656 0.815430
0.127197 0.847656 0.815430
0.534668 0.847656 0.815430
0.795410 0.847656 0.815430
0.904785 0.847656 0.815430
0.959961 0.847656 0.815430
0.987305 0.847656 0.815430
0.990234 0.847656 0.815430
0.000000 0.934082 0.815430
0.127197 0.934082 0.815430
0.534668 0.934082 0.815430
0.795410 0.934082 0.815430
0.904785 0.934082 0.815430
0.959961 0.934082 0.815430
0.987305 0.934082 0.815430
0.990234 0.934082 0.815430
0.000000 0.976074 0.815430
0.127197 0.976074 0.815430
0.534668 0.976074 0.815430
0.795410 0.976074 0.815430
0.904785 0.976074 0.815430
0.959961 0.976074 0.815430
0.987305 0.976074 0.815430
0.990234 0.976563 0.815430
0.000000 0.989746 0.815430
0.127197 0.989746 0.815430
0.534668 0.989746 0.815430
0.795410 0.989746 0.815430
0.904785 0.989746 0.815430
0.959961 0.989746 0.815430
0.987305 0.989746 0.815430
0.990234 0.989746 0.815430
0.000000 0.000000 0.918945
0.127319 0.000000 0.918945
0.535156 0.000000 0.918945
0.795410 0.000000 0.918945
0.904785 0.000000 0.918945
0.959961 0.000000 0.918945
0.987305 0.000000 0.918945
0.990234 0.000000 0.918945
0.000000 0.066711 0.918945
0.127319 0.066711 0.918945
0.535156 0.066772 0.918945
0.795410 0.066772 0.918945
0.904785 0.066772 0.918945
0.959961 0.066772 0.918945
0.987305 0.066772 0.918945
0.990234 0.066772 0.918945
0.000000 0.413818 0.918945
0.127319 0.413818 0.918945
0.535156 0.413818 0.918945
0.795410 0.413818 0.918945
0.904785 0.413818 0.918945
0.959961 0.413818 0.918945
0.987305 0.413818 0.918945
0.990234 0.413818 0.918945
0.000000 0.687012 0.918945
0.127319 0.687012 0.918945
0.535156 0.687012 0.918945
0.795410 0.687012 0.918945
0.904785 0.687012 0.918945
0.959961 0.687012 0.918945
0.987305 0.687012 0.918945
0.990234 0.687012 0.918945
0.000000 0.847656 0.918945
0.127319 0.847656 0.918945
0.535156 0.847656 0.918945
0.795410 0.847656 0.918945
0.904785 0.847656 0.918945
0.959961 0.847656 0.918945
0.987305 0.847656 0.918945
0.990234 0.847656 0.918945
0.000000 0.934082 0.918945
0.127319 0.934082 0.918945
0.535156 0.934082 0.918945
0.795410 0.934082 0.918945
0.904785 0.934082 0.918945
0.959961 0.934082 0.918945
0.987305 0.934082 0.918945
0.990234 0.934082 0.918945
0.000000 0.976074 0.918945
0.127319 0.976074 0.918945
0.535156 0.976074 0.918945
0.795410 0.976074 0.918945
0.904785 0.976074 0.918945
0.959961 0.976074 0.918945
0.987305 0.976074 0.918945
0.990234 0.976074 0.918945
0.000000 0.989746 0.918945
0.127319 0.989746 0.918945
0.535156 0.989746 0.918945
0.795410 0.989746 0.918945
0.904785 0.989746 0.918945
0.959961 0.989746 0.918945
0.987305 0.989746 0.918945
0.990234 0.989746 0.918945
0.000000 0.000000 0.979492
0.127319 0.000000 0.979492
0.535156 0.000000 0.979492
0.795410 0.000000 0.979492
0.904785 0.000000 0.979492
0.959961 0.000000 0.979492
0.987305 0.000000 0.979492
0.990234 0.000000 0.979492
0.000000 0.066711 0.979492
0.127319 0.066711 0.979492
0.535156 0.066711 0.979492
0.795410 0.066772 0.979492
0.904785 0.066772 0.979492
0.959961 0.066772 0.979492
0.987305 0.066772 0.979492
0.990234 0.066772 0.979492
0.000000 0.413818 0.979492
0.127319 0.413818 0.979492
0.535156 0.413818 0.979492
0.795410 0.413818 0.979492
0.904785 0.413818 0.979492
0.959961 0.413818 0.979492
0.987305 0.413818 0.979492
0.990234 0.413818 0.979492
0.000000 0.687012 0.979492
0.127319 0.687012 0.979492
0.535156 0.687012 0.979492
0.795410 0.687012 0.979492
0.904785 0.687012 0.979492
0.959961 0.687012 0.979492
0.987305 0.687012 0.979492
0.990234 0.687012 0.979492
0.000000 0.847168 0.979492
0.127319 0.847656 0.979492
0.535156 0.847656 0.979492
0.795410 0.847656 0.979492
0.904785 0.847656 0.979492
0.959961 0.847656 0.979492
0.987305 0.847656 0.979492
0.990234 0.847656 0.979492
0.000000 0.934082 0.979492
0.127319 0.934082 0.979492
0.535156 0.934082 0.979492
0.795410 0.934082 0.979492
0.904785 0.934082 0.979492
0.959961 0.934082 0.979492
0.987305 0.934082 0.979492
0.990234 0.934082 0.979492
0.000000 0.976074 0.979492
0.127319 0.976074 0.979492
0.535156 0.976074 0.979492
0.795410 0.976074 0.979492
0.904785 0.976074 0.979492
0.959961 0.976074 0.979492
0.987305 0.976074 0.979492
0.990234 0.976074 0.979492
0.000000 0.989746 0.979492
0.127319 0.989746 0.979492
0.535156 0.989746 0.979492
0.795410 0.989746 0.979492
0.904785 0.989746 0.979492
0.959961 0.989746 0.979492
0.987305 0.989746 0.979492
0.990234 0.989746 0.979492
