cubelut/Adanmq_Canon DSC S315 n5.cube
TITLE "Generated by Foundry::LUT"
LUT_3D_SIZE 5
DOMAIN_MIN 0.000000 0.000000 0.000000
DOMAIN_MAX 0.903226 0.903226 0.903226
0.000000 0.000000 0.000000
0.312500 0.000000 0.000000
0.627930 0.000000 0.000000
0.815430 0.000000 0.000000
0.951172 0.000000 0.000000
0.000000 0.312744 0.000000
0.312500 0.312744 0.000000
0.627930 0.312744 0.000000
0.815430 0.312744 0.000000
0.951172 0.312744 0.000000
0.000000 0.627930 0.000000
0.312500 0.627930 0.000000
0.627930 0.627930 0.000000
0.815430 0.627930 0.000000
0.951172 0.627930 0.000000
0.000000 0.815430 0.000000
0.312500 0.815430 0.000000
0.627930 0.815430 0.000000
0.815430 0.815430 0.000000
0.951172 0.815430 0.000000
0.000000 0.951172 0.000000
0.312500 0.951172 0.000000
0.627930 0.951172 0.000000
0.815430 0.951172 0.000000
0.951172 0.951172 0.000000
0.000000 0.000000 0.312500
0.312744 0.000000 0.312500
0.627930 0.000000 0.312500
0.815430 0.000000 0.312500
0.951172 0.000000 0.312500
0.000000 0.312744 0.312500
0.312744 0.312744 0.312500
0.627930 0.312744 0.312500
0.815430 0.312744 0.312500
0.951172 0.312744 0.312500
0.000000 0.627930 0.312500
0.312744 0.627930 0.312500
0.627930 0.627930 0.312500
0.815430 0.627930 0.312500
0.951172 0.627930 0.312500
0.000000 0.815430 0.312500
0.312744 0.815430 0.312500
0.627930 0.815430 0.312500
0.815430 0.815430 0.312500
0.951172 0.815430 0.312500
0.000000 0.951172 0.312500
0.312744 0.951172 0.312500
0.627930 0.951172 0.312500
0.815430 0.951172 0.312500
0.951172 0.951172 0.312500
0.000000 0.000000 0.627930
0.312744 0.000000 0.627930
0.627930 0.000000 0.627930
0.815430 0.000000 0.627930
0.951172 0.000000 0.627930
0.000000 0.312744 0.627930
0.312744 0.312744 0.627930
0.627930 0.312744 0.627930
0.815430 0.312744 0.627930
0.951172 0.312744 0.627930
0.000000 0.627930 0.627930
0.312744 0.627930 0.627930
0.627930 0.627930 0.627930
0.815430 0.627930 0.627930
0.951172 0.627930 0.627930
0.000000 0.815430 0.627930
0.312744 0.815430 0.627930
0.627930 0.815430 0.627930
0.815430 0.815430 0.627930
0.951172 0.815430 0.627930
0.000000 0.951172 0.627930
0.312744 0.951172 0.627930
0.627930 0.951172 0.627930
0.815430 0.951172 0.627930
0.951172 0.951172 0.627930
0.000000 0.000000 0.815430
0.312744 0.000000 0.815430
0.627930 0.000000 0.815430
0.815430 0.000000 0.815430
0.951172 0.000000 0.815430
0.000000 0.312500 0.815430
0.312744 0.312744 0.815430
0.627930 0.312744 0.815430
0.815430 0.312744 0.815430
0.951172 0.312744 0.815430
0.000000 0.627930 0.815430
0.312744 0.627930 0.815430
0.627930 0.627930 0.815430
0.815430 0.627930 0.815430
0.951172 0.627930 0.815430
0.000000 0.815430 0.815430
0.312744 0.815430 0.815430
0.627930 0.815430 0.815430
0.815430 0.815430 0.815430
0.951172 0.815430 0.815430
0.000000 0.951172 0.815430
0.312744 0.951172 0.815430
0.627930 0.951172 0.815430
0.815430 0.951172 0.815430
0.951172 0.951172 0.815430
0.000000 0.000000 0.950684
0.312988 0.000000 0.950684
0.627930 0.000000 0.950684
0.815430 0.000000 0.950684
0.951172 0.000000 0.950684
0.000000 0.312500 0.950684
0.312988 0.312500 0.950684
0.627930 0.312744 0.950684
0.815430 0.312744 0.950684
0.951172 0.312744 0.950684
0.000000 0.627930 0.950684
0.312988 0.627930 0.950684
0.627930 0.627930 0.950684
0.815430 0.627930 0.950684
0.951172 0.627930 0.950684
0.000000 0.815430 0.950684
0.312988 0.815430 0.950684
0.627930 0.815430 0.950684
0.815430 0.815430 0.950684
0.951172 0.815430 0.950684
0.000000 0.951172 0.950684
0.312988 0.951172 0.950684
0.627930 0.951172 0.950684
0.815430 0.951172 0.950684
0.951172 0.951172 0.950684
