cubelut/Adanmq_Kodachrome 200.cube
TITLE "Generated by Foundry::LUT"
LUT_3D_SIZE 8
DOMAIN_MIN 0.000000 0.000000 0.000000
DOMAIN_MAX 0.903226 0.903226 0.903226
0.000000 0.000000 0.000000
0.016510 0.000000 0.000000
0.196899 0.000000 0.000000
0.450928 0.000000 0.000000
0.685547 0.000000 0.000000
0.843750 0.000000 0.000000
0.933105 0.000000 0.000000
0.980957 0.000000 0.000000
0.000000 0.012703 0.000000
0.016510 0.012703 0.000000
0.196899 0.012703 0.000000
0.450928 0.012711 0.000000
0.685547 0.012711 0.000000
0.843750 0.012711 0.000000
0.933105 0.012711 0.000000
0.980957 0.012711 0.000000
0.000000 0.185791 0.000000
0.016510 0.185791 0.000000
0.196899 0.185791 0.000000
0.450928 0.185791 0.000000
0.685547 0.185791 0.000000
0.843750 0.185791 0.000000
0.933105 0.185791 0.000000
0.980957 0.185791 0.000000
0.000000 0.462402 0.000000
0.016510 0.462402 0.000000
0.196899 0.462402 0.000000
0.450928 0.462402 0.000000
0.685547 0.462646 0.000000
0.843750 0.462646 0.000000
0.933105 0.462646 0.000000
0.980957 0.462646 0.000000
0.000000 0.703125 0.000000
0.016510 0.703125 0.000000
0.196899 0.703125 0.000000
0.450928 0.703125 0.000000
0.685547 0.703125 0.000000
0.843750 0.703125 0.000000
0.933105 0.703125 0.000000
0.980957 0.703125 0.000000
0.000000 0.858398 0.000000
0.016510 0.858398 0.000000
0.196899 0.858398 0.000000
0.450928 0.858398 0.000000
0.685547 0.858398 0.000000
0.843750 0.858398 0.000000
0.933105 0.858398 0.000000
0.980957 0.858398 0.000000
0.000000 0.943848 0.000000
0.016510 0.943848 0.000000
0.196899 0.943848 0.000000
0.450928 0.943848 0.000000
0.685547 0.943848 0.000000
0.843750 0.943848 0.000000
0.933105 0.943848 0.000000
0.980957 0.943848 0.000000
0.000000 0.982910 0.000000
0.016510 0.982910 0.000000
0.196899 0.982910 0.000000
0.450928 0.982910 0.000000
0.685547 0.982910 0.000000
0.843750 0.982910 0.000000
0.933105 0.982910 0.000000
0.980957 0.982910 0.000000
0.000000 0.000000 0.008537
0.016525 0.000000 0.008537
0.196899 0.000000 0.008537
0.451172 0.000000 0.008537
0.685547 0.000000 0.008537
0.843750 0.000000 0.008537
0.933105 0.000000 0.008537
0.980957 0.000000 0.008537
0.000000 0.012703 0.008537
0.016525 0.012703 0.008537
0.196899 0.012703 0.008537
0.451172 0.012703 0.008537
0.685547 0.012711 0.008537
0.843750 0.012711 0.008537
0.933105 0.012711 0.008537
0.980957 0.012711 0.008537
0.000000 0.185791 0.008537
0.016525 0.185791 0.008537
0.196899 0.185791 0.008537
0.451172 0.185791 0.008537
0.685547 0.185791 0.008537
0.843750 0.185791 0.008537
0.933105 0.185791 0.008537
0.980957 0.185791 0.008537
0.000000 0.462402 0.008537
0.016525 0.462402 0.008537
0.196899 0.462402 0.008537
0.451172 0.462402 0.008537
0.685547 0.462646 0.008537
0.843750 0.462646 0.008537
0.933105 0.462646 0.008537
0.980957 0.462646 0.008537
0.000000 0.703125 0.008537
0.016525 0.703125 0.008537
0.196899 0.703125 0.008537
0.451172 0.703125 0.008537
0.685547 0.703125 0.008537
0.843750 0.703125 0.008537
0.933105 0.703125 0.008537
0.980957 0.703125 0.008537
0.000000 0.858398 0.008537
0.016525 0.858398 0.008537
0.196899 0.858398 0.008537
0.451172 0.858398 0.008537
0.685547 0.858398 0.008537
0.843750 0.858398 0.008537
0.933105 0.858398 0.008537
0.980957 0.858398 0.008537
0.000000 0.943848 0.008537
0.016525 0.943848 0.008537
0.196899 0.943848 0.008537
0.451172 0.943848 0.008537
0.685547 0.943848 0.008537
0.843750 0.943848 0.008537
0.933105 0.943848 0.008537
0.980957 0.943848 0.008537
0.000000 0.982910 0.008537
0.016525 0.982910 0.008537
0.196899 0.982910 0.008537
0.451172 0.982910 0.008537
0.685547 0.982910 0.008537
0.843750 0.982910 0.008537
0.933105 0.982910 0.008537
0.980957 0.982910 0.008537
0.000000 0.000000 0.146729
0.016541 0.000000 0.146729
0.196899 0.000000 0.146729
0.451172 0.000000 0.146729
0.685547 0.000000 0.146729
0.843750 0.000000 0.146729
0.933105 0.000000 0.146729
0.980957 0.000000 0.146729
0.000000 0.012703 0.146729
0.016541 0.012703 0.146729
0.196899 0.012703 0.146729
0.451172 0.012703 0.146729
0.685547 0.012703 0.146729
0.843750 0.012711 0.146729
0.933105 0.012711 0.146729
0.980957 0.012711 0.146729
0.000000 0.185791 0.146729
0.016541 0.185791 0.146729
0.196899 0.185791 0.146729
0.451172 0.185791 0.146729
0.685547 0.185791 0.146729
0.843750 0.185791 0.146729
0.933105 0.185791 0.146729
0.980957 0.185791 0.146729
0.000000 0.462402 0.146729
0.016541 0.462402 0.146729
0.196899 0.462402 0.146729
0.451172 0.462402 0.146729
0.685547 0.462402 0.146729
0.843750 0.462646 0.146729
0.933105 0.462646 0.146729
0.980957 0.462646 0.146729
0.000000 0.703125 0.146729
0.016541 0.703125 0.146729
0.196899 0.703125 0.146729
0.451172 0.703125 0.146729
0.685547 0.703125 0.146729
0.843750 0.703125 0.146729
0.933105 0.703125 0.146729
0.980957 0.703125 0.146729
0.000000 0.858398 0.146729
0.016541 0.858398 0.146729
0.196899 0.858398 0.146729
0.451172 0.858398 0.146729
0.685547 0.858398 0.146729
0.843750 0.858398 0.146729
0.933105 0.858398 0.146729
0.980957 0.858398 0.146729
0.000000 0.943848 0.146729
0.016541 0.943848 0.146729
0.196899 0.943848 0.146729
0.451172 0.943848 0.146729
0.685547 0.943848 0.146729
0.843750 0.943848 0.146729
0.933105 0.943848 0.146729
0.980957 0.943848 0.146729
0.000000 0.982910 0.146729
0.016541 0.982910 0.146729
0.196899 0.982910 0.146729
0.451172 0.982910 0.146729
0.685547 0.982910 0.146729
0.843750 0.982910 0.146729
0.933105 0.982910 0.146729
0.980957 0.982910 0.146729
0.000000 0.000000 0.372803
0.016556 0.000000 0.372803
0.197021 0.000000 0.372803
0.451172 0.000000 0.372803
0.685547 0.000000 0.372803
0.843750 0.000000 0.372803
0.933105 0.000000 0.372803
0.980957 0.000000 0.372803
0.000000 0.012703 0.372803
0.016556 0.012703 0.372803
0.197021 0.012703 0.372803
0.451172 0.012703 0.372803
0.685547 0.012703 0.372803
0.843750 0.012703 0.372803
0.933105 0.012711 0.372803
0.980957 0.012711 0.372803
0.000000 0.185791 0.372803
0.016556 0.185791 0.372803
0.197021 0.185791 0.372803
0.451172 0.185791 0.372803
0.685547 0.185791 0.372803
0.843750 0.185791 0.372803
0.933105 0.185791 0.372803
0.980957 0.185791 0.372803
0.000000 0.462402 0.372803
0.016556 0.462402 0.372803
0.197021 0.462402 0.372803
0.451172 0.462402 0.372803
0.685547 0.462402 0.372803
0.843750 0.462402 0.372803
0.933105 0.462646 0.372803
0.980957 0.462646 0.372803
0.000000 0.703125 0.373047
0.016556 0.703125 0.373047
0.197021 0.703125 0.373047
0.451172 0.703125 0.373047
0.685547 0.703125 0.373047
0.843750 0.703125 0.373047
0.933105 0.703125 0.373047
0.980957 0.703125 0.373047
0.000000 0.858398 0.373047
0.016556 0.858398 0.373047
0.197021 0.858398 0.373047
0.451172 0.858398 0.373047
0.685547 0.858398 0.373047
0.843750 0.858398 0.373047
0.933105 0.858398 0.373047
0.980957 0.858398 0.373047
0.000000 0.943848 0.373047
0.016556 0.943848 0.373047
0.197021 0.943848 0.373047
0.451172 0.943848 0.373047
0.685547 0.943848 0.373047
0.843750 0.943848 0.373047
0.933105 0.943848 0.373047
0.980957 0.943848 0.373047
0.000000 0.982910 0.373047
0.016556 0.982910 0.373047
0.197021 0.982910 0.373047
0.451172 0.982910 0.373047
0.685547 0.982910 0.373047
0.843750 0.982910 0.373047
0.933105 0.982910 0.373047
0.980957 0.982910 0.373047
0.000000 0.000000 0.596680
0.016571 0.000000 0.596680
0.197021 0.000000 0.596680
0.451172 0.000000 0.596680
0.685547 0.000000 0.596680
0.843750 0.000000 0.596680
0.933105 0.000000 0.596680
0.980957 0.000000 0.596680
0.000000 0.012695 0.596680
0.016571 0.012703 0.596680
0.197021 0.012703 0.596680
0.451172 0.012703 0.596680
0.685547 0.012703 0.596680
0.843750 0.012703 0.596680
0.933105 0.012703 0.596680
0.980957 0.012711 0.596680
0.000000 0.185791 0.596680
0.016571 0.185791 0.596680
0.197021 0.185791 0.596680
0.451172 0.185791 0.596680
0.685547 0.185791 0.596680
0.843750 0.185791 0.596680
0.933105 0.185791 0.596680
0.980957 0.185791 0.596680
0.000000 0.462402 0.596680
0.016571 0.462402 0.596680
0.197021 0.462402 0.596680
0.451172 0.462402 0.596680
0.685547 0.462402 0.596680
0.843750 0.462402 0.596680
0.933105 0.462402 0.596680
0.980957 0.462646 0.596680
0.000000 0.703125 0.596680
0.016571 0.703125 0.596680
0.197021 0.703125 0.596680
0.451172 0.703125 0.596680
0.685547 0.703125 0.596680
0.843750 0.703125 0.596680
0.933105 0.703125 0.596680
0.980957 0.703125 0.596680
0.000000 0.858398 0.596680
0.016571 0.858398 0.596680
0.197021 0.858398 0.596680
0.451172 0.858398 0.596680
0.685547 0.858398 0.596680
0.843750 0.858398 0.596680
0.933105 0.858398 0.596680
0.980957 0.858398 0.596680
0.000000 0.943848 0.596680
0.016571 0.943848 0.596680
0.197021 0.943848 0.596680
0.451172 0.943848 0.596680
0.685547 0.943848 0.596680
0.843750 0.943848 0.596680
0.933105 0.943848 0.596680
0.980957 0.943848 0.596680
0.000000 0.982910 0.596680
0.016571 0.982910 0.596680
0.197021 0.982910 0.596680
0.451172 0.982910 0.596680
0.685547 0.982910 0.596680
0.843750 0.982910 0.596680
0.933105 0.982910 0.596680
0.980957 0.982910 0.596680
0.000000 0.000000 0.766602
0.016571 0.000000 0.766602
0.197144 0.000000 0.766602
0.451172 0.000000 0.766602
0.685547 0.000000 0.766602
0.843750 0.000000 0.766602
0.933105 0.000000 0.766602
0.980957 0.000000 0.766602
0.000000 0.012695 0.766602
0.016571 0.012703 0.766602
0.197144 0.012703 0.766602
0.451172 0.012703 0.766602
0.685547 0.012703 0.766602
0.843750 0.012703 0.766602
0.933105 0.012703 0.766602
0.980957 0.012703 0.766602
0.000000 0.185791 0.766602
0.016571 0.185791 0.766602
0.197144 0.185791 0.766602
0.451172 0.185791 0.766602
0.685547 0.185791 0.766602
0.843750 0.185791 0.766602
0.933105 0.185791 0.766602
0.980957 0.185791 0.766602
0.000000 0.462402 0.766602
0.016571 0.462402 0.766602
0.197144 0.462402 0.766602
0.451172 0.462402 0.766602
0.685547 0.462402 0.766602
0.843750 0.462402 0.766602
0.933105 0.462402 0.766602
0.980957 0.462402 0.766602
0.000000 0.703125 0.766602
0.016571 0.703125 0.766602
0.197144 0.703125 0.766602
0.451172 0.703125 0.766602
0.685547 0.703125 0.766602
0.843750 0.703125 0.766602
0.933105 0.703125 0.766602
0.980957 0.703125 0.766602
0.000000 0.858398 0.766602
0.016571 0.858398 0.766602
0.197144 0.858398 0.766602
0.451172 0.858398 0.766602
0.685547 0.858398 0.766602
0.843750 0.858398 0.766602
0.933105 0.858398 0.766602
0.980957 0.858398 0.766602
0.000000 0.943848 0.766602
0.016571 0.943848 0.766602
0.197144 0.943848 0.766602
0.451172 0.943848 0.766602
0.685547 0.943848 0.766602
0.843750 0.943848 0.766602
0.933105 0.943848 0.766602
0.980957 0.943848 0.766602
0.000000 0.982910 0.766602
0.016571 0.982910 0.766602
0.197144 0.982910 0.766602
0.451172 0.982910 0.766602
0.685547 0.982910 0.766602
0.843750 0.982910 0.766602
0.933105 0.982910 0.766602
0.980957 0.982910 0.766602
0.000000 0.000000 0.882813
0.016586 0.000000 0.882813
0.197144 0.000000 0.882813
0.451172 0.000000 0.882813
0.685547 0.000000 0.882813
0.843750 0.000000 0.882813
0.933105 0.000000 0.882813
0.980957 0.000000 0.882813
0.000000 0.012695 0.882813
0.016586 0.012695 0.882813
0.197144 0.012703 0.882813
0.451172 0.012703 0.882813
0.685547 0.012703 0.882813
0.843750 0.012703 0.882813
0.933105 0.012703 0.882813
0.980957 0.012703 0.882813
0.000000 0.185791 0.882813
0.016586 0.185791 0.882813
0.197144 0.185791 0.882813
0.451172 0.185791 0.882813
0.685547 0.185791 0.882813
0.843750 0.185791 0.882813
0.933105 0.185791 0.882813
0.980957 0.185791 0.882813
0.000000 0.462402 0.882813
0.016586 0.462402 0.882813
0.197144 0.462402 0.882813
0.451172 0.462402 0.882813
0.685547 0.462402 0.882813
0.843750 0.462402 0.882813
0.933105 0.462402 0.882813
0.980957 0.462402 0.882813
0.000000 0.703125 0.882813
0.016586 0.703125 0.882813
0.197144 0.703125 0.882813
0.451172 0.703125 0.882813
0.685547 0.703125 0.882813
0.843750 0.703125 0.882813
0.933105 0.703125 0.882813
0.980957 0.703125 0.882813
0.000000 0.858398 0.882813
0.016586 0.858398 0.882813
0.197144 0.858398 0.882813
0.451172 0.858398 0.882813
0.685547 0.858398 0.882813
0.843750 0.858398 0.882813
0.933105 0.858398 0.882813
0.980957 0.858398 0.882813
0.000000 0.943848 0.882813
0.016586 0.943848 0.882813
0.197144 0.943848 0.882813
0.451172 0.943848 0.882813
0.685547 0.943848 0.882813
0.843750 0.943848 0.882813
0.933105 0.943848 0.882813
0.980957 0.943848 0.882813
0.000000 0.982910 0.882813
0.016586 0.982910 0.882813
0.197144 0.982910 0.882813
0.451172 0.982910 0.882813
0.685547 0.982910 0.882813
0.843750 0.982910 0.882813
0.933105 0.982910 0.882813
0.980957 0.982910 0.882813
0.000000 0.000000 0.959961
0.016602 0.000000 0.959961
0.197144 0.000000 0.959961
0.451416 0.000000 0.959961
0.686035 0.000000 0.959961
0.843750 0.000000 0.959961
0.933594 0.000000 0.959961
0.980957 0.000000 0.959961
0.000000 0.012695 0.959961
0.016602 0.012695 0.959961
0.197144 0.012695 0.959961
0.451416 0.012703 0.959961
0.686035 0.012703 0.959961
0.843750 0.012703 0.959961
0.933594 0.012703 0.959961
0.980957 0.012703 0.959961
0.000000 0.185791 0.959961
0.016602 0.185791 0.959961
0.197144 0.185791 0.959961
0.451416 0.185791 0.959961
0.686035 0.185791 0.959961
0.843750 0.185791 0.959961
0.933594 0.185791 0.959961
0.980957 0.185791 0.959961
0.000000 0.462402 0.959961
0.016602 0.462402 0.959961
0.197144 0.462402 0.959961
0.451416 0.462402 0.959961
0.686035 0.462402 0.959961
0.843750 0.462402 0.959961
0.933594 0.462402 0.959961
0.980957 0.462402 0.959961
0.000000 0.703125 0.959961
0.016602 0.703125 0.959961
0.197144 0.703125 0.959961
0.451416 0.703125 0.959961
0.686035 0.703125 0.959961
0.843750 0.703125 0.959961
0.933594 0.703125 0.959961
0.980957 0.703125 0.959961
0.000000 0.858398 0.959961
0.016602 0.858398 0.959961
0.197144 0.858398 0.959961
0.451416 0.858398 0.959961
0.686035 0.858398 0.959961
0.843750 0.858398 0.959961
0.933594 0.858398 0.959961
0.980957 0.858398 0.959961
0.000000 0.943848 0.959961
0.016602 0.943848 0.959961
0.197144 0.943848 0.959961
0.451416 0.943848 0.959961
0.686035 0.943848 0.959961
0.843750 0.943848 0.959961
0.933594 0.943848 0.959961
0.980957 0.943848 0.959961
0.000000 0.982910 0.959961
0.016602 0.982910 0.959961
0.197144 0.982910 0.959961
0.451416 0.982910 0.959961
0.686035 0.982910 0.959961
0.843750 0.982910 0.959961
0.933594 0.982910 0.959961
0.980957 0.982910 0.959961
