cubelut/Adanmq_Advantix 400.cube
TITLE "Generated by Foundry::LUT"
LUT_3D_SIZE 8
DOMAIN_MIN 0.000000 0.000000 0.000000
DOMAIN_MAX 0.903226 0.903226 0.903226
0.000000 0.000000 0.000000
0.065613 0.000000 0.000000
0.167847 0.000000 0.000000
0.287842 0.000000 0.000000
0.420898 0.000000 0.000000
0.565918 0.000000 0.000000
0.724121 0.000000 0.000000
0.890137 0.000000 0.000000
0.000000 0.060577 0.000000
0.065613 0.060577 0.000000
0.167847 0.060577 0.000000
0.287842 0.060577 0.000000
0.420898 0.060577 0.000000
0.565918 0.060608 0.000000
0.724121 0.060608 0.000000
0.890137 0.060608 0.000000
0.000000 0.160278 0.000000
0.065613 0.160278 0.000000
0.167847 0.160278 0.000000
0.287842 0.160278 0.000000
0.420898 0.160278 0.000000
0.565918 0.160278 0.000000
0.724121 0.160278 0.000000
0.890137 0.160278 0.000000
0.000000 0.281250 0.000000
0.065613 0.281250 0.000000
0.167847 0.281250 0.000000
0.287842 0.281250 0.000000
0.420898 0.281250 0.000000
0.565918 0.281250 0.000000
0.724121 0.281250 0.000000
0.890137 0.281250 0.000000
0.000000 0.416016 0.000000
0.065613 0.416016 0.000000
0.167847 0.416016 0.000000
0.287842 0.416016 0.000000
0.420898 0.416016 0.000000
0.565918 0.416016 0.000000
0.724121 0.416016 0.000000
0.890137 0.416016 0.000000
0.000000 0.561523 0.000000
0.065613 0.561523 0.000000
0.167847 0.561523 0.000000
0.287842 0.561523 0.000000
0.420898 0.561523 0.000000
0.565918 0.561523 0.000000
0.724121 0.561523 0.000000
0.890137 0.561523 0.000000
0.000000 0.717773 0.000000
0.065613 0.717773 0.000000
0.167847 0.717773 0.000000
0.287842 0.717773 0.000000
0.420898 0.717773 0.000000
0.565918 0.717773 0.000000
0.724121 0.717773 0.000000
0.890137 0.717773 0.000000
0.000000 0.881348 0.000000
0.065613 0.881348 0.000000
0.167847 0.881348 0.000000
0.287842 0.881348 0.000000
0.420898 0.881348 0.000000
0.565918 0.881348 0.000000
0.724121 0.881348 0.000000
0.890137 0.881348 0.000000
0.000000 0.000000 0.044006
0.065613 0.000000 0.044006
0.167847 0.000000 0.044006
0.287842 0.000000 0.044006
0.420898 0.000000 0.044006
0.565918 0.000000 0.044006
0.724121 0.000000 0.044006
0.890137 0.000000 0.044006
0.000000 0.060577 0.044006
0.065613 0.060577 0.044006
0.167847 0.060577 0.044006
0.287842 0.060577 0.044006
0.420898 0.060577 0.044006
0.565918 0.060577 0.044006
0.724121 0.060608 0.044006
0.890137 0.060608 0.044006
0.000000 0.160278 0.044006
0.065613 0.160278 0.044006
0.167847 0.160278 0.044006
0.287842 0.160278 0.044006
0.420898 0.160278 0.044006
0.565918 0.160278 0.044006
0.724121 0.160278 0.044006
0.890137 0.160278 0.044006
0.000000 0.281250 0.044006
0.065613 0.281250 0.044006
0.167847 0.281250 0.044006
0.287842 0.281250 0.044006
0.420898 0.281250 0.044006
0.565918 0.281250 0.044006
0.724121 0.281250 0.044006
0.890137 0.281250 0.044006
0.000000 0.416016 0.044006
0.065613 0.416016 0.044006
0.167847 0.416016 0.044006
0.287842 0.416016 0.044006
0.420898 0.416016 0.044006
0.565918 0.416016 0.044006
0.724121 0.416016 0.044006
0.890137 0.416016 0.044006
0.000000 0.561523 0.044006
0.065613 0.561523 0.044006
0.167847 0.561523 0.044006
0.287842 0.561523 0.044006
0.420898 0.561523 0.044006
0.565918 0.561523 0.044006
0.724121 0.561523 0.044006
0.890137 0.561523 0.044006
0.000000 0.717773 0.044006
0.065613 0.717773 0.044006
0.167847 0.717773 0.044006
0.287842 0.717773 0.044006
0.420898 0.717773 0.044006
0.565918 0.717773 0.044006
0.724121 0.717773 0.044006
0.890137 0.717773 0.044006
0.000000 0.881348 0.044006
0.065613 0.881348 0.044006
0.167847 0.881348 0.044006
0.287842 0.881348 0.044006
0.420898 0.881348 0.044006
0.565918 0.881348 0.044006
0.724121 0.881348 0.044006
0.890137 0.881348 0.044006
0.000000 0.000000 0.127441
0.065613 0.000000 0.127441
0.167847 0.000000 0.127441
0.287842 0.000000 0.127441
0.420898 0.000000 0.127441
0.565918 0.000000 0.127441
0.724121 0.000000 0.127441
0.890137 0.000000 0.127441
0.000000 0.060577 0.127441
0.065613 0.060577 0.127441
0.167847 0.060577 0.127441
0.287842 0.060577 0.127441
0.420898 0.060577 0.127441
0.565918 0.060577 0.127441
0.724121 0.060577 0.127441
0.890137 0.060608 0.127441
0.000000 0.160278 0.127441
0.065613 0.160278 0.127441
0.167847 0.160278 0.127441
0.287842 0.160278 0.127441
0.420898 0.160278 0.127441
0.565918 0.160278 0.127441
0.724121 0.160278 0.127441
0.890137 0.160278 0.127441
0.000000 0.281250 0.127441
0.065613 0.281250 0.127441
0.167847 0.281250 0.127441
0.287842 0.281250 0.127441
0.420898 0.281250 0.127441
0.565918 0.281250 0.127441
0.724121 0.281250 0.127441
0.890137 0.281250 0.127441
0.000000 0.416016 0.127441
0.065613 0.416016 0.127441
0.167847 0.416016 0.127441
0.287842 0.416016 0.127441
0.420898 0.416016 0.127441
0.565918 0.416016 0.127441
0.724121 0.416016 0.127441
0.890137 0.416016 0.127441
0.000000 0.561523 0.127441
0.065613 0.561523 0.127441
0.167847 0.561523 0.127441
0.287842 0.561523 0.127441
0.420898 0.561523 0.127441
0.565918 0.561523 0.127441
0.724121 0.561523 0.127441
0.890137 0.561523 0.127441
0.000000 0.717773 0.127441
0.065613 0.717773 0.127441
0.167847 0.717773 0.127441
0.287842 0.717773 0.127441
0.420898 0.717773 0.127441
0.565918 0.717773 0.127441
0.724121 0.717773 0.127441
0.890137 0.717773 0.127441
0.000000 0.881348 0.127441
0.065613 0.881348 0.127441
0.167847 0.881348 0.127441
0.287842 0.881348 0.127441
0.420898 0.881348 0.127441
0.565918 0.881348 0.127441
0.724121 0.881348 0.127441
0.890137 0.881348 0.127441
0.000000 0.000000 0.237671
0.065613 0.000000 0.237671
0.167847 0.000000 0.237671
0.287842 0.000000 0.237671
0.420898 0.000000 0.237671
0.565918 0.000000 0.237671
0.724121 0.000000 0.237671
0.890137 0.000000 0.237671
0.000000 0.060577 0.237671
0.065613 0.060577 0.237671
0.167847 0.060577 0.237671
0.287842 0.060577 0.237671
0.420898 0.060577 0.237671
0.565918 0.060577 0.237671
0.724121 0.060577 0.237671
0.890137 0.060577 0.237671
0.000000 0.160278 0.237671
0.065613 0.160278 0.237671
0.167847 0.160278 0.237671
0.287842 0.160278 0.237671
0.420898 0.160278 0.237671
0.565918 0.160278 0.237671
0.724121 0.160278 0.237671
0.890137 0.160278 0.237671
0.000000 0.281250 0.237671
0.065613 0.281250 0.237671
0.167847 0.281250 0.237671
0.287842 0.281250 0.237671
0.420898 0.281250 0.237671
0.565918 0.281250 0.237671
0.724121 0.281250 0.237671
0.890137 0.281250 0.237671
0.000000 0.416016 0.237671
0.065613 0.416016 0.237671
0.167847 0.416016 0.237671
0.287842 0.416016 0.237671
0.420898 0.416016 0.237671
0.565918 0.416016 0.237671
0.724121 0.416016 0.237671
0.890137 0.416016 0.237671
0.000000 0.561523 0.237671
0.065613 0.561523 0.237671
0.167847 0.561523 0.237671
0.287842 0.561523 0.237671
0.420898 0.561523 0.237671
0.565918 0.561523 0.237671
0.724121 0.561523 0.237671
0.890137 0.561523 0.237671
0.000000 0.717773 0.237671
0.065613 0.717773 0.237671
0.167847 0.717773 0.237671
0.287842 0.717773 0.237671
0.420898 0.717773 0.237671
0.565918 0.717773 0.237671
0.724121 0.717773 0.237671
0.890137 0.717773 0.237671
0.000000 0.881348 0.237671
0.065613 0.881348 0.237671
0.167847 0.881348 0.237671
0.287842 0.881348 0.237671
0.420898 0.881348 0.237671
0.565918 0.881348 0.237671
0.724121 0.881348 0.237671
0.890137 0.881348 0.237671
0.000000 0.000000 0.368652
0.065674 0.000000 0.368652
0.167847 0.000000 0.368652
0.287842 0.000000 0.368652
0.420898 0.000000 0.368652
0.565918 0.000000 0.368652
0.724121 0.000000 0.368652
0.890137 0.000000 0.368652
0.000000 0.060577 0.368652
0.065674 0.060577 0.368652
0.167847 0.060577 0.368652
0.287842 0.060577 0.368652
0.420898 0.060577 0.368652
0.565918 0.060577 0.368652
0.724121 0.060577 0.368652
0.890137 0.060577 0.368652
0.000000 0.160278 0.368652
0.065674 0.160278 0.368652
0.167847 0.160278 0.368652
0.287842 0.160278 0.368652
0.420898 0.160278 0.368652
0.565918 0.160278 0.368652
0.724121 0.160278 0.368652
0.890137 0.160278 0.368652
0.000000 0.281250 0.368896
0.065674 0.281250 0.368896
0.167847 0.281250 0.368896
0.287842 0.281250 0.368896
0.420898 0.281250 0.368896
0.565918 0.281250 0.368896
0.724121 0.281250 0.368896
0.890137 0.281250 0.368896
0.000000 0.416016 0.368896
0.065674 0.416016 0.368896
0.167847 0.416016 0.368896
0.287842 0.416016 0.368896
0.420898 0.416016 0.368896
0.565918 0.416016 0.368896
0.724121 0.416016 0.368896
0.890137 0.416016 0.368896
0.000000 0.561523 0.368896
0.065674 0.561523 0.368896
0.167847 0.561523 0.368896
0.287842 0.561523 0.368896
0.420898 0.561523 0.368896
0.565918 0.561523 0.368896
0.724121 0.561523 0.368896
0.890137 0.561523 0.368896
0.000000 0.717773 0.368896
0.065674 0.717773 0.368896
0.167847 0.717773 0.368896
0.287842 0.717773 0.368896
0.420898 0.717773 0.368896
0.565918 0.717773 0.368896
0.724121 0.717773 0.368896
0.890137 0.717773 0.368896
0.000000 0.881348 0.368896
0.065674 0.881348 0.368896
0.167847 0.881348 0.368896
0.287842 0.881348 0.368896
0.420898 0.881348 0.368896
0.565918 0.881348 0.368896
0.724121 0.881348 0.368896
0.890137 0.881348 0.368896
0.000000 0.000000 0.518066
0.065674 0.000000 0.518066
0.167847 0.000000 0.518066
0.288086 0.000000 0.518066
0.420898 0.000000 0.518066
0.565918 0.000000 0.518066
0.724121 0.000000 0.518066
0.890137 0.000000 0.518066
0.000000 0.060577 0.518066
0.065674 0.060577 0.518066
0.167847 0.060577 0.518066
0.288086 0.060577 0.518066
0.420898 0.060577 0.518066
0.565918 0.060577 0.518066
0.724121 0.060577 0.518066
0.890137 0.060577 0.518066
0.000000 0.160278 0.518066
0.065674 0.160278 0.518066
0.167847 0.160278 0.518066
0.288086 0.160278 0.518066
0.420898 0.160278 0.518066
0.565918 0.160278 0.518066
0.724121 0.160278 0.518066
0.890137 0.160278 0.518066
0.000000 0.281250 0.518066
0.065674 0.281250 0.518066
0.167847 0.281250 0.518066
0.288086 0.281250 0.518066
0.420898 0.281250 0.518066
0.565918 0.281250 0.518066
0.724121 0.281250 0.518066
0.890137 0.281250 0.518066
0.000000 0.416016 0.518066
0.065674 0.416016 0.518066
0.167847 0.416016 0.518066
0.288086 0.416016 0.518066
0.420898 0.416016 0.518066
0.565918 0.416016 0.518066
0.724121 0.416016 0.518066
0.890137 0.416016 0.518066
0.000000 0.561523 0.518066
0.065674 0.561523 0.518066
0.167847 0.561523 0.518066
0.288086 0.561523 0.518066
0.420898 0.561523 0.518066
0.565918 0.561523 0.518066
0.724121 0.561523 0.518066
0.890137 0.561523 0.518066
0.000000 0.717773 0.518066
0.065674 0.717773 0.518066
0.167847 0.717773 0.518066
0.288086 0.717773 0.518066
0.420898 0.717773 0.518066
0.565918 0.717773 0.518066
0.724121 0.717773 0.518066
0.890137 0.717773 0.518066
0.000000 0.881348 0.518066
0.065674 0.881348 0.518066
0.167847 0.881348 0.518066
0.288086 0.881348 0.518066
0.420898 0.881348 0.518066
0.565918 0.881348 0.518066
0.724121 0.881348 0.518066
0.890137 0.881348 0.518066
0.000000 0.000000 0.684570
0.065674 0.000000 0.684570
0.167969 0.000000 0.684570
0.288086 0.000000 0.684570
0.420898 0.000000 0.684570
0.565918 0.000000 0.684570
0.724121 0.000000 0.684570
0.890137 0.000000 0.684570
0.000000 0.060577 0.684570
0.065674 0.060577 0.684570
0.167969 0.060577 0.684570
0.288086 0.060577 0.684570
0.420898 0.060577 0.684570
0.565918 0.060577 0.684570
0.724121 0.060577 0.684570
0.890137 0.060577 0.684570
0.000000 0.160278 0.684570
0.065674 0.160278 0.684570
0.167969 0.160278 0.684570
0.288086 0.160278 0.684570
0.420898 0.160278 0.684570
0.565918 0.160278 0.684570
0.724121 0.160278 0.684570
0.890137 0.160278 0.684570
0.000000 0.281250 0.684570
0.065674 0.281250 0.684570
0.167969 0.281250 0.684570
0.288086 0.281250 0.684570
0.420898 0.281250 0.684570
0.565918 0.281250 0.684570
0.724121 0.281250 0.684570
0.890137 0.281250 0.684570
0.000000 0.416016 0.684570
0.065674 0.416016 0.684570
0.167969 0.416016 0.684570
0.288086 0.416016 0.684570
0.420898 0.416016 0.684570
0.565918 0.416016 0.684570
0.724121 0.416016 0.684570
0.890137 0.416016 0.684570
0.000000 0.561523 0.684570
0.065674 0.561523 0.684570
0.167969 0.561523 0.684570
0.288086 0.561523 0.684570
0.420898 0.561523 0.684570
0.565918 0.561523 0.684570
0.724121 0.561523 0.684570
0.890137 0.561523 0.684570
0.000000 0.717773 0.684570
0.065674 0.717773 0.684570
0.167969 0.717773 0.684570
0.288086 0.717773 0.684570
0.420898 0.717773 0.684570
0.565918 0.717773 0.684570
0.724121 0.717773 0.684570
0.890137 0.717773 0.684570
0.000000 0.881348 0.684570
0.065674 0.881348 0.684570
0.167969 0.881348 0.684570
0.288086 0.881348 0.684570
0.420898 0.881348 0.684570
0.565918 0.881348 0.684570
0.724121 0.881348 0.684570
0.890137 0.881348 0.684570
0.000000 0.000000 0.867188
0.065674 0.000000 0.867188
0.167969 0.000000 0.867188
0.288086 0.000000 0.867188
0.420898 0.000000 0.867188
0.565918 0.000000 0.867188
0.724121 0.000000 0.867188
0.890137 0.000000 0.867188
0.000000 0.060577 0.867188
0.065674 0.060577 0.867188
0.167969 0.060577 0.867188
0.288086 0.060577 0.867188
0.420898 0.060577 0.867188
0.565918 0.060577 0.867188
0.724121 0.060577 0.867188
0.890137 0.060577 0.867188
0.000000 0.160278 0.867188
0.065674 0.160278 0.867188
0.167969 0.160278 0.867188
0.288086 0.160278 0.867188
0.420898 0.160278 0.867188
0.565918 0.160278 0.867188
0.724121 0.160278 0.867188
0.890137 0.160278 0.867188
0.000000 0.281250 0.867188
0.065674 0.281250 0.867188
0.167969 0.281250 0.867188
0.288086 0.281250 0.867188
0.420898 0.281250 0.867188
0.565918 0.281250 0.867188
0.724121 0.281250 0.867188
0.890137 0.281250 0.867188
0.000000 0.416016 0.867188
0.065674 0.416016 0.867188
0.167969 0.416016 0.867188
0.288086 0.416016 0.867188
0.420898 0.416016 0.867188
0.565918 0.416016 0.867188
0.724121 0.416016 0.867188
0.890137 0.416016 0.867188
0.000000 0.561523 0.867188
0.065674 0.561523 0.867188
0.167969 0.561523 0.867188
0.288086 0.561523 0.867188
0.420898 0.561523 0.867188
0.565918 0.561523 0.867188
0.724121 0.561523 0.867188
0.890137 0.561523 0.867188
0.000000 0.717773 0.867188
0.065674 0.717773 0.867188
0.167969 0.717773 0.867188
0.288086 0.717773 0.867188
0.420898 0.717773 0.867188
0.565918 0.717773 0.867188
0.724121 0.717773 0.867188
0.890137 0.717773 0.867188
0.000000 0.881348 0.867188
0.065674 0.881348 0.867188
0.167969 0.881348 0.867188
0.288086 0.881348 0.867188
0.420898 0.881348 0.867188
0.565918 0.881348 0.867188
0.724121 0.881348 0.867188
0.890137 0.881348 0.867188
