cubelut/Adanmq_Portra 400v.cube
TITLE "Generated by Foundry::LUT"
LUT_3D_SIZE 32
0.000000 0.000000 0.000000
0.010490 0.000000 0.000000
0.027420 0.000000 0.000000
0.047424 0.000000 0.000000
0.069763 0.000000 0.000000
0.093689 0.000000 0.000000
0.119446 0.000000 0.000000
0.146606 0.000000 0.000000
0.174561 0.000000 0.000000
0.203491 0.000000 0.000000
0.233521 0.000000 0.000000
0.264648 0.000000 0.000000
0.296875 0.000000 0.000000
0.329590 0.000000 0.000000
0.363281 0.000000 0.000000
0.397461 0.000000 0.000000
0.432129 0.000000 0.000000
0.467285 0.000000 0.000000
0.502930 0.000000 0.000000
0.540039 0.000000 0.000000
0.577148 0.000000 0.000000
0.615234 0.000000 0.000000
0.653809 0.000000 0.000000
0.692871 0.000000 0.000000
0.733398 0.000000 0.000000
0.773926 0.000000 0.000000
0.814453 0.000000 0.000000
0.854492 0.000000 0.000000
0.894043 0.000000 0.000000
0.932617 0.000000 0.000000
0.968750 0.000000 0.000000
1.000000 0.000000 0.000000
0.000000 0.008835 0.000000
0.010490 0.008835 0.000000
0.027420 0.008835 0.000000
0.047424 0.008842 0.000000
0.069763 0.008842 0.000000
0.093689 0.008842 0.000000
0.119446 0.008842 0.000000
0.146606 0.008842 0.000000
0.174561 0.008842 0.000000
0.203491 0.008842 0.000000
0.233521 0.008842 0.000000
0.264648 0.008842 0.000000
0.296875 0.008842 0.000000
0.329590 0.008842 0.000000
0.363281 0.008842 0.000000
0.397461 0.008842 0.000000
0.432129 0.008842 0.000000
0.467285 0.008842 0.000000
0.502930 0.008842 0.000000
0.540039 0.008842 0.000000
0.577148 0.008842 0.000000
0.615234 0.008842 0.000000
0.653809 0.008842 0.000000
0.692871 0.008842 0.000000
0.733398 0.008842 0.000000
0.773926 0.008842 0.000000
0.814453 0.008842 0.000000
0.854492 0.008842 0.000000
0.894043 0.008842 0.000000
0.932617 0.008842 0.000000
0.968750 0.008842 0.000000
1.000000 0.008850 0.000000
0.000000 0.023773 0.000000
0.010490 0.023773 0.000000
0.027420 0.023773 0.000000
0.047424 0.023773 0.000000
0.069763 0.023773 0.000000
0.093689 0.023773 0.000000
0.119446 0.023773 0.000000
0.146606 0.023773 0.000000
0.174561 0.023773 0.000000
0.203491 0.023773 0.000000
0.233521 0.023773 0.000000
0.264648 0.023773 0.000000
0.296875 0.023773 0.000000
0.329590 0.023773 0.000000
0.363281 0.023773 0.000000
0.397461 0.023788 0.000000
0.432129 0.023788 0.000000
0.467285 0.023788 0.000000
0.502930 0.023788 0.000000
0.540039 0.023788 0.000000
0.577148 0.023788 0.000000
0.615234 0.023788 0.000000
0.653809 0.023788 0.000000
0.692871 0.023788 0.000000
0.733398 0.023788 0.000000
0.773926 0.023788 0.000000
0.814453 0.023788 0.000000
0.854492 0.023788 0.000000
0.894043 0.023788 0.000000
0.932617 0.023788 0.000000
0.968750 0.023788 0.000000
1.000000 0.023788 0.000000
0.000000 0.041901 0.000000
0.010490 0.041901 0.000000
0.027420 0.041901 0.000000
0.047424 0.041901 0.000000
0.069763 0.041901 0.000000
0.093689 0.041901 0.000000
0.119446 0.041901 0.000000
0.146606 0.041901 0.000000
0.174561 0.041901 0.000000
0.203491 0.041901 0.000000
0.233521 0.041901 0.000000
0.264648 0.041901 0.000000
0.296875 0.041901 0.000000
0.329590 0.041901 0.000000
0.363281 0.041901 0.000000
0.397461 0.041901 0.000000
0.432129 0.041901 0.000000
0.467285 0.041901 0.000000
0.502930 0.041901 0.000000
0.540039 0.041901 0.000000
0.577148 0.041901 0.000000
0.615234 0.041901 0.000000
0.653809 0.041901 0.000000
0.692871 0.041901 0.000000
0.733398 0.041901 0.000000
0.773926 0.041901 0.000000
0.814453 0.041901 0.000000
0.854492 0.041901 0.000000
0.894043 0.041901 0.000000
0.932617 0.041901 0.000000
0.968750 0.041901 0.000000
1.000000 0.041901 0.000000
0.000000 0.062378 0.000000
0.010490 0.062378 0.000000
0.027420 0.062378 0.000000
0.047424 0.062378 0.000000
0.069763 0.062378 0.000000
0.093689 0.062378 0.000000
0.119446 0.062378 0.000000
0.146606 0.062378 0.000000
0.174561 0.062378 0.000000
0.203491 0.062378 0.000000
0.233521 0.062378 0.000000
0.264648 0.062378 0.000000
0.296875 0.062378 0.000000
0.329590 0.062378 0.000000
0.363281 0.062378 0.000000
0.397461 0.062378 0.000000
0.432129 0.062378 0.000000
0.467285 0.062378 0.000000
0.502930 0.062378 0.000000
0.540039 0.062378 0.000000
0.577148 0.062378 0.000000
0.615234 0.062378 0.000000
0.653809 0.062378 0.000000
0.692871 0.062378 0.000000
0.733398 0.062378 0.000000
0.773926 0.062378 0.000000
0.814453 0.062378 0.000000
0.854492 0.062378 0.000000
0.894043 0.062378 0.000000
0.932617 0.062378 0.000000
0.968750 0.062378 0.000000
1.000000 0.062378 0.000000
0.000000 0.084778 0.000000
0.010490 0.084778 0.000000
0.027420 0.084778 0.000000
0.047424 0.084778 0.000000
0.069763 0.084778 0.000000
0.093689 0.084778 0.000000
0.119446 0.084778 0.000000
0.146606 0.084778 0.000000
0.174561 0.084778 0.000000
0.203491 0.084778 0.000000
0.233521 0.084778 0.000000
0.264648 0.084778 0.000000
0.296875 0.084778 0.000000
0.329590 0.084778 0.000000
0.363281 0.084778 0.000000
0.397461 0.084778 0.000000
0.432129 0.084778 0.000000
0.467285 0.084778 0.000000
0.502930 0.084778 0.000000
0.540039 0.084778 0.000000
0.577148 0.084778 0.000000
0.615234 0.084778 0.000000
0.653809 0.084778 0.000000
0.692871 0.084778 0.000000
0.733398 0.084778 0.000000
0.773926 0.084778 0.000000
0.814453 0.084778 0.000000
0.854492 0.084778 0.000000
0.894043 0.084778 0.000000
0.932617 0.084778 0.000000
0.968750 0.084778 0.000000
1.000000 0.084778 0.000000
0.000000 0.109009 0.000000
0.010490 0.109009 0.000000
0.027420 0.109009 0.000000
0.047424 0.109009 0.000000
0.069763 0.109009 0.000000
0.093689 0.109009 0.000000
0.119446 0.109009 0.000000
0.146606 0.109009 0.000000
0.174561 0.109009 0.000000
0.203491 0.109009 0.000000
0.233521 0.109009 0.000000
0.264648 0.109009 0.000000
0.296875 0.109009 0.000000
0.329590 0.109009 0.000000
0.363281 0.109009 0.000000
0.397461 0.109009 0.000000
0.432129 0.109009 0.000000
0.467285 0.109009 0.000000
0.502930 0.109009 0.000000
0.540039 0.109009 0.000000
0.577148 0.109009 0.000000
0.615234 0.109009 0.000000
0.653809 0.109009 0.000000
0.692871 0.109009 0.000000
0.733398 0.109009 0.000000
0.773926 0.109009 0.000000
0.814453 0.109009 0.000000
0.854492 0.109009 0.000000
0.894043 0.109009 0.000000
0.932617 0.109009 0.000000
0.968750 0.109009 0.000000
1.000000 0.109009 0.000000
0.000000 0.134521 0.000000
0.010490 0.134521 0.000000
0.027420 0.134521 0.000000
0.047424 0.134521 0.000000
0.069763 0.134521 0.000000
0.093689 0.134521 0.000000
0.119446 0.134521 0.000000
0.146606 0.134521 0.000000
0.174561 0.134521 0.000000
0.203491 0.134521 0.000000
0.233521 0.134521 0.000000
0.264648 0.134521 0.000000
0.296875 0.134521 0.000000
0.329590 0.134521 0.000000
0.363281 0.134521 0.000000
0.397461 0.134521 0.000000
0.432129 0.134521 0.000000
0.467285 0.134521 0.000000
0.502930 0.134521 0.000000
0.540039 0.134521 0.000000
0.577148 0.134521 0.000000
0.615234 0.134521 0.000000
0.653809 0.134521 0.000000
0.692871 0.134521 0.000000
0.733398 0.134521 0.000000
0.773926 0.134521 0.000000
0.814453 0.134521 0.000000
0.854492 0.134521 0.000000
0.894043 0.134521 0.000000
0.932617 0.134521 0.000000
0.968750 0.134521 0.000000
1.000000 0.134521 0.000000
0.000000 0.161255 0.000000
0.010490 0.161255 0.000000
0.027420 0.161255 0.000000
0.047424 0.161255 0.000000
0.069763 0.161255 0.000000
0.093689 0.161255 0.000000
0.119446 0.161255 0.000000
0.146606 0.161255 0.000000
0.174561 0.161255 0.000000
0.203491 0.161255 0.000000
0.233521 0.161255 0.000000
0.264648 0.161377 0.000000
0.296875 0.161377 0.000000
0.329590 0.161377 0.000000
0.363281 0.161377 0.000000
0.397461 0.161377 0.000000
0.432129 0.161377 0.000000
0.467285 0.161377 0.000000
0.502930 0.161377 0.000000
0.540039 0.161377 0.000000
0.577148 0.161377 0.000000
0.615234 0.161377 0.000000
0.653809 0.161377 0.000000
0.692871 0.161377 0.000000
0.733398 0.161377 0.000000
0.773926 0.161377 0.000000
0.814453 0.161377 0.000000
0.854492 0.161377 0.000000
0.894043 0.161377 0.000000
0.932617 0.161377 0.000000
0.968750 0.161377 0.000000
1.000000 0.161377 0.000000
0.000000 0.189453 0.000000
0.010490 0.189453 0.000000
0.027420 0.189453 0.000000
0.047424 0.189453 0.000000
0.069763 0.189453 0.000000
0.093689 0.189453 0.000000
0.119446 0.189453 0.000000
0.146606 0.189453 0.000000
0.174561 0.189453 0.000000
0.203491 0.189453 0.000000
0.233521 0.189453 0.000000
0.264648 0.189453 0.000000
0.296875 0.189453 0.000000
0.329590 0.189453 0.000000
0.363281 0.189453 0.000000
0.397461 0.189453 0.000000
0.432129 0.189453 0.000000
0.467285 0.189453 0.000000
0.502930 0.189453 0.000000
0.540039 0.189453 0.000000
0.577148 0.189453 0.000000
0.615234 0.189453 0.000000
0.653809 0.189453 0.000000
0.692871 0.189453 0.000000
0.733398 0.189453 0.000000
0.773926 0.189453 0.000000
0.814453 0.189453 0.000000
0.854492 0.189453 0.000000
0.894043 0.189453 0.000000
0.932617 0.189453 0.000000
0.968750 0.189453 0.000000
1.000000 0.189453 0.000000
0.000000 0.218750 0.000000
0.010490 0.218750 0.000000
0.027420 0.218750 0.000000
0.047424 0.218750 0.000000
0.069763 0.218750 0.000000
0.093689 0.218750 0.000000
0.119446 0.218750 0.000000
0.146606 0.218750 0.000000
0.174561 0.218750 0.000000
0.203491 0.218750 0.000000
0.233521 0.218750 0.000000
0.264648 0.218750 0.000000
0.296875 0.218750 0.000000
0.329590 0.218750 0.000000
0.363281 0.218750 0.000000
0.397461 0.218750 0.000000
0.432129 0.218750 0.000000
0.467285 0.218750 0.000000
0.502930 0.218750 0.000000
0.540039 0.218750 0.000000
0.577148 0.218750 0.000000
0.615234 0.218750 0.000000
0.653809 0.218750 0.000000
0.692871 0.218750 0.000000
0.733398 0.218750 0.000000
0.773926 0.218750 0.000000
0.814453 0.218750 0.000000
0.854492 0.218750 0.000000
0.894043 0.218750 0.000000
0.932617 0.218750 0.000000
0.968750 0.218750 0.000000
1.000000 0.218750 0.000000
0.000000 0.249268 0.000000
0.010490 0.249268 0.000000
0.027420 0.249268 0.000000
0.047424 0.249268 0.000000
0.069763 0.249268 0.000000
0.093689 0.249268 0.000000
0.119446 0.249268 0.000000
0.146606 0.249268 0.000000
0.174561 0.249268 0.000000
0.203491 0.249268 0.000000
0.233521 0.249268 0.000000
0.264648 0.249268 0.000000
0.296875 0.249268 0.000000
0.329590 0.249268 0.000000
0.363281 0.249268 0.000000
0.397461 0.249268 0.000000
0.432129 0.249268 0.000000
0.467285 0.249268 0.000000
0.502930 0.249268 0.000000
0.540039 0.249268 0.000000
0.577148 0.249268 0.000000
0.615234 0.249268 0.000000
0.653809 0.249268 0.000000
0.692871 0.249268 0.000000
0.733398 0.249268 0.000000
0.773926 0.249268 0.000000
0.814453 0.249268 0.000000
0.854492 0.249268 0.000000
0.894043 0.249268 0.000000
0.932617 0.249268 0.000000
0.968750 0.249268 0.000000
1.000000 0.249268 0.000000
0.000000 0.280518 0.000000
0.010490 0.280518 0.000000
0.027420 0.280518 0.000000
0.047424 0.280518 0.000000
0.069763 0.280518 0.000000
0.093689 0.280518 0.000000
0.119446 0.280518 0.000000
0.146606 0.280518 0.000000
0.174561 0.280518 0.000000
0.203491 0.280518 0.000000
0.233521 0.280518 0.000000
0.264648 0.280518 0.000000
0.296875 0.280518 0.000000
0.329590 0.280518 0.000000
0.363281 0.280518 0.000000
0.397461 0.280518 0.000000
0.432129 0.280518 0.000000
0.467285 0.280518 0.000000
0.502930 0.280518 0.000000
0.540039 0.280518 0.000000
0.577148 0.280518 0.000000
0.615234 0.280518 0.000000
0.653809 0.280518 0.000000
0.692871 0.280518 0.000000
0.733398 0.280518 0.000000
0.773926 0.280518 0.000000
0.814453 0.280518 0.000000
0.854492 0.280518 0.000000
0.894043 0.280518 0.000000
0.932617 0.280518 0.000000
0.968750 0.280518 0.000000
1.000000 0.280518 0.000000
0.000000 0.312256 0.000000
0.010490 0.312256 0.000000
0.027420 0.312256 0.000000
0.047424 0.312256 0.000000
0.069763 0.312256 0.000000
0.093689 0.312256 0.000000
0.119446 0.312256 0.000000
0.146606 0.312256 0.000000
0.174561 0.312256 0.000000
0.203491 0.312256 0.000000
0.233521 0.312256 0.000000
0.264648 0.312256 0.000000
0.296875 0.312256 0.000000
0.329590 0.312256 0.000000
0.363281 0.312256 0.000000
0.397461 0.312256 0.000000
0.432129 0.312256 0.000000
0.467285 0.312256 0.000000
0.502930 0.312256 0.000000
0.540039 0.312256 0.000000
0.577148 0.312256 0.000000
0.615234 0.312256 0.000000
0.653809 0.312256 0.000000
0.692871 0.312256 0.000000
0.733398 0.312256 0.000000
0.773926 0.312256 0.000000
0.814453 0.312256 0.000000
0.854492 0.312256 0.000000
0.894043 0.312256 0.000000
0.932617 0.312256 0.000000
0.968750 0.312256 0.000000
1.000000 0.312256 0.000000
0.000000 0.345459 0.000000
0.010490 0.345459 0.000000
0.027420 0.345459 0.000000
0.047424 0.345459 0.000000
0.069763 0.345459 0.000000
0.093689 0.345459 0.000000
0.119446 0.345459 0.000000
0.146606 0.345459 0.000000
0.174561 0.345459 0.000000
0.203491 0.345459 0.000000
0.233521 0.345459 0.000000
0.264648 0.345459 0.000000
0.296875 0.345459 0.000000
0.329590 0.345459 0.000000
0.363281 0.345459 0.000000
0.397461 0.345459 0.000000
0.432129 0.345459 0.000000
0.467285 0.345459 0.000000
0.502930 0.345459 0.000000
0.540039 0.345459 0.000000
0.577148 0.345459 0.000000
0.615234 0.345459 0.000000
0.653809 0.345459 0.000000
0.692871 0.345459 0.000000
0.733398 0.345459 0.000000
0.773926 0.345459 0.000000
0.814453 0.345459 0.000000
0.854492 0.345459 0.000000
0.894043 0.345459 0.000000
0.932617 0.345459 0.000000
0.968750 0.345459 0.000000
1.000000 0.345459 0.000000
0.000000 0.379395 0.000000
0.010490 0.379395 0.000000
0.027420 0.379395 0.000000
0.047424 0.379395 0.000000
0.069763 0.379395 0.000000
0.093689 0.379395 0.000000
0.119446 0.379395 0.000000
0.146606 0.379395 0.000000
0.174561 0.379395 0.000000
0.203491 0.379395 0.000000
0.233521 0.379395 0.000000
0.264648 0.379395 0.000000
0.296875 0.379395 0.000000
0.329590 0.379395 0.000000
0.363281 0.379395 0.000000
0.397461 0.379395 0.000000
0.432129 0.379395 0.000000
0.467285 0.379395 0.000000
0.502930 0.379395 0.000000
0.540039 0.379395 0.000000
0.577148 0.379395 0.000000
0.615234 0.379395 0.000000
0.653809 0.379395 0.000000
0.692871 0.379395 0.000000
0.733398 0.379395 0.000000
0.773926 0.379395 0.000000
0.814453 0.379395 0.000000
0.854492 0.379395 0.000000
0.894043 0.379395 0.000000
0.932617 0.379395 0.000000
0.968750 0.379395 0.000000
1.000000 0.379395 0.000000
0.000000 0.414063 0.000000
0.010490 0.414063 0.000000
0.027420 0.414063 0.000000
0.047424 0.414063 0.000000
0.069763 0.414063 0.000000
0.093689 0.414063 0.000000
0.119446 0.414063 0.000000
0.146606 0.414063 0.000000
0.174561 0.414063 0.000000
0.203491 0.414063 0.000000
0.233521 0.414063 0.000000
0.264648 0.414063 0.000000
0.296875 0.414063 0.000000
0.329590 0.414063 0.000000
0.363281 0.414063 0.000000
0.397461 0.414063 0.000000
0.432129 0.414063 0.000000
0.467285 0.414063 0.000000
0.502930 0.414063 0.000000
0.540039 0.414063 0.000000
0.577148 0.414063 0.000000
0.615234 0.414063 0.000000
0.653809 0.414063 0.000000
0.692871 0.414063 0.000000
0.733398 0.414063 0.000000
0.773926 0.414063 0.000000
0.814453 0.414063 0.000000
0.854492 0.414063 0.000000
0.894043 0.414063 0.000000
0.932617 0.414063 0.000000
0.968750 0.414063 0.000000
1.000000 0.414063 0.000000
0.000000 0.449463 0.000000
0.010490 0.449463 0.000000
0.027420 0.449463 0.000000
0.047424 0.449463 0.000000
0.069763 0.449463 0.000000
0.093689 0.449463 0.000000
0.119446 0.449463 0.000000
0.146606 0.449463 0.000000
0.174561 0.449463 0.000000
0.203491 0.449463 0.000000
0.233521 0.449463 0.000000
0.264648 0.449463 0.000000
0.296875 0.449463 0.000000
0.329590 0.449463 0.000000
0.363281 0.449463 0.000000
0.397461 0.449463 0.000000
0.432129 0.449463 0.000000
0.467285 0.449463 0.000000
0.502930 0.449463 0.000000
0.540039 0.449463 0.000000
0.577148 0.449463 0.000000
0.615234 0.449463 0.000000
0.653809 0.449463 0.000000
0.692871 0.449463 0.000000
0.733398 0.449463 0.000000
0.773926 0.449463 0.000000
0.814453 0.449463 0.000000
0.854492 0.449463 0.000000
0.894043 0.449463 0.000000
0.932617 0.449463 0.000000
0.968750 0.449463 0.000000
1.000000 0.449463 0.000000
0.000000 0.485107 0.000000
0.010490 0.485107 0.000000
0.027420 0.485107 0.000000
0.047424 0.485107 0.000000
0.069763 0.485107 0.000000
0.093689 0.485107 0.000000
0.119446 0.485107 0.000000
0.146606 0.485107 0.000000
0.174561 0.485107 0.000000
0.203491 0.485107 0.000000
0.233521 0.485107 0.000000
0.264648 0.485107 0.000000
0.296875 0.485107 0.000000
0.329590 0.485107 0.000000
0.363281 0.485107 0.000000
0.397461 0.485107 0.000000
0.432129 0.485107 0.000000
0.467285 0.485107 0.000000
0.502930 0.485107 0.000000
0.540039 0.485107 0.000000
0.577148 0.485107 0.000000
0.615234 0.485107 0.000000
0.653809 0.485107 0.000000
0.692871 0.485107 0.000000
0.733398 0.485107 0.000000
0.773926 0.485107 0.000000
0.814453 0.485107 0.000000
0.854492 0.485107 0.000000
0.894043 0.485107 0.000000
0.932617 0.485107 0.000000
0.968750 0.485107 0.000000
1.000000 0.485107 0.000000
0.000000 0.521484 0.000000
0.010490 0.521484 0.000000
0.027420 0.521484 0.000000
0.047424 0.521484 0.000000
0.069763 0.521484 0.000000
0.093689 0.521484 0.000000
0.119446 0.521484 0.000000
0.146606 0.521484 0.000000
0.174561 0.521484 0.000000
0.203491 0.521484 0.000000
0.233521 0.521484 0.000000
0.264648 0.521484 0.000000
0.296875 0.521484 0.000000
0.329590 0.521484 0.000000
0.363281 0.521484 0.000000
0.397461 0.521484 0.000000
0.432129 0.521484 0.000000
0.467285 0.521484 0.000000
0.502930 0.521484 0.000000
0.540039 0.521484 0.000000
0.577148 0.521484 0.000000
0.615234 0.521484 0.000000
0.653809 0.521484 0.000000
0.692871 0.521484 0.000000
0.733398 0.521484 0.000000
0.773926 0.521484 0.000000
0.814453 0.521484 0.000000
0.854492 0.521484 0.000000
0.894043 0.521484 0.000000
0.932617 0.521484 0.000000
0.968750 0.521484 0.000000
1.000000 0.521484 0.000000
0.000000 0.559082 0.000000
0.010490 0.559082 0.000000
0.027420 0.559082 0.000000
0.047424 0.559082 0.000000
0.069763 0.559082 0.000000
0.093689 0.559082 0.000000
0.119446 0.559082 0.000000
0.146606 0.559082 0.000000
0.174561 0.559082 0.000000
0.203491 0.559082 0.000000
0.233521 0.559082 0.000000
0.264648 0.559082 0.000000
0.296875 0.559082 0.000000
0.329590 0.559082 0.000000
0.363281 0.559082 0.000000
0.397461 0.559082 0.000000
0.432129 0.559082 0.000000
0.467285 0.559082 0.000000
0.502930 0.559082 0.000000
0.540039 0.559082 0.000000
0.577148 0.559082 0.000000
0.615234 0.559082 0.000000
0.653809 0.559082 0.000000
0.692871 0.559082 0.000000
0.733398 0.559082 0.000000
0.773926 0.559082 0.000000
0.814453 0.559082 0.000000
0.854492 0.559082 0.000000
0.894043 0.559082 0.000000
0.932617 0.559082 0.000000
0.968750 0.559082 0.000000
1.000000 0.559082 0.000000
0.000000 0.597656 0.000000
0.010490 0.597656 0.000000
0.027420 0.597656 0.000000
0.047424 0.597656 0.000000
0.069763 0.597656 0.000000
0.093689 0.597656 0.000000
0.119446 0.597656 0.000000
0.146606 0.597656 0.000000
0.174561 0.597656 0.000000
0.203491 0.597656 0.000000
0.233521 0.597656 0.000000
0.264648 0.597656 0.000000
0.296875 0.597656 0.000000
0.329590 0.597656 0.000000
0.363281 0.597656 0.000000
0.397461 0.597656 0.000000
0.432129 0.597656 0.000000
0.467285 0.597656 0.000000
0.502930 0.597656 0.000000
0.540039 0.597656 0.000000
0.577148 0.597656 0.000000
0.615234 0.597656 0.000000
0.653809 0.597656 0.000000
0.692871 0.597656 0.000000
0.733398 0.597656 0.000000
0.773926 0.597656 0.000000
0.814453 0.597656 0.000000
0.854492 0.597656 0.000000
0.894043 0.597656 0.000000
0.932617 0.597656 0.000000
0.968750 0.597656 0.000000
1.000000 0.597656 0.000000
0.000000 0.636719 0.000000
0.010490 0.636719 0.000000
0.027420 0.636719 0.000000
0.047424 0.636719 0.000000
0.069763 0.636719 0.000000
0.093689 0.636719 0.000000
0.119446 0.636719 0.000000
0.146606 0.636719 0.000000
0.174561 0.636719 0.000000
0.203491 0.636719 0.000000
0.233521 0.636719 0.000000
0.264648 0.636719 0.000000
0.296875 0.636719 0.000000
0.329590 0.636719 0.000000
0.363281 0.636719 0.000000
0.397461 0.636719 0.000000
0.432129 0.636719 0.000000
0.467285 0.636719 0.000000
0.502930 0.636719 0.000000
0.540039 0.636719 0.000000
0.577148 0.636719 0.000000
0.615234 0.636719 0.000000
0.653809 0.636719 0.000000
0.692871 0.636719 0.000000
0.733398 0.636719 0.000000
0.773926 0.636719 0.000000
0.814453 0.636719 0.000000
0.854492 0.636719 0.000000
0.894043 0.636719 0.000000
0.932617 0.636719 0.000000
0.968750 0.636719 0.000000
1.000000 0.636719 0.000000
0.000000 0.676270 0.000000
0.010490 0.676270 0.000000
0.027420 0.676270 0.000000
0.047424 0.676270 0.000000
0.069763 0.676270 0.000000
0.093689 0.676270 0.000000
0.119446 0.676270 0.000000
0.146606 0.676270 0.000000
0.174561 0.676270 0.000000
0.203491 0.676270 0.000000
0.233521 0.676270 0.000000
0.264648 0.676270 0.000000
0.296875 0.676270 0.000000
0.329590 0.676270 0.000000
0.363281 0.676270 0.000000
0.397461 0.676270 0.000000
0.432129 0.676270 0.000000
0.467285 0.676270 0.000000
0.502930 0.676270 0.000000
0.540039 0.676270 0.000000
0.577148 0.676270 0.000000
0.615234 0.676270 0.000000
0.653809 0.676270 0.000000
0.692871 0.676270 0.000000
0.733398 0.676270 0.000000
0.773926 0.676270 0.000000
0.814453 0.676270 0.000000
0.854492 0.676270 0.000000
0.894043 0.676270 0.000000
0.932617 0.676270 0.000000
0.968750 0.676270 0.000000
1.000000 0.676758 0.000000
0.000000 0.717285 0.000000
0.010490 0.717285 0.000000
0.027420 0.717285 0.000000
0.047424 0.717285 0.000000
0.069763 0.717285 0.000000
0.093689 0.717285 0.000000
0.119446 0.717285 0.000000
0.146606 0.717285 0.000000
0.174561 0.717285 0.000000
0.203491 0.717285 0.000000
0.233521 0.717285 0.000000
0.264648 0.717285 0.000000
0.296875 0.717285 0.000000
0.329590 0.717285 0.000000
0.363281 0.717285 0.000000
0.397461 0.717285 0.000000
0.432129 0.717285 0.000000
0.467285 0.717285 0.000000
0.502930 0.717285 0.000000
0.540039 0.717285 0.000000
0.577148 0.717285 0.000000
0.615234 0.717285 0.000000
0.653809 0.717285 0.000000
0.692871 0.717285 0.000000
0.733398 0.717285 0.000000
0.773926 0.717285 0.000000
0.814453 0.717285 0.000000
0.854492 0.717285 0.000000
0.894043 0.717285 0.000000
0.932617 0.717285 0.000000
0.968750 0.717285 0.000000
1.000000 0.717285 0.000000
0.000000 0.757324 0.000000
0.010490 0.757324 0.000000
0.027420 0.757324 0.000000
0.047424 0.757324 0.000000
0.069763 0.757324 0.000000
0.093689 0.757324 0.000000
0.119446 0.757324 0.000000
0.146606 0.757324 0.000000
0.174561 0.757324 0.000000
0.203491 0.757324 0.000000
0.233521 0.757324 0.000000
0.264648 0.757324 0.000000
0.296875 0.757324 0.000000
0.329590 0.757324 0.000000
0.363281 0.757324 0.000000
0.397461 0.757324 0.000000
0.432129 0.757324 0.000000
0.467285 0.757324 0.000000
0.502930 0.757324 0.000000
0.540039 0.757324 0.000000
0.577148 0.757324 0.000000
0.615234 0.757324 0.000000
0.653809 0.757324 0.000000
0.692871 0.757324 0.000000
0.733398 0.757324 0.000000
0.773926 0.757324 0.000000
0.814453 0.757324 0.000000
0.854492 0.757324 0.000000
0.894043 0.757324 0.000000
0.932617 0.757324 0.000000
0.968750 0.757324 0.000000
1.000000 0.757324 0.000000
0.000000 0.797852 0.000000
0.010490 0.797852 0.000000
0.027420 0.797852 0.000000
0.047424 0.797852 0.000000
0.069763 0.797852 0.000000
0.093689 0.797852 0.000000
0.119446 0.797852 0.000000
0.146606 0.797852 0.000000
0.174561 0.797852 0.000000
0.203491 0.797852 0.000000
0.233521 0.797852 0.000000
0.264648 0.797852 0.000000
0.296875 0.797852 0.000000
0.329590 0.797852 0.000000
0.363281 0.797852 0.000000
0.397461 0.797852 0.000000
0.432129 0.797852 0.000000
0.467285 0.797852 0.000000
0.502930 0.797852 0.000000
0.540039 0.797852 0.000000
0.577148 0.797852 0.000000
0.615234 0.797852 0.000000
0.653809 0.797852 0.000000
0.692871 0.797852 0.000000
0.733398 0.797852 0.000000
0.773926 0.797852 0.000000
0.814453 0.797852 0.000000
0.854492 0.797852 0.000000
0.894043 0.797852 0.000000
0.932617 0.797852 0.000000
0.968750 0.797852 0.000000
1.000000 0.797852 0.000000
0.000000 0.838379 0.000000
0.010490 0.838379 0.000000
0.027420 0.838379 0.000000
0.047424 0.838379 0.000000
0.069763 0.838379 0.000000
0.093689 0.838379 0.000000
0.119446 0.838379 0.000000
0.146606 0.838379 0.000000
0.174561 0.838379 0.000000
0.203491 0.838379 0.000000
0.233521 0.838379 0.000000
0.264648 0.838379 0.000000
0.296875 0.838379 0.000000
0.329590 0.838379 0.000000
0.363281 0.838379 0.000000
0.397461 0.838379 0.000000
0.432129 0.838379 0.000000
0.467285 0.838379 0.000000
0.502930 0.838379 0.000000
0.540039 0.838379 0.000000
0.577148 0.838379 0.000000
0.615234 0.838379 0.000000
0.653809 0.838379 0.000000
