cubelut/Adanmq_AgfaColor Futura II 400.cube
TITLE "Generated by Foundry::LUT"
LUT_3D_SIZE 5
DOMAIN_MIN 0.000000 0.000000 0.000000
DOMAIN_MAX 0.903226 0.903226 0.903226
0.000000 0.000000 0.000000
0.327148 0.000000 0.000000
0.572266 0.000000 0.000000
0.768066 0.000000 0.000000
0.939453 0.000000 0.000000
0.000000 0.324463 0.000000
0.327148 0.324463 0.000000
0.572266 0.324463 0.000000
0.768066 0.324463 0.000000
0.939453 0.324463 0.000000
0.000000 0.585938 0.000000
0.327148 0.585938 0.000000
0.572266 0.585938 0.000000
0.768066 0.585938 0.000000
0.939453 0.585938 0.000000
0.000000 0.779785 0.000000
0.327148 0.779785 0.000000
0.572266 0.779785 0.000000
0.768066 0.779785 0.000000
0.939453 0.779785 0.000000
0.000000 0.941895 0.000000
0.327148 0.941895 0.000000
0.572266 0.941895 0.000000
0.768066 0.941895 0.000000
0.939453 0.941895 0.000000
0.000000 0.000000 0.267822
0.327148 0.000000 0.267822
0.572266 0.000000 0.267822
0.768066 0.000000 0.267822
0.939453 0.000000 0.267822
0.000000 0.324463 0.267822
0.327148 0.324463 0.267822
0.572266 0.324463 0.267822
0.768066 0.324463 0.267822
0.939453 0.324463 0.267822
0.000000 0.585938 0.267822
0.327148 0.585938 0.267822
0.572266 0.585938 0.267822
0.768066 0.585938 0.267822
0.939453 0.585938 0.267822
0.000000 0.779785 0.267822
0.327148 0.779785 0.267822
0.572266 0.779785 0.267822
0.768066 0.779785 0.267822
0.939453 0.779785 0.267822
0.000000 0.941895 0.267822
0.327148 0.941895 0.267822
0.572266 0.941895 0.267822
0.768066 0.941895 0.267822
0.939453 0.941895 0.267822
0.000000 0.000000 0.519043
0.327393 0.000000 0.519043
0.572266 0.000000 0.519043
0.768066 0.000000 0.519043
0.939453 0.000000 0.519043
0.000000 0.324463 0.519043
0.327393 0.324463 0.519043
0.572266 0.324463 0.519043
0.768066 0.324463 0.519043
0.939453 0.324463 0.519043
0.000000 0.585938 0.519043
0.327393 0.585938 0.519043
0.572266 0.585938 0.519043
0.768066 0.585938 0.519043
0.939453 0.585938 0.519043
0.000000 0.779785 0.519043
0.327393 0.779785 0.519043
0.572266 0.779785 0.519043
0.768066 0.779785 0.519043
0.939453 0.779785 0.519043
0.000000 0.941895 0.519043
0.327393 0.941895 0.519043
0.572266 0.941895 0.519043
0.768066 0.941895 0.519043
0.939453 0.941895 0.519043
0.000001 0.000000 0.725586
0.327393 0.000000 0.725586
0.572266 0.000000 0.725586
0.768066 0.000000 0.725586
0.939453 0.000000 0.725586
0.000001 0.324463 0.725586
0.327393 0.324463 0.725586
0.572266 0.324463 0.725586
0.768066 0.324463 0.725586
0.939453 0.324463 0.725586
0.000001 0.585938 0.725586
0.327393 0.585938 0.725586
0.572266 0.585938 0.725586
0.768066 0.585938 0.725586
0.939453 0.585938 0.725586
0.000001 0.779785 0.725586
0.327393 0.779785 0.725586
0.572266 0.779785 0.725586
0.768066 0.779785 0.725586
0.939453 0.779785 0.725586
0.000001 0.941895 0.725586
0.327393 0.941895 0.725586
0.572266 0.941895 0.725586
0.768066 0.941895 0.725586
0.939453 0.941895 0.725586
0.000002 0.000000 0.925781
0.327393 0.000000 0.925781
0.572754 0.000000 0.925781
0.768066 0.000000 0.925781
0.939453 0.000000 0.925781
0.000002 0.324463 0.925781
0.327393 0.324463 0.925781
0.572754 0.324463 0.925781
0.768066 0.324463 0.925781
0.939453 0.324463 0.925781
0.000002 0.585938 0.925781
0.327393 0.585938 0.925781
0.572754 0.585938 0.925781
0.768066 0.585938 0.925781
0.939453 0.585938 0.925781
0.000002 0.779785 0.925781
0.327393 0.779785 0.925781
0.572754 0.779785 0.925781
0.768066 0.779785 0.925781
0.939453 0.779785 0.925781
0.000002 0.941895 0.925781
0.327393 0.941895 0.925781
0.572754 0.941895 0.925781
0.768066 0.941895 0.925781
0.939453 0.941895 0.925781
