cubelut/Adanmq_Kodachrome 64.cube
TITLE "Generated by Foundry::LUT"
LUT_3D_SIZE 32
0.000000 0.000000 0.000000
0.000067 0.000000 0.000000
0.001080 0.000000 0.000000
0.006359 0.000000 0.000000
0.020966 0.000000 0.000000
0.047760 0.000000 0.000000
0.085999 0.000000 0.000000
0.133179 0.000000 0.000000
0.187012 0.000000 0.000000
0.245605 0.000000 0.000000
0.307373 0.000000 0.000000
0.369385 0.000000 0.000000
0.432373 0.000000 0.000000
0.494629 0.000000 0.000000
0.555664 0.000000 0.000000
0.613281 0.000000 0.000000
0.665527 0.000000 0.000000
0.711914 0.000000 0.000000
0.752930 0.000000 0.000000
0.789551 0.000000 0.000000
0.821777 0.000000 0.000000
0.849609 0.000000 0.000000
0.873047 0.000000 0.000000
0.894043 0.000000 0.000000
0.913086 0.000000 0.000000
0.930176 0.000000 0.000000
0.945801 0.000000 0.000000
0.958984 0.000000 0.000000
0.970215 0.000000 0.000000
0.980957 0.000000 0.000000
0.990234 0.000000 0.000000
1.000000 0.000000 0.000000
0.000000 0.000066 0.000000
0.000067 0.000066 0.000000
0.001080 0.000066 0.000000
0.006359 0.000066 0.000000
0.020966 0.000066 0.000000
0.047760 0.000066 0.000000
0.085999 0.000066 0.000000
0.133179 0.000066 0.000000
0.187012 0.000066 0.000000
0.245605 0.000066 0.000000
0.307373 0.000066 0.000000
0.369385 0.000066 0.000000
0.432373 0.000066 0.000000
0.494629 0.000066 0.000000
0.555664 0.000066 0.000000
0.613281 0.000066 0.000000
0.665527 0.000066 0.000000
0.711914 0.000066 0.000000
0.752930 0.000066 0.000000
0.789551 0.000066 0.000000
0.821777 0.000066 0.000000
0.849609 0.000066 0.000000
0.873047 0.000066 0.000000
0.894043 0.000066 0.000000
0.913086 0.000066 0.000000
0.930176 0.000066 0.000000
0.945801 0.000066 0.000000
0.958984 0.000066 0.000000
0.970215 0.000066 0.000000
0.980957 0.000066 0.000000
0.990234 0.000066 0.000000
1.000000 0.000066 0.000000
0.000000 0.000887 0.000000
0.000067 0.000887 0.000000
0.001080 0.000887 0.000000
0.006359 0.000887 0.000000
0.020966 0.000887 0.000000
0.047760 0.000887 0.000000
0.085999 0.000887 0.000000
0.133179 0.000887 0.000000
0.187012 0.000887 0.000000
0.245605 0.000887 0.000000
0.307373 0.000887 0.000000
0.369385 0.000887 0.000000
0.432373 0.000887 0.000000
0.494629 0.000887 0.000000
0.555664 0.000887 0.000000
0.613281 0.000887 0.000000
0.665527 0.000887 0.000000
0.711914 0.000887 0.000000
0.752930 0.000887 0.000000
0.789551 0.000887 0.000000
0.821777 0.000887 0.000000
0.849609 0.000888 0.000000
0.873047 0.000888 0.000000
0.894043 0.000888 0.000000
0.913086 0.000888 0.000000
0.930176 0.000888 0.000000
0.945801 0.000888 0.000000
0.958984 0.000888 0.000000
0.970215 0.000888 0.000000
0.980957 0.000888 0.000000
0.990234 0.000888 0.000000
1.000000 0.000888 0.000000
0.000000 0.005043 0.000000
0.000067 0.005043 0.000000
0.001080 0.005043 0.000000
0.006359 0.005043 0.000000
0.020966 0.005043 0.000000
0.047760 0.005043 0.000000
0.085999 0.005043 0.000000
0.133179 0.005043 0.000000
0.187012 0.005043 0.000000
0.245605 0.005043 0.000000
0.307373 0.005043 0.000000
0.369385 0.005043 0.000000
0.432373 0.005047 0.000000
0.494629 0.005047 0.000000
0.555664 0.005047 0.000000
0.613281 0.005047 0.000000
0.665527 0.005047 0.000000
0.711914 0.005047 0.000000
0.752930 0.005047 0.000000
0.789551 0.005047 0.000000
0.821777 0.005047 0.000000
0.849609 0.005047 0.000000
0.873047 0.005047 0.000000
0.894043 0.005047 0.000000
0.913086 0.005047 0.000000
0.930176 0.005047 0.000000
0.945801 0.005047 0.000000
0.958984 0.005047 0.000000
0.970215 0.005047 0.000000
0.980957 0.005047 0.000000
0.990234 0.005047 0.000000
1.000000 0.005047 0.000000
0.000000 0.017273 0.000000
0.000067 0.017273 0.000000
0.001080 0.017273 0.000000
0.006359 0.017273 0.000000
0.020966 0.017273 0.000000
0.047760 0.017273 0.000000
0.085999 0.017273 0.000000
0.133179 0.017273 0.000000
0.187012 0.017273 0.000000
0.245605 0.017273 0.000000
0.307373 0.017273 0.000000
0.369385 0.017273 0.000000
0.432373 0.017273 0.000000
0.494629 0.017273 0.000000
0.555664 0.017273 0.000000
0.613281 0.017273 0.000000
0.665527 0.017273 0.000000
0.711914 0.017288 0.000000
0.752930 0.017288 0.000000
0.789551 0.017288 0.000000
0.821777 0.017288 0.000000
0.849609 0.017288 0.000000
0.873047 0.017288 0.000000
0.894043 0.017288 0.000000
0.913086 0.017288 0.000000
0.930176 0.017288 0.000000
0.945801 0.017288 0.000000
0.958984 0.017288 0.000000
0.970215 0.017288 0.000000
0.980957 0.017288 0.000000
0.990234 0.017288 0.000000
1.000000 0.017288 0.000000
0.000000 0.041718 0.000000
0.000067 0.041718 0.000000
0.001080 0.041718 0.000000
0.006359 0.041718 0.000000
0.020966 0.041718 0.000000
0.047760 0.041718 0.000000
0.085999 0.041718 0.000000
0.133179 0.041718 0.000000
0.187012 0.041718 0.000000
0.245605 0.041718 0.000000
0.307373 0.041718 0.000000
0.369385 0.041748 0.000000
0.432373 0.041748 0.000000
0.494629 0.041748 0.000000
0.555664 0.041748 0.000000
0.613281 0.041748 0.000000
0.665527 0.041748 0.000000
0.711914 0.041748 0.000000
0.752930 0.041748 0.000000
0.789551 0.041748 0.000000
0.821777 0.041748 0.000000
0.849609 0.041748 0.000000
0.873047 0.041748 0.000000
0.894043 0.041748 0.000000
0.913086 0.041748 0.000000
0.930176 0.041748 0.000000
0.945801 0.041748 0.000000
0.958984 0.041748 0.000000
0.970215 0.041748 0.000000
0.980957 0.041748 0.000000
0.990234 0.041748 0.000000
1.000000 0.041748 0.000000
0.000000 0.080078 0.000000
0.000067 0.080078 0.000000
0.001080 0.080078 0.000000
0.006359 0.080078 0.000000
0.020966 0.080078 0.000000
0.047760 0.080078 0.000000
0.085999 0.080078 0.000000
0.133179 0.080078 0.000000
0.187012 0.080078 0.000000
0.245605 0.080078 0.000000
0.307373 0.080078 0.000000
0.369385 0.080078 0.000000
0.432373 0.080078 0.000000
0.494629 0.080078 0.000000
0.555664 0.080078 0.000000
0.613281 0.080078 0.000000
0.665527 0.080078 0.000000
0.711914 0.080078 0.000000
0.752930 0.080078 0.000000
0.789551 0.080078 0.000000
0.821777 0.080139 0.000000
0.849609 0.080139 0.000000
0.873047 0.080139 0.000000
0.894043 0.080139 0.000000
0.913086 0.080139 0.000000
0.930176 0.080139 0.000000
0.945801 0.080139 0.000000
0.958984 0.080139 0.000000
0.970215 0.080139 0.000000
0.980957 0.080139 0.000000
0.990234 0.080139 0.000000
1.000000 0.080139 0.000000
0.000000 0.131104 0.000000
0.000067 0.131104 0.000000
0.001080 0.131104 0.000000
0.006359 0.131104 0.000000
0.020966 0.131104 0.000000
0.047760 0.131104 0.000000
0.085999 0.131104 0.000000
0.133179 0.131104 0.000000
0.187012 0.131104 0.000000
0.245605 0.131104 0.000000
0.307373 0.131104 0.000000
0.369385 0.131104 0.000000
0.432373 0.131104 0.000000
0.494629 0.131104 0.000000
0.555664 0.131104 0.000000
0.613281 0.131104 0.000000
0.665527 0.131104 0.000000
0.711914 0.131104 0.000000
0.752930 0.131104 0.000000
0.789551 0.131226 0.000000
0.821777 0.131226 0.000000
0.849609 0.131226 0.000000
0.873047 0.131226 0.000000
0.894043 0.131226 0.000000
0.913086 0.131226 0.000000
0.930176 0.131226 0.000000
0.945801 0.131226 0.000000
0.958984 0.131226 0.000000
0.970215 0.131226 0.000000
0.980957 0.131226 0.000000
0.990234 0.131226 0.000000
1.000000 0.131226 0.000000
0.000000 0.192871 0.000000
0.000067 0.192993 0.000000
0.001080 0.192993 0.000000
0.006359 0.192993 0.000000
0.020966 0.192993 0.000000
0.047760 0.192993 0.000000
0.085999 0.192993 0.000000
0.133179 0.192993 0.000000
0.187012 0.192993 0.000000
0.245605 0.192993 0.000000
0.307373 0.192993 0.000000
0.369385 0.192993 0.000000
0.432373 0.192993 0.000000
0.494629 0.192993 0.000000
0.555664 0.192993 0.000000
0.613281 0.192993 0.000000
0.665527 0.192993 0.000000
0.711914 0.192993 0.000000
0.752930 0.192993 0.000000
0.789551 0.192993 0.000000
0.821777 0.192993 0.000000
0.849609 0.192993 0.000000
0.873047 0.192993 0.000000
0.894043 0.192993 0.000000
0.913086 0.192993 0.000000
0.930176 0.192993 0.000000
0.945801 0.192993 0.000000
0.958984 0.192993 0.000000
0.970215 0.192993 0.000000
0.980957 0.192993 0.000000
0.990234 0.192993 0.000000
1.000000 0.192993 0.000000
0.000000 0.261963 0.000000
0.000067 0.261963 0.000000
0.001080 0.261963 0.000000
0.006359 0.261963 0.000000
0.020966 0.261963 0.000000
0.047760 0.262207 0.000000
0.085999 0.262207 0.000000
0.133179 0.262207 0.000000
0.187012 0.262207 0.000000
0.245605 0.262207 0.000000
0.307373 0.262207 0.000000
0.369385 0.262207 0.000000
0.432373 0.262207 0.000000
0.494629 0.262207 0.000000
0.555664 0.262207 0.000000
0.613281 0.262207 0.000000
0.665527 0.262207 0.000000
0.711914 0.262207 0.000000
0.752930 0.262207 0.000000
0.789551 0.262207 0.000000
0.821777 0.262207 0.000000
0.849609 0.262207 0.000000
0.873047 0.262207 0.000000
0.894043 0.262207 0.000000
0.913086 0.262207 0.000000
0.930176 0.262207 0.000000
0.945801 0.262207 0.000000
0.958984 0.262207 0.000000
0.970215 0.262207 0.000000
0.980957 0.262207 0.000000
0.990234 0.262207 0.000000
1.000000 0.262207 0.000000
0.000000 0.333496 0.000000
0.000067 0.333496 0.000000
0.001080 0.333496 0.000000
0.006359 0.333496 0.000000
0.020966 0.333496 0.000000
0.047760 0.333496 0.000000
0.085999 0.333496 0.000000
0.133179 0.333496 0.000000
0.187012 0.333496 0.000000
0.245605 0.333496 0.000000
0.307373 0.333496 0.000000
0.369385 0.333496 0.000000
0.432373 0.333496 0.000000
0.494629 0.333496 0.000000
0.555664 0.333496 0.000000
0.613281 0.333496 0.000000
0.665527 0.333496 0.000000
0.711914 0.333496 0.000000
0.752930 0.333740 0.000000
0.789551 0.333740 0.000000
0.821777 0.333740 0.000000
0.849609 0.333740 0.000000
0.873047 0.333740 0.000000
0.894043 0.333740 0.000000
0.913086 0.333740 0.000000
0.930176 0.333740 0.000000
0.945801 0.333740 0.000000
0.958984 0.333740 0.000000
0.970215 0.333740 0.000000
0.980957 0.333740 0.000000
0.990234 0.333740 0.000000
1.000000 0.333740 0.000000
0.000000 0.402344 0.000000
0.000067 0.402344 0.000000
0.001080 0.402344 0.000000
0.006359 0.402344 0.000000
0.020966 0.402344 0.000000
0.047760 0.402344 0.000000
0.085999 0.402344 0.000000
0.133179 0.402344 0.000000
0.187012 0.402344 0.000000
0.245605 0.402344 0.000000
0.307373 0.402344 0.000000
0.369385 0.402344 0.000000
0.432373 0.402344 0.000000
0.494629 0.402344 0.000000
0.555664 0.402344 0.000000
0.613281 0.402344 0.000000
0.665527 0.402344 0.000000
0.711914 0.402344 0.000000
0.752930 0.402344 0.000000
0.789551 0.402344 0.000000
0.821777 0.402344 0.000000
0.849609 0.402344 0.000000
0.873047 0.402344 0.000000
0.894043 0.402344 0.000000
0.913086 0.402344 0.000000
0.930176 0.402344 0.000000
0.945801 0.402344 0.000000
0.958984 0.402344 0.000000
0.970215 0.402344 0.000000
0.980957 0.402344 0.000000
0.990234 0.402344 0.000000
1.000000 0.402344 0.000000
0.000000 0.469971 0.000000
0.000067 0.469971 0.000000
0.001080 0.469971 0.000000
0.006359 0.469971 0.000000
0.020966 0.469971 0.000000
0.047760 0.469971 0.000000
0.085999 0.469971 0.000000
0.133179 0.469971 0.000000
0.187012 0.469971 0.000000
0.245605 0.469971 0.000000
0.307373 0.469971 0.000000
0.369385 0.469971 0.000000
0.432373 0.469971 0.000000
0.494629 0.469971 0.000000
0.555664 0.469971 0.000000
0.613281 0.469971 0.000000
0.665527 0.469971 0.000000
0.711914 0.469971 0.000000
0.752930 0.469971 0.000000
0.789551 0.469971 0.000000
0.821777 0.469971 0.000000
0.849609 0.469971 0.000000
0.873047 0.469971 0.000000
0.894043 0.469971 0.000000
0.913086 0.469971 0.000000
0.930176 0.469971 0.000000
0.945801 0.469971 0.000000
0.958984 0.469971 0.000000
0.970215 0.469971 0.000000
0.980957 0.469971 0.000000
0.990234 0.469971 0.000000
1.000000 0.469971 0.000000
0.000000 0.533203 0.000000
0.000067 0.533203 0.000000
0.001080 0.533203 0.000000
0.006359 0.533203 0.000000
0.020966 0.533203 0.000000
0.047760 0.533203 0.000000
0.085999 0.533203 0.000000
0.133179 0.533203 0.000000
0.187012 0.533203 0.000000
0.245605 0.533203 0.000000
0.307373 0.533203 0.000000
0.369385 0.533203 0.000000
0.432373 0.533203 0.000000
0.494629 0.533203 0.000000
0.555664 0.533203 0.000000
0.613281 0.533203 0.000000
0.665527 0.533203 0.000000
0.711914 0.533203 0.000000
0.752930 0.533203 0.000000
0.789551 0.533203 0.000000
0.821777 0.533203 0.000000
0.849609 0.533203 0.000000
0.873047 0.533203 0.000000
0.894043 0.533203 0.000000
0.913086 0.533203 0.000000
0.930176 0.533203 0.000000
0.945801 0.533203 0.000000
0.958984 0.533203 0.000000
0.970215 0.533203 0.000000
0.980957 0.533203 0.000000
0.990234 0.533203 0.000000
1.000000 0.533203 0.000000
0.000000 0.590332 0.000000
0.000067 0.590332 0.000000
0.001080 0.590332 0.000000
0.006359 0.590332 0.000000
0.020966 0.590332 0.000000
0.047760 0.590332 0.000000
0.085999 0.590332 0.000000
0.133179 0.590332 0.000000
0.187012 0.590332 0.000000
0.245605 0.590332 0.000000
0.307373 0.590332 0.000000
0.369385 0.590332 0.000000
0.432373 0.590332 0.000000
0.494629 0.590332 0.000000
0.555664 0.590332 0.000000
0.613281 0.590332 0.000000
0.665527 0.590332 0.000000
0.711914 0.590332 0.000000
0.752930 0.590332 0.000000
0.789551 0.590332 0.000000
0.821777 0.590332 0.000000
0.849609 0.590332 0.000000
0.873047 0.590332 0.000000
0.894043 0.590332 0.000000
0.913086 0.590332 0.000000
0.930176 0.590332 0.000000
0.945801 0.590332 0.000000
0.958984 0.590332 0.000000
0.970215 0.590332 0.000000
0.980957 0.590332 0.000000
0.990234 0.590332 0.000000
1.000000 0.590332 0.000000
0.000000 0.642090 0.000000
0.000067 0.642090 0.000000
0.001080 0.642090 0.000000
0.006359 0.642090 0.000000
0.020966 0.642090 0.000000
0.047760 0.642090 0.000000
0.085999 0.642090 0.000000
0.133179 0.642090 0.000000
0.187012 0.642090 0.000000
0.245605 0.642090 0.000000
0.307373 0.642090 0.000000
0.369385 0.642090 0.000000
0.432373 0.642090 0.000000
0.494629 0.642090 0.000000
0.555664 0.642090 0.000000
0.613281 0.642090 0.000000
0.665527 0.642090 0.000000
0.711914 0.642090 0.000000
0.752930 0.642090 0.000000
0.789551 0.642090 0.000000
0.821777 0.642090 0.000000
0.849609 0.642090 0.000000
0.873047 0.642090 0.000000
0.894043 0.642090 0.000000
0.913086 0.642090 0.000000
0.930176 0.642090 0.000000
0.945801 0.642090 0.000000
0.958984 0.642090 0.000000
0.970215 0.642090 0.000000
0.980957 0.642090 0.000000
0.990234 0.642090 0.000000
1.000000 0.642090 0.000000
0.000000 0.687500 0.000000
0.000067 0.687500 0.000000
0.001080 0.687500 0.000000
0.006359 0.687500 0.000000
0.020966 0.687500 0.000000
0.047760 0.687500 0.000000
0.085999 0.687500 0.000000
0.133179 0.687500 0.000000
0.187012 0.687500 0.000000
0.245605 0.687500 0.000000
0.307373 0.687500 0.000000
0.369385 0.687500 0.000000
0.432373 0.687500 0.000000
0.494629 0.687500 0.000000
0.555664 0.687500 0.000000
0.613281 0.687500 0.000000
0.665527 0.687500 0.000000
0.711914 0.687500 0.000000
0.752930 0.687500 0.000000
0.789551 0.687500 0.000000
0.821777 0.687500 0.000000
0.849609 0.687500 0.000000
0.873047 0.687500 0.000000
0.894043 0.687500 0.000000
0.913086 0.687500 0.000000
0.930176 0.687500 0.000000
0.945801 0.687500 0.000000
0.958984 0.687500 0.000000
0.970215 0.687500 0.000000
0.980957 0.687500 0.000000
0.990234 0.687500 0.000000
1.000000 0.687500 0.000000
0.000000 0.728027 0.000000
0.000067 0.728027 0.000000
0.001080 0.728027 0.000000
0.006359 0.728027 0.000000
0.020966 0.728027 0.000000
0.047760 0.728027 0.000000
0.085999 0.728027 0.000000
0.133179 0.728027 0.000000
0.187012 0.728027 0.000000
0.245605 0.728027 0.000000
0.307373 0.728027 0.000000
0.369385 0.728027 0.000000
0.432373 0.728027 0.000000
0.494629 0.728027 0.000000
0.555664 0.728027 0.000000
0.613281 0.728027 0.000000
0.665527 0.728027 0.000000
0.711914 0.728027 0.000000
0.752930 0.728027 0.000000
0.789551 0.728027 0.000000
0.821777 0.728027 0.000000
0.849609 0.728027 0.000000
0.873047 0.728027 0.000000
0.894043 0.728027 0.000000
0.913086 0.728027 0.000000
0.930176 0.728027 0.000000
0.945801 0.728027 0.000000
0.958984 0.728027 0.000000
0.970215 0.728027 0.000000
0.980957 0.728027 0.000000
0.990234 0.728027 0.000000
1.000000 0.728027 0.000000
0.000000 0.763672 0.000000
0.000067 0.763672 0.000000
0.001080 0.763672 0.000000
0.006359 0.763672 0.000000
0.020966 0.763672 0.000000
0.047760 0.763672 0.000000
0.085999 0.763672 0.000000
0.133179 0.763672 0.000000
0.187012 0.763672 0.000000
0.245605 0.763672 0.000000
0.307373 0.763672 0.000000
0.369385 0.763672 0.000000
0.432373 0.763672 0.000000
0.494629 0.763672 0.000000
0.555664 0.763672 0.000000
0.613281 0.763672 0.000000
0.665527 0.763672 0.000000
0.711914 0.763672 0.000000
0.752930 0.763672 0.000000
0.789551 0.763672 0.000000
0.821777 0.763672 0.000000
0.849609 0.763672 0.000000
0.873047 0.763672 0.000000
0.894043 0.763672 0.000000
0.913086 0.763672 0.000000
0.930176 0.763672 0.000000
0.945801 0.763672 0.000000
0.958984 0.763672 0.000000
0.970215 0.763672 0.000000
0.980957 0.763672 0.000000
0.990234 0.763672 0.000000
1.000000 0.763672 0.000000
0.000000 0.793945 0.000000
0.000067 0.793945 0.000000
0.001080 0.793945 0.000000
0.006359 0.793945 0.000000
0.020966 0.793945 0.000000
0.047760 0.793945 0.000000
0.085999 0.793945 0.000000
0.133179 0.793945 0.000000
0.187012 0.793945 0.000000
0.245605 0.793945 0.000000
0.307373 0.793945 0.000000
0.369385 0.793945 0.000000
0.432373 0.793945 0.000000
0.494629 0.793945 0.000000
0.555664 0.793945 0.000000
0.613281 0.793945 0.000000
0.665527 0.793945 0.000000
0.711914 0.793945 0.000000
0.752930 0.793945 0.000000
0.789551 0.793945 0.000000
0.821777 0.793945 0.000000
0.849609 0.793945 0.000000
0.873047 0.793945 0.000000
0.894043 0.793945 0.000000
0.913086 0.793945 0.000000
0.930176 0.793945 0.000000
0.945801 0.793945 0.000000
0.958984 0.793945 0.000000
0.970215 0.793945 0.000000
0.980957 0.793945 0.000000
0.990234 0.793945 0.000000
1.000000 0.793945 0.000000
0.000000 0.820801 0.000000
0.000067 0.820801 0.000000
0.001080 0.820801 0.000000
0.006359 0.820801 0.000000
0.020966 0.820801 0.000000
0.047760 0.820801 0.000000
0.085999 0.820801 0.000000
0.133179 0.820801 0.000000
0.187012 0.820801 0.000000
0.245605 0.820801 0.000000
0.307373 0.820801 0.000000
0.369385 0.820801 0.000000
0.432373 0.820801 0.000000
0.494629 0.820801 0.000000
0.555664 0.820801 0.000000
0.613281 0.820801 0.000000
0.665527 0.820801 0.000000
0.711914 0.820801 0.000000
0.752930 0.820801 0.000000
0.789551 0.820801 0.000000
0.821777 0.820801 0.000000
0.849609 0.820801 0.000000
0.873047 0.820801 0.000000
0.894043 0.820801 0.000000
0.913086 0.820801 0.000000
0.930176 0.820801 0.000000
0.945801 0.820801 0.000000
0.958984 0.820801 0.000000
0.970215 0.820801 0.000000
0.980957 0.820801 0.000000
0.990234 0.820801 0.000000
1.000000 0.820801 0.000000
0.000000 0.845703 0.000000
0.000067 0.845703 0.000000
0.001080 0.845703 0.000000
0.006359 0.845703 0.000000
0.020966 0.845703 0.000000
0.047760 0.845703 0.000000
0.085999 0.845703 0.000000
0.133179 0.845703 0.000000
0.187012 0.845703 0.000000
0.245605 0.845703 0.000000
0.307373 0.845703 0.000000
0.369385 0.845703 0.000000
0.432373 0.845703 0.000000
0.494629 0.845703 0.000000
0.555664 0.845703 0.000000
0.613281 0.845703 0.000000
0.665527 0.845703 0.000000
0.711914 0.845703 0.000000
0.752930 0.845703 0.000000
0.789551 0.845703 0.000000
0.821777 0.845703 0.000000
0.849609 0.845703 0.000000
0.873047 0.845703 0.000000
0.894043 0.845703 0.000000
0.913086 0.845703 0.000000
0.930176 0.845703 0.000000
0.945801 0.845703 0.000000
0.958984 0.845703 0.000000
0.970215 0.845703 0.000000
0.980957 0.845703 0.000000
0.990234 0.845703 0.000000
1.000000 0.845703 0.000000
0.000000 0.869141 0.000000
0.000067 0.869141 0.000000
0.001080 0.869141 0.000000
0.006359 0.869141 0.000000
0.020966 0.869141 0.000000
0.047760 0.869141 0.000000
0.085999 0.869141 0.000000
0.133179 0.869141 0.000000
0.187012 0.869141 0.000000
0.245605 0.869141 0.000000
0.307373 0.869141 0.000000
0.369385 0.869141 0.000000
0.432373 0.869141 0.000000
0.494629 0.869141 0.000000
0.555664 0.869141 0.000000
0.613281 0.869141 0.000000
0.665527 0.869141 0.000000
0.711914 0.869141 0.000000
0.752930 0.869141 0.000000
0.789551 0.869141 0.000000
0.821777 0.869141 0.000000
0.849609 0.869141 0.000000
0.873047 0.869141 0.000000
0.894043 0.869141 0.000000
0.913086 0.869141 0.000000
0.930176 0.869141 0.000000
0.945801 0.869141 0.000000
0.958984 0.869141 0.000000
0.970215 0.869141 0.000000
0.980957 0.869141 0.000000
0.990234 0.869141 0.000000
1.000000 0.869141 0.000000
0.000000 0.889160 0.000000
0.000067 0.889160 0.000000
0.001080 0.889160 0.000000
0.006359 0.889160 0.000000
0.020966 0.889160 0.000000
0.047760 0.889160 0.000000
0.085999 0.889160 0.000000
0.133179 0.889160 0.000000
0.187012 0.889160 0.000000
0.245605 0.889160 0.000000
0.307373 0.889160 0.000000
0.369385 0.889160 0.000000
0.432373 0.889160 0.000000
0.494629 0.889160 0.000000
0.555664 0.889160 0.000000
0.613281 0.889160 0.000000
0.665527 0.889160 0.000000
0.711914 0.889160 0.000000
0.752930 0.889160 0.000000
0.789551 0.889160 0.000000
0.821777 0.889160 0.000000
0.849609 0.889160 0.000000
0.873047 0.889160 0.000000
0.894043 0.889160 0.000000
0.913086 0.889160 0.000000
0.930176 0.889160 0.000000
0.945801 0.889160 0.000000
0.958984 0.889160 0.000000
0.970215 0.889160 0.000000
0.980957 0.889160 0.000000
0.990234 0.889160 0.000000
1.000000 0.889160 0.000000
0.000000 0.906738 0.000000
0.000067 0.906738 0.000000
0.001080 0.906738 0.000000
0.006359 0.906738 0.000000
0.020966 0.906738 0.000000
0.047760 0.906738 0.000000
0.085999 0.906738 0.000000
0.133179 0.906738 0.000000
0.187012 0.906738 0.000000
0.245605 0.906738 0.000000
0.307373 0.906738 0.000000
0.369385 0.906738 0.000000
0.432373 0.906738 0.000000
0.494629 0.906738 0.000000
0.555664 0.906738 0.000000
0.613281 0.906738 0.000000
0.665527 0.906738 0.000000
0.711914 0.906738 0.000000
0.752930 0.906738 0.000000
0.789551 0.906738 0.000000
0.821777 0.906738 0.000000
0.849609 0.906738 0.000000
0.873047 0.906738 0.000000
0.894043 0.906738 0.000000
0.913086 0.906738 0.000000
0.930176 0.906738 0.000000
0.945801 0.906738 0.000000
0.958984 0.906738 0.000000
0.970215 0.906738 0.000000
0.980957 0.906738 0.000000
0.990234 0.906738 0.000000
1.000000 0.906738 0.000000
0.000000 0.922363 0.000000
0.000067 0.922363 0.000000
0.001080 0.922363 0.000000
0.006359 0.922363 0.000000
0.020966 0.922363 0.000000
0.047760 0.922363 0.000000
0.085999 0.922363 0.000000
0.133179 0.922363 0.000000
0.187012 0.922363 0.000000
0.245605 0.922363 0.000000
0.307373 0.922363 0.000000
0.369385 0.922363 0.000000
0.432373 0.922363 0.000000
0.494629 0.922363 0.000000
0.555664 0.922363 0.000000
0.613281 0.922363 0.000000
0.665527 0.922363 0.000000
0.711914 0.922363 0.000000
0.752930 0.922363 0.000000
0.789551 0.922363 0.000000
0.821777 0.922363 0.000000
0.849609 0.922363 0.000000
0.873047 0.922363 0.000000
0.894043 0.922363 0.000000
0.913086 0.922363 0.000000
0.930176 0.922363 0.000000
0.945801 0.922363 0.000000
0.958984 0.922363 0.000000
0.970215 0.922363 0.000000
0.980957 0.922363 0.000000
0.990234 0.922363 0.000000
1.000000 0.922363 0.000000
0.000000 0.936523 0.000000
0.000067 0.936523 0.000000
0.001080 0.936523 0.000000
0.006359 0.936523 0.000000
0.020966 0.936523 0.000000
0.047760 0.936523 0.000000
0.085999 0.936523 0.000000
0.133179 0.936523 0.000000
0.187012 0.936523 0.000000
0.245605 0.936523 0.000000
0.307373 0.936523 0.000000
0.369385 0.936523 0.000000
0.432373 0.936523 0.000000
0.494629 0.936523 0.000000
0.555664 0.936523 0.000000
0.613281 0.936523 0.000000
0.665527 0.936523 0.000000
0.711914 0.936523 0.000000
0.752930 0.936523 0.000000
0.789551 0.936523 0.000000
0.821777 0.936523 0.000000
0.849609 0.936523 0.000000
0.873047 0.936523 0.000000
0.894043 0.936523 0.000000
0.913086 0.936523 0.000000
0.930176 0.936523 0.000000
0.945801 0.936523 0.000000
0.958984 0.936523 0.000000
0.970215 0.936523 0.000000
0.980957 0.936523 0.000000
0.990234 0.936523 0.000000
1.000000 0.936523 0.000000
0.000000 0.949707 0.000000
0.000067 0.949707 0.000000
0.001080 0.949707 0.000000
0.006359 0.949707 0.000000
0.020966 0.949707 0.000000
0.047760 0.949707 0.000000
0.085999 0.949707 0.000000
0.133179 0.949707 0.000000
0.187012 0.949707 0.000000
0.245605 0.949707 0.000000
0.307373 0.949707 0.000000
0.369385 0.949707 0.000000
0.432373 0.949707 0.000000
0.494629 0.949707 0.000000
0.555664 0.949707 0.000000
0.613281 0.949707 0.000000
0.665527 0.949707 0.000000
0.711914 0.949707 0.000000
0.752930 0.949707 0.000000
0.789551 0.949707 0.000000
0.821777 0.949707 0.000000
0.849609 0.949707 0.000000
0.873047 0.949707 0.000000
