cubelut/Adanmq_Advantix 400.cube
TITLE "Generated by Foundry::LUT"
LUT_3D_SIZE 5
DOMAIN_MIN 0.000000 0.000000 0.000000
DOMAIN_MAX 0.903226 0.903226 0.903226
0.000000 0.000000 0.000000
0.140015 0.000000 0.000000
0.352295 0.000000 0.000000
0.604004 0.000000 0.000000
0.890137 0.000000 0.000000
0.000000 0.133179 0.000000
0.140015 0.133179 0.000000
0.352295 0.133179 0.000000
0.604004 0.133179 0.000000
0.890137 0.133179 0.000000
0.000000 0.347412 0.000000
0.140015 0.347412 0.000000
0.352295 0.347412 0.000000
0.604004 0.347412 0.000000
0.890137 0.347412 0.000000
0.000000 0.600098 0.000000
0.140015 0.600098 0.000000
0.352295 0.600098 0.000000
0.604004 0.600098 0.000000
0.890137 0.600098 0.000000
0.000000 0.881348 0.000000
0.140015 0.881348 0.000000
0.352295 0.881348 0.000000
0.604004 0.881348 0.000000
0.890137 0.881348 0.000000
0.000000 0.000000 0.103760
0.140137 0.000000 0.103760
0.352539 0.000000 0.103760
0.604004 0.000000 0.103760
0.890137 0.000000 0.103760
0.000000 0.133179 0.103760
0.140137 0.133179 0.103760
0.352539 0.133179 0.103760
0.604004 0.133179 0.103760
0.890137 0.133179 0.103760
0.000000 0.347412 0.103760
0.140137 0.347412 0.103760
0.352539 0.347412 0.103760
0.604004 0.347412 0.103760
0.890137 0.347412 0.103760
0.000000 0.600098 0.103760
0.140137 0.600098 0.103760
0.352539 0.600098 0.103760
0.604004 0.600098 0.103760
0.890137 0.600098 0.103760
0.000000 0.881348 0.103760
0.140137 0.881348 0.103760
0.352539 0.881348 0.103760
0.604004 0.881348 0.103760
0.890137 0.881348 0.103760
0.000000 0.000000 0.301270
0.140137 0.000000 0.301270
0.352539 0.000000 0.301270
0.604492 0.000000 0.301270
0.890137 0.000000 0.301270
0.000000 0.133179 0.301270
0.140137 0.133179 0.301270
0.352539 0.133179 0.301270
0.604492 0.133179 0.301270
0.890137 0.133179 0.301270
0.000000 0.347412 0.301270
0.140137 0.347412 0.301270
0.352539 0.347412 0.301270
0.604492 0.347412 0.301270
0.890137 0.347412 0.301270
0.000000 0.600098 0.301270
0.140137 0.600098 0.301270
0.352539 0.600098 0.301270
0.604492 0.600098 0.301270
0.890137 0.600098 0.301270
0.000000 0.881348 0.301270
0.140137 0.881348 0.301270
0.352539 0.881348 0.301270
0.604492 0.881348 0.301270
0.890137 0.881348 0.301270
0.000000 0.000000 0.558105
0.140137 0.000000 0.558105
0.352539 0.000000 0.558105
0.604492 0.000000 0.558105
0.890137 0.000000 0.558105
0.000000 0.133179 0.558105
0.140137 0.133179 0.558105
0.352539 0.133179 0.558105
0.604492 0.133179 0.558105
0.890137 0.133179 0.558105
0.000000 0.347412 0.558105
0.140137 0.347412 0.558105
0.352539 0.347412 0.558105
0.604492 0.347412 0.558105
0.890137 0.347412 0.558105
0.000000 0.600098 0.558105
0.140137 0.600098 0.558105
0.352539 0.600098 0.558105
0.604492 0.600098 0.558105
0.890137 0.600098 0.558105
0.000000 0.881348 0.558105
0.140137 0.881348 0.558105
0.352539 0.881348 0.558105
0.604492 0.881348 0.558105
0.890137 0.881348 0.558105
0.000000 0.000000 0.867188
0.140137 0.000000 0.867188
0.352539 0.000000 0.867188
0.604492 0.000000 0.867188
0.890137 0.000000 0.867188
0.000000 0.133057 0.867188
0.140137 0.133179 0.867188
0.352539 0.133179 0.867188
0.604492 0.133179 0.867188
0.890137 0.133179 0.867188
0.000000 0.347412 0.867188
0.140137 0.347412 0.867188
0.352539 0.347412 0.867188
0.604492 0.347412 0.867188
0.890137 0.347412 0.867188
0.000000 0.600098 0.867188
0.140137 0.600098 0.867188
0.352539 0.600098 0.867188
0.604492 0.600098 0.867188
0.890137 0.600098 0.867188
0.000000 0.881348 0.867188
0.140137 0.881348 0.867188
0.352539 0.881348 0.867188
0.604492 0.881348 0.867188
0.890137 0.881348 0.867188
