cubelut/Adanmq_AgfaColor Vista 800.cube
TITLE "Generated by Foundry::LUT"
LUT_3D_SIZE 5
DOMAIN_MIN 0.000000 0.000000 0.000000
DOMAIN_MAX 0.903226 0.903226 0.903226
0.000000 0.000000 0.000000
0.362305 0.000000 0.000000
0.604980 0.000000 0.000000
0.788574 0.000000 0.000000
0.944824 0.000000 0.000000
0.000000 0.349121 0.000000
0.362305 0.349121 0.000000
0.604980 0.349121 0.000000
0.788574 0.349121 0.000000
0.944824 0.349121 0.000000
0.000000 0.612305 0.000000
0.362305 0.612305 0.000000
0.604980 0.612305 0.000000
0.788574 0.612305 0.000000
0.944824 0.612305 0.000000
0.000000 0.799805 0.000000
0.362305 0.799805 0.000000
0.604980 0.799805 0.000000
0.788574 0.799805 0.000000
0.944824 0.799805 0.000000
0.000000 0.949219 0.000000
0.362305 0.949219 0.000000
0.604980 0.949219 0.000000
0.788574 0.949219 0.000000
0.944824 0.949219 0.000000
0.000000 0.000000 0.283447
0.362305 0.000000 0.283447
0.605469 0.000000 0.283447
0.788574 0.000000 0.283447
0.944824 0.000000 0.283447
0.000000 0.349121 0.283447
0.362305 0.349121 0.283447
0.605469 0.349121 0.283447
0.788574 0.349121 0.283447
0.944824 0.349121 0.283447
0.000000 0.612305 0.283447
0.362305 0.612305 0.283447
0.605469 0.612305 0.283447
0.788574 0.612305 0.283447
0.944824 0.612305 0.283447
0.000000 0.799805 0.283447
0.362305 0.799805 0.283447
0.605469 0.799805 0.283447
0.788574 0.799805 0.283447
0.944824 0.799805 0.283447
0.000000 0.949219 0.283447
0.362305 0.949219 0.283447
0.605469 0.949219 0.283447
0.788574 0.949219 0.283447
0.944824 0.949219 0.283447
0.000001 0.000000 0.548340
0.362305 0.000000 0.548340
0.605469 0.000000 0.548340
0.788574 0.000000 0.548340
0.944824 0.000000 0.548340
0.000001 0.349121 0.548340
0.362305 0.349121 0.548340
0.605469 0.349121 0.548340
0.788574 0.349121 0.548340
0.944824 0.349121 0.548340
0.000001 0.612305 0.548340
0.362305 0.612305 0.548340
0.605469 0.612305 0.548340
0.788574 0.612305 0.548340
0.944824 0.612305 0.548340
0.000001 0.799316 0.548340
0.362305 0.799805 0.548340
0.605469 0.799805 0.548340
0.788574 0.799805 0.548340
0.944824 0.799805 0.548340
0.000001 0.949219 0.548340
0.362305 0.949219 0.548340
0.605469 0.949219 0.548340
0.788574 0.949219 0.548340
0.944824 0.949219 0.548340
0.000001 0.000000 0.755859
0.362549 0.000000 0.755859
0.605469 0.000000 0.755859
0.788574 0.000000 0.755859
0.944824 0.000000 0.755859
0.000001 0.349121 0.755859
0.362549 0.349121 0.755859
0.605469 0.349121 0.755859
0.788574 0.349121 0.755859
0.944824 0.349121 0.755859
0.000001 0.612305 0.755859
0.362549 0.612305 0.755859
0.605469 0.612305 0.755859
0.788574 0.612305 0.755859
0.944824 0.612305 0.755859
0.000001 0.799316 0.755859
0.362549 0.799316 0.755859
0.605469 0.799805 0.755859
0.788574 0.799805 0.755859
0.944824 0.799805 0.755859
0.000001 0.949219 0.755859
0.362549 0.949219 0.755859
0.605469 0.949219 0.755859
0.788574 0.949219 0.755859
0.944824 0.949219 0.755859
0.000003 0.000000 0.934082
0.362549 0.000000 0.934082
0.605469 0.000000 0.934082
0.788574 0.000000 0.934082
0.944824 0.000000 0.934082
0.000003 0.349121 0.934082
0.362549 0.349121 0.934082
0.605469 0.349121 0.934082
0.788574 0.349121 0.934082
0.944824 0.349121 0.934082
0.000003 0.612305 0.934082
0.362549 0.612305 0.934082
0.605469 0.612305 0.934082
0.788574 0.612305 0.934082
0.944824 0.612305 0.934082
0.000003 0.799316 0.934082
0.362549 0.799316 0.934082
0.605469 0.799316 0.934082
0.788574 0.799805 0.934082
0.944824 0.799805 0.934082
0.000003 0.949219 0.934082
0.362549 0.949219 0.934082
0.605469 0.949219 0.934082
0.788574 0.949219 0.934082
0.944824 0.949219 0.934082
