cubelut/Adanmq_AgfaColor Futura 100.cube
TITLE "Generated by Foundry::LUT"
LUT_3D_SIZE 32
0.000000 0.000000 0.000000
0.041260 0.000000 0.000000
0.092224 0.000000 0.000000
0.145264 0.000000 0.000000
0.200073 0.000000 0.000000
0.251709 0.000000 0.000000
0.299316 0.000000 0.000000
0.343018 0.000000 0.000000
0.383789 0.000000 0.000000
0.422119 0.000000 0.000000
0.458740 0.000000 0.000000
0.493164 0.000000 0.000000
0.526855 0.000000 0.000000
0.559082 0.000000 0.000000
0.589844 0.000000 0.000000
0.619629 0.000000 0.000000
0.647949 0.000000 0.000000
0.675781 0.000000 0.000000
0.703125 0.000000 0.000000
0.729004 0.000000 0.000000
0.754395 0.000000 0.000000
0.779297 0.000000 0.000000
0.803711 0.000000 0.000000
0.827637 0.000000 0.000000
0.851074 0.000000 0.000000
0.874023 0.000000 0.000000
0.896484 0.000000 0.000000
0.918457 0.000000 0.000000
0.939453 0.000000 0.000000
0.960449 0.000000 0.000000
0.980957 0.000000 0.000000
1.000000 0.000000 0.000000
0.000000 0.042786 0.000000
0.041260 0.042786 0.000000
0.092224 0.042786 0.000000
0.145264 0.042786 0.000000
0.200073 0.042786 0.000000
0.251709 0.042786 0.000000
0.299316 0.042786 0.000000
0.343018 0.042786 0.000000
0.383789 0.042786 0.000000
0.422119 0.042786 0.000000
0.458740 0.042786 0.000000
0.493164 0.042786 0.000000
0.526855 0.042786 0.000000
0.559082 0.042786 0.000000
0.589844 0.042786 0.000000
0.619629 0.042786 0.000000
0.647949 0.042786 0.000000
0.675781 0.042786 0.000000
0.703125 0.042786 0.000000
0.729004 0.042816 0.000000
0.754395 0.042816 0.000000
0.779297 0.042816 0.000000
0.803711 0.042816 0.000000
0.827637 0.042816 0.000000
0.851074 0.042816 0.000000
0.874023 0.042816 0.000000
0.896484 0.042816 0.000000
0.918457 0.042816 0.000000
0.939453 0.042816 0.000000
0.960449 0.042816 0.000000
0.980957 0.042816 0.000000
1.000000 0.042816 0.000000
0.000000 0.096375 0.000000
0.041260 0.096375 0.000000
0.092224 0.096375 0.000000
0.145264 0.096375 0.000000
0.200073 0.096375 0.000000
0.251709 0.096375 0.000000
0.299316 0.096375 0.000000
0.343018 0.096375 0.000000
0.383789 0.096375 0.000000
0.422119 0.096375 0.000000
0.458740 0.096375 0.000000
0.493164 0.096375 0.000000
0.526855 0.096375 0.000000
0.559082 0.096375 0.000000
0.589844 0.096375 0.000000
0.619629 0.096375 0.000000
0.647949 0.096375 0.000000
0.675781 0.096375 0.000000
0.703125 0.096375 0.000000
0.729004 0.096375 0.000000
0.754395 0.096375 0.000000
0.779297 0.096375 0.000000
0.803711 0.096375 0.000000
0.827637 0.096375 0.000000
0.851074 0.096375 0.000000
0.874023 0.096375 0.000000
0.896484 0.096375 0.000000
0.918457 0.096375 0.000000
0.939453 0.096375 0.000000
0.960449 0.096375 0.000000
0.980957 0.096375 0.000000
1.000000 0.096375 0.000000
0.000000 0.150269 0.000000
0.041260 0.150269 0.000000
0.092224 0.150269 0.000000
0.145264 0.150269 0.000000
0.200073 0.150269 0.000000
0.251709 0.150269 0.000000
0.299316 0.150269 0.000000
0.343018 0.150269 0.000000
0.383789 0.150269 0.000000
0.422119 0.150269 0.000000
0.458740 0.150269 0.000000
0.493164 0.150269 0.000000
0.526855 0.150269 0.000000
0.559082 0.150269 0.000000
0.589844 0.150269 0.000000
0.619629 0.150269 0.000000
0.647949 0.150269 0.000000
0.675781 0.150269 0.000000
0.703125 0.150269 0.000000
0.729004 0.150269 0.000000
0.754395 0.150269 0.000000
0.779297 0.150269 0.000000
0.803711 0.150269 0.000000
0.827637 0.150391 0.000000
0.851074 0.150391 0.000000
0.874023 0.150391 0.000000
0.896484 0.150391 0.000000
0.918457 0.150391 0.000000
0.939453 0.150391 0.000000
0.960449 0.150391 0.000000
0.980957 0.150391 0.000000
1.000000 0.150391 0.000000
0.000000 0.203613 0.000000
0.041260 0.203613 0.000000
0.092224 0.203613 0.000000
0.145264 0.203613 0.000000
0.200073 0.203613 0.000000
0.251709 0.203613 0.000000
0.299316 0.203613 0.000000
0.343018 0.203613 0.000000
0.383789 0.203613 0.000000
0.422119 0.203613 0.000000
0.458740 0.203613 0.000000
0.493164 0.203613 0.000000
0.526855 0.203613 0.000000
0.559082 0.203613 0.000000
0.589844 0.203613 0.000000
0.619629 0.203613 0.000000
0.647949 0.203613 0.000000
0.675781 0.203613 0.000000
0.703125 0.203735 0.000000
0.729004 0.203735 0.000000
0.754395 0.203735 0.000000
0.779297 0.203735 0.000000
0.803711 0.203735 0.000000
0.827637 0.203735 0.000000
0.851074 0.203735 0.000000
0.874023 0.203735 0.000000
0.896484 0.203735 0.000000
0.918457 0.203735 0.000000
0.939453 0.203735 0.000000
0.960449 0.203735 0.000000
0.980957 0.203735 0.000000
1.000000 0.203735 0.000000
0.000000 0.255127 0.000000
0.041260 0.255127 0.000000
0.092224 0.255127 0.000000
0.145264 0.255127 0.000000
0.200073 0.255127 0.000000
0.251709 0.255127 0.000000
0.299316 0.255127 0.000000
0.343018 0.255127 0.000000
0.383789 0.255127 0.000000
0.422119 0.255127 0.000000
0.458740 0.255127 0.000000
0.493164 0.255127 0.000000
0.526855 0.255127 0.000000
0.559082 0.255127 0.000000
0.589844 0.255127 0.000000
0.619629 0.255127 0.000000
0.647949 0.255127 0.000000
0.675781 0.255127 0.000000
0.703125 0.255127 0.000000
0.729004 0.255127 0.000000
0.754395 0.255127 0.000000
0.779297 0.255127 0.000000
0.803711 0.255127 0.000000
0.827637 0.255127 0.000000
0.851074 0.255127 0.000000
0.874023 0.255127 0.000000
0.896484 0.255127 0.000000
0.918457 0.255127 0.000000
0.939453 0.255127 0.000000
0.960449 0.255127 0.000000
0.980957 0.255127 0.000000
1.000000 0.255127 0.000000
0.000000 0.304199 0.000000
0.041260 0.304199 0.000000
0.092224 0.304199 0.000000
0.145264 0.304199 0.000000
0.200073 0.304199 0.000000
0.251709 0.304199 0.000000
0.299316 0.304199 0.000000
0.343018 0.304199 0.000000
0.383789 0.304199 0.000000
0.422119 0.304199 0.000000
0.458740 0.304199 0.000000
0.493164 0.304199 0.000000
0.526855 0.304199 0.000000
0.559082 0.304199 0.000000
0.589844 0.304199 0.000000
0.619629 0.304199 0.000000
0.647949 0.304199 0.000000
0.675781 0.304199 0.000000
0.703125 0.304199 0.000000
0.729004 0.304199 0.000000
0.754395 0.304199 0.000000
0.779297 0.304199 0.000000
0.803711 0.304199 0.000000
0.827637 0.304199 0.000000
0.851074 0.304199 0.000000
0.874023 0.304199 0.000000
0.896484 0.304199 0.000000
0.918457 0.304199 0.000000
0.939453 0.304199 0.000000
0.960449 0.304199 0.000000
0.980957 0.304199 0.000000
1.000000 0.304199 0.000000
0.000000 0.350098 0.000000
0.041260 0.350098 0.000000
0.092224 0.350098 0.000000
0.145264 0.350098 0.000000
0.200073 0.350098 0.000000
0.251709 0.350098 0.000000
0.299316 0.350098 0.000000
0.343018 0.350098 0.000000
0.383789 0.350098 0.000000
0.422119 0.350098 0.000000
0.458740 0.350098 0.000000
0.493164 0.350098 0.000000
0.526855 0.350098 0.000000
0.559082 0.350098 0.000000
0.589844 0.350098 0.000000
0.619629 0.350098 0.000000
0.647949 0.350098 0.000000
0.675781 0.350098 0.000000
0.703125 0.350098 0.000000
0.729004 0.350098 0.000000
0.754395 0.350098 0.000000
0.779297 0.350098 0.000000
0.803711 0.350098 0.000000
0.827637 0.350098 0.000000
0.851074 0.350098 0.000000
0.874023 0.350098 0.000000
0.896484 0.350098 0.000000
0.918457 0.350098 0.000000
0.939453 0.350098 0.000000
0.960449 0.350098 0.000000
0.980957 0.350098 0.000000
1.000000 0.350098 0.000000
0.000000 0.393066 0.000000
0.041260 0.393066 0.000000
0.092224 0.393066 0.000000
0.145264 0.393311 0.000000
0.200073 0.393311 0.000000
0.251709 0.393311 0.000000
0.299316 0.393311 0.000000
0.343018 0.393311 0.000000
0.383789 0.393311 0.000000
0.422119 0.393311 0.000000
0.458740 0.393311 0.000000
0.493164 0.393311 0.000000
0.526855 0.393311 0.000000
0.559082 0.393311 0.000000
0.589844 0.393311 0.000000
0.619629 0.393311 0.000000
0.647949 0.393311 0.000000
0.675781 0.393311 0.000000
0.703125 0.393311 0.000000
0.729004 0.393311 0.000000
0.754395 0.393311 0.000000
0.779297 0.393311 0.000000
0.803711 0.393311 0.000000
0.827637 0.393311 0.000000
0.851074 0.393311 0.000000
0.874023 0.393311 0.000000
0.896484 0.393311 0.000000
0.918457 0.393311 0.000000
0.939453 0.393311 0.000000
0.960449 0.393311 0.000000
0.980957 0.393311 0.000000
1.000000 0.393311 0.000000
0.000000 0.433838 0.000000
0.041260 0.433838 0.000000
0.092224 0.433838 0.000000
0.145264 0.433838 0.000000
0.200073 0.433838 0.000000
0.251709 0.433838 0.000000
0.299316 0.433838 0.000000
0.343018 0.433838 0.000000
0.383789 0.433838 0.000000
0.422119 0.433838 0.000000
0.458740 0.433838 0.000000
0.493164 0.433838 0.000000
0.526855 0.433838 0.000000
0.559082 0.433838 0.000000
0.589844 0.433838 0.000000
0.619629 0.433838 0.000000
0.647949 0.433838 0.000000
0.675781 0.433838 0.000000
0.703125 0.433838 0.000000
0.729004 0.433838 0.000000
0.754395 0.433838 0.000000
0.779297 0.433838 0.000000
0.803711 0.433838 0.000000
0.827637 0.433838 0.000000
0.851074 0.433838 0.000000
0.874023 0.433838 0.000000
0.896484 0.433838 0.000000
0.918457 0.433838 0.000000
0.939453 0.433838 0.000000
0.960449 0.433838 0.000000
0.980957 0.433838 0.000000
1.000000 0.433838 0.000000
0.000000 0.472168 0.000000
0.041260 0.472168 0.000000
0.092224 0.472168 0.000000
0.145264 0.472168 0.000000
0.200073 0.472168 0.000000
0.251709 0.472168 0.000000
0.299316 0.472168 0.000000
0.343018 0.472168 0.000000
0.383789 0.472168 0.000000
0.422119 0.472168 0.000000
0.458740 0.472168 0.000000
0.493164 0.472168 0.000000
0.526855 0.472168 0.000000
0.559082 0.472168 0.000000
0.589844 0.472168 0.000000
0.619629 0.472168 0.000000
0.647949 0.472168 0.000000
0.675781 0.472168 0.000000
0.703125 0.472168 0.000000
0.729004 0.472168 0.000000
0.754395 0.472168 0.000000
0.779297 0.472168 0.000000
0.803711 0.472168 0.000000
0.827637 0.472168 0.000000
0.851074 0.472168 0.000000
0.874023 0.472168 0.000000
0.896484 0.472168 0.000000
0.918457 0.472168 0.000000
0.939453 0.472168 0.000000
0.960449 0.472168 0.000000
0.980957 0.472168 0.000000
1.000000 0.472168 0.000000
0.000000 0.508301 0.000000
0.041260 0.508301 0.000000
0.092224 0.508301 0.000000
0.145264 0.508301 0.000000
0.200073 0.508301 0.000000
0.251709 0.508301 0.000000
0.299316 0.508301 0.000000
0.343018 0.508301 0.000000
0.383789 0.508301 0.000000
0.422119 0.508301 0.000000
0.458740 0.508301 0.000000
0.493164 0.508301 0.000000
0.526855 0.508301 0.000000
0.559082 0.508301 0.000000
0.589844 0.508301 0.000000
0.619629 0.508301 0.000000
0.647949 0.508301 0.000000
0.675781 0.508301 0.000000
0.703125 0.508301 0.000000
0.729004 0.508301 0.000000
0.754395 0.508301 0.000000
0.779297 0.508301 0.000000
0.803711 0.508301 0.000000
0.827637 0.508301 0.000000
0.851074 0.508301 0.000000
0.874023 0.508301 0.000000
0.896484 0.508301 0.000000
0.918457 0.508301 0.000000
0.939453 0.508301 0.000000
0.960449 0.508301 0.000000
0.980957 0.508301 0.000000
1.000000 0.508301 0.000000
0.000000 0.542969 0.000000
0.041260 0.542969 0.000000
0.092224 0.542969 0.000000
0.145264 0.542969 0.000000
0.200073 0.542969 0.000000
0.251709 0.542969 0.000000
0.299316 0.542969 0.000000
0.343018 0.542969 0.000000
0.383789 0.542969 0.000000
0.422119 0.542969 0.000000
0.458740 0.542969 0.000000
0.493164 0.542969 0.000000
0.526855 0.542969 0.000000
0.559082 0.542969 0.000000
0.589844 0.542969 0.000000
0.619629 0.542969 0.000000
0.647949 0.542969 0.000000
0.675781 0.542969 0.000000
0.703125 0.542969 0.000000
0.729004 0.542969 0.000000
0.754395 0.542969 0.000000
0.779297 0.542969 0.000000
0.803711 0.542969 0.000000
0.827637 0.542969 0.000000
0.851074 0.542969 0.000000
0.874023 0.542969 0.000000
0.896484 0.542969 0.000000
0.918457 0.542969 0.000000
0.939453 0.542969 0.000000
0.960449 0.542969 0.000000
0.980957 0.542969 0.000000
1.000000 0.542969 0.000000
0.000000 0.575684 0.000000
0.041260 0.575684 0.000000
0.092224 0.575684 0.000000
0.145264 0.575684 0.000000
0.200073 0.575684 0.000000
0.251709 0.575684 0.000000
0.299316 0.575684 0.000000
0.343018 0.575684 0.000000
0.383789 0.575684 0.000000
0.422119 0.575684 0.000000
0.458740 0.575684 0.000000
0.493164 0.575684 0.000000
0.526855 0.575684 0.000000
0.559082 0.575684 0.000000
0.589844 0.575684 0.000000
0.619629 0.575684 0.000000
0.647949 0.575684 0.000000
0.675781 0.575684 0.000000
0.703125 0.575684 0.000000
0.729004 0.575684 0.000000
0.754395 0.575684 0.000000
0.779297 0.575684 0.000000
0.803711 0.575684 0.000000
0.827637 0.575684 0.000000
0.851074 0.575684 0.000000
0.874023 0.575684 0.000000
0.896484 0.575684 0.000000
0.918457 0.575684 0.000000
0.939453 0.575684 0.000000
0.960449 0.575684 0.000000
0.980957 0.575684 0.000000
1.000000 0.575684 0.000000
0.000000 0.606445 0.000000
0.041260 0.606445 0.000000
0.092224 0.606445 0.000000
0.145264 0.606445 0.000000
0.200073 0.606445 0.000000
0.251709 0.606445 0.000000
0.299316 0.606445 0.000000
0.343018 0.606445 0.000000
0.383789 0.606445 0.000000
0.422119 0.606445 0.000000
0.458740 0.606445 0.000000
0.493164 0.606445 0.000000
0.526855 0.606445 0.000000
0.559082 0.606445 0.000000
0.589844 0.606445 0.000000
0.619629 0.606445 0.000000
0.647949 0.606445 0.000000
0.675781 0.606445 0.000000
0.703125 0.606445 0.000000
0.729004 0.606445 0.000000
0.754395 0.606445 0.000000
0.779297 0.606445 0.000000
0.803711 0.606445 0.000000
0.827637 0.606445 0.000000
0.851074 0.606445 0.000000
0.874023 0.606445 0.000000
0.896484 0.606445 0.000000
0.918457 0.606445 0.000000
0.939453 0.606445 0.000000
0.960449 0.606445 0.000000
0.980957 0.606445 0.000000
1.000000 0.606445 0.000000
0.000000 0.636230 0.000000
0.041290 0.636230 0.000000
0.092224 0.636230 0.000000
0.145264 0.636230 0.000000
0.200073 0.636230 0.000000
0.251709 0.636230 0.000000
0.299316 0.636230 0.000000
0.343018 0.636230 0.000000
0.383789 0.636230 0.000000
0.422119 0.636230 0.000000
0.458740 0.636230 0.000000
0.493164 0.636230 0.000000
0.526855 0.636230 0.000000
0.559082 0.636230 0.000000
0.589844 0.636230 0.000000
0.619629 0.636230 0.000000
0.647949 0.636230 0.000000
0.675781 0.636230 0.000000
0.703125 0.636230 0.000000
0.729004 0.636230 0.000000
0.754395 0.636230 0.000000
0.779297 0.636230 0.000000
0.803711 0.636230 0.000000
0.827637 0.636230 0.000000
0.851074 0.636230 0.000000
0.874023 0.636230 0.000000
0.896484 0.636230 0.000000
0.918457 0.636230 0.000000
0.939453 0.636230 0.000000
0.960449 0.636230 0.000000
0.980957 0.636230 0.000000
1.000000 0.636230 0.000000
0.000000 0.664551 0.000000
0.041260 0.664551 0.000000
0.092224 0.664551 0.000000
0.145264 0.664551 0.000000
0.200073 0.664551 0.000000
0.251709 0.664551 0.000000
0.299316 0.664551 0.000000
0.343018 0.664551 0.000000
0.383789 0.664551 0.000000
0.422119 0.664551 0.000000
0.458740 0.664551 0.000000
0.493164 0.664551 0.000000
0.526855 0.664551 0.000000
0.559082 0.664551 0.000000
0.589844 0.664551 0.000000
0.619629 0.664551 0.000000
0.647949 0.664551 0.000000
0.675781 0.664551 0.000000
0.703125 0.664551 0.000000
0.729004 0.664551 0.000000
0.754395 0.664551 0.000000
0.779297 0.664551 0.000000
0.803711 0.664551 0.000000
0.827637 0.664551 0.000000
0.851074 0.664551 0.000000
0.874023 0.664551 0.000000
0.896484 0.664551 0.000000
0.918457 0.664551 0.000000
0.939453 0.664551 0.000000
0.960449 0.664551 0.000000
0.980957 0.664551 0.000000
1.000000 0.664551 0.000000
0.000000 0.691406 0.000000
0.041290 0.691406 0.000000
0.092224 0.691406 0.000000
0.145264 0.691406 0.000000
0.200073 0.691406 0.000000
0.251709 0.691406 0.000000
0.299316 0.691406 0.000000
0.343018 0.691406 0.000000
0.383789 0.691406 0.000000
0.422119 0.691406 0.000000
0.458740 0.691406 0.000000
0.493164 0.691406 0.000000
0.526855 0.691406 0.000000
0.559082 0.691406 0.000000
0.589844 0.691406 0.000000
0.619629 0.691406 0.000000
0.647949 0.691406 0.000000
0.675781 0.691406 0.000000
0.703125 0.691406 0.000000
0.729004 0.691406 0.000000
0.754395 0.691406 0.000000
0.779297 0.691406 0.000000
0.803711 0.691406 0.000000
0.827637 0.691406 0.000000
0.851074 0.691406 0.000000
0.874023 0.691406 0.000000
0.896484 0.691406 0.000000
0.918457 0.691406 0.000000
0.939453 0.691406 0.000000
0.960449 0.691406 0.000000
0.980957 0.691406 0.000000
1.000000 0.691406 0.000000
0.000000 0.717285 0.000000
0.041260 0.717285 0.000000
0.092224 0.717285 0.000000
0.145264 0.717285 0.000000
0.200073 0.717285 0.000000
0.251709 0.717285 0.000000
0.299316 0.717285 0.000000
0.343018 0.717285 0.000000
0.383789 0.717285 0.000000
0.422119 0.717285 0.000000
0.458740 0.717285 0.000000
0.493164 0.717285 0.000000
0.526855 0.717285 0.000000
0.559082 0.717285 0.000000
0.589844 0.717285 0.000000
0.619629 0.717285 0.000000
0.647949 0.717285 0.000000
0.675781 0.717285 0.000000
0.703125 0.717285 0.000000
0.729004 0.717285 0.000000
0.754395 0.717285 0.000000
0.779297 0.717285 0.000000
0.803711 0.717285 0.000000
0.827637 0.717285 0.000000
0.851074 0.717285 0.000000
0.874023 0.717285 0.000000
0.896484 0.717285 0.000000
0.918457 0.717285 0.000000
0.939453 0.717285 0.000000
0.960449 0.717285 0.000000
0.980957 0.717285 0.000000
1.000000 0.717285 0.000000
0.000000 0.742676 0.000000
0.041260 0.742676 0.000000
0.092224 0.742676 0.000000
0.145264 0.742676 0.000000
0.200073 0.742676 0.000000
0.251709 0.742676 0.000000
0.299316 0.742676 0.000000
0.343018 0.742676 0.000000
0.383789 0.742676 0.000000
0.422119 0.742676 0.000000
0.458740 0.742676 0.000000
0.493164 0.742676 0.000000
0.526855 0.742676 0.000000
0.559082 0.742676 0.000000
0.589844 0.742676 0.000000
0.619629 0.742676 0.000000
0.647949 0.742676 0.000000
0.675781 0.742676 0.000000
0.703125 0.742676 0.000000
0.729004 0.742676 0.000000
0.754395 0.742676 0.000000
0.779297 0.742676 0.000000
0.803711 0.742676 0.000000
0.827637 0.742676 0.000000
0.851074 0.742676 0.000000
0.874023 0.742676 0.000000
0.896484 0.742676 0.000000
0.918457 0.742676 0.000000
0.939453 0.742676 0.000000
0.960449 0.742676 0.000000
0.980957 0.742676 0.000000
1.000000 0.742676 0.000000
0.000000 0.767090 0.000000
0.041260 0.767090 0.000000
0.092224 0.767090 0.000000
0.145264 0.767090 0.000000
0.200073 0.767090 0.000000
0.251709 0.767090 0.000000
0.299316 0.767090 0.000000
0.343018 0.767090 0.000000
0.383789 0.767090 0.000000
0.422119 0.767090 0.000000
0.458740 0.767090 0.000000
0.493164 0.767090 0.000000
0.526855 0.767090 0.000000
0.559082 0.767090 0.000000
0.589844 0.767090 0.000000
0.619629 0.767090 0.000000
0.647949 0.767090 0.000000
0.675781 0.767090 0.000000
0.703125 0.767090 0.000000
0.729004 0.767090 0.000000
0.754395 0.767090 0.000000
0.779297 0.767090 0.000000
0.803711 0.767090 0.000000
0.827637 0.767090 0.000000
0.851074 0.767090 0.000000
0.874023 0.767090 0.000000
0.896484 0.767090 0.000000
0.918457 0.767090 0.000000
0.939453 0.767090 0.000000
0.960449 0.767090 0.000000
0.980957 0.767090 0.000000
1.000000 0.767090 0.000000
0.000000 0.791016 0.000000
0.041290 0.791016 0.000000
0.092224 0.791016 0.000000
0.145264 0.791016 0.000000
0.200073 0.791016 0.000000
0.251709 0.791016 0.000000
0.299316 0.791016 0.000000
0.343018 0.791016 0.000000
0.383789 0.791016 0.000000
0.422119 0.791016 0.000000
0.458740 0.791016 0.000000
0.493164 0.791016 0.000000
0.526855 0.791016 0.000000
0.559082 0.791016 0.000000
0.589844 0.791016 0.000000
0.619629 0.791016 0.000000
0.647949 0.791016 0.000000
0.675781 0.791016 0.000000
0.703125 0.791016 0.000000
0.729004 0.791016 0.000000
0.754395 0.791016 0.000000
0.779297 0.791016 0.000000
0.803711 0.791016 0.000000
0.827637 0.791016 0.000000
0.851074 0.791016 0.000000
0.874023 0.791016 0.000000
0.896484 0.791016 0.000000
0.918457 0.791016 0.000000
0.939453 0.791016 0.000000
0.960449 0.791016 0.000000
0.980957 0.791016 0.000000
1.000000 0.791016 0.000000
0.000000 0.813965 0.000000
0.041290 0.813965 0.000000
0.092224 0.813965 0.000000
0.145264 0.813965 0.000000
0.200073 0.813965 0.000000
0.251709 0.813965 0.000000
0.299316 0.813965 0.000000
0.343018 0.813965 0.000000
0.383789 0.813965 0.000000
0.422119 0.813965 0.000000
0.458740 0.813965 0.000000
0.493164 0.813965 0.000000
0.526855 0.813965 0.000000
0.559082 0.813965 0.000000
0.589844 0.813965 0.000000
0.619629 0.813965 0.000000
0.647949 0.813965 0.000000
0.675781 0.813965 0.000000
0.703125 0.813965 0.000000
0.729004 0.813965 0.000000
0.754395 0.813965 0.000000
0.779297 0.813965 0.000000
0.803711 0.813965 0.000000
0.827637 0.813965 0.000000
0.851074 0.813965 0.000000
0.874023 0.813965 0.000000
0.896484 0.813965 0.000000
0.918457 0.813965 0.000000
0.939453 0.813965 0.000000
0.960449 0.813965 0.000000
0.980957 0.813965 0.000000
1.000000 0.813965 0.000000
0.000000 0.836426 0.000000
0.041260 0.836426 0.000000
0.092224 0.836426 0.000000
0.145264 0.836426 0.000000
0.200073 0.836426 0.000000
0.251709 0.836426 0.000000
0.299316 0.836426 0.000000
0.343018 0.836426 0.000000
0.383789 0.836426 0.000000
0.422119 0.836426 0.000000
0.458740 0.836426 0.000000
0.493164 0.836426 0.000000
0.526855 0.836426 0.000000
0.559082 0.836426 0.000000
0.589844 0.836426 0.000000
0.619629 0.836426 0.000000
0.647949 0.836426 0.000000
0.675781 0.836426 0.000000
0.703125 0.836426 0.000000
0.729004 0.836426 0.000000
0.754395 0.836426 0.000000
0.779297 0.836426 0.000000
0.803711 0.836426 0.000000
0.827637 0.836426 0.000000
0.851074 0.836426 0.000000
0.874023 0.836426 0.000000
0.896484 0.836426 0.000000
0.918457 0.836426 0.000000
0.939453 0.836426 0.000000
0.960449 0.836426 0.000000
0.980957 0.836426 0.000000
1.000000 0.836426 0.000000
0.000000 0.858887 0.000000
0.041290 0.858887 0.000000
0.092224 0.858887 0.000000
0.145264 0.858887 0.000000
0.200073 0.858887 0.000000
0.251709 0.858887 0.000000
0.299316 0.858887 0.000000
0.343018 0.858887 0.000000
0.383789 0.858887 0.000000
0.422119 0.858887 0.000000
0.458740 0.858887 0.000000
0.493164 0.858887 0.000000
0.526855 0.858887 0.000000
0.559082 0.858887 0.000000
0.589844 0.858887 0.000000
0.619629 0.858887 0.000000
0.647949 0.858887 0.000000
0.675781 0.858887 0.000000
0.703125 0.858887 0.000000
0.729004 0.858887 0.000000
0.754395 0.858887 0.000000
0.779297 0.858887 0.000000
0.803711 0.858887 0.000000
0.827637 0.858887 0.000000
0.851074 0.858887 0.000000
0.874023 0.858887 0.000000
0.896484 0.858887 0.000000
0.918457 0.858887 0.000000
0.939453 0.858887 0.000000
0.960449 0.858887 0.000000
0.980957 0.858887 0.000000
1.000000 0.858887 0.000000
0.000000 0.880371 0.000000
0.041260 0.880371 0.000000
0.092224 0.880371 0.000000
0.145264 0.880371 0.000000
0.200073 0.880371 0.000000
0.251709 0.880371 0.000000
0.299316 0.880371 0.000000
0.343018 0.880371 0.000000
0.383789 0.880371 0.000000
0.422119 0.880371 0.000000
0.458740 0.880371 0.000000
0.493164 0.880371 0.000000
0.526855 0.880371 0.000000
0.559082 0.880371 0.000000
0.589844 0.880371 0.000000
0.619629 0.880371 0.000000
0.647949 0.880371 0.000000
0.675781 0.880371 0.000000
0.703125 0.880371 0.000000
0.729004 0.880371 0.000000
0.754395 0.880371 0.000000
0.779297 0.880371 0.000000
0.803711 0.880371 0.000000
0.827637 0.880371 0.000000
0.851074 0.880371 0.000000
0.874023 0.880371 0.000000
0.896484 0.880371 0.000000
0.918457 0.880371 0.000000
0.939453 0.880371 0.000000
0.960449 0.880371 0.000000
0.980957 0.880371 0.000000
1.000000 0.880371 0.000000
0.000000 0.901367 0.000000
0.041290 0.901367 0.000000
0.092224 0.901367 0.000000
0.145264 0.901367 0.000000
0.200073 0.901367 0.000000
0.251709 0.901367 0.000000
0.299316 0.901367 0.000000
0.343018 0.901367 0.000000
0.383789 0.901367 0.000000
0.422119 0.901367 0.000000
0.458740 0.901367 0.000000
0.493164 0.901367 0.000000
0.526855 0.901367 0.000000
0.559082 0.901367 0.000000
0.589844 0.901367 0.000000
0.619629 0.901367 0.000000
0.647949 0.901367 0.000000
0.675781 0.901367 0.000000
0.703125 0.901367 0.000000
0.729004 0.901367 0.000000
0.754395 0.901367 0.000000
0.779297 0.901367 0.000000
0.803711 0.901367 0.000000
0.827637 0.901367 0.000000
0.851074 0.901367 0.000000
0.874023 0.901367 0.000000
0.896484 0.901367 0.000000
0.918457 0.901367 0.000000
0.939453 0.901367 0.000000
0.960449 0.901367 0.000000
0.980957 0.901367 0.000000
1.000000 0.901367 0.000000
0.000000 0.922363 0.000000
0.041290 0.922363 0.000000
0.092224 0.922363 0.000000
0.145264 0.922363 0.000000
0.200073 0.922363 0.000000
0.251709 0.922363 0.000000
0.299316 0.922363 0.000000
0.343018 0.922363 0.000000
0.383789 0.922363 0.000000
0.422119 0.922363 0.000000
0.458740 0.922363 0.000000
0.493164 0.922363 0.000000
0.526855 0.922363 0.000000
0.559082 0.922363 0.000000
0.589844 0.922363 0.000000
0.619629 0.922363 0.000000
0.647949 0.922363 0.000000
0.675781 0.922363 0.000000
0.703125 0.922363 0.000000
0.729004 0.922363 0.000000
0.754395 0.922363 0.000000
0.779297 0.922363 0.000000
0.803711 0.922363 0.000000
