cubelut/Adanmq_Ektachrome 400x.cube
TITLE "Generated by Foundry::LUT"
LUT_3D_SIZE 5
DOMAIN_MIN 0.000000 0.000000 0.000000
DOMAIN_MAX 0.903226 0.903226 0.903226
0.000000 0.000000 0.000000
0.441650 0.000000 0.000000
0.857910 0.000000 0.000000
0.965820 0.000000 0.000000
0.990234 0.000000 0.000000
0.000000 0.321777 0.000000
0.441650 0.321777 0.000000
0.857910 0.321777 0.000000
0.965820 0.321777 0.000000
0.990234 0.321777 0.000000
0.000000 0.778320 0.000000
0.441650 0.778320 0.000000
0.857910 0.778320 0.000000
0.965820 0.778320 0.000000
0.990234 0.778320 0.000000
0.000000 0.948242 0.000000
0.441650 0.948242 0.000000
0.857910 0.948242 0.000000
0.965820 0.948242 0.000000
0.990234 0.948242 0.000000
0.000000 0.989746 0.000000
0.441650 0.989746 0.000000
0.857910 0.989746 0.000000
0.965820 0.989746 0.000000
0.990234 0.989746 0.000000
0.000000 0.000000 0.117981
0.441650 0.000000 0.117981
0.857910 0.000000 0.117981
0.965820 0.000000 0.117981
0.990234 0.000000 0.117981
0.000000 0.321777 0.117981
0.441650 0.321777 0.117981
0.857910 0.321777 0.117981
0.965820 0.321777 0.117981
0.990234 0.321777 0.117981
0.000000 0.778320 0.117981
0.441650 0.778320 0.117981
0.857910 0.778320 0.117981
0.965820 0.778320 0.117981
0.990234 0.778320 0.117981
0.000000 0.948242 0.117981
0.441650 0.948242 0.117981
0.857910 0.948242 0.117981
0.965820 0.948242 0.117981
0.990234 0.948242 0.117981
0.000000 0.989746 0.118042
0.441650 0.989746 0.118042
0.857910 0.989746 0.118042
0.965820 0.989746 0.118042
0.990234 0.989746 0.118042
0.000000 0.000000 0.557617
0.441895 0.000000 0.557617
0.858398 0.000000 0.557617
0.965820 0.000000 0.557617
0.990234 0.000000 0.557617
0.000000 0.321777 0.557617
0.441895 0.321777 0.557617
0.858398 0.321777 0.557617
0.965820 0.321777 0.557617
0.990234 0.321777 0.557617
0.000000 0.778320 0.557617
0.441895 0.778320 0.557617
0.858398 0.778320 0.557617
0.965820 0.778320 0.557617
0.990234 0.778320 0.557617
0.000000 0.948242 0.557617
0.441895 0.948242 0.557617
0.858398 0.948242 0.557617
0.965820 0.948242 0.557617
0.990234 0.948242 0.557617
0.000000 0.989746 0.557617
0.441895 0.989746 0.557617
0.858398 0.989746 0.557617
0.965820 0.989746 0.557617
0.990234 0.989746 0.557617
0.000000 0.000000 0.846191
0.441895 0.000000 0.846191
0.858398 0.000000 0.846191
0.965820 0.000000 0.846191
0.990234 0.000000 0.846191
0.000000 0.321777 0.846191
0.441895 0.321777 0.846191
0.858398 0.321777 0.846191
0.965820 0.321777 0.846191
0.990234 0.321777 0.846191
0.000000 0.778320 0.846191
0.441895 0.778320 0.846191
0.858398 0.778320 0.846191
0.965820 0.778320 0.846191
0.990234 0.778320 0.846191
0.000000 0.948242 0.846191
0.441895 0.948242 0.846191
0.858398 0.948242 0.846191
0.965820 0.948242 0.846191
0.990234 0.948242 0.846191
0.000000 0.989746 0.846191
0.441895 0.989746 0.846191
0.858398 0.989746 0.846191
0.965820 0.989746 0.846191
0.990234 0.989746 0.846191
0.000000 0.000000 0.979492
0.442139 0.000000 0.979492
0.858398 0.000000 0.979492
0.965820 0.000000 0.979492
0.990234 0.000000 0.979492
0.000000 0.321777 0.979492
0.442139 0.321777 0.979492
0.858398 0.321777 0.979492
0.965820 0.321777 0.979492
0.990234 0.321777 0.979492
0.000000 0.778320 0.979492
0.442139 0.778320 0.979492
0.858398 0.778320 0.979492
0.965820 0.778320 0.979492
0.990234 0.778320 0.979492
0.000000 0.948242 0.979492
0.442139 0.948242 0.979492
0.858398 0.948242 0.979492
0.965820 0.948242 0.979492
0.990234 0.948242 0.979492
0.000000 0.989746 0.979492
0.442139 0.989746 0.979492
0.858398 0.989746 0.979492
0.965820 0.989746 0.979492
0.990234 0.989746 0.979492
