cubelut/Adanmq_Kodachrome 25.cube
TITLE "Generated by Foundry::LUT"
LUT_3D_SIZE 5
DOMAIN_MIN 0.000000 0.000000 0.000000
DOMAIN_MAX 0.903226 0.903226 0.903226
0.000000 0.000000 0.000000
0.030991 0.000000 0.000000
0.334473 0.000000 0.000000
0.722168 0.000000 0.000000
0.942383 0.000000 0.000000
0.000000 0.025940 0.000000
0.030991 0.025940 0.000000
0.334473 0.025940 0.000000
0.722168 0.025940 0.000000
0.942383 0.025940 0.000000
0.000000 0.266846 0.000000
0.030991 0.266846 0.000000
0.334473 0.266846 0.000000
0.722168 0.266846 0.000000
0.942383 0.266846 0.000000
0.000000 0.634277 0.000000
0.030991 0.634277 0.000000
0.334473 0.634277 0.000000
0.722168 0.634277 0.000000
0.942383 0.634277 0.000000
0.000000 0.912109 0.000000
0.030991 0.912109 0.000000
0.334473 0.912109 0.000000
0.722168 0.912109 0.000000
0.942383 0.912109 0.000000
0.000000 0.000000 0.019287
0.031021 0.000000 0.019287
0.334473 0.000000 0.019287
0.722168 0.000000 0.019287
0.942383 0.000000 0.019287
0.000000 0.025940 0.019287
0.031021 0.025940 0.019287
0.334473 0.025940 0.019287
0.722168 0.025940 0.019287
0.942383 0.025940 0.019287
0.000000 0.266846 0.019287
0.031021 0.266846 0.019287
0.334473 0.266846 0.019287
0.722168 0.266846 0.019287
0.942383 0.266846 0.019287
0.000000 0.634277 0.019287
0.031021 0.634277 0.019287
0.334473 0.634277 0.019287
0.722168 0.634277 0.019287
0.942383 0.634277 0.019287
0.000000 0.912109 0.019287
0.031021 0.912109 0.019287
0.334473 0.912109 0.019287
0.722168 0.912109 0.019287
0.942383 0.912109 0.019287
0.000000 0.000000 0.266846
0.031036 0.000000 0.266846
0.334473 0.000000 0.266846
0.722168 0.000000 0.266846
0.942383 0.000000 0.266846
0.000000 0.025940 0.266846
0.031036 0.025940 0.266846
0.334473 0.025940 0.266846
0.722168 0.025940 0.266846
0.942383 0.025940 0.266846
0.000000 0.266846 0.266846
0.031036 0.266846 0.266846
0.334473 0.266846 0.266846
0.722168 0.266846 0.266846
0.942383 0.266846 0.266846
0.000000 0.634277 0.266846
0.031036 0.634277 0.266846
0.334473 0.634277 0.266846
0.722168 0.634277 0.266846
0.942383 0.634277 0.266846
0.000000 0.912109 0.266846
0.031036 0.912109 0.266846
0.334473 0.912109 0.266846
0.722168 0.912109 0.266846
0.942383 0.912109 0.266846
0.000000 0.000000 0.645508
0.031052 0.000000 0.645508
0.334717 0.000000 0.645508
0.722656 0.000000 0.645508
0.942383 0.000000 0.645508
0.000000 0.025940 0.645508
0.031052 0.025940 0.645508
0.334717 0.025940 0.645508
0.722656 0.025940 0.645508
0.942383 0.025940 0.645508
0.000000 0.266846 0.645508
0.031052 0.266846 0.645508
0.334717 0.266846 0.645508
0.722656 0.266846 0.645508
0.942383 0.266846 0.645508
0.000000 0.634277 0.645508
0.031052 0.634277 0.645508
0.334717 0.634277 0.645508
0.722656 0.634277 0.645508
0.942383 0.634277 0.645508
0.000000 0.912109 0.645508
0.031052 0.912109 0.645508
0.334717 0.912109 0.645508
0.722656 0.912109 0.645508
0.942383 0.912109 0.645508
0.000000 0.000000 0.913086
0.031082 0.000000 0.913086
0.334717 0.000000 0.913086
0.722656 0.000000 0.913086
0.942383 0.000000 0.913086
0.000000 0.025925 0.913086
0.031082 0.025940 0.913086
0.334717 0.025940 0.913086
0.722656 0.025940 0.913086
0.942383 0.025940 0.913086
0.000000 0.266846 0.913086
0.031082 0.266846 0.913086
0.334717 0.266846 0.913086
0.722656 0.266846 0.913086
0.942383 0.266846 0.913086
0.000000 0.634277 0.913086
0.031082 0.634277 0.913086
0.334717 0.634277 0.913086
0.722656 0.634277 0.913086
0.942383 0.634277 0.913086
0.000000 0.912109 0.913086
0.031082 0.912109 0.913086
0.334717 0.912109 0.913086
0.722656 0.912109 0.913086
0.942383 0.912109 0.913086
