cubelut/Adanmq_Gold 200.cube
TITLE "Generated by Foundry::LUT"
LUT_3D_SIZE 8
DOMAIN_MIN 0.000000 0.000000 0.000000
DOMAIN_MAX 0.903226 0.903226 0.903226
0.000000 0.000000 0.000000
0.090698 0.000000 0.000000
0.237427 0.000000 0.000000
0.401123 0.000000 0.000000
0.558105 0.000000 0.000000
0.696777 0.000000 0.000000
0.821777 0.000000 0.000000
0.934570 0.000000 0.000000
0.000000 0.071899 0.000000
0.090698 0.071899 0.000000
0.237427 0.071899 0.000000
0.401123 0.071899 0.000000
0.558105 0.071899 0.000000
0.696777 0.071899 0.000000
0.821777 0.071899 0.000000
0.934570 0.071899 0.000000
0.000000 0.196167 0.000000
0.090698 0.196167 0.000000
0.237427 0.196167 0.000000
0.401123 0.196167 0.000000
0.558105 0.196167 0.000000
0.696777 0.196167 0.000000
0.821777 0.196167 0.000000
0.934570 0.196167 0.000000
0.000000 0.344482 0.000000
0.090698 0.344482 0.000000
0.237427 0.344482 0.000000
0.401123 0.344482 0.000000
0.558105 0.344482 0.000000
0.696777 0.344482 0.000000
0.821777 0.344482 0.000000
0.934570 0.344482 0.000000
0.000000 0.497070 0.000000
0.090698 0.497070 0.000000
0.237427 0.497070 0.000000
0.401123 0.497070 0.000000
0.558105 0.497070 0.000000
0.696777 0.497070 0.000000
0.821777 0.497070 0.000000
0.934570 0.497070 0.000000
0.000000 0.644043 0.000000
0.090698 0.644043 0.000000
0.237427 0.644043 0.000000
0.401123 0.644043 0.000000
0.558105 0.644043 0.000000
0.696777 0.644043 0.000000
0.821777 0.644043 0.000000
0.934570 0.644043 0.000000
0.000000 0.780762 0.000000
0.090698 0.780762 0.000000
0.237427 0.780762 0.000000
0.401123 0.780762 0.000000
0.558105 0.780762 0.000000
0.696777 0.780762 0.000000
0.821777 0.780762 0.000000
0.934570 0.780762 0.000000
0.000000 0.911621 0.000000
0.090698 0.911621 0.000000
0.237427 0.911621 0.000000
0.401123 0.911621 0.000000
0.558105 0.911621 0.000000
0.696777 0.911621 0.000000
0.821777 0.911621 0.000000
0.934570 0.911621 0.000000
0.000000 0.000000 0.050323
0.090759 0.000000 0.050323
0.237427 0.000000 0.050323
0.401123 0.000000 0.050323
0.558105 0.000000 0.050323
0.696777 0.000000 0.050323
0.821777 0.000000 0.050323
0.934570 0.000000 0.050323
0.000000 0.071899 0.050323
0.090759 0.071899 0.050323
0.237427 0.071899 0.050323
0.401123 0.071899 0.050323
0.558105 0.071899 0.050323
0.696777 0.071899 0.050323
0.821777 0.071899 0.050323
0.934570 0.071899 0.050323
0.000000 0.196167 0.050323
0.090759 0.196167 0.050323
0.237427 0.196167 0.050323
0.401123 0.196167 0.050323
0.558105 0.196167 0.050323
0.696777 0.196167 0.050323
0.821777 0.196167 0.050323
0.934570 0.196167 0.050323
0.000000 0.344482 0.050323
0.090759 0.344482 0.050323
0.237427 0.344482 0.050323
0.401123 0.344482 0.050323
0.558105 0.344482 0.050323
0.696777 0.344482 0.050323
0.821777 0.344482 0.050323
0.934570 0.344482 0.050323
0.000000 0.497070 0.050323
0.090759 0.497070 0.050323
0.237427 0.497070 0.050323
0.401123 0.497070 0.050323
0.558105 0.497070 0.050323
0.696777 0.497070 0.050323
0.821777 0.497070 0.050323
0.934570 0.497070 0.050323
0.000000 0.644043 0.050323
0.090759 0.644043 0.050323
0.237427 0.644043 0.050323
0.401123 0.644043 0.050354
0.558105 0.644043 0.050354
0.696777 0.644043 0.050354
0.821777 0.644043 0.050354
0.934570 0.644043 0.050354
0.000000 0.780762 0.050354
0.090759 0.780762 0.050354
0.237427 0.780762 0.050354
0.401123 0.780762 0.050354
0.558105 0.780762 0.050354
0.696777 0.780762 0.050354
0.821777 0.780762 0.050354
0.934570 0.780762 0.050354
0.000000 0.911621 0.050354
0.090759 0.911621 0.050354
0.237427 0.911621 0.050354
0.401123 0.911621 0.050354
0.558105 0.911621 0.050354
0.696777 0.911621 0.050354
0.821777 0.911621 0.050354
0.934570 0.911621 0.050354
0.000000 0.000000 0.160400
0.090759 0.000000 0.160400
0.237427 0.000000 0.160400
0.401123 0.000000 0.160400
0.558105 0.000000 0.160400
0.696777 0.000000 0.160400
0.821777 0.000000 0.160400
0.934570 0.000000 0.160400
0.000000 0.071899 0.160400
0.090759 0.071899 0.160400
0.237427 0.071899 0.160400
0.401123 0.071899 0.160400
0.558105 0.071899 0.160400
0.696777 0.071899 0.160400
0.821777 0.071899 0.160400
0.934570 0.071899 0.160400
0.000000 0.196167 0.160400
0.090759 0.196167 0.160400
0.237427 0.196167 0.160400
0.401123 0.196167 0.160400
0.558105 0.196167 0.160400
0.696777 0.196167 0.160400
0.821777 0.196167 0.160400
0.934570 0.196167 0.160400
0.000000 0.344482 0.160400
0.090759 0.344482 0.160400
0.237427 0.344482 0.160400
0.401123 0.344482 0.160400
0.558105 0.344482 0.160400
0.696777 0.344482 0.160400
0.821777 0.344482 0.160400
0.934570 0.344482 0.160400
0.000000 0.497070 0.160400
0.090759 0.497070 0.160400
0.237427 0.497070 0.160400
0.401123 0.497070 0.160400
0.558105 0.497070 0.160400
0.696777 0.497070 0.160400
0.821777 0.497070 0.160400
0.934570 0.497070 0.160400
0.000000 0.644043 0.160400
0.090759 0.644043 0.160400
0.237427 0.644043 0.160400
0.401123 0.644043 0.160400
0.558105 0.644043 0.160400
0.696777 0.644043 0.160400
0.821777 0.644043 0.160400
0.934570 0.644043 0.160400
0.000000 0.780762 0.160400
0.090759 0.780762 0.160400
0.237427 0.780762 0.160400
0.401123 0.780762 0.160400
0.558105 0.780762 0.160400
0.696777 0.780762 0.160400
0.821777 0.780762 0.160400
0.934570 0.780762 0.160400
0.000000 0.911621 0.160400
0.090759 0.911621 0.160400
0.237427 0.911621 0.160400
0.401123 0.911621 0.160400
0.558105 0.911621 0.160400
0.696777 0.911621 0.160400
0.821777 0.911621 0.160400
0.934570 0.911621 0.160400
0.000000 0.000000 0.304199
0.090820 0.000000 0.304199
0.237549 0.000000 0.304199
0.401123 0.000000 0.304199
0.558105 0.000000 0.304199
0.696777 0.000000 0.304199
0.821777 0.000000 0.304199
0.934570 0.000000 0.304199
0.000000 0.071899 0.304199
0.090820 0.071899 0.304199
0.237549 0.071899 0.304199
0.401123 0.071899 0.304199
0.558105 0.071899 0.304199
0.696777 0.071899 0.304199
0.821777 0.071899 0.304199
0.934570 0.071899 0.304199
0.000000 0.196167 0.304199
0.090820 0.196167 0.304199
0.237549 0.196167 0.304199
0.401123 0.196167 0.304199
0.558105 0.196167 0.304199
0.696777 0.196167 0.304199
0.821777 0.196167 0.304199
0.934570 0.196167 0.304199
0.000000 0.344482 0.304199
0.090820 0.344482 0.304199
0.237549 0.344482 0.304199
0.401123 0.344482 0.304199
0.558105 0.344482 0.304199
0.696777 0.344482 0.304199
0.821777 0.344482 0.304199
0.934570 0.344482 0.304199
0.000000 0.497070 0.304199
0.090820 0.497070 0.304199
0.237549 0.497070 0.304199
0.401123 0.497070 0.304199
0.558105 0.497070 0.304199
0.696777 0.497070 0.304199
0.821777 0.497070 0.304199
0.934570 0.497070 0.304199
0.000000 0.644043 0.304199
0.090820 0.644043 0.304199
0.237549 0.644043 0.304199
0.401123 0.644043 0.304199
0.558105 0.644043 0.304199
0.696777 0.644043 0.304199
0.821777 0.644043 0.304199
0.934570 0.644043 0.304199
0.000000 0.780762 0.304199
0.090820 0.780762 0.304199
0.237549 0.780762 0.304199
0.401123 0.780762 0.304199
0.558105 0.780762 0.304199
0.696777 0.780762 0.304199
0.821777 0.780762 0.304199
0.934570 0.780762 0.304199
0.000000 0.911621 0.304199
0.090820 0.911621 0.304199
0.237549 0.911621 0.304199
0.401123 0.911621 0.304199
0.558105 0.911621 0.304199
0.696777 0.911621 0.304199
0.821777 0.911621 0.304199
0.934570 0.911621 0.304199
0.000000 0.000000 0.461182
0.090820 0.000000 0.461182
0.237549 0.000000 0.461182
0.401123 0.000000 0.461182
0.558105 0.000000 0.461182
0.696777 0.000000 0.461182
0.821777 0.000000 0.461182
0.934570 0.000000 0.461182
0.000000 0.071899 0.461426
0.090820 0.071899 0.461426
0.237549 0.071899 0.461426
0.401123 0.071899 0.461426
0.558105 0.071899 0.461426
0.696777 0.071899 0.461426
0.821777 0.071899 0.461426
0.934570 0.071899 0.461426
0.000000 0.196167 0.461426
0.090820 0.196167 0.461426
0.237549 0.196167 0.461426
0.401123 0.196167 0.461426
0.558105 0.196167 0.461426
0.696777 0.196167 0.461426
0.821777 0.196167 0.461426
0.934570 0.196167 0.461426
0.000000 0.344482 0.461426
0.090820 0.344482 0.461426
0.237549 0.344482 0.461426
0.401123 0.344482 0.461426
0.558105 0.344482 0.461426
0.696777 0.344482 0.461426
0.821777 0.344482 0.461426
0.934570 0.344482 0.461426
0.000000 0.497070 0.461426
0.090820 0.497070 0.461426
0.237549 0.497070 0.461426
0.401123 0.497070 0.461426
0.558105 0.497070 0.461426
0.696777 0.497070 0.461426
0.821777 0.497070 0.461426
0.934570 0.497070 0.461426
0.000000 0.644043 0.461426
0.090820 0.644043 0.461426
0.237549 0.644043 0.461426
0.401123 0.644043 0.461426
0.558105 0.644043 0.461426
0.696777 0.644043 0.461426
0.821777 0.644043 0.461426
0.934570 0.644043 0.461426
0.000000 0.780762 0.461426
0.090820 0.780762 0.461426
0.237549 0.780762 0.461426
0.401123 0.780762 0.461426
0.558105 0.780762 0.461426
0.696777 0.780762 0.461426
0.821777 0.780762 0.461426
0.934570 0.780762 0.461426
0.000000 0.911621 0.461426
0.090820 0.911621 0.461426
0.237549 0.911621 0.461426
0.401123 0.911621 0.461426
0.558105 0.911621 0.461426
0.696777 0.911621 0.461426
0.821777 0.911621 0.461426
0.934570 0.911621 0.461426
0.000000 0.000000 0.614746
0.090820 0.000000 0.614746
0.237549 0.000000 0.614746
0.401123 0.000000 0.614746
0.558105 0.000000 0.614746
0.696777 0.000000 0.614746
0.821777 0.000000 0.614746
0.934570 0.000000 0.614746
0.000000 0.071899 0.614746
0.090820 0.071899 0.614746
0.237549 0.071899 0.614746
0.401123 0.071899 0.614746
0.558105 0.071899 0.614746
0.696777 0.071899 0.614746
0.821777 0.071899 0.614746
0.934570 0.071899 0.614746
0.000000 0.196167 0.614746
0.090820 0.196167 0.614746
0.237549 0.196167 0.614746
0.401123 0.196167 0.614746
0.558105 0.196167 0.614746
0.696777 0.196167 0.614746
0.821777 0.196167 0.614746
0.934570 0.196167 0.614746
0.000000 0.344482 0.614746
0.090820 0.344482 0.614746
0.237549 0.344482 0.614746
0.401123 0.344482 0.614746
0.558105 0.344482 0.614746
0.696777 0.344482 0.614746
0.821777 0.344482 0.614746
0.934570 0.344482 0.614746
0.000000 0.497070 0.614746
0.090820 0.497070 0.614746
0.237549 0.497070 0.614746
0.401123 0.497070 0.614746
0.558105 0.497070 0.614746
0.696777 0.497070 0.614746
0.821777 0.497070 0.614746
0.934570 0.497070 0.614746
0.000000 0.644043 0.614746
0.090820 0.644043 0.614746
0.237549 0.644043 0.614746
0.401123 0.644043 0.614746
0.558105 0.644043 0.614746
0.696777 0.644043 0.614746
0.821777 0.644043 0.614746
0.934570 0.644043 0.614746
0.000000 0.780762 0.614746
0.090820 0.780762 0.614746
0.237549 0.780762 0.614746
0.401123 0.780762 0.614746
0.558105 0.780762 0.614746
0.696777 0.780762 0.614746
0.821777 0.780762 0.614746
0.934570 0.780762 0.614746
0.000000 0.911621 0.614746
0.090820 0.911621 0.614746
0.237549 0.911621 0.614746
0.401123 0.911621 0.614746
0.558105 0.911621 0.614746
0.696777 0.911621 0.614746
0.821777 0.911621 0.614746
0.934570 0.911621 0.614746
0.000000 0.000000 0.763672
0.090881 0.000000 0.763672
0.237549 0.000000 0.763672
0.401123 0.000000 0.763672
0.558105 0.000000 0.763672
0.696777 0.000000 0.763672
0.821777 0.000000 0.763672
0.934570 0.000000 0.763672
0.000000 0.071899 0.763672
0.090881 0.071899 0.763672
0.237549 0.071899 0.763672
0.401123 0.071899 0.763672
0.558105 0.071899 0.763672
0.696777 0.071899 0.763672
0.821777 0.071899 0.763672
0.934570 0.071899 0.763672
0.000000 0.196167 0.763672
0.090881 0.196167 0.763672
0.237549 0.196167 0.763672
0.401123 0.196167 0.763672
0.558105 0.196167 0.763672
0.696777 0.196167 0.763672
0.821777 0.196167 0.763672
0.934570 0.196167 0.763672
0.000000 0.344482 0.763672
0.090881 0.344482 0.763672
0.237549 0.344482 0.763672
0.401123 0.344482 0.763672
0.558105 0.344482 0.763672
0.696777 0.344482 0.763672
0.821777 0.344482 0.763672
0.934570 0.344482 0.763672
0.000000 0.497070 0.763672
0.090881 0.497070 0.763672
0.237549 0.497070 0.763672
0.401123 0.497070 0.763672
0.558105 0.497070 0.763672
0.696777 0.497070 0.763672
0.821777 0.497070 0.763672
0.934570 0.497070 0.763672
0.000000 0.644043 0.763672
0.090881 0.644043 0.763672
0.237549 0.644043 0.763672
0.401123 0.644043 0.763672
0.558105 0.644043 0.763672
0.696777 0.644043 0.763672
0.821777 0.644043 0.763672
0.934570 0.644043 0.763672
0.000000 0.780762 0.763672
0.090881 0.780762 0.763672
0.237549 0.780762 0.763672
0.401123 0.780762 0.763672
0.558105 0.780762 0.763672
0.696777 0.780762 0.763672
0.821777 0.780762 0.763672
0.934570 0.780762 0.763672
0.000000 0.911621 0.763672
0.090881 0.911621 0.763672
0.237549 0.911621 0.763672
0.401123 0.911621 0.763672
0.558105 0.911621 0.763672
0.696777 0.911621 0.763672
0.821777 0.911621 0.763672
0.934570 0.911621 0.763672
0.000000 0.000000 0.907227
0.090881 0.000000 0.907227
0.237549 0.000000 0.907227
0.401123 0.000000 0.907227
0.558105 0.000000 0.907227
0.696777 0.000000 0.907227
0.821777 0.000000 0.907227
0.934570 0.000000 0.907227
0.000000 0.071899 0.907227
0.090881 0.071899 0.907227
0.237549 0.071899 0.907227
0.401123 0.071899 0.907227
0.558105 0.071899 0.907227
0.696777 0.071899 0.907227
0.821777 0.071899 0.907227
0.934570 0.071899 0.907227
0.000000 0.196167 0.907227
0.090881 0.196167 0.907227
0.237549 0.196167 0.907227
0.401123 0.196167 0.907227
0.558105 0.196167 0.907227
0.696777 0.196167 0.907227
0.821777 0.196167 0.907227
0.934570 0.196167 0.907227
0.000000 0.344482 0.907227
0.090881 0.344482 0.907227
0.237549 0.344482 0.907227
0.401123 0.344482 0.907227
0.558105 0.344482 0.907227
0.696777 0.344482 0.907227
0.821777 0.344482 0.907227
0.934570 0.344482 0.907227
0.000000 0.497070 0.907227
0.090881 0.497070 0.907227
0.237549 0.497070 0.907227
0.401123 0.497070 0.907227
0.558105 0.497070 0.907227
0.696777 0.497070 0.907227
0.821777 0.497070 0.907227
0.934570 0.497070 0.907227
0.000000 0.644043 0.907227
0.090881 0.644043 0.907227
0.237549 0.644043 0.907227
0.401123 0.644043 0.907227
0.558105 0.644043 0.907227
0.696777 0.644043 0.907227
0.821777 0.644043 0.907227
0.934570 0.644043 0.907227
0.000000 0.780762 0.907227
0.090881 0.780762 0.907227
0.237549 0.780762 0.907227
0.401123 0.780762 0.907227
0.558105 0.780762 0.907227
0.696777 0.780762 0.907227
0.821777 0.780762 0.907227
0.934570 0.780762 0.907227
0.000000 0.911621 0.907227
0.090881 0.911621 0.907227
0.237549 0.911621 0.907227
0.401123 0.911621 0.907227
0.558105 0.911621 0.907227
0.696777 0.911621 0.907227
0.821777 0.911621 0.907227
0.934570 0.911621 0.907227
