cubelut/Adanmq_AgfaColor Vista 100.cube
TITLE "Generated by Foundry::LUT"
LUT_3D_SIZE 32
0.000000 0.000000 0.000000
0.016556 0.000000 0.000000
0.043976 0.000000 0.000000
0.077698 0.000000 0.000000
0.115723 0.000000 0.000000
0.155518 0.000000 0.000000
0.193237 0.000000 0.000000
0.229980 0.000000 0.000000
0.267090 0.000000 0.000000
0.304932 0.000000 0.000000
0.343018 0.000000 0.000000
0.381836 0.000000 0.000000
0.421143 0.000000 0.000000
0.460449 0.000000 0.000000
0.499268 0.000000 0.000000
0.537598 0.000000 0.000000
0.574707 0.000000 0.000000
0.611328 0.000000 0.000000
0.646973 0.000000 0.000000
0.681641 0.000000 0.000000
0.715332 0.000000 0.000000
0.747559 0.000000 0.000000
0.778809 0.000000 0.000000
0.808594 0.000000 0.000000
0.837891 0.000000 0.000000
0.865234 0.000000 0.000000
0.891602 0.000000 0.000000
0.916016 0.000000 0.000000
0.939941 0.000000 0.000000
0.961914 0.000000 0.000000
0.982422 0.000000 0.000000
1.000000 0.000000 0.000000
0.000000 0.015854 0.000000
0.016556 0.015854 0.000000
0.043976 0.015854 0.000000
0.077698 0.015854 0.000000
0.115723 0.015854 0.000000
0.155518 0.015854 0.000000
0.193237 0.015854 0.000000
0.229980 0.015854 0.000000
0.267090 0.015854 0.000000
0.304932 0.015854 0.000000
0.343018 0.015854 0.000000
0.381836 0.015854 0.000000
0.421143 0.015854 0.000000
0.460449 0.015854 0.000000
0.499268 0.015854 0.000000
0.537598 0.015854 0.000000
0.574707 0.015854 0.000000
0.611328 0.015854 0.000000
0.646973 0.015854 0.000000
0.681641 0.015854 0.000000
0.715332 0.015854 0.000000
0.747559 0.015869 0.000000
0.778809 0.015869 0.000000
0.808594 0.015869 0.000000
0.837891 0.015869 0.000000
0.865234 0.015869 0.000000
0.891602 0.015869 0.000000
0.916016 0.015869 0.000000
0.939941 0.015869 0.000000
0.961914 0.015869 0.000000
0.982422 0.015869 0.000000
1.000000 0.015869 0.000000
0.000000 0.043121 0.000000
0.016556 0.043121 0.000000
0.043976 0.043121 0.000000
0.077698 0.043121 0.000000
0.115723 0.043121 0.000000
0.155518 0.043121 0.000000
0.193237 0.043121 0.000000
0.229980 0.043121 0.000000
0.267090 0.043121 0.000000
0.304932 0.043121 0.000000
0.343018 0.043121 0.000000
0.381836 0.043152 0.000000
0.421143 0.043152 0.000000
0.460449 0.043152 0.000000
0.499268 0.043152 0.000000
0.537598 0.043152 0.000000
0.574707 0.043152 0.000000
0.611328 0.043152 0.000000
0.646973 0.043152 0.000000
0.681641 0.043152 0.000000
0.715332 0.043152 0.000000
0.747559 0.043152 0.000000
0.778809 0.043152 0.000000
0.808594 0.043152 0.000000
0.837891 0.043152 0.000000
0.865234 0.043152 0.000000
0.891602 0.043152 0.000000
0.916016 0.043152 0.000000
0.939941 0.043152 0.000000
0.961914 0.043152 0.000000
0.982422 0.043152 0.000000
1.000000 0.043152 0.000000
0.000000 0.075500 0.000000
0.016556 0.075500 0.000000
0.043976 0.075500 0.000000
0.077698 0.075500 0.000000
0.115723 0.075500 0.000000
0.155518 0.075500 0.000000
0.193237 0.075500 0.000000
0.229980 0.075500 0.000000
0.267090 0.075500 0.000000
0.304932 0.075500 0.000000
0.343018 0.075500 0.000000
0.381836 0.075500 0.000000
0.421143 0.075500 0.000000
0.460449 0.075500 0.000000
0.499268 0.075500 0.000000
0.537598 0.075500 0.000000
0.574707 0.075500 0.000000
0.611328 0.075500 0.000000
0.646973 0.075500 0.000000
0.681641 0.075500 0.000000
0.715332 0.075500 0.000000
0.747559 0.075500 0.000000
0.778809 0.075500 0.000000
0.808594 0.075500 0.000000
0.837891 0.075500 0.000000
0.865234 0.075500 0.000000
0.891602 0.075500 0.000000
0.916016 0.075500 0.000000
0.939941 0.075500 0.000000
0.961914 0.075500 0.000000
0.982422 0.075500 0.000000
1.000000 0.075500 0.000000
0.000000 0.110718 0.000000
0.016556 0.110718 0.000000
0.043976 0.110718 0.000000
0.077698 0.110718 0.000000
0.115723 0.110718 0.000000
0.155518 0.110718 0.000000
0.193237 0.110718 0.000000
0.229980 0.110718 0.000000
0.267090 0.110718 0.000000
0.304932 0.110718 0.000000
0.343018 0.110718 0.000000
0.381836 0.110718 0.000000
0.421143 0.110718 0.000000
0.460449 0.110718 0.000000
0.499268 0.110718 0.000000
0.537598 0.110718 0.000000
0.574707 0.110718 0.000000
0.611328 0.110718 0.000000
0.646973 0.110718 0.000000
0.681641 0.110718 0.000000
0.715332 0.110718 0.000000
0.747559 0.110718 0.000000
0.778809 0.110718 0.000000
0.808594 0.110718 0.000000
0.837891 0.110718 0.000000
0.865234 0.110718 0.000000
0.891602 0.110718 0.000000
0.916016 0.110718 0.000000
0.939941 0.110718 0.000000
0.961914 0.110718 0.000000
0.982422 0.110779 0.000000
1.000000 0.110779 0.000000
0.000000 0.147339 0.000000
0.016556 0.147339 0.000000
0.043976 0.147339 0.000000
0.077698 0.147339 0.000000
0.115723 0.147339 0.000000
0.155518 0.147339 0.000000
0.193237 0.147339 0.000000
0.229980 0.147339 0.000000
0.267090 0.147339 0.000000
0.304932 0.147339 0.000000
0.343018 0.147461 0.000000
0.381836 0.147461 0.000000
0.421143 0.147461 0.000000
0.460449 0.147461 0.000000
0.499268 0.147461 0.000000
0.537598 0.147461 0.000000
0.574707 0.147461 0.000000
0.611328 0.147461 0.000000
0.646973 0.147461 0.000000
0.681641 0.147461 0.000000
0.715332 0.147461 0.000000
0.747559 0.147461 0.000000
0.778809 0.147461 0.000000
0.808594 0.147461 0.000000
0.837891 0.147461 0.000000
0.865234 0.147461 0.000000
0.891602 0.147461 0.000000
0.916016 0.147461 0.000000
0.939941 0.147461 0.000000
0.961914 0.147461 0.000000
0.982422 0.147461 0.000000
1.000000 0.147461 0.000000
0.000000 0.185059 0.000000
0.016556 0.185059 0.000000
0.043976 0.185059 0.000000
0.077698 0.185059 0.000000
0.115723 0.185059 0.000000
0.155518 0.185059 0.000000
0.193237 0.185059 0.000000
0.229980 0.185059 0.000000
0.267090 0.185059 0.000000
0.304932 0.185059 0.000000
0.343018 0.185059 0.000000
0.381836 0.185059 0.000000
0.421143 0.185059 0.000000
0.460449 0.185059 0.000000
0.499268 0.185059 0.000000
0.537598 0.185059 0.000000
0.574707 0.185059 0.000000
0.611328 0.185059 0.000000
0.646973 0.185059 0.000000
0.681641 0.185059 0.000000
0.715332 0.185059 0.000000
0.747559 0.185059 0.000000
0.778809 0.185059 0.000000
0.808594 0.185059 0.000000
0.837891 0.185059 0.000000
0.865234 0.185059 0.000000
0.891602 0.185059 0.000000
0.916016 0.185059 0.000000
0.939941 0.185059 0.000000
0.961914 0.185059 0.000000
0.982422 0.185059 0.000000
1.000000 0.185059 0.000000
0.000000 0.222900 0.000000
0.016556 0.222900 0.000000
0.043976 0.222900 0.000000
0.077698 0.222900 0.000000
0.115723 0.222900 0.000000
0.155518 0.222900 0.000000
0.193237 0.222900 0.000000
0.229980 0.222900 0.000000
0.267090 0.222900 0.000000
0.304932 0.222900 0.000000
0.343018 0.222900 0.000000
0.381836 0.222900 0.000000
0.421143 0.222900 0.000000
0.460449 0.222900 0.000000
0.499268 0.222900 0.000000
0.537598 0.222900 0.000000
0.574707 0.222900 0.000000
0.611328 0.222900 0.000000
0.646973 0.222900 0.000000
0.681641 0.222900 0.000000
0.715332 0.222900 0.000000
0.747559 0.222900 0.000000
0.778809 0.222900 0.000000
0.808594 0.222900 0.000000
0.837891 0.222900 0.000000
0.865234 0.222900 0.000000
0.891602 0.222900 0.000000
0.916016 0.222900 0.000000
0.939941 0.222900 0.000000
0.961914 0.222900 0.000000
0.982422 0.222900 0.000000
1.000000 0.222900 0.000000
0.000000 0.260986 0.000000
0.016556 0.260986 0.000000
0.043976 0.260986 0.000000
0.077698 0.260986 0.000000
0.115723 0.260986 0.000000
0.155518 0.260986 0.000000
0.193237 0.260986 0.000000
0.229980 0.260986 0.000000
0.267090 0.260986 0.000000
0.304932 0.260986 0.000000
0.343018 0.260986 0.000000
0.381836 0.260986 0.000000
0.421143 0.260986 0.000000
0.460449 0.260986 0.000000
0.499268 0.260986 0.000000
0.537598 0.260986 0.000000
0.574707 0.260986 0.000000
0.611328 0.260986 0.000000
0.646973 0.260986 0.000000
0.681641 0.260986 0.000000
0.715332 0.260986 0.000000
0.747559 0.260986 0.000000
0.778809 0.260986 0.000000
0.808594 0.260986 0.000000
0.837891 0.260986 0.000000
0.865234 0.260986 0.000000
0.891602 0.260986 0.000000
0.916016 0.260986 0.000000
0.939941 0.260986 0.000000
0.961914 0.260986 0.000000
0.982422 0.260986 0.000000
1.000000 0.260986 0.000000
0.000000 0.298340 0.000000
0.016556 0.298340 0.000000
0.043976 0.298340 0.000000
0.077698 0.298340 0.000000
0.115723 0.298340 0.000000
0.155518 0.298340 0.000000
0.193237 0.298340 0.000000
0.229980 0.298340 0.000000
0.267090 0.298340 0.000000
0.304932 0.298340 0.000000
0.343018 0.298340 0.000000
0.381836 0.298340 0.000000
0.421143 0.298340 0.000000
0.460449 0.298340 0.000000
0.499268 0.298340 0.000000
0.537598 0.298340 0.000000
0.574707 0.298340 0.000000
0.611328 0.298340 0.000000
0.646973 0.298340 0.000000
0.681641 0.298340 0.000000
0.715332 0.298340 0.000000
0.747559 0.298340 0.000000
0.778809 0.298340 0.000000
0.808594 0.298340 0.000000
0.837891 0.298340 0.000000
0.865234 0.298340 0.000000
0.891602 0.298340 0.000000
0.916016 0.298340 0.000000
0.939941 0.298340 0.000000
0.961914 0.298340 0.000000
0.982422 0.298340 0.000000
1.000000 0.298340 0.000000
0.000000 0.335693 0.000000
0.016556 0.335693 0.000000
0.043976 0.335693 0.000000
0.077698 0.335693 0.000000
0.115723 0.335693 0.000000
0.155518 0.335693 0.000000
0.193237 0.335693 0.000000
0.229980 0.335693 0.000000
0.267090 0.335693 0.000000
0.304932 0.335693 0.000000
0.343018 0.335693 0.000000
0.381836 0.335693 0.000000
0.421143 0.335693 0.000000
0.460449 0.335693 0.000000
0.499268 0.335693 0.000000
0.537598 0.335693 0.000000
0.574707 0.335693 0.000000
0.611328 0.335693 0.000000
0.646973 0.335693 0.000000
0.681641 0.335693 0.000000
0.715332 0.335693 0.000000
0.747559 0.335693 0.000000
0.778809 0.335693 0.000000
0.808594 0.335693 0.000000
0.837891 0.335693 0.000000
0.865234 0.335693 0.000000
0.891602 0.335693 0.000000
0.916016 0.335693 0.000000
0.939941 0.335693 0.000000
0.961914 0.335693 0.000000
0.982422 0.335938 0.000000
1.000000 0.335938 0.000000
0.000000 0.373535 0.000000
0.016556 0.373535 0.000000
0.043976 0.373535 0.000000
0.077698 0.373535 0.000000
0.115723 0.373535 0.000000
0.155518 0.373535 0.000000
0.193237 0.373535 0.000000
0.229980 0.373535 0.000000
0.267090 0.373535 0.000000
0.304932 0.373535 0.000000
0.343018 0.373535 0.000000
0.381836 0.373535 0.000000
0.421143 0.373535 0.000000
0.460449 0.373535 0.000000
0.499268 0.373535 0.000000
0.537598 0.373535 0.000000
0.574707 0.373535 0.000000
0.611328 0.373535 0.000000
0.646973 0.373535 0.000000
0.681641 0.373535 0.000000
0.715332 0.373535 0.000000
0.747559 0.373535 0.000000
0.778809 0.373535 0.000000
0.808594 0.373535 0.000000
0.837891 0.373535 0.000000
0.865234 0.373535 0.000000
0.891602 0.373535 0.000000
0.916016 0.373535 0.000000
0.939941 0.373535 0.000000
0.961914 0.373535 0.000000
0.982422 0.373535 0.000000
1.000000 0.373535 0.000000
0.000000 0.411621 0.000000
0.016556 0.411621 0.000000
0.043976 0.411621 0.000000
0.077698 0.411621 0.000000
0.115723 0.411621 0.000000
0.155518 0.411621 0.000000
0.193237 0.411621 0.000000
0.229980 0.411621 0.000000
0.267090 0.411621 0.000000
0.304932 0.411621 0.000000
0.343018 0.411621 0.000000
0.381836 0.411621 0.000000
0.421143 0.411621 0.000000
0.460449 0.411621 0.000000
0.499268 0.411621 0.000000
0.537598 0.411621 0.000000
0.574707 0.411621 0.000000
0.611328 0.411621 0.000000
0.646973 0.411621 0.000000
0.681641 0.411621 0.000000
0.715332 0.411621 0.000000
0.747559 0.411621 0.000000
0.778809 0.411621 0.000000
0.808594 0.411621 0.000000
0.837891 0.411621 0.000000
0.865234 0.411621 0.000000
0.891602 0.411621 0.000000
0.916016 0.411621 0.000000
0.939941 0.411621 0.000000
0.961914 0.411621 0.000000
0.982422 0.411621 0.000000
1.000000 0.411621 0.000000
0.000000 0.448730 0.000000
0.016556 0.448730 0.000000
0.043976 0.448730 0.000000
0.077698 0.448730 0.000000
0.115723 0.448730 0.000000
0.155518 0.448730 0.000000
0.193237 0.448730 0.000000
0.229980 0.448730 0.000000
0.267090 0.448730 0.000000
0.304932 0.448730 0.000000
0.343018 0.448730 0.000000
0.381836 0.448730 0.000000
0.421143 0.448730 0.000000
0.460449 0.448730 0.000000
0.499268 0.448730 0.000000
0.537598 0.448730 0.000000
0.574707 0.448730 0.000000
0.611328 0.448730 0.000000
0.646973 0.448730 0.000000
0.681641 0.448730 0.000000
0.715332 0.448730 0.000000
0.747559 0.448730 0.000000
0.778809 0.448730 0.000000
0.808594 0.448730 0.000000
0.837891 0.448730 0.000000
0.865234 0.448730 0.000000
0.891602 0.448730 0.000000
0.916016 0.448730 0.000000
0.939941 0.448730 0.000000
0.961914 0.448730 0.000000
0.982422 0.448730 0.000000
1.000000 0.448730 0.000000
0.000000 0.484863 0.000000
0.016556 0.484863 0.000000
0.043976 0.484863 0.000000
0.077698 0.484863 0.000000
0.115723 0.485107 0.000000
0.155518 0.485107 0.000000
0.193237 0.485107 0.000000
0.229980 0.485107 0.000000
0.267090 0.485107 0.000000
0.304932 0.485107 0.000000
0.343018 0.485107 0.000000
0.381836 0.485107 0.000000
0.421143 0.485107 0.000000
0.460449 0.485107 0.000000
0.499268 0.485107 0.000000
0.537598 0.485107 0.000000
0.574707 0.485107 0.000000
0.611328 0.485107 0.000000
0.646973 0.485107 0.000000
0.681641 0.485107 0.000000
0.715332 0.485107 0.000000
0.747559 0.485107 0.000000
0.778809 0.485107 0.000000
0.808594 0.485107 0.000000
0.837891 0.485107 0.000000
0.865234 0.485107 0.000000
0.891602 0.485107 0.000000
0.916016 0.485107 0.000000
0.939941 0.485107 0.000000
0.961914 0.485107 0.000000
0.982422 0.485107 0.000000
1.000000 0.485107 0.000000
0.000000 0.520508 0.000000
0.016556 0.520508 0.000000
0.043976 0.520508 0.000000
0.077698 0.520508 0.000000
0.115723 0.520508 0.000000
0.155518 0.520508 0.000000
0.193237 0.520508 0.000000
0.229980 0.520508 0.000000
0.267090 0.520508 0.000000
0.304932 0.520508 0.000000
0.343018 0.520508 0.000000
0.381836 0.520508 0.000000
0.421143 0.520508 0.000000
0.460449 0.520508 0.000000
0.499268 0.520508 0.000000
0.537598 0.520508 0.000000
0.574707 0.520508 0.000000
0.611328 0.520508 0.000000
0.646973 0.520508 0.000000
0.681641 0.520508 0.000000
0.715332 0.520508 0.000000
0.747559 0.520508 0.000000
0.778809 0.520508 0.000000
0.808594 0.520508 0.000000
0.837891 0.520508 0.000000
0.865234 0.520508 0.000000
0.891602 0.520508 0.000000
0.916016 0.520508 0.000000
0.939941 0.520508 0.000000
0.961914 0.520508 0.000000
0.982422 0.520508 0.000000
1.000000 0.520508 0.000000
0.000000 0.556152 0.000000
0.016556 0.556152 0.000000
0.043976 0.556152 0.000000
0.077698 0.556152 0.000000
0.115723 0.556152 0.000000
0.155518 0.556152 0.000000
0.193237 0.556152 0.000000
0.229980 0.556152 0.000000
0.267090 0.556152 0.000000
0.304932 0.556152 0.000000
0.343018 0.556152 0.000000
0.381836 0.556152 0.000000
0.421143 0.556152 0.000000
0.460449 0.556152 0.000000
0.499268 0.556152 0.000000
0.537598 0.556152 0.000000
0.574707 0.556152 0.000000
0.611328 0.556152 0.000000
0.646973 0.556152 0.000000
0.681641 0.556152 0.000000
0.715332 0.556152 0.000000
0.747559 0.556152 0.000000
0.778809 0.556152 0.000000
0.808594 0.556152 0.000000
0.837891 0.556152 0.000000
0.865234 0.556152 0.000000
0.891602 0.556152 0.000000
0.916016 0.556152 0.000000
0.939941 0.556152 0.000000
0.961914 0.556152 0.000000
0.982422 0.556152 0.000000
1.000000 0.556152 0.000000
0.000000 0.590820 0.000000
0.016556 0.590820 0.000000
0.043976 0.590820 0.000000
0.077698 0.590820 0.000000
0.115723 0.590820 0.000000
0.155518 0.590820 0.000000
0.193237 0.590820 0.000000
0.229980 0.590820 0.000000
0.267090 0.590820 0.000000
0.304932 0.590820 0.000000
0.343018 0.590820 0.000000
0.381836 0.590820 0.000000
0.421143 0.590820 0.000000
0.460449 0.590820 0.000000
0.499268 0.590820 0.000000
0.537598 0.590820 0.000000
0.574707 0.590820 0.000000
0.611328 0.590820 0.000000
0.646973 0.590820 0.000000
0.681641 0.590820 0.000000
0.715332 0.590820 0.000000
0.747559 0.590820 0.000000
0.778809 0.590820 0.000000
0.808594 0.590820 0.000000
0.837891 0.590820 0.000000
0.865234 0.590820 0.000000
0.891602 0.590820 0.000000
0.916016 0.590820 0.000000
0.939941 0.590820 0.000000
0.961914 0.590820 0.000000
0.982422 0.590820 0.000000
1.000000 0.590820 0.000000
0.000000 0.624512 0.000000
0.016556 0.624512 0.000000
0.043976 0.624512 0.000000
0.077698 0.624512 0.000000
0.115723 0.624512 0.000000
0.155518 0.624512 0.000000
0.193237 0.624512 0.000000
0.229980 0.624512 0.000000
0.267090 0.624512 0.000000
0.304932 0.624512 0.000000
0.343018 0.624512 0.000000
0.381836 0.624512 0.000000
0.421143 0.624512 0.000000
0.460449 0.624512 0.000000
0.499268 0.624512 0.000000
0.537598 0.624512 0.000000
0.574707 0.624512 0.000000
0.611328 0.624512 0.000000
0.646973 0.624512 0.000000
0.681641 0.624512 0.000000
0.715332 0.624512 0.000000
0.747559 0.624512 0.000000
0.778809 0.624512 0.000000
0.808594 0.624512 0.000000
0.837891 0.624512 0.000000
0.865234 0.624512 0.000000
0.891602 0.624512 0.000000
0.916016 0.624512 0.000000
0.939941 0.624512 0.000000
0.961914 0.624512 0.000000
0.982422 0.624512 0.000000
1.000000 0.624512 0.000000
0.000000 0.658203 0.000000
0.016556 0.658203 0.000000
0.043976 0.658203 0.000000
0.077698 0.658203 0.000000
0.115723 0.658203 0.000000
0.155518 0.658203 0.000000
0.193237 0.658203 0.000000
0.229980 0.658203 0.000000
0.267090 0.658203 0.000000
0.304932 0.658203 0.000000
0.343018 0.658203 0.000000
0.381836 0.658203 0.000000
0.421143 0.658203 0.000000
0.460449 0.658203 0.000000
0.499268 0.658203 0.000000
0.537598 0.658203 0.000000
0.574707 0.658203 0.000000
0.611328 0.658203 0.000000
0.646973 0.658203 0.000000
0.681641 0.658203 0.000000
0.715332 0.658203 0.000000
0.747559 0.658203 0.000000
0.778809 0.658203 0.000000
0.808594 0.658203 0.000000
0.837891 0.658203 0.000000
0.865234 0.658203 0.000000
0.891602 0.658203 0.000000
0.916016 0.658203 0.000000
0.939941 0.658203 0.000000
0.961914 0.658203 0.000000
0.982422 0.658203 0.000000
1.000000 0.658203 0.000000
0.000000 0.690918 0.000000
0.016556 0.690918 0.000000
0.043976 0.690918 0.000000
0.077698 0.690918 0.000000
0.115723 0.690918 0.000000
0.155518 0.690918 0.000000
0.193237 0.690918 0.000000
0.229980 0.690918 0.000000
0.267090 0.690918 0.000000
0.304932 0.690918 0.000000
0.343018 0.690918 0.000000
0.381836 0.690918 0.000000
0.421143 0.690918 0.000000
0.460449 0.690918 0.000000
0.499268 0.690918 0.000000
0.537598 0.690918 0.000000
0.574707 0.690918 0.000000
0.611328 0.690918 0.000000
0.646973 0.690918 0.000000
0.681641 0.690918 0.000000
0.715332 0.690918 0.000000
0.747559 0.690918 0.000000
0.778809 0.690918 0.000000
0.808594 0.690918 0.000000
0.837891 0.690918 0.000000
0.865234 0.690918 0.000000
0.891602 0.690918 0.000000
0.916016 0.690918 0.000000
0.939941 0.690918 0.000000
0.961914 0.690918 0.000000
0.982422 0.690918 0.000000
1.000000 0.690918 0.000000
0.000000 0.722656 0.000000
0.016556 0.722656 0.000000
0.043976 0.722656 0.000000
0.077698 0.722656 0.000000
0.115723 0.722656 0.000000
0.155518 0.722656 0.000000
0.193237 0.722656 0.000000
0.229980 0.722656 0.000000
0.267090 0.722656 0.000000
0.304932 0.722656 0.000000
0.343018 0.722656 0.000000
0.381836 0.722656 0.000000
0.421143 0.722656 0.000000
0.460449 0.722656 0.000000
0.499268 0.722656 0.000000
0.537598 0.722656 0.000000
0.574707 0.722656 0.000000
0.611328 0.722656 0.000000
0.646973 0.722656 0.000000
0.681641 0.722656 0.000000
0.715332 0.722656 0.000000
0.747559 0.722656 0.000000
0.778809 0.722656 0.000000
0.808594 0.722656 0.000000
0.837891 0.722656 0.000000
0.865234 0.722656 0.000000
0.891602 0.722656 0.000000
0.916016 0.722656 0.000000
0.939941 0.722656 0.000000
0.961914 0.722656 0.000000
0.982422 0.722656 0.000000
1.000000 0.722656 0.000000
0.000000 0.753906 0.000000
0.016556 0.753906 0.000000
0.043976 0.753906 0.000000
0.077698 0.753906 0.000000
0.115723 0.753906 0.000000
0.155518 0.753906 0.000000
0.193237 0.753906 0.000000
0.229980 0.753906 0.000000
0.267090 0.753906 0.000000
0.304932 0.753906 0.000000
0.343018 0.753906 0.000000
0.381836 0.753906 0.000000
0.421143 0.753906 0.000000
0.460449 0.753906 0.000000
0.499268 0.753906 0.000000
0.537598 0.753906 0.000000
0.574707 0.753906 0.000000
0.611328 0.753906 0.000000
0.646973 0.753906 0.000000
0.681641 0.753906 0.000000
0.715332 0.753906 0.000000
0.747559 0.753906 0.000000
0.778809 0.753906 0.000000
0.808594 0.753906 0.000000
0.837891 0.753906 0.000000
0.865234 0.753906 0.000000
0.891602 0.753906 0.000000
0.916016 0.753906 0.000000
0.939941 0.753906 0.000000
0.961914 0.753906 0.000000
0.982422 0.753906 0.000000
1.000000 0.753906 0.000000
0.000000 0.784668 0.000000
0.016556 0.784668 0.000000
0.043976 0.784668 0.000000
0.077698 0.784668 0.000000
0.115723 0.784668 0.000000
0.155518 0.784668 0.000000
0.193237 0.784668 0.000000
0.229980 0.784668 0.000000
0.267090 0.784668 0.000000
0.304932 0.784668 0.000000
0.343018 0.784668 0.000000
0.381836 0.784668 0.000000
0.421143 0.784668 0.000000
0.460449 0.784668 0.000000
0.499268 0.784668 0.000000
0.537598 0.784668 0.000000
0.574707 0.784668 0.000000
0.611328 0.784668 0.000000
0.646973 0.784668 0.000000
0.681641 0.784668 0.000000
0.715332 0.784668 0.000000
0.747559 0.784668 0.000000
0.778809 0.784668 0.000000
0.808594 0.784668 0.000000
0.837891 0.784668 0.000000
0.865234 0.784668 0.000000
0.891602 0.784668 0.000000
0.916016 0.784668 0.000000
0.939941 0.784668 0.000000
0.961914 0.784668 0.000000
0.982422 0.784668 0.000000
1.000000 0.784668 0.000000
0.000000 0.814941 0.000000
0.016556 0.814941 0.000000
0.043976 0.814941 0.000000
0.077698 0.814941 0.000000
0.115723 0.814941 0.000000
0.155518 0.814941 0.000000
0.193237 0.814941 0.000000
0.229980 0.814941 0.000000
0.267090 0.814941 0.000000
0.304932 0.814941 0.000000
0.343018 0.814941 0.000000
0.381836 0.814941 0.000000
0.421143 0.814941 0.000000
0.460449 0.814941 0.000000
0.499268 0.814941 0.000000
0.537598 0.814941 0.000000
0.574707 0.814941 0.000000
0.611328 0.814941 0.000000
0.646973 0.814941 0.000000
0.681641 0.814941 0.000000
0.715332 0.814941 0.000000
0.747559 0.814941 0.000000
0.778809 0.814941 0.000000
0.808594 0.814941 0.000000
0.837891 0.814941 0.000000
0.865234 0.814941 0.000000
0.891602 0.814941 0.000000
0.916016 0.814941 0.000000
0.939941 0.814941 0.000000
0.961914 0.814941 0.000000
0.982422 0.814941 0.000000
1.000000 0.814941 0.000000
0.000000 0.844238 0.000000
0.016556 0.844238 0.000000
0.043976 0.844238 0.000000
0.077698 0.844238 0.000000
0.115723 0.844238 0.000000
0.155518 0.844238 0.000000
0.193237 0.844238 0.000000
0.229980 0.844238 0.000000
0.267090 0.844238 0.000000
0.304932 0.844238 0.000000
0.343018 0.844238 0.000000
0.381836 0.844238 0.000000
0.421143 0.844238 0.000000
0.460449 0.844238 0.000000
0.499268 0.844238 0.000000
0.537598 0.844238 0.000000
0.574707 0.844238 0.000000
0.611328 0.844238 0.000000
0.646973 0.844238 0.000000
0.681641 0.844238 0.000000
0.715332 0.844238 0.000000
0.747559 0.844238 0.000000
0.778809 0.844238 0.000000
0.808594 0.844238 0.000000
0.837891 0.844238 0.000000
0.865234 0.844238 0.000000
0.891602 0.844238 0.000000
0.916016 0.844238 0.000000
0.939941 0.844238 0.000000
0.961914 0.844238 0.000000
0.982422 0.844238 0.000000
1.000000 0.844238 0.000000
0.000000 0.873047 0.000000
0.016556 0.873047 0.000000
0.043976 0.873047 0.000000
0.077698 0.873047 0.000000
0.115723 0.873047 0.000000
0.155518 0.873047 0.000000
0.193237 0.873047 0.000000
0.229980 0.873047 0.000000
0.267090 0.873047 0.000000
0.304932 0.873047 0.000000
0.343018 0.873047 0.000000
0.381836 0.873047 0.000000
0.421143 0.873047 0.000000
0.460449 0.873047 0.000000
0.499268 0.873047 0.000000
0.537598 0.873047 0.000000
0.574707 0.873047 0.000000
0.611328 0.873047 0.000000
0.646973 0.873047 0.000000
0.681641 0.873047 0.000000
0.715332 0.873047 0.000000
0.747559 0.873047 0.000000
0.778809 0.873047 0.000000
0.808594 0.873047 0.000000
0.837891 0.873047 0.000000
0.865234 0.873047 0.000000
0.891602 0.873047 0.000000
0.916016 0.873047 0.000000
0.939941 0.873047 0.000000
0.961914 0.873047 0.000000
0.982422 0.873047 0.000000
1.000000 0.873047 0.000000
0.000000 0.900391 0.000000
0.016556 0.900391 0.000000
0.043976 0.900391 0.000000
0.077698 0.900391 0.000000
0.115723 0.900391 0.000000
0.155518 0.900391 0.000000
0.193237 0.900391 0.000000
0.229980 0.900391 0.000000
0.267090 0.900391 0.000000
0.304932 0.900391 0.000000
0.343018 0.900391 0.000000
0.381836 0.900391 0.000000
0.421143 0.900391 0.000000
0.460449 0.900391 0.000000
0.499268 0.900391 0.000000
0.537598 0.900391 0.000000
0.574707 0.900391 0.000000
0.611328 0.900391 0.000000
0.646973 0.900391 0.000000
0.681641 0.900391 0.000000
0.715332 0.900391 0.000000
0.747559 0.900391 0.000000
0.778809 0.900391 0.000000
