cubelut/Adanmq_Ektachrome 64.cube
TITLE "Generated by Foundry::LUT"
LUT_3D_SIZE 5
DOMAIN_MIN 0.000000 0.000000 0.000000
DOMAIN_MAX 0.903226 0.903226 0.903226
0.000000 0.000000 0.000000
0.295654 0.000000 0.000000
0.719238 0.000000 0.000000
0.881348 0.000000 0.000000
0.971191 0.000000 0.000000
0.000000 0.204468 0.000000
0.295654 0.204468 0.000000
0.719238 0.204468 0.000000
0.881348 0.204468 0.000000
0.971191 0.204468 0.000000
0.000000 0.652832 0.000000
0.295654 0.652832 0.000000
0.719238 0.652832 0.000000
0.881348 0.652832 0.000000
0.971191 0.652832 0.000000
0.000000 0.864746 0.000000
0.295654 0.864746 0.000000
0.719238 0.864746 0.000000
0.881348 0.864746 0.000000
0.971191 0.864746 0.000000
0.000000 0.968750 0.000000
0.295654 0.968750 0.000000
0.719238 0.968750 0.000000
0.881348 0.968750 0.000000
0.971191 0.968750 0.000000
0.000000 0.000000 0.073364
0.295654 0.000000 0.073364
0.719238 0.000000 0.073364
0.881348 0.000000 0.073364
0.971191 0.000000 0.073364
0.000000 0.204468 0.073364
0.295654 0.204468 0.073364
0.719238 0.204468 0.073364
0.881348 0.204468 0.073364
0.971191 0.204468 0.073364
0.000000 0.652832 0.073364
0.295654 0.652832 0.073364
0.719238 0.652832 0.073364
0.881348 0.652832 0.073364
0.971191 0.652832 0.073364
0.000000 0.864746 0.073364
0.295654 0.864746 0.073364
0.719238 0.864746 0.073364
0.881348 0.864746 0.073364
0.971191 0.864746 0.073364
0.000000 0.968750 0.073364
0.295654 0.968750 0.073364
0.719238 0.968750 0.073364
0.881348 0.968750 0.073364
0.971191 0.968750 0.073364
0.000000 0.000000 0.414795
0.295898 0.000000 0.414795
0.719238 0.000000 0.414795
0.881348 0.000000 0.414795
0.971191 0.000000 0.414795
0.000000 0.204468 0.414795
0.295898 0.204468 0.414795
0.719238 0.204468 0.414795
0.881348 0.204468 0.414795
0.971191 0.204468 0.414795
0.000000 0.652832 0.414795
0.295898 0.652832 0.414795
0.719238 0.652832 0.414795
0.881348 0.652832 0.414795
0.971191 0.652832 0.414795
0.000000 0.864746 0.414795
0.295898 0.864746 0.414795
0.719238 0.864746 0.414795
0.881348 0.864746 0.414795
0.971191 0.864746 0.414795
0.000000 0.968750 0.414795
0.295898 0.968750 0.414795
0.719238 0.968750 0.414795
0.881348 0.968750 0.414795
0.971191 0.968750 0.414795
0.000000 0.000000 0.732422
0.295898 0.000000 0.732422
0.719238 0.000000 0.732422
0.881348 0.000000 0.732422
0.971191 0.000000 0.732422
0.000000 0.204468 0.732422
0.295898 0.204468 0.732422
0.719238 0.204468 0.732422
0.881348 0.204468 0.732422
0.971191 0.204468 0.732422
0.000000 0.652832 0.732422
0.295898 0.652832 0.732422
0.719238 0.652832 0.732422
0.881348 0.652832 0.732422
0.971191 0.652832 0.732422
0.000000 0.864746 0.732422
0.295898 0.864746 0.732422
0.719238 0.864746 0.732422
0.881348 0.864746 0.732422
0.971191 0.864746 0.732422
0.000000 0.968750 0.732422
0.295898 0.968750 0.732422
0.719238 0.968750 0.732422
0.881348 0.968750 0.732422
0.971191 0.968750 0.732422
0.000000 0.000000 0.936035
0.296143 0.000000 0.936035
0.719238 0.000000 0.936035
0.881348 0.000000 0.936035
0.971191 0.000000 0.936035
0.000000 0.204468 0.936035
0.296143 0.204468 0.936035
0.719238 0.204468 0.936035
0.881348 0.204468 0.936035
0.971191 0.204468 0.936035
0.000000 0.652832 0.936035
0.296143 0.652832 0.936035
0.719238 0.652832 0.936035
0.881348 0.652832 0.936035
0.971191 0.652832 0.936035
0.000000 0.864746 0.936035
0.296143 0.864746 0.936035
0.719238 0.864746 0.936035
0.881348 0.864746 0.936035
0.971191 0.864746 0.936035
0.000000 0.968750 0.936035
0.296143 0.968750 0.936035
0.719238 0.968750 0.936035
0.881348 0.968750 0.936035
0.971191 0.968750 0.936035
