cubelut/Adanmq_MAX Zoom 800.cube
TITLE "Generated by Foundry::LUT"
LUT_3D_SIZE 32
0.000000 0.000000 0.000000
0.014862 0.000000 0.000000
0.039276 0.000000 0.000000
0.067261 0.000000 0.000000
0.097412 0.000000 0.000000
0.129028 0.000000 0.000000
0.161255 0.000000 0.000000
0.194214 0.000000 0.000000
0.227539 0.000000 0.000000
0.261230 0.000000 0.000000
0.295654 0.000000 0.000000
0.330078 0.000000 0.000000
0.364258 0.000000 0.000000
0.398193 0.000000 0.000000
0.432129 0.000000 0.000000
0.465576 0.000000 0.000000
0.499512 0.000000 0.000000
0.533691 0.000000 0.000000
0.567871 0.000000 0.000000
0.602051 0.000000 0.000000
0.636230 0.000000 0.000000
0.670410 0.000000 0.000000
0.704590 0.000000 0.000000
0.738770 0.000000 0.000000
0.773438 0.000000 0.000000
0.807617 0.000000 0.000000
0.841309 0.000000 0.000000
0.875000 0.000000 0.000000
0.907715 0.000000 0.000000
0.939453 0.000000 0.000000
0.970703 0.000000 0.000000
1.000000 0.000000 0.000000
0.000000 0.012390 0.000000
0.014862 0.012390 0.000000
0.039276 0.012390 0.000000
0.067261 0.012390 0.000000
0.097412 0.012390 0.000000
0.129028 0.012390 0.000000
0.161255 0.012390 0.000000
0.194214 0.012390 0.000000
0.227539 0.012390 0.000000
0.261230 0.012390 0.000000
0.295654 0.012390 0.000000
0.330078 0.012390 0.000000
0.364258 0.012390 0.000000
0.398193 0.012390 0.000000
0.432129 0.012390 0.000000
0.465576 0.012390 0.000000
0.499512 0.012390 0.000000
0.533691 0.012390 0.000000
0.567871 0.012398 0.000000
0.602051 0.012398 0.000000
0.636230 0.012398 0.000000
0.670410 0.012398 0.000000
0.704590 0.012398 0.000000
0.738770 0.012398 0.000000
0.773438 0.012398 0.000000
0.807617 0.012398 0.000000
0.841309 0.012398 0.000000
0.875000 0.012398 0.000000
0.907715 0.012398 0.000000
0.939453 0.012398 0.000000
0.970703 0.012398 0.000000
1.000000 0.012398 0.000000
0.000000 0.033936 0.000000
0.014862 0.033936 0.000000
0.039276 0.033936 0.000000
0.067261 0.033936 0.000000
0.097412 0.033936 0.000000
0.129028 0.033936 0.000000
0.161255 0.033936 0.000000
0.194214 0.033936 0.000000
0.227539 0.033936 0.000000
0.261230 0.033936 0.000000
0.295654 0.033936 0.000000
0.330078 0.033936 0.000000
0.364258 0.033936 0.000000
0.398193 0.033936 0.000000
0.432129 0.033936 0.000000
0.465576 0.033936 0.000000
0.499512 0.033936 0.000000
0.533691 0.033936 0.000000
0.567871 0.033936 0.000000
0.602051 0.033936 0.000000
0.636230 0.033936 0.000000
0.670410 0.033936 0.000000
0.704590 0.033936 0.000000
0.738770 0.033936 0.000000
0.773438 0.033936 0.000000
0.807617 0.033936 0.000000
0.841309 0.033936 0.000000
0.875000 0.033936 0.000000
0.907715 0.033936 0.000000
0.939453 0.033936 0.000000
0.970703 0.033936 0.000000
1.000000 0.033936 0.000000
0.000000 0.059540 0.000000
0.014862 0.059540 0.000000
0.039276 0.059540 0.000000
0.067261 0.059540 0.000000
0.097412 0.059540 0.000000
0.129028 0.059540 0.000000
0.161255 0.059540 0.000000
0.194214 0.059540 0.000000
0.227539 0.059540 0.000000
0.261230 0.059540 0.000000
0.295654 0.059540 0.000000
0.330078 0.059540 0.000000
0.364258 0.059540 0.000000
0.398193 0.059540 0.000000
0.432129 0.059540 0.000000
0.465576 0.059570 0.000000
0.499512 0.059570 0.000000
0.533691 0.059570 0.000000
0.567871 0.059570 0.000000
0.602051 0.059570 0.000000
0.636230 0.059570 0.000000
0.670410 0.059570 0.000000
0.704590 0.059570 0.000000
0.738770 0.059570 0.000000
0.773438 0.059570 0.000000
0.807617 0.059570 0.000000
0.841309 0.059570 0.000000
0.875000 0.059570 0.000000
0.907715 0.059570 0.000000
0.939453 0.059570 0.000000
0.970703 0.059570 0.000000
1.000000 0.059570 0.000000
0.000000 0.087280 0.000000
0.014862 0.087280 0.000000
0.039276 0.087280 0.000000
0.067261 0.087280 0.000000
0.097412 0.087280 0.000000
0.129028 0.087280 0.000000
0.161255 0.087280 0.000000
0.194214 0.087280 0.000000
0.227539 0.087280 0.000000
0.261230 0.087280 0.000000
0.295654 0.087280 0.000000
0.330078 0.087280 0.000000
0.364258 0.087280 0.000000
0.398193 0.087280 0.000000
0.432129 0.087280 0.000000
0.465576 0.087280 0.000000
0.499512 0.087280 0.000000
0.533691 0.087280 0.000000
0.567871 0.087280 0.000000
0.602051 0.087280 0.000000
0.636230 0.087280 0.000000
0.670410 0.087280 0.000000
0.704590 0.087280 0.000000
0.738770 0.087280 0.000000
0.773438 0.087280 0.000000
0.807617 0.087280 0.000000
0.841309 0.087280 0.000000
0.875000 0.087280 0.000000
0.907715 0.087280 0.000000
0.939453 0.087280 0.000000
0.970703 0.087280 0.000000
1.000000 0.087280 0.000000
0.000000 0.117065 0.000000
0.014862 0.117065 0.000000
0.039276 0.117065 0.000000
0.067261 0.117065 0.000000
0.097412 0.117065 0.000000
0.129028 0.117065 0.000000
0.161255 0.117065 0.000000
0.194214 0.117065 0.000000
0.227539 0.117065 0.000000
0.261230 0.117065 0.000000
0.295654 0.117065 0.000000
0.330078 0.117065 0.000000
0.364258 0.117065 0.000000
0.398193 0.117065 0.000000
0.432129 0.117065 0.000000
0.465576 0.117065 0.000000
0.499512 0.117065 0.000000
0.533691 0.117065 0.000000
0.567871 0.117065 0.000000
0.602051 0.117065 0.000000
0.636230 0.117065 0.000000
0.670410 0.117065 0.000000
0.704590 0.117065 0.000000
0.738770 0.117065 0.000000
0.773438 0.117065 0.000000
0.807617 0.117065 0.000000
0.841309 0.117065 0.000000
0.875000 0.117065 0.000000
0.907715 0.117065 0.000000
0.939453 0.117065 0.000000
0.970703 0.117065 0.000000
1.000000 0.117065 0.000000
0.000000 0.147949 0.000000
0.014862 0.147949 0.000000
0.039276 0.147949 0.000000
0.067261 0.147949 0.000000
0.097412 0.147949 0.000000
0.129028 0.147949 0.000000
0.161255 0.147949 0.000000
0.194214 0.147949 0.000000
0.227539 0.147949 0.000000
0.261230 0.147949 0.000000
0.295654 0.147949 0.000000
0.330078 0.147949 0.000000
0.364258 0.147949 0.000000
0.398193 0.147949 0.000000
0.432129 0.147949 0.000000
0.465576 0.147949 0.000000
0.499512 0.147949 0.000000
0.533691 0.147949 0.000000
0.567871 0.147949 0.000000
0.602051 0.147949 0.000000
0.636230 0.147949 0.000000
0.670410 0.147949 0.000000
0.704590 0.147949 0.000000
0.738770 0.147949 0.000000
0.773438 0.147949 0.000000
0.807617 0.147949 0.000000
0.841309 0.147949 0.000000
0.875000 0.147949 0.000000
0.907715 0.147949 0.000000
0.939453 0.147949 0.000000
0.970703 0.147949 0.000000
1.000000 0.147949 0.000000
0.000000 0.179932 0.000000
0.014862 0.179932 0.000000
0.039276 0.179932 0.000000
0.067261 0.179932 0.000000
0.097412 0.179932 0.000000
0.129028 0.179932 0.000000
0.161255 0.179932 0.000000
0.194214 0.179932 0.000000
0.227539 0.179932 0.000000
0.261230 0.179932 0.000000
0.295654 0.179932 0.000000
0.330078 0.179932 0.000000
0.364258 0.179932 0.000000
0.398193 0.179932 0.000000
0.432129 0.179932 0.000000
0.465576 0.179932 0.000000
0.499512 0.179932 0.000000
0.533691 0.179932 0.000000
0.567871 0.179932 0.000000
0.602051 0.179932 0.000000
0.636230 0.179932 0.000000
0.670410 0.179932 0.000000
0.704590 0.179932 0.000000
0.738770 0.179932 0.000000
0.773438 0.179932 0.000000
0.807617 0.179932 0.000000
0.841309 0.179932 0.000000
0.875000 0.179932 0.000000
0.907715 0.179932 0.000000
0.939453 0.179932 0.000000
0.970703 0.179932 0.000000
1.000000 0.179932 0.000000
0.000000 0.212036 0.000000
0.014862 0.212036 0.000000
0.039276 0.212036 0.000000
0.067261 0.212036 0.000000
0.097412 0.212036 0.000000
0.129028 0.212036 0.000000
0.161255 0.212036 0.000000
0.194214 0.212036 0.000000
0.227539 0.212036 0.000000
0.261230 0.212036 0.000000
0.295654 0.212036 0.000000
0.330078 0.212036 0.000000
0.364258 0.212036 0.000000
0.398193 0.212036 0.000000
0.432129 0.212036 0.000000
0.465576 0.212036 0.000000
0.499512 0.212036 0.000000
0.533691 0.212036 0.000000
0.567871 0.212036 0.000000
0.602051 0.212036 0.000000
0.636230 0.212036 0.000000
0.670410 0.212036 0.000000
0.704590 0.212036 0.000000
0.738770 0.212036 0.000000
0.773438 0.212036 0.000000
0.807617 0.212036 0.000000
0.841309 0.212036 0.000000
0.875000 0.212036 0.000000
0.907715 0.212036 0.000000
0.939453 0.212036 0.000000
0.970703 0.212036 0.000000
1.000000 0.212036 0.000000
0.000000 0.245239 0.000000
0.014862 0.245239 0.000000
0.039276 0.245239 0.000000
0.067261 0.245239 0.000000
0.097412 0.245239 0.000000
0.129028 0.245239 0.000000
0.161255 0.245239 0.000000
0.194214 0.245239 0.000000
0.227539 0.245239 0.000000
0.261230 0.245239 0.000000
0.295654 0.245239 0.000000
0.330078 0.245239 0.000000
0.364258 0.245239 0.000000
0.398193 0.245239 0.000000
0.432129 0.245239 0.000000
0.465576 0.245239 0.000000
0.499512 0.245239 0.000000
0.533691 0.245239 0.000000
0.567871 0.245239 0.000000
0.602051 0.245239 0.000000
0.636230 0.245239 0.000000
0.670410 0.245239 0.000000
0.704590 0.245239 0.000000
0.738770 0.245239 0.000000
0.773438 0.245239 0.000000
0.807617 0.245239 0.000000
0.841309 0.245239 0.000000
0.875000 0.245239 0.000000
0.907715 0.245239 0.000000
0.939453 0.245239 0.000000
0.970703 0.245239 0.000000
1.000000 0.245239 0.000000
0.000000 0.278320 0.000000
0.014862 0.278320 0.000000
0.039276 0.278320 0.000000
0.067261 0.278320 0.000000
0.097412 0.278320 0.000000
0.129028 0.278320 0.000000
0.161255 0.278320 0.000000
0.194214 0.278320 0.000000
0.227539 0.278320 0.000000
0.261230 0.278320 0.000000
0.295654 0.278320 0.000000
0.330078 0.278320 0.000000
0.364258 0.278320 0.000000
0.398193 0.278320 0.000000
0.432129 0.278320 0.000000
0.465576 0.278320 0.000000
0.499512 0.278320 0.000000
0.533691 0.278320 0.000000
0.567871 0.278320 0.000000
0.602051 0.278320 0.000000
0.636230 0.278320 0.000000
0.670410 0.278320 0.000000
0.704590 0.278320 0.000000
0.738770 0.278320 0.000000
0.773438 0.278320 0.000000
0.807617 0.278320 0.000000
0.841309 0.278320 0.000000
0.875000 0.278320 0.000000
0.907715 0.278320 0.000000
0.939453 0.278320 0.000000
0.970703 0.278320 0.000000
1.000000 0.278320 0.000000
0.000000 0.311768 0.000000
0.014862 0.311768 0.000000
0.039276 0.311768 0.000000
0.067261 0.311768 0.000000
0.097412 0.311768 0.000000
0.129028 0.311768 0.000000
0.161255 0.311768 0.000000
0.194214 0.311768 0.000000
0.227539 0.311768 0.000000
0.261230 0.311768 0.000000
0.295654 0.311768 0.000000
0.330078 0.311768 0.000000
0.364258 0.311768 0.000000
0.398193 0.311768 0.000000
0.432129 0.311768 0.000000
0.465576 0.311768 0.000000
0.499512 0.311768 0.000000
0.533691 0.311768 0.000000
0.567871 0.311768 0.000000
0.602051 0.311768 0.000000
0.636230 0.311768 0.000000
0.670410 0.311768 0.000000
0.704590 0.311768 0.000000
0.738770 0.311768 0.000000
0.773438 0.311768 0.000000
0.807617 0.311768 0.000000
0.841309 0.311768 0.000000
0.875000 0.311768 0.000000
0.907715 0.311768 0.000000
0.939453 0.311768 0.000000
0.970703 0.311768 0.000000
1.000000 0.311768 0.000000
0.000000 0.345947 0.000000
0.014862 0.345947 0.000000
0.039276 0.345947 0.000000
0.067261 0.345947 0.000000
0.097412 0.345947 0.000000
0.129028 0.345947 0.000000
0.161255 0.345947 0.000000
0.194214 0.345947 0.000000
0.227539 0.345947 0.000000
0.261230 0.345947 0.000000
0.295654 0.345947 0.000000
0.330078 0.345947 0.000000
0.364258 0.345947 0.000000
0.398193 0.345947 0.000000
0.432129 0.345947 0.000000
0.465576 0.345947 0.000000
0.499512 0.345947 0.000000
0.533691 0.345947 0.000000
0.567871 0.345947 0.000000
0.602051 0.345947 0.000000
0.636230 0.345947 0.000000
0.670410 0.345947 0.000000
0.704590 0.345947 0.000000
0.738770 0.345947 0.000000
0.773438 0.345947 0.000000
0.807617 0.345947 0.000000
0.841309 0.345947 0.000000
0.875000 0.345947 0.000000
0.907715 0.345947 0.000000
0.939453 0.345947 0.000000
0.970703 0.345947 0.000000
1.000000 0.345947 0.000000
0.000000 0.380371 0.000000
0.014862 0.380371 0.000000
0.039276 0.380371 0.000000
0.067261 0.380371 0.000000
0.097412 0.380371 0.000000
0.129028 0.380371 0.000000
0.161255 0.380371 0.000000
0.194214 0.380371 0.000000
0.227539 0.380371 0.000000
0.261230 0.380371 0.000000
0.295654 0.380371 0.000000
0.330078 0.380371 0.000000
0.364258 0.380371 0.000000
0.398193 0.380371 0.000000
0.432129 0.380371 0.000000
0.465576 0.380371 0.000000
0.499512 0.380371 0.000000
0.533691 0.380371 0.000000
0.567871 0.380371 0.000000
0.602051 0.380371 0.000000
0.636230 0.380371 0.000000
0.670410 0.380371 0.000000
0.704590 0.380371 0.000000
0.738770 0.380371 0.000000
0.773438 0.380371 0.000000
0.807617 0.380371 0.000000
0.841309 0.380371 0.000000
0.875000 0.380371 0.000000
0.907715 0.380371 0.000000
0.939453 0.380371 0.000000
0.970703 0.380371 0.000000
1.000000 0.380371 0.000000
0.000000 0.415283 0.000000
0.014862 0.415283 0.000000
0.039276 0.415283 0.000000
0.067261 0.415283 0.000000
0.097412 0.415283 0.000000
0.129028 0.415283 0.000000
0.161255 0.415283 0.000000
0.194214 0.415283 0.000000
0.227539 0.415283 0.000000
0.261230 0.415283 0.000000
0.295654 0.415283 0.000000
0.330078 0.415283 0.000000
0.364258 0.415283 0.000000
0.398193 0.415283 0.000000
0.432129 0.415283 0.000000
0.465576 0.415283 0.000000
0.499512 0.415283 0.000000
0.533691 0.415283 0.000000
0.567871 0.415283 0.000000
0.602051 0.415283 0.000000
0.636230 0.415283 0.000000
0.670410 0.415283 0.000000
0.704590 0.415283 0.000000
0.738770 0.415283 0.000000
0.773438 0.415283 0.000000
0.807617 0.415283 0.000000
0.841309 0.415283 0.000000
0.875000 0.415283 0.000000
0.907715 0.415283 0.000000
0.939453 0.415283 0.000000
0.970703 0.415527 0.000000
1.000000 0.415527 0.000000
0.000000 0.450439 0.000000
0.014862 0.450439 0.000000
0.039276 0.450439 0.000000
0.067261 0.450439 0.000000
0.097412 0.450439 0.000000
0.129028 0.450439 0.000000
0.161255 0.450439 0.000000
0.194214 0.450439 0.000000
0.227539 0.450439 0.000000
0.261230 0.450684 0.000000
0.295654 0.450684 0.000000
0.330078 0.450684 0.000000
0.364258 0.450684 0.000000
0.398193 0.450684 0.000000
0.432129 0.450684 0.000000
0.465576 0.450684 0.000000
0.499512 0.450684 0.000000
0.533691 0.450684 0.000000
0.567871 0.450684 0.000000
0.602051 0.450684 0.000000
0.636230 0.450684 0.000000
0.670410 0.450684 0.000000
0.704590 0.450684 0.000000
0.738770 0.450684 0.000000
0.773438 0.450684 0.000000
0.807617 0.450684 0.000000
0.841309 0.450684 0.000000
0.875000 0.450684 0.000000
0.907715 0.450684 0.000000
0.939453 0.450684 0.000000
0.970703 0.450684 0.000000
1.000000 0.450684 0.000000
0.000000 0.485107 0.000000
0.014862 0.485107 0.000000
0.039276 0.485107 0.000000
0.067261 0.485107 0.000000
0.097412 0.485107 0.000000
0.129028 0.485107 0.000000
0.161255 0.485107 0.000000
0.194214 0.485107 0.000000
0.227539 0.485107 0.000000
0.261230 0.485107 0.000000
0.295654 0.485107 0.000000
0.330078 0.485107 0.000000
0.364258 0.485107 0.000000
0.398193 0.485107 0.000000
0.432129 0.485107 0.000000
0.465576 0.485107 0.000000
0.499512 0.485107 0.000000
0.533691 0.485107 0.000000
0.567871 0.485107 0.000000
0.602051 0.485107 0.000000
0.636230 0.485107 0.000000
0.670410 0.485107 0.000000
0.704590 0.485107 0.000000
0.738770 0.485107 0.000000
0.773438 0.485107 0.000000
0.807617 0.485107 0.000000
0.841309 0.485107 0.000000
0.875000 0.485107 0.000000
0.907715 0.485107 0.000000
0.939453 0.485107 0.000000
0.970703 0.485107 0.000000
1.000000 0.485107 0.000000
0.000000 0.519531 0.000000
0.014862 0.519531 0.000000
0.039276 0.519531 0.000000
0.067261 0.519531 0.000000
0.097412 0.519531 0.000000
0.129028 0.519531 0.000000
0.161255 0.519531 0.000000
0.194214 0.519531 0.000000
0.227539 0.519531 0.000000
0.261230 0.519531 0.000000
0.295654 0.519531 0.000000
0.330078 0.519531 0.000000
0.364258 0.519531 0.000000
0.398193 0.519531 0.000000
0.432129 0.519531 0.000000
0.465576 0.519531 0.000000
0.499512 0.519531 0.000000
0.533691 0.519531 0.000000
0.567871 0.519531 0.000000
0.602051 0.519531 0.000000
0.636230 0.519531 0.000000
0.670410 0.519531 0.000000
0.704590 0.519531 0.000000
0.738770 0.519531 0.000000
0.773438 0.519531 0.000000
0.807617 0.519531 0.000000
0.841309 0.519531 0.000000
0.875000 0.519531 0.000000
0.907715 0.519531 0.000000
0.939453 0.519531 0.000000
0.970703 0.519531 0.000000
1.000000 0.519531 0.000000
0.000000 0.554688 0.000000
0.014862 0.554688 0.000000
0.039276 0.554688 0.000000
0.067261 0.554688 0.000000
0.097412 0.554688 0.000000
0.129028 0.554688 0.000000
0.161255 0.554688 0.000000
0.194214 0.554688 0.000000
0.227539 0.554688 0.000000
0.261230 0.554688 0.000000
0.295654 0.554688 0.000000
0.330078 0.554688 0.000000
0.364258 0.554688 0.000000
0.398193 0.554688 0.000000
0.432129 0.554688 0.000000
0.465576 0.554688 0.000000
0.499512 0.554688 0.000000
0.533691 0.554688 0.000000
0.567871 0.554688 0.000000
0.602051 0.554688 0.000000
0.636230 0.554688 0.000000
0.670410 0.554688 0.000000
0.704590 0.554688 0.000000
0.738770 0.554688 0.000000
0.773438 0.554688 0.000000
0.807617 0.554688 0.000000
0.841309 0.554688 0.000000
0.875000 0.554688 0.000000
0.907715 0.554688 0.000000
0.939453 0.554688 0.000000
0.970703 0.554688 0.000000
1.000000 0.554688 0.000000
0.000000 0.589844 0.000000
0.014862 0.589844 0.000000
0.039276 0.589844 0.000000
0.067261 0.589844 0.000000
0.097412 0.589844 0.000000
0.129028 0.589844 0.000000
0.161255 0.589844 0.000000
0.194214 0.589844 0.000000
0.227539 0.589844 0.000000
0.261230 0.589844 0.000000
0.295654 0.589844 0.000000
0.330078 0.589844 0.000000
0.364258 0.589844 0.000000
0.398193 0.589844 0.000000
0.432129 0.589844 0.000000
0.465576 0.589844 0.000000
0.499512 0.589844 0.000000
0.533691 0.589844 0.000000
0.567871 0.589844 0.000000
0.602051 0.589844 0.000000
0.636230 0.589844 0.000000
0.670410 0.589844 0.000000
0.704590 0.589844 0.000000
0.738770 0.589844 0.000000
0.773438 0.589844 0.000000
0.807617 0.589844 0.000000
0.841309 0.589844 0.000000
0.875000 0.589844 0.000000
0.907715 0.589844 0.000000
0.939453 0.589844 0.000000
0.970703 0.589844 0.000000
1.000000 0.589844 0.000000
0.000000 0.625000 0.000000
0.014862 0.625000 0.000000
0.039276 0.625000 0.000000
0.067261 0.625000 0.000000
0.097412 0.625000 0.000000
0.129028 0.625000 0.000000
0.161255 0.625000 0.000000
0.194214 0.625000 0.000000
0.227539 0.625000 0.000000
0.261230 0.625000 0.000000
0.295654 0.625000 0.000000
0.330078 0.625000 0.000000
0.364258 0.625000 0.000000
0.398193 0.625000 0.000000
0.432129 0.625000 0.000000
0.465576 0.625000 0.000000
0.499512 0.625000 0.000000
0.533691 0.625000 0.000000
0.567871 0.625000 0.000000
0.602051 0.625000 0.000000
0.636230 0.625000 0.000000
0.670410 0.625000 0.000000
0.704590 0.625000 0.000000
0.738770 0.625000 0.000000
0.773438 0.625000 0.000000
0.807617 0.625000 0.000000
0.841309 0.625000 0.000000
0.875000 0.625000 0.000000
0.907715 0.625000 0.000000
0.939453 0.625000 0.000000
0.970703 0.625000 0.000000
1.000000 0.625000 0.000000
0.000000 0.659668 0.000000
0.014862 0.659668 0.000000
0.039276 0.659668 0.000000
0.067261 0.659668 0.000000
0.097412 0.659668 0.000000
0.129028 0.659668 0.000000
0.161255 0.659668 0.000000
0.194214 0.659668 0.000000
0.227539 0.659668 0.000000
0.261230 0.659668 0.000000
0.295654 0.659668 0.000000
0.330078 0.659668 0.000000
0.364258 0.659668 0.000000
0.398193 0.659668 0.000000
0.432129 0.659668 0.000000
0.465576 0.659668 0.000000
0.499512 0.659668 0.000000
0.533691 0.659668 0.000000
0.567871 0.659668 0.000000
0.602051 0.659668 0.000000
0.636230 0.659668 0.000000
0.670410 0.659668 0.000000
0.704590 0.659668 0.000000
0.738770 0.659668 0.000000
0.773438 0.659668 0.000000
0.807617 0.659668 0.000000
0.841309 0.659668 0.000000
0.875000 0.659668 0.000000
0.907715 0.659668 0.000000
0.939453 0.659668 0.000000
0.970703 0.659668 0.000000
1.000000 0.659668 0.000000
0.000000 0.694824 0.000000
0.014862 0.694824 0.000000
0.039276 0.694824 0.000000
0.067261 0.694824 0.000000
0.097412 0.694824 0.000000
0.129028 0.694824 0.000000
0.161255 0.694824 0.000000
0.194214 0.694824 0.000000
0.227539 0.694824 0.000000
0.261230 0.694824 0.000000
0.295654 0.694824 0.000000
0.330078 0.694824 0.000000
0.364258 0.694824 0.000000
0.398193 0.694824 0.000000
0.432129 0.694824 0.000000
0.465576 0.694824 0.000000
0.499512 0.694824 0.000000
0.533691 0.694824 0.000000
0.567871 0.694824 0.000000
0.602051 0.694824 0.000000
0.636230 0.694824 0.000000
0.670410 0.694824 0.000000
0.704590 0.694824 0.000000
0.738770 0.694824 0.000000
0.773438 0.694824 0.000000
0.807617 0.694824 0.000000
0.841309 0.694824 0.000000
0.875000 0.694824 0.000000
0.907715 0.694824 0.000000
0.939453 0.694824 0.000000
0.970703 0.694824 0.000000
1.000000 0.694824 0.000000
0.000000 0.729492 0.000000
0.014862 0.729492 0.000000
0.039276 0.729492 0.000000
0.067261 0.729492 0.000000
0.097412 0.729492 0.000000
0.129028 0.729492 0.000000
0.161255 0.729492 0.000000
0.194214 0.729492 0.000000
0.227539 0.729492 0.000000
0.261230 0.729492 0.000000
0.295654 0.729492 0.000000
0.330078 0.729492 0.000000
0.364258 0.729492 0.000000
0.398193 0.729492 0.000000
0.432129 0.729492 0.000000
0.465576 0.729492 0.000000
0.499512 0.729492 0.000000
0.533691 0.729492 0.000000
0.567871 0.729492 0.000000
0.602051 0.729492 0.000000
0.636230 0.729492 0.000000
0.670410 0.729492 0.000000
0.704590 0.729492 0.000000
0.738770 0.729492 0.000000
0.773438 0.729492 0.000000
0.807617 0.729492 0.000000
0.841309 0.729492 0.000000
0.875000 0.729492 0.000000
0.907715 0.729492 0.000000
0.939453 0.729492 0.000000
0.970703 0.729492 0.000000
1.000000 0.729492 0.000000
0.000000 0.764648 0.000000
0.014862 0.764648 0.000000
0.039276 0.764648 0.000000
0.067261 0.764648 0.000000
0.097412 0.764648 0.000000
0.129028 0.764648 0.000000
0.161255 0.764648 0.000000
0.194214 0.764648 0.000000
0.227539 0.764648 0.000000
0.261230 0.764648 0.000000
0.295654 0.764648 0.000000
0.330078 0.764648 0.000000
0.364258 0.764648 0.000000
0.398193 0.764648 0.000000
0.432129 0.764648 0.000000
0.465576 0.764648 0.000000
0.499512 0.764648 0.000000
0.533691 0.764648 0.000000
0.567871 0.764648 0.000000
0.602051 0.764648 0.000000
0.636230 0.764648 0.000000
0.670410 0.764648 0.000000
0.704590 0.764648 0.000000
0.738770 0.764648 0.000000
0.773438 0.764648 0.000000
0.807617 0.764648 0.000000
0.841309 0.764648 0.000000
0.875000 0.764648 0.000000
0.907715 0.764648 0.000000
0.939453 0.764648 0.000000
0.970703 0.764648 0.000000
1.000000 0.764648 0.000000
0.000000 0.799805 0.000000
0.014862 0.799805 0.000000
0.039276 0.799805 0.000000
0.067261 0.799805 0.000000
0.097412 0.799805 0.000000
0.129028 0.799805 0.000000
0.161255 0.799805 0.000000
0.194214 0.799805 0.000000
0.227539 0.799805 0.000000
0.261230 0.799805 0.000000
0.295654 0.799805 0.000000
0.330078 0.799805 0.000000
0.364258 0.799805 0.000000
0.398193 0.799805 0.000000
0.432129 0.799805 0.000000
0.465576 0.799805 0.000000
0.499512 0.799805 0.000000
0.533691 0.799805 0.000000
0.567871 0.799805 0.000000
0.602051 0.799805 0.000000
0.636230 0.799805 0.000000
0.670410 0.799805 0.000000
0.704590 0.799805 0.000000
0.738770 0.799805 0.000000
0.773438 0.799805 0.000000
0.807617 0.799805 0.000000
0.841309 0.799805 0.000000
0.875000 0.799805 0.000000
0.907715 0.799805 0.000000
0.939453 0.799805 0.000000
0.970703 0.799805 0.000000
1.000000 0.799805 0.000000
0.000000 0.834961 0.000000
0.014862 0.834961 0.000000
0.039276 0.834961 0.000000
0.067261 0.834961 0.000000
0.097412 0.834961 0.000000
0.129028 0.834961 0.000000
0.161255 0.834961 0.000000
0.194214 0.834961 0.000000
0.227539 0.834961 0.000000
0.261230 0.834961 0.000000
0.295654 0.834961 0.000000
0.330078 0.834961 0.000000
0.364258 0.834961 0.000000
0.398193 0.834961 0.000000
0.432129 0.834961 0.000000
0.465576 0.834961 0.000000
0.499512 0.834961 0.000000
0.533691 0.834961 0.000000
0.567871 0.834961 0.000000
0.602051 0.834961 0.000000
0.636230 0.834961 0.000000
0.670410 0.834961 0.000000
0.704590 0.834961 0.000000
0.738770 0.834961 0.000000
0.773438 0.834961 0.000000
0.807617 0.834961 0.000000
0.841309 0.834961 0.000000
0.875000 0.834961 0.000000
0.907715 0.834961 0.000000
0.939453 0.834961 0.000000
0.970703 0.834961 0.000000
1.000000 0.834961 0.000000
0.000000 0.869629 0.000000
0.014862 0.869629 0.000000
0.039276 0.869629 0.000000
0.067261 0.869629 0.000000
0.097412 0.869629 0.000000
0.129028 0.869629 0.000000
0.161255 0.869629 0.000000
0.194214 0.869629 0.000000
0.227539 0.869629 0.000000
0.261230 0.869629 0.000000
0.295654 0.869629 0.000000
0.330078 0.869629 0.000000
0.364258 0.869629 0.000000
0.398193 0.869629 0.000000
0.432129 0.869629 0.000000
0.465576 0.869629 0.000000
0.499512 0.869629 0.000000
0.533691 0.869629 0.000000
0.567871 0.869629 0.000000
0.602051 0.869629 0.000000
0.636230 0.869629 0.000000
0.670410 0.869629 0.000000
0.704590 0.869629 0.000000
