cubelut/Adanmq_Kodachrome 25.cube
TITLE "Generated by Foundry::LUT"
LUT_3D_SIZE 32
0.000000 0.000000 0.000000
0.000015 0.000000 0.000000
0.000195 0.000000 0.000000
0.000994 0.000000 0.000000
0.003187 0.000000 0.000000
0.008011 0.000000 0.000000
0.016846 0.000000 0.000000
0.030991 0.000000 0.000000
0.051575 0.000000 0.000000
0.079651 0.000000 0.000000
0.114685 0.000000 0.000000
0.158936 0.000000 0.000000
0.211548 0.000000 0.000000
0.270508 0.000000 0.000000
0.334473 0.000000 0.000000
0.400635 0.000000 0.000000
0.464600 0.000000 0.000000
0.523438 0.000000 0.000000
0.578613 0.000000 0.000000
0.629883 0.000000 0.000000
0.678223 0.000000 0.000000
0.722168 0.000000 0.000000
0.762695 0.000000 0.000000
0.798828 0.000000 0.000000
0.832520 0.000000 0.000000
0.864746 0.000000 0.000000
0.893555 0.000000 0.000000
0.919434 0.000000 0.000000
0.942383 0.000000 0.000000
0.963867 0.000000 0.000000
0.983887 0.000000 0.000000
1.000000 0.000000 0.000000
0.000000 0.000013 0.000000
0.000015 0.000013 0.000000
0.000195 0.000013 0.000000
0.000994 0.000013 0.000000
0.003187 0.000013 0.000000
0.008011 0.000013 0.000000
0.016846 0.000013 0.000000
0.030991 0.000013 0.000000
0.051575 0.000013 0.000000
0.079651 0.000013 0.000000
0.114685 0.000013 0.000000
0.158936 0.000013 0.000000
0.211548 0.000013 0.000000
0.270508 0.000013 0.000000
0.334473 0.000013 0.000000
0.400635 0.000013 0.000000
0.464600 0.000013 0.000000
0.523438 0.000013 0.000000
0.578613 0.000013 0.000000
0.629883 0.000013 0.000000
0.678223 0.000013 0.000000
0.722168 0.000013 0.000000
0.762695 0.000013 0.000000
0.798828 0.000013 0.000000
0.832520 0.000013 0.000000
0.864746 0.000013 0.000000
0.893555 0.000013 0.000000
0.919434 0.000013 0.000000
0.942383 0.000013 0.000000
0.963867 0.000013 0.000000
0.983887 0.000013 0.000000
1.000000 0.000013 0.000000
0.000000 0.000163 0.000000
0.000015 0.000163 0.000000
0.000195 0.000163 0.000000
0.000994 0.000163 0.000000
0.003187 0.000163 0.000000
0.008011 0.000163 0.000000
0.016846 0.000163 0.000000
0.030991 0.000163 0.000000
0.051575 0.000163 0.000000
0.079651 0.000163 0.000000
0.114685 0.000163 0.000000
0.158936 0.000163 0.000000
0.211548 0.000163 0.000000
0.270508 0.000163 0.000000
0.334473 0.000163 0.000000
0.400635 0.000163 0.000000
0.464600 0.000163 0.000000
0.523438 0.000163 0.000000
0.578613 0.000163 0.000000
0.629883 0.000163 0.000000
0.678223 0.000163 0.000000
0.722168 0.000163 0.000000
0.762695 0.000163 0.000000
0.798828 0.000163 0.000000
0.832520 0.000163 0.000000
0.864746 0.000163 0.000000
0.893555 0.000163 0.000000
0.919434 0.000163 0.000000
0.942383 0.000163 0.000000
0.963867 0.000163 0.000000
0.983887 0.000163 0.000000
1.000000 0.000163 0.000000
0.000000 0.000859 0.000000
0.000015 0.000859 0.000000
0.000195 0.000859 0.000000
0.000994 0.000859 0.000000
0.003187 0.000859 0.000000
0.008011 0.000859 0.000000
0.016846 0.000859 0.000000
0.030991 0.000859 0.000000
0.051575 0.000859 0.000000
0.079651 0.000859 0.000000
0.114685 0.000859 0.000000
0.158936 0.000859 0.000000
0.211548 0.000859 0.000000
0.270508 0.000859 0.000000
0.334473 0.000859 0.000000
0.400635 0.000859 0.000000
0.464600 0.000859 0.000000
0.523438 0.000859 0.000000
0.578613 0.000859 0.000000
0.629883 0.000859 0.000000
0.678223 0.000859 0.000000
0.722168 0.000859 0.000000
0.762695 0.000859 0.000000
0.798828 0.000859 0.000000
0.832520 0.000859 0.000000
0.864746 0.000859 0.000000
0.893555 0.000859 0.000000
0.919434 0.000859 0.000000
0.942383 0.000859 0.000000
0.963867 0.000859 0.000000
0.983887 0.000859 0.000000
1.000000 0.000859 0.000000
0.000000 0.002880 0.000000
0.000015 0.002880 0.000000
0.000195 0.002880 0.000000
0.000994 0.002880 0.000000
0.003187 0.002880 0.000000
0.008011 0.002880 0.000000
0.016846 0.002880 0.000000
0.030991 0.002880 0.000000
0.051575 0.002880 0.000000
0.079651 0.002880 0.000000
0.114685 0.002880 0.000000
0.158936 0.002880 0.000000
0.211548 0.002880 0.000000
0.270508 0.002880 0.000000
0.334473 0.002882 0.000000
0.400635 0.002882 0.000000
0.464600 0.002882 0.000000
0.523438 0.002882 0.000000
0.578613 0.002882 0.000000
0.629883 0.002882 0.000000
0.678223 0.002882 0.000000
0.722168 0.002882 0.000000
0.762695 0.002882 0.000000
0.798828 0.002882 0.000000
0.832520 0.002882 0.000000
0.864746 0.002882 0.000000
0.893555 0.002882 0.000000
0.919434 0.002882 0.000000
0.942383 0.002882 0.000000
0.963867 0.002882 0.000000
0.983887 0.002882 0.000000
1.000000 0.002882 0.000000
0.000000 0.007149 0.000000
0.000015 0.007149 0.000000
0.000195 0.007149 0.000000
0.000994 0.007149 0.000000
0.003187 0.007149 0.000000
0.008011 0.007149 0.000000
0.016846 0.007149 0.000000
0.030991 0.007149 0.000000
0.051575 0.007149 0.000000
0.079651 0.007153 0.000000
0.114685 0.007153 0.000000
0.158936 0.007153 0.000000
0.211548 0.007153 0.000000
0.270508 0.007153 0.000000
0.334473 0.007153 0.000000
0.400635 0.007153 0.000000
0.464600 0.007153 0.000000
0.523438 0.007153 0.000000
0.578613 0.007153 0.000000
0.629883 0.007153 0.000000
0.678223 0.007153 0.000000
0.722168 0.007153 0.000000
0.762695 0.007153 0.000000
0.798828 0.007153 0.000000
0.832520 0.007153 0.000000
0.864746 0.007153 0.000000
0.893555 0.007153 0.000000
0.919434 0.007153 0.000000
0.942383 0.007153 0.000000
0.963867 0.007153 0.000000
0.983887 0.007153 0.000000
1.000000 0.007153 0.000000
0.000000 0.014565 0.000000
0.000015 0.014565 0.000000
0.000195 0.014565 0.000000
0.000994 0.014565 0.000000
0.003187 0.014565 0.000000
0.008011 0.014565 0.000000
0.016846 0.014565 0.000000
0.030991 0.014565 0.000000
0.051575 0.014565 0.000000
0.079651 0.014565 0.000000
0.114685 0.014565 0.000000
0.158936 0.014565 0.000000
0.211548 0.014565 0.000000
0.270508 0.014565 0.000000
0.334473 0.014565 0.000000
0.400635 0.014565 0.000000
0.464600 0.014572 0.000000
0.523438 0.014572 0.000000
0.578613 0.014572 0.000000
0.629883 0.014572 0.000000
0.678223 0.014572 0.000000
0.722168 0.014572 0.000000
0.762695 0.014572 0.000000
0.798828 0.014572 0.000000
0.832520 0.014572 0.000000
0.864746 0.014572 0.000000
0.893555 0.014572 0.000000
0.919434 0.014572 0.000000
0.942383 0.014572 0.000000
0.963867 0.014572 0.000000
0.983887 0.014572 0.000000
1.000000 0.014572 0.000000
0.000000 0.025940 0.000000
0.000015 0.025940 0.000000
0.000195 0.025940 0.000000
0.000994 0.025940 0.000000
0.003187 0.025940 0.000000
0.008011 0.025940 0.000000
0.016846 0.025940 0.000000
0.030991 0.025940 0.000000
0.051575 0.025940 0.000000
0.079651 0.025940 0.000000
0.114685 0.025940 0.000000
0.158936 0.025940 0.000000
0.211548 0.025940 0.000000
0.270508 0.025940 0.000000
0.334473 0.025940 0.000000
0.400635 0.025940 0.000000
0.464600 0.025940 0.000000
0.523438 0.025940 0.000000
0.578613 0.025940 0.000000
0.629883 0.025940 0.000000
0.678223 0.025940 0.000000
0.722168 0.025940 0.000000
0.762695 0.025940 0.000000
0.798828 0.025940 0.000000
0.832520 0.025940 0.000000
0.864746 0.025940 0.000000
0.893555 0.025940 0.000000
0.919434 0.025940 0.000000
0.942383 0.025940 0.000000
0.963867 0.025940 0.000000
0.983887 0.025940 0.000000
1.000000 0.025940 0.000000
0.000000 0.041931 0.000000
0.000015 0.041931 0.000000
0.000195 0.041931 0.000000
0.000994 0.041931 0.000000
0.003187 0.041931 0.000000
0.008011 0.041931 0.000000
0.016846 0.041931 0.000000
0.030991 0.041931 0.000000
0.051575 0.041931 0.000000
0.079651 0.041931 0.000000
0.114685 0.041931 0.000000
0.158936 0.041931 0.000000
0.211548 0.041931 0.000000
0.270508 0.041931 0.000000
0.334473 0.041931 0.000000
0.400635 0.041931 0.000000
0.464600 0.041931 0.000000
0.523438 0.041931 0.000000
0.578613 0.041931 0.000000
0.629883 0.041931 0.000000
0.678223 0.041931 0.000000
0.722168 0.041931 0.000000
0.762695 0.041931 0.000000
0.798828 0.041931 0.000000
0.832520 0.041931 0.000000
0.864746 0.041931 0.000000
0.893555 0.041931 0.000000
0.919434 0.041931 0.000000
0.942383 0.041931 0.000000
0.963867 0.041931 0.000000
0.983887 0.041931 0.000000
1.000000 0.041931 0.000000
0.000000 0.063782 0.000000
0.000015 0.063782 0.000000
0.000195 0.063782 0.000000
0.000994 0.063782 0.000000
0.003187 0.063782 0.000000
0.008011 0.063782 0.000000
0.016846 0.063782 0.000000
0.030991 0.063782 0.000000
0.051575 0.063782 0.000000
0.079651 0.063782 0.000000
0.114685 0.063782 0.000000
0.158936 0.063782 0.000000
0.211548 0.063782 0.000000
0.270508 0.063782 0.000000
0.334473 0.063782 0.000000
0.400635 0.063782 0.000000
0.464600 0.063782 0.000000
0.523438 0.063782 0.000000
0.578613 0.063782 0.000000
0.629883 0.063782 0.000000
0.678223 0.063782 0.000000
0.722168 0.063782 0.000000
0.762695 0.063782 0.000000
0.798828 0.063782 0.000000
0.832520 0.063782 0.000000
0.864746 0.063782 0.000000
0.893555 0.063782 0.000000
0.919434 0.063782 0.000000
0.942383 0.063782 0.000000
0.963867 0.063782 0.000000
0.983887 0.063782 0.000000
1.000000 0.063782 0.000000
0.000000 0.091248 0.000000
0.000015 0.091248 0.000000
0.000195 0.091248 0.000000
0.000994 0.091248 0.000000
0.003187 0.091248 0.000000
0.008011 0.091248 0.000000
0.016846 0.091248 0.000000
0.030991 0.091248 0.000000
0.051575 0.091248 0.000000
0.079651 0.091248 0.000000
0.114685 0.091248 0.000000
0.158936 0.091248 0.000000
0.211548 0.091248 0.000000
0.270508 0.091248 0.000000
0.334473 0.091248 0.000000
0.400635 0.091248 0.000000
0.464600 0.091248 0.000000
0.523438 0.091248 0.000000
0.578613 0.091248 0.000000
0.629883 0.091248 0.000000
0.678223 0.091248 0.000000
0.722168 0.091248 0.000000
0.762695 0.091248 0.000000
0.798828 0.091248 0.000000
0.832520 0.091248 0.000000
0.864746 0.091248 0.000000
0.893555 0.091248 0.000000
0.919434 0.091248 0.000000
0.942383 0.091248 0.000000
0.963867 0.091248 0.000000
0.983887 0.091248 0.000000
1.000000 0.091248 0.000000
0.000000 0.125000 0.000000
0.000015 0.125000 0.000000
0.000195 0.125000 0.000000
0.000994 0.125000 0.000000
0.003187 0.125000 0.000000
0.008011 0.125000 0.000000
0.016846 0.125000 0.000000
0.030991 0.125000 0.000000
0.051575 0.125000 0.000000
0.079651 0.125000 0.000000
0.114685 0.125000 0.000000
0.158936 0.125000 0.000000
0.211548 0.125000 0.000000
0.270508 0.125000 0.000000
0.334473 0.125000 0.000000
0.400635 0.125000 0.000000
0.464600 0.125000 0.000000
0.523438 0.125000 0.000000
0.578613 0.125000 0.000000
0.629883 0.125000 0.000000
0.678223 0.125000 0.000000
0.722168 0.125000 0.000000
0.762695 0.125000 0.000000
0.798828 0.125000 0.000000
0.832520 0.125000 0.000000
0.864746 0.125000 0.000000
0.893555 0.125000 0.000000
0.919434 0.125000 0.000000
0.942383 0.125000 0.000000
0.963867 0.125000 0.000000
0.983887 0.125000 0.000000
1.000000 0.125000 0.000000
0.000000 0.166504 0.000000
0.000015 0.166504 0.000000
0.000195 0.166504 0.000000
0.000994 0.166504 0.000000
0.003187 0.166504 0.000000
0.008011 0.166504 0.000000
0.016846 0.166504 0.000000
0.030991 0.166504 0.000000
0.051575 0.166504 0.000000
0.079651 0.166504 0.000000
0.114685 0.166504 0.000000
0.158936 0.166504 0.000000
0.211548 0.166504 0.000000
0.270508 0.166504 0.000000
0.334473 0.166504 0.000000
0.400635 0.166504 0.000000
0.464600 0.166504 0.000000
0.523438 0.166504 0.000000
0.578613 0.166504 0.000000
0.629883 0.166504 0.000000
0.678223 0.166504 0.000000
0.722168 0.166504 0.000000
0.762695 0.166504 0.000000
0.798828 0.166504 0.000000
0.832520 0.166504 0.000000
0.864746 0.166504 0.000000
0.893555 0.166504 0.000000
0.919434 0.166504 0.000000
0.942383 0.166504 0.000000
0.963867 0.166504 0.000000
0.983887 0.166504 0.000000
1.000000 0.166504 0.000000
0.000000 0.214600 0.000000
0.000015 0.214600 0.000000
0.000195 0.214600 0.000000
0.000994 0.214600 0.000000
0.003187 0.214600 0.000000
0.008011 0.214600 0.000000
0.016846 0.214600 0.000000
0.030991 0.214600 0.000000
0.051575 0.214600 0.000000
0.079651 0.214600 0.000000
0.114685 0.214600 0.000000
0.158936 0.214600 0.000000
0.211548 0.214600 0.000000
0.270508 0.214600 0.000000
0.334473 0.214600 0.000000
0.400635 0.214600 0.000000
0.464600 0.214600 0.000000
0.523438 0.214600 0.000000
0.578613 0.214600 0.000000
0.629883 0.214600 0.000000
0.678223 0.214600 0.000000
0.722168 0.214600 0.000000
0.762695 0.214600 0.000000
0.798828 0.214600 0.000000
0.832520 0.214600 0.000000
0.864746 0.214600 0.000000
0.893555 0.214600 0.000000
0.919434 0.214600 0.000000
0.942383 0.214600 0.000000
0.963867 0.214600 0.000000
0.983887 0.214600 0.000000
1.000000 0.214600 0.000000
0.000000 0.266846 0.000000
0.000015 0.266846 0.000000
0.000195 0.266846 0.000000
0.000994 0.266846 0.000000
0.003187 0.266846 0.000000
0.008011 0.266846 0.000000
0.016846 0.266846 0.000000
0.030991 0.266846 0.000000
0.051575 0.266846 0.000000
0.079651 0.266846 0.000000
0.114685 0.266846 0.000000
0.158936 0.266846 0.000000
0.211548 0.266846 0.000000
0.270508 0.266846 0.000000
0.334473 0.266846 0.000000
0.400635 0.266846 0.000000
0.464600 0.266846 0.000000
0.523438 0.266846 0.000000
0.578613 0.266846 0.000000
0.629883 0.266846 0.000000
0.678223 0.266846 0.000000
0.722168 0.266846 0.000000
0.762695 0.266846 0.000000
0.798828 0.266846 0.000000
0.832520 0.266846 0.000000
0.864746 0.266846 0.000000
0.893555 0.266846 0.000000
0.919434 0.266846 0.000000
0.942383 0.266846 0.000000
0.963867 0.266846 0.000000
0.983887 0.266846 0.000000
1.000000 0.266846 0.000000
0.000000 0.321533 0.000000
0.000015 0.321533 0.000000
0.000195 0.321533 0.000000
0.000994 0.321533 0.000000
0.003187 0.321533 0.000000
0.008011 0.321533 0.000000
0.016846 0.321533 0.000000
0.030991 0.321533 0.000000
0.051575 0.321533 0.000000
0.079651 0.321533 0.000000
0.114685 0.321533 0.000000
0.158936 0.321533 0.000000
0.211548 0.321533 0.000000
0.270508 0.321533 0.000000
0.334473 0.321533 0.000000
0.400635 0.321533 0.000000
0.464600 0.321533 0.000000
0.523438 0.321533 0.000000
0.578613 0.321533 0.000000
0.629883 0.321533 0.000000
0.678223 0.321533 0.000000
0.722168 0.321533 0.000000
0.762695 0.321533 0.000000
0.798828 0.321533 0.000000
0.832520 0.321533 0.000000
0.864746 0.321533 0.000000
0.893555 0.321533 0.000000
0.919434 0.321533 0.000000
0.942383 0.321533 0.000000
0.963867 0.321533 0.000000
0.983887 0.321533 0.000000
1.000000 0.321533 0.000000
0.000000 0.377930 0.000000
0.000015 0.377930 0.000000
0.000195 0.377930 0.000000
0.000994 0.377930 0.000000
0.003187 0.377930 0.000000
0.008011 0.377930 0.000000
0.016846 0.377930 0.000000
0.030991 0.377930 0.000000
0.051575 0.377930 0.000000
0.079651 0.377930 0.000000
0.114685 0.377930 0.000000
0.158936 0.377930 0.000000
0.211548 0.377930 0.000000
0.270508 0.377930 0.000000
0.334473 0.377930 0.000000
0.400635 0.377930 0.000000
0.464600 0.377930 0.000000
0.523438 0.377930 0.000000
0.578613 0.377930 0.000000
0.629883 0.377930 0.000000
0.678223 0.377930 0.000000
0.722168 0.377930 0.000000
0.762695 0.377930 0.000000
0.798828 0.377930 0.000000
0.832520 0.377930 0.000000
0.864746 0.377930 0.000000
0.893555 0.377930 0.000000
0.919434 0.377930 0.000000
0.942383 0.377930 0.000000
0.963867 0.377930 0.000000
0.983887 0.377930 0.000000
1.000000 0.377930 0.000000
0.000000 0.433594 0.000000
0.000015 0.433594 0.000000
0.000195 0.433594 0.000000
0.000994 0.433594 0.000000
0.003187 0.433594 0.000000
0.008011 0.433594 0.000000
0.016846 0.433594 0.000000
0.030991 0.433594 0.000000
0.051575 0.433594 0.000000
0.079651 0.433594 0.000000
0.114685 0.433594 0.000000
0.158936 0.433594 0.000000
0.211548 0.433594 0.000000
0.270508 0.433594 0.000000
0.334473 0.433594 0.000000
0.400635 0.433594 0.000000
0.464600 0.433594 0.000000
0.523438 0.433594 0.000000
0.578613 0.433594 0.000000
0.629883 0.433594 0.000000
0.678223 0.433594 0.000000
0.722168 0.433594 0.000000
0.762695 0.433594 0.000000
0.798828 0.433594 0.000000
0.832520 0.433594 0.000000
0.864746 0.433594 0.000000
0.893555 0.433594 0.000000
0.919434 0.433594 0.000000
0.942383 0.433594 0.000000
0.963867 0.433594 0.000000
0.983887 0.433594 0.000000
1.000000 0.433594 0.000000
0.000000 0.486816 0.000000
0.000015 0.486816 0.000000
0.000195 0.486816 0.000000
0.000994 0.486816 0.000000
0.003187 0.486816 0.000000
0.008011 0.486816 0.000000
0.016846 0.486816 0.000000
0.030991 0.486816 0.000000
0.051575 0.486816 0.000000
0.079651 0.486816 0.000000
0.114685 0.486816 0.000000
0.158936 0.486816 0.000000
0.211548 0.487061 0.000000
0.270508 0.487061 0.000000
0.334473 0.487061 0.000000
0.400635 0.487061 0.000000
0.464600 0.487061 0.000000
0.523438 0.487061 0.000000
0.578613 0.487061 0.000000
0.629883 0.487061 0.000000
0.678223 0.487061 0.000000
0.722168 0.487061 0.000000
0.762695 0.487061 0.000000
0.798828 0.487061 0.000000
0.832520 0.487061 0.000000
0.864746 0.487061 0.000000
0.893555 0.487061 0.000000
0.919434 0.487061 0.000000
0.942383 0.487061 0.000000
0.963867 0.487061 0.000000
0.983887 0.487061 0.000000
1.000000 0.487061 0.000000
0.000000 0.538574 0.000000
0.000015 0.538574 0.000000
0.000195 0.538574 0.000000
0.000994 0.538574 0.000000
0.003187 0.538574 0.000000
0.008011 0.538574 0.000000
0.016846 0.538574 0.000000
0.030991 0.538574 0.000000
0.051575 0.538574 0.000000
0.079651 0.538574 0.000000
0.114685 0.538574 0.000000
0.158936 0.538574 0.000000
0.211548 0.538574 0.000000
0.270508 0.538574 0.000000
0.334473 0.538574 0.000000
0.400635 0.538574 0.000000
0.464600 0.538574 0.000000
0.523438 0.538574 0.000000
0.578613 0.538574 0.000000
0.629883 0.538574 0.000000
0.678223 0.538574 0.000000
0.722168 0.538574 0.000000
0.762695 0.538574 0.000000
0.798828 0.538574 0.000000
0.832520 0.538574 0.000000
0.864746 0.538574 0.000000
0.893555 0.538574 0.000000
0.919434 0.538574 0.000000
0.942383 0.538574 0.000000
0.963867 0.538574 0.000000
0.983887 0.538574 0.000000
1.000000 0.538574 0.000000
0.000000 0.587402 0.000000
0.000015 0.587402 0.000000
0.000195 0.587402 0.000000
0.000994 0.587402 0.000000
0.003187 0.587402 0.000000
0.008011 0.587402 0.000000
0.016846 0.587402 0.000000
0.030991 0.587402 0.000000
0.051575 0.587402 0.000000
0.079651 0.587402 0.000000
0.114685 0.587402 0.000000
0.158936 0.587402 0.000000
0.211548 0.587402 0.000000
0.270508 0.587402 0.000000
0.334473 0.587402 0.000000
0.400635 0.587402 0.000000
0.464600 0.587402 0.000000
0.523438 0.587402 0.000000
0.578613 0.587402 0.000000
0.629883 0.587402 0.000000
0.678223 0.587402 0.000000
0.722168 0.587402 0.000000
0.762695 0.587402 0.000000
0.798828 0.587402 0.000000
0.832520 0.587402 0.000000
0.864746 0.587402 0.000000
0.893555 0.587402 0.000000
0.919434 0.587402 0.000000
0.942383 0.587402 0.000000
0.963867 0.587402 0.000000
0.983887 0.587402 0.000000
1.000000 0.587402 0.000000
0.000000 0.634277 0.000000
0.000015 0.634277 0.000000
0.000195 0.634277 0.000000
0.000994 0.634277 0.000000
0.003187 0.634277 0.000000
0.008011 0.634277 0.000000
0.016846 0.634277 0.000000
0.030991 0.634277 0.000000
0.051575 0.634277 0.000000
0.079651 0.634277 0.000000
0.114685 0.634277 0.000000
0.158936 0.634277 0.000000
0.211548 0.634277 0.000000
0.270508 0.634277 0.000000
0.334473 0.634277 0.000000
0.400635 0.634277 0.000000
0.464600 0.634277 0.000000
0.523438 0.634277 0.000000
0.578613 0.634277 0.000000
0.629883 0.634277 0.000000
0.678223 0.634277 0.000000
0.722168 0.634277 0.000000
0.762695 0.634277 0.000000
0.798828 0.634277 0.000000
0.832520 0.634277 0.000000
0.864746 0.634277 0.000000
0.893555 0.634277 0.000000
0.919434 0.634277 0.000000
0.942383 0.634277 0.000000
0.963867 0.634277 0.000000
0.983887 0.634277 0.000000
1.000000 0.634277 0.000000
0.000000 0.679688 0.000000
0.000015 0.679688 0.000000
0.000195 0.679688 0.000000
0.000994 0.679688 0.000000
0.003187 0.679688 0.000000
0.008011 0.679688 0.000000
0.016846 0.679688 0.000000
0.030991 0.679688 0.000000
0.051575 0.679688 0.000000
0.079651 0.679688 0.000000
0.114685 0.679688 0.000000
0.158936 0.679688 0.000000
0.211548 0.679688 0.000000
0.270508 0.679688 0.000000
0.334473 0.679688 0.000000
0.400635 0.679688 0.000000
0.464600 0.679688 0.000000
0.523438 0.679688 0.000000
0.578613 0.679688 0.000000
0.629883 0.679688 0.000000
0.678223 0.679688 0.000000
0.722168 0.679688 0.000000
0.762695 0.679688 0.000000
0.798828 0.679688 0.000000
0.832520 0.679688 0.000000
0.864746 0.679688 0.000000
0.893555 0.679688 0.000000
0.919434 0.679688 0.000000
0.942383 0.679688 0.000000
0.963867 0.679688 0.000000
0.983887 0.679688 0.000000
1.000000 0.679688 0.000000
0.000000 0.723145 0.000000
0.000015 0.723145 0.000000
0.000195 0.723145 0.000000
0.000994 0.723145 0.000000
0.003187 0.723145 0.000000
0.008011 0.723145 0.000000
0.016846 0.723145 0.000000
0.030991 0.723145 0.000000
0.051575 0.723145 0.000000
0.079651 0.723145 0.000000
0.114685 0.723145 0.000000
0.158936 0.723145 0.000000
0.211548 0.723145 0.000000
0.270508 0.723145 0.000000
0.334473 0.723145 0.000000
0.400635 0.723145 0.000000
0.464600 0.723145 0.000000
0.523438 0.723145 0.000000
0.578613 0.723145 0.000000
0.629883 0.723145 0.000000
0.678223 0.723145 0.000000
0.722168 0.723145 0.000000
0.762695 0.723145 0.000000
0.798828 0.723145 0.000000
0.832520 0.723145 0.000000
0.864746 0.723145 0.000000
0.893555 0.723145 0.000000
0.919434 0.723145 0.000000
0.942383 0.723145 0.000000
0.963867 0.723145 0.000000
0.983887 0.723145 0.000000
1.000000 0.723145 0.000000
0.000000 0.765137 0.000000
0.000015 0.765137 0.000000
0.000195 0.765137 0.000000
0.000994 0.765137 0.000000
0.003187 0.765137 0.000000
0.008011 0.765137 0.000000
0.016846 0.765137 0.000000
0.030991 0.765137 0.000000
0.051575 0.765137 0.000000
0.079651 0.765137 0.000000
0.114685 0.765137 0.000000
0.158936 0.765137 0.000000
0.211548 0.765137 0.000000
0.270508 0.765137 0.000000
0.334473 0.765137 0.000000
0.400635 0.765137 0.000000
0.464600 0.765137 0.000000
0.523438 0.765137 0.000000
0.578613 0.765137 0.000000
0.629883 0.765137 0.000000
0.678223 0.765137 0.000000
0.722168 0.765137 0.000000
0.762695 0.765137 0.000000
0.798828 0.765137 0.000000
0.832520 0.765137 0.000000
0.864746 0.765137 0.000000
0.893555 0.765137 0.000000
0.919434 0.765137 0.000000
0.942383 0.765137 0.000000
0.963867 0.765137 0.000000
0.983887 0.765137 0.000000
1.000000 0.765137 0.000000
0.000000 0.805664 0.000000
0.000015 0.805664 0.000000
0.000195 0.805664 0.000000
0.000994 0.805664 0.000000
0.003187 0.805664 0.000000
0.008011 0.805664 0.000000
0.016846 0.805664 0.000000
0.030991 0.805664 0.000000
0.051575 0.805664 0.000000
0.079651 0.805664 0.000000
0.114685 0.805664 0.000000
0.158936 0.805664 0.000000
0.211548 0.805664 0.000000
0.270508 0.805664 0.000000
0.334473 0.805664 0.000000
0.400635 0.805664 0.000000
0.464600 0.805664 0.000000
0.523438 0.805664 0.000000
0.578613 0.805664 0.000000
0.629883 0.805664 0.000000
0.678223 0.805664 0.000000
0.722168 0.805664 0.000000
0.762695 0.805664 0.000000
0.798828 0.805664 0.000000
0.832520 0.805664 0.000000
0.864746 0.805664 0.000000
0.893555 0.805664 0.000000
0.919434 0.805664 0.000000
0.942383 0.805664 0.000000
0.963867 0.805664 0.000000
0.983887 0.805664 0.000000
1.000000 0.805664 0.000000
0.000000 0.843750 0.000000
0.000015 0.843750 0.000000
0.000195 0.843750 0.000000
0.000994 0.843750 0.000000
0.003187 0.843750 0.000000
0.008011 0.843750 0.000000
0.016846 0.843750 0.000000
0.030991 0.843750 0.000000
0.051575 0.843750 0.000000
0.079651 0.843750 0.000000
0.114685 0.843750 0.000000
0.158936 0.843750 0.000000
0.211548 0.843750 0.000000
0.270508 0.843750 0.000000
0.334473 0.843750 0.000000
0.400635 0.843750 0.000000
0.464600 0.843750 0.000000
0.523438 0.843750 0.000000
0.578613 0.843750 0.000000
0.629883 0.843750 0.000000
0.678223 0.843750 0.000000
0.722168 0.843750 0.000000
0.762695 0.843750 0.000000
0.798828 0.843750 0.000000
0.832520 0.843750 0.000000
0.864746 0.843750 0.000000
0.893555 0.843750 0.000000
0.919434 0.843750 0.000000
0.942383 0.843750 0.000000
0.963867 0.843750 0.000000
0.983887 0.843750 0.000000
1.000000 0.843750 0.000000
0.000000 0.878906 0.000000
0.000015 0.878906 0.000000
0.000195 0.878906 0.000000
0.000994 0.878906 0.000000
0.003187 0.878906 0.000000
0.008011 0.878906 0.000000
0.016846 0.878906 0.000000
0.030991 0.878906 0.000000
0.051575 0.878906 0.000000
0.079651 0.878906 0.000000
0.114685 0.878906 0.000000
0.158936 0.878906 0.000000
0.211548 0.878906 0.000000
0.270508 0.879395 0.000000
0.334473 0.879395 0.000000
0.400635 0.879395 0.000000
0.464600 0.879395 0.000000
0.523438 0.879395 0.000000
0.578613 0.879395 0.000000
0.629883 0.879395 0.000000
0.678223 0.879395 0.000000
0.722168 0.879395 0.000000
0.762695 0.879395 0.000000
