cubelut/Adanmq_F400.cube
TITLE "Generated by Foundry::LUT"
LUT_3D_SIZE 5
DOMAIN_MIN 0.000000 0.000000 0.000000
DOMAIN_MAX 0.903226 0.903226 0.903226
0.000000 0.000000 0.000000
0.438721 0.000000 0.000000
0.687988 0.000000 0.000000
0.860840 0.000000 0.000000
0.974609 0.000000 0.000000
0.000000 0.298828 0.000000
0.438721 0.298828 0.000000
0.687988 0.298828 0.000000
0.860840 0.299072 0.000000
0.974609 0.299072 0.000000
0.000000 0.535645 0.000000
0.438721 0.535645 0.000000
0.687988 0.535645 0.000000
0.860840 0.535645 0.000000
0.974609 0.535645 0.000000
0.000000 0.743164 0.000000
0.438721 0.743164 0.000000
0.687988 0.743164 0.000000
0.860840 0.743164 0.000000
0.974609 0.743164 0.000000
0.000000 0.930664 0.000000
0.438721 0.930664 0.000000
0.687988 0.930664 0.000000
0.860840 0.930664 0.000000
0.974609 0.930664 0.000000
0.000002 0.000000 0.342773
0.438721 0.000000 0.342773
0.687988 0.000000 0.342773
0.860840 0.000000 0.342773
0.974609 0.000000 0.342773
0.000002 0.298828 0.342773
0.438721 0.298828 0.342773
0.687988 0.298828 0.342773
0.860840 0.298828 0.342773
0.974609 0.299072 0.342773
0.000002 0.535645 0.342773
0.438721 0.535645 0.342773
0.687988 0.535645 0.342773
0.860840 0.535645 0.342773
0.974609 0.535645 0.342773
0.000002 0.743164 0.342773
0.438721 0.743164 0.342773
0.687988 0.743164 0.342773
0.860840 0.743164 0.342773
0.974609 0.743164 0.342773
0.000002 0.930664 0.342773
0.438721 0.930664 0.342773
0.687988 0.930664 0.342773
0.860840 0.930664 0.342773
0.974609 0.930664 0.342773
0.000008 0.000000 0.614258
0.438721 0.000000 0.614258
0.688477 0.000000 0.614258
0.860840 0.000000 0.614258
0.974609 0.000000 0.614258
0.000008 0.298828 0.614258
0.438721 0.298828 0.614258
0.688477 0.298828 0.614258
0.860840 0.298828 0.614258
0.974609 0.298828 0.614258
0.000008 0.535645 0.614258
0.438721 0.535645 0.614258
0.688477 0.535645 0.614258
0.860840 0.535645 0.614258
0.974609 0.535645 0.614258
0.000008 0.743164 0.614258
0.438721 0.743164 0.614258
0.688477 0.743164 0.614258
0.860840 0.743164 0.614258
0.974609 0.743164 0.614258
0.000008 0.930664 0.614258
0.438721 0.930664 0.614258
0.688477 0.930664 0.614258
0.860840 0.930664 0.614258
0.974609 0.930664 0.614258
0.000019 0.000000 0.820801
0.438721 0.000000 0.820801
0.688477 0.000000 0.820801
0.860840 0.000000 0.820801
0.975098 0.000000 0.820801
0.000019 0.298828 0.820801
0.438721 0.298828 0.820801
0.688477 0.298828 0.820801
0.860840 0.298828 0.820801
0.975098 0.298828 0.820801
0.000019 0.535645 0.820801
0.438721 0.535645 0.820801
0.688477 0.535645 0.820801
0.860840 0.535645 0.820801
0.975098 0.535645 0.820801
0.000019 0.743164 0.820801
0.438721 0.743164 0.820801
0.688477 0.743164 0.820801
0.860840 0.743164 0.820801
0.975098 0.743164 0.820801
0.000019 0.930664 0.820801
0.438721 0.930664 0.820801
0.688477 0.930664 0.820801
0.860840 0.930664 0.820801
0.975098 0.930664 0.820801
0.000037 0.000000 0.961426
0.438965 0.000000 0.961426
0.688477 0.000000 0.961426
0.860840 0.000000 0.961426
0.975098 0.000000 0.961426
0.000037 0.298828 0.961426
0.438965 0.298828 0.961426
0.688477 0.298828 0.961426
0.860840 0.298828 0.961426
0.975098 0.298828 0.961426
0.000037 0.535645 0.961426
0.438965 0.535645 0.961426
0.688477 0.535645 0.961426
0.860840 0.535645 0.961426
0.975098 0.535645 0.961426
0.000037 0.743164 0.961426
0.438965 0.743164 0.961426
0.688477 0.743164 0.961426
0.860840 0.743164 0.961426
0.975098 0.743164 0.961426
0.000037 0.930664 0.961426
0.438965 0.930664 0.961426
0.688477 0.930664 0.961426
0.860840 0.930664 0.961426
0.975098 0.930664 0.961426
