cubelut/Adanmq_AgfaColor Futura 400.cube
TITLE "Generated by Foundry::LUT"
LUT_3D_SIZE 5
DOMAIN_MIN 0.000000 0.000000 0.000000
DOMAIN_MAX 0.903226 0.903226 0.903226
0.000000 0.000000 0.000000
0.346436 0.000000 0.000000
0.594727 0.000000 0.000000
0.785156 0.000000 0.000000
0.944824 0.000000 0.000000
0.000000 0.353516 0.000000
0.346436 0.353760 0.000000
0.594727 0.353760 0.000000
0.785156 0.353760 0.000000
0.944824 0.353760 0.000000
0.000000 0.612305 0.000000
0.346436 0.612305 0.000000
0.594727 0.612305 0.000000
0.785156 0.612305 0.000000
0.944824 0.612305 0.000000
0.000000 0.797852 0.000000
0.346436 0.797852 0.000000
0.594727 0.797852 0.000000
0.785156 0.797852 0.000000
0.944824 0.797852 0.000000
0.000000 0.949219 0.000000
0.346436 0.949219 0.000000
0.594727 0.949219 0.000000
0.785156 0.949219 0.000000
0.944824 0.949219 0.000000
0.000000 0.000000 0.294434
0.346436 0.000000 0.294434
0.594727 0.000000 0.294434
0.785156 0.000000 0.294434
0.944824 0.000000 0.294434
0.000000 0.353516 0.294434
0.346436 0.353516 0.294434
0.594727 0.353760 0.294434
0.785156 0.353760 0.294434
0.944824 0.353760 0.294434
0.000000 0.612305 0.294434
0.346436 0.612305 0.294434
0.594727 0.612305 0.294434
0.785156 0.612305 0.294434
0.944824 0.612305 0.294434
0.000000 0.797852 0.294434
0.346436 0.797852 0.294434
0.594727 0.797852 0.294434
0.785156 0.797852 0.294434
0.944824 0.797852 0.294434
0.000000 0.949219 0.294434
0.346436 0.949219 0.294434
0.594727 0.949219 0.294434
0.785156 0.949219 0.294434
0.944824 0.949219 0.294434
0.000001 0.000000 0.547363
0.346436 0.000000 0.547363
0.594727 0.000000 0.547363
0.785156 0.000000 0.547363
0.944824 0.000000 0.547363
0.000001 0.353516 0.547363
0.346436 0.353516 0.547363
0.594727 0.353516 0.547363
0.785156 0.353760 0.547363
0.944824 0.353760 0.547363
0.000001 0.612305 0.547363
0.346436 0.612305 0.547363
0.594727 0.612305 0.547363
0.785156 0.612305 0.547363
0.944824 0.612305 0.547363
0.000001 0.797852 0.547363
0.346436 0.797852 0.547363
0.594727 0.797852 0.547363
0.785156 0.797852 0.547363
0.944824 0.797852 0.547363
0.000001 0.949219 0.547363
0.346436 0.949219 0.547363
0.594727 0.949219 0.547363
0.785156 0.949219 0.547363
0.944824 0.949219 0.547363
0.000002 0.000000 0.747070
0.346436 0.000000 0.747070
0.594727 0.000000 0.747070
0.785156 0.000000 0.747070
0.944824 0.000000 0.747070
0.000002 0.353516 0.747070
0.346436 0.353516 0.747070
0.594727 0.353516 0.747070
0.785156 0.353516 0.747070
0.944824 0.353760 0.747070
0.000002 0.612305 0.747070
0.346436 0.612305 0.747070
0.594727 0.612305 0.747070
0.785156 0.612305 0.747070
0.944824 0.612305 0.747070
0.000002 0.797852 0.747070
0.346436 0.797852 0.747070
0.594727 0.797852 0.747070
0.785156 0.797852 0.747070
0.944824 0.797852 0.747070
0.000002 0.949219 0.747070
0.346436 0.949219 0.747070
0.594727 0.949219 0.747070
0.785156 0.949219 0.747070
0.944824 0.949219 0.747070
0.000003 0.000000 0.934082
0.346680 0.000000 0.934082
0.594727 0.000000 0.934082
0.785156 0.000000 0.934082
0.944824 0.000000 0.934082
0.000003 0.353516 0.934082
0.346680 0.353516 0.934082
0.594727 0.353516 0.934082
0.785156 0.353516 0.934082
0.944824 0.353516 0.934082
0.000003 0.612305 0.934082
0.346680 0.612305 0.934082
0.594727 0.612305 0.934082
0.785156 0.612305 0.934082
0.944824 0.612305 0.934082
0.000003 0.797852 0.934082
0.346680 0.797852 0.934082
0.594727 0.797852 0.934082
0.785156 0.797852 0.934082
0.944824 0.797852 0.934082
0.000003 0.949219 0.934082
0.346680 0.949219 0.934082
0.594727 0.949219 0.934082
0.785156 0.949219 0.934082
0.944824 0.949219 0.934082
