cubelut/Adanmq_AgfaColor HDC 400+.cube
TITLE "Generated by Foundry::LUT"
LUT_3D_SIZE 8
DOMAIN_MIN 0.000000 0.000000 0.000000
DOMAIN_MAX 0.903226 0.903226 0.903226
0.000000 0.000000 0.000000
0.202881 0.000000 0.000000
0.387939 0.000000 0.000000
0.532715 0.000000 0.000000
0.653809 0.000000 0.000000
0.760742 0.000000 0.000000
0.858398 0.000000 0.000000
0.946777 0.000000 0.000000
0.000000 0.205688 0.000000
0.202881 0.205688 0.000000
0.387939 0.205688 0.000000
0.532715 0.205688 0.000000
0.653809 0.205688 0.000000
0.760742 0.205688 0.000000
0.858398 0.205688 0.000000
0.946777 0.205688 0.000000
0.000000 0.396240 0.000000
0.202881 0.396240 0.000000
0.387939 0.396240 0.000000
0.532715 0.396240 0.000000
0.653809 0.396240 0.000000
0.760742 0.396240 0.000000
0.858398 0.396240 0.000000
0.946777 0.396240 0.000000
0.000000 0.545898 0.000000
0.202881 0.545898 0.000000
0.387939 0.545898 0.000000
0.532715 0.545898 0.000000
0.653809 0.545898 0.000000
0.760742 0.545898 0.000000
0.858398 0.545898 0.000000
0.946777 0.545898 0.000000
0.000000 0.667969 0.000000
0.202881 0.667969 0.000000
0.387939 0.667969 0.000000
0.532715 0.667969 0.000000
0.653809 0.667969 0.000000
0.760742 0.667969 0.000000
0.858398 0.667969 0.000000
0.946777 0.667969 0.000000
0.000000 0.770996 0.000000
0.202881 0.770996 0.000000
0.387939 0.770996 0.000000
0.532715 0.770996 0.000000
0.653809 0.770996 0.000000
0.760742 0.770996 0.000000
0.858398 0.770996 0.000000
0.946777 0.770996 0.000000
0.000000 0.863770 0.000000
0.202881 0.863770 0.000000
0.387939 0.863770 0.000000
0.532715 0.863770 0.000000
0.653809 0.863770 0.000000
0.760742 0.863770 0.000000
0.858398 0.863770 0.000000
0.946777 0.863770 0.000000
0.000000 0.947266 0.000000
0.202881 0.947266 0.000000
0.387939 0.947266 0.000000
0.532715 0.947266 0.000000
0.653809 0.947266 0.000000
0.760742 0.947266 0.000000
0.858398 0.947266 0.000000
0.946777 0.947266 0.000000
0.000000 0.000000 0.162109
0.203003 0.000000 0.162109
0.388184 0.000000 0.162109
0.532715 0.000000 0.162109
0.653809 0.000000 0.162109
0.760742 0.000000 0.162109
0.858398 0.000000 0.162109
0.946777 0.000000 0.162109
0.000000 0.205688 0.162109
0.203003 0.205688 0.162109
0.388184 0.205688 0.162109
0.532715 0.205688 0.162109
0.653809 0.205688 0.162109
0.760742 0.205688 0.162109
0.858398 0.205688 0.162109
0.946777 0.205688 0.162109
0.000000 0.396240 0.162109
0.203003 0.396240 0.162109
0.388184 0.396240 0.162109
0.532715 0.396240 0.162109
0.653809 0.396240 0.162109
0.760742 0.396240 0.162109
0.858398 0.396240 0.162109
0.946777 0.396240 0.162109
0.000000 0.545898 0.162109
0.203003 0.545898 0.162109
0.388184 0.545898 0.162109
0.532715 0.545898 0.162109
0.653809 0.545898 0.162109
0.760742 0.545898 0.162109
0.858398 0.545898 0.162109
0.946777 0.545898 0.162109
0.000000 0.667969 0.162109
0.203003 0.667969 0.162109
0.388184 0.667969 0.162109
0.532715 0.667969 0.162109
0.653809 0.667969 0.162109
0.760742 0.667969 0.162109
0.858398 0.667969 0.162109
0.946777 0.667969 0.162109
0.000000 0.770996 0.162109
0.203003 0.770996 0.162109
0.388184 0.770996 0.162109
0.532715 0.770996 0.162109
0.653809 0.770996 0.162109
0.760742 0.770996 0.162109
0.858398 0.770996 0.162109
0.946777 0.770996 0.162109
0.000000 0.863770 0.162109
0.203003 0.863770 0.162109
0.388184 0.863770 0.162109
0.532715 0.863770 0.162109
0.653809 0.863770 0.162109
0.760742 0.863770 0.162109
0.858398 0.863770 0.162109
0.946777 0.863770 0.162109
0.000000 0.947266 0.162109
0.203003 0.947266 0.162109
0.388184 0.947266 0.162109
0.532715 0.947266 0.162109
0.653809 0.947266 0.162109
0.760742 0.947266 0.162109
0.858398 0.947266 0.162109
0.946777 0.947266 0.162109
0.000000 0.000000 0.333740
0.203003 0.000000 0.333740
0.388184 0.000000 0.333740
0.532715 0.000000 0.333740
0.653809 0.000000 0.333740
0.760742 0.000000 0.333740
0.858398 0.000000 0.333740
0.946777 0.000000 0.333740
0.000000 0.205688 0.333740
0.203003 0.205688 0.333740
0.388184 0.205688 0.333740
0.532715 0.205688 0.333740
0.653809 0.205688 0.333740
0.760742 0.205688 0.333740
0.858398 0.205688 0.333740
0.946777 0.205688 0.333740
0.000000 0.396240 0.333740
0.203003 0.396240 0.333740
0.388184 0.396240 0.333740
0.532715 0.396240 0.333740
0.653809 0.396240 0.333740
0.760742 0.396240 0.333740
0.858398 0.396240 0.333740
0.946777 0.396240 0.333740
0.000000 0.545898 0.333740
0.203003 0.545898 0.333740
0.388184 0.545898 0.333740
0.532715 0.545898 0.333740
0.653809 0.545898 0.333740
0.760742 0.545898 0.333740
0.858398 0.545898 0.333740
0.946777 0.545898 0.333740
0.000000 0.667969 0.333740
0.203003 0.667969 0.333740
0.388184 0.667969 0.333740
0.532715 0.667969 0.333740
0.653809 0.667969 0.333740
0.760742 0.667969 0.333740
0.858398 0.667969 0.333740
0.946777 0.667969 0.333740
0.000000 0.770996 0.333740
0.203003 0.770996 0.333740
0.388184 0.770996 0.333740
0.532715 0.770996 0.333740
0.653809 0.770996 0.333740
0.760742 0.770996 0.333740
0.858398 0.770996 0.333740
0.946777 0.770996 0.333740
0.000000 0.863770 0.333740
0.203003 0.863770 0.333740
0.388184 0.863770 0.333740
0.532715 0.863770 0.333740
0.653809 0.863770 0.333740
0.760742 0.863770 0.333740
0.858398 0.863770 0.333740
0.946777 0.863770 0.333740
0.000000 0.947266 0.333740
0.203003 0.947266 0.333740
0.388184 0.947266 0.333740
0.532715 0.947266 0.333740
0.653809 0.947266 0.333740
0.760742 0.947266 0.333740
0.858398 0.947266 0.333740
0.946777 0.947266 0.333740
0.000000 0.000000 0.479980
0.203003 0.000000 0.479980
0.388184 0.000000 0.479980
0.532715 0.000000 0.479980
0.653809 0.000000 0.479980
0.760742 0.000000 0.479980
0.858398 0.000000 0.479980
0.946777 0.000000 0.479980
0.000000 0.205688 0.479980
0.203003 0.205688 0.479980
0.388184 0.205688 0.479980
0.532715 0.205688 0.479980
0.653809 0.205688 0.479980
0.760742 0.205688 0.479980
0.858398 0.205688 0.479980
0.946777 0.205688 0.479980
0.000000 0.396240 0.479980
0.203003 0.396240 0.479980
0.388184 0.396240 0.479980
0.532715 0.396240 0.479980
0.653809 0.396240 0.479980
0.760742 0.396240 0.479980
0.858398 0.396240 0.479980
0.946777 0.396240 0.479980
0.000000 0.545898 0.479980
0.203003 0.545898 0.479980
0.388184 0.545898 0.479980
0.532715 0.545898 0.479980
0.653809 0.545898 0.479980
0.760742 0.545898 0.479980
0.858398 0.545898 0.479980
0.946777 0.545898 0.479980
0.000000 0.667969 0.479980
0.203003 0.667969 0.479980
0.388184 0.667969 0.479980
0.532715 0.667969 0.479980
0.653809 0.667969 0.479980
0.760742 0.667969 0.479980
0.858398 0.667969 0.479980
0.946777 0.667969 0.479980
0.000000 0.770996 0.479980
0.203003 0.770996 0.479980
0.388184 0.770996 0.479980
0.532715 0.770996 0.479980
0.653809 0.770996 0.479980
0.760742 0.770996 0.479980
0.858398 0.770996 0.479980
0.946777 0.770996 0.479980
0.000000 0.863770 0.479980
0.203003 0.863770 0.479980
0.388184 0.863770 0.479980
0.532715 0.863770 0.479980
0.653809 0.863770 0.479980
0.760742 0.863770 0.479980
0.858398 0.863770 0.479980
0.946777 0.863770 0.479980
0.000000 0.947266 0.479980
0.203003 0.947266 0.479980
0.388184 0.947266 0.479980
0.532715 0.947266 0.479980
0.653809 0.947266 0.479980
0.760742 0.947266 0.479980
0.858398 0.947266 0.479980
0.946777 0.947266 0.479980
0.000001 0.000000 0.604004
0.203125 0.000000 0.604004
0.388184 0.000000 0.604004
0.532715 0.000000 0.604004
0.653809 0.000000 0.604004
0.760742 0.000000 0.604004
0.858398 0.000000 0.604004
0.946777 0.000000 0.604004
0.000001 0.205688 0.604004
0.203125 0.205688 0.604004
0.388184 0.205688 0.604004
0.532715 0.205688 0.604004
0.653809 0.205688 0.604004
0.760742 0.205688 0.604004
0.858398 0.205688 0.604004
0.946777 0.205688 0.604004
0.000001 0.396240 0.604004
0.203125 0.396240 0.604004
0.388184 0.396240 0.604004
0.532715 0.396240 0.604004
0.653809 0.396240 0.604004
0.760742 0.396240 0.604004
0.858398 0.396240 0.604004
0.946777 0.396240 0.604004
0.000001 0.545898 0.604004
0.203125 0.545898 0.604004
0.388184 0.545898 0.604004
0.532715 0.545898 0.604004
0.653809 0.545898 0.604004
0.760742 0.545898 0.604004
0.858398 0.545898 0.604004
0.946777 0.545898 0.604004
0.000001 0.667969 0.604004
0.203125 0.667969 0.604004
0.388184 0.667969 0.604004
0.532715 0.667969 0.604004
0.653809 0.667969 0.604004
0.760742 0.667969 0.604004
0.858398 0.667969 0.604004
0.946777 0.667969 0.604004
0.000001 0.770996 0.604004
0.203125 0.770996 0.604004
0.388184 0.770996 0.604004
0.532715 0.770996 0.604004
0.653809 0.770996 0.604004
0.760742 0.770996 0.604004
0.858398 0.770996 0.604004
0.946777 0.770996 0.604004
0.000001 0.863770 0.604004
0.203125 0.863770 0.604004
0.388184 0.863770 0.604004
0.532715 0.863770 0.604004
0.653809 0.863770 0.604004
0.760742 0.863770 0.604004
0.858398 0.863770 0.604004
0.946777 0.863770 0.604004
0.000001 0.947266 0.604004
0.203125 0.947266 0.604004
0.388184 0.947266 0.604004
0.532715 0.947266 0.604004
0.653809 0.947266 0.604004
0.760742 0.947266 0.604004
0.858398 0.947266 0.604004
0.946777 0.947266 0.604004
0.000001 0.000000 0.716309
0.203125 0.000000 0.716309
0.388184 0.000000 0.716309
0.532715 0.000000 0.716309
0.653809 0.000000 0.716309
0.760742 0.000000 0.716309
0.858398 0.000000 0.716309
0.946777 0.000000 0.716309
0.000001 0.205688 0.716309
0.203125 0.205688 0.716309
0.388184 0.205688 0.716309
0.532715 0.205688 0.716309
0.653809 0.205688 0.716309
0.760742 0.205688 0.716309
0.858398 0.205688 0.716309
0.946777 0.205688 0.716309
0.000001 0.396240 0.716309
0.203125 0.396240 0.716309
0.388184 0.396240 0.716309
0.532715 0.396240 0.716309
0.653809 0.396240 0.716309
0.760742 0.396240 0.716309
0.858398 0.396240 0.716309
0.946777 0.396240 0.716309
0.000001 0.545898 0.716309
0.203125 0.545898 0.716309
0.388184 0.545898 0.716309
0.532715 0.545898 0.716309
0.653809 0.545898 0.716309
0.760742 0.545898 0.716309
0.858398 0.545898 0.716309
0.946777 0.545898 0.716309
0.000001 0.667969 0.716309
0.203125 0.667969 0.716309
0.388184 0.667969 0.716309
0.532715 0.667969 0.716309
0.653809 0.667969 0.716309
0.760742 0.667969 0.716309
0.858398 0.667969 0.716309
0.946777 0.667969 0.716309
0.000001 0.770996 0.716309
0.203125 0.770996 0.716309
0.388184 0.770996 0.716309
0.532715 0.770996 0.716309
0.653809 0.770996 0.716309
0.760742 0.770996 0.716309
0.858398 0.770996 0.716309
0.946777 0.770996 0.716309
0.000001 0.863770 0.716309
0.203125 0.863770 0.716309
0.388184 0.863770 0.716309
0.532715 0.863770 0.716309
0.653809 0.863770 0.716309
0.760742 0.863770 0.716309
0.858398 0.863770 0.716309
0.946777 0.863770 0.716309
0.000001 0.947266 0.716309
0.203125 0.947266 0.716309
0.388184 0.947266 0.716309
0.532715 0.947266 0.716309
0.653809 0.947266 0.716309
0.760742 0.947266 0.716309
0.858398 0.947266 0.716309
0.946777 0.947266 0.716309
0.000002 0.000000 0.825684
0.203125 0.000000 0.825684
0.388184 0.000000 0.825684
0.532715 0.000000 0.825684
0.653809 0.000000 0.825684
0.760742 0.000000 0.825684
0.858398 0.000000 0.825684
0.946777 0.000000 0.825684
0.000002 0.205688 0.825684
0.203125 0.205688 0.825684
0.388184 0.205688 0.825684
0.532715 0.205688 0.825684
0.653809 0.205688 0.825684
0.760742 0.205688 0.825684
0.858398 0.205688 0.825684
0.946777 0.205688 0.825684
0.000002 0.396240 0.825684
0.203125 0.396240 0.825684
0.388184 0.396240 0.825684
0.532715 0.396240 0.825684
0.653809 0.396240 0.825684
0.760742 0.396240 0.825684
0.858398 0.396240 0.825684
0.946777 0.396240 0.825684
0.000002 0.545898 0.825684
0.203125 0.545898 0.825684
0.388184 0.545898 0.825684
0.532715 0.545898 0.825684
0.653809 0.545898 0.825684
0.760742 0.545898 0.825684
0.858398 0.545898 0.825684
0.946777 0.545898 0.825684
0.000002 0.667969 0.825684
0.203125 0.667969 0.825684
0.388184 0.667969 0.825684
0.532715 0.667969 0.825684
0.653809 0.667969 0.825684
0.760742 0.667969 0.825684
0.858398 0.667969 0.825684
0.946777 0.667969 0.825684
0.000002 0.770996 0.825684
0.203125 0.770996 0.825684
0.388184 0.770996 0.825684
0.532715 0.770996 0.825684
0.653809 0.770996 0.825684
0.760742 0.770996 0.825684
0.858398 0.770996 0.825684
0.946777 0.770996 0.825684
0.000002 0.863770 0.825684
0.203125 0.863770 0.825684
0.388184 0.863770 0.825684
0.532715 0.863770 0.825684
0.653809 0.863770 0.825684
0.760742 0.863770 0.825684
0.858398 0.863770 0.825684
0.946777 0.863770 0.825684
0.000002 0.947266 0.825684
0.203125 0.947266 0.825684
0.388184 0.947266 0.825684
0.532715 0.947266 0.825684
0.653809 0.947266 0.825684
0.760742 0.947266 0.825684
0.858398 0.947266 0.825684
0.946777 0.947266 0.825684
0.000003 0.000000 0.931641
0.203125 0.000000 0.931641
0.388184 0.000000 0.931641
0.532715 0.000000 0.931641
0.653809 0.000000 0.931641
0.760742 0.000000 0.931641
0.858398 0.000000 0.931641
0.946777 0.000000 0.931641
0.000003 0.205688 0.931641
0.203125 0.205688 0.931641
0.388184 0.205688 0.931641
0.532715 0.205688 0.931641
0.653809 0.205688 0.931641
0.760742 0.205688 0.931641
0.858398 0.205688 0.931641
0.946777 0.205688 0.931641
0.000003 0.396240 0.931641
0.203125 0.396240 0.931641
0.388184 0.396240 0.931641
0.532715 0.396240 0.931641
0.653809 0.396240 0.931641
0.760742 0.396240 0.931641
0.858398 0.396240 0.931641
0.946777 0.396240 0.931641
0.000003 0.545898 0.931641
0.203125 0.545898 0.931641
0.388184 0.545898 0.931641
0.532715 0.545898 0.931641
0.653809 0.545898 0.931641
0.760742 0.545898 0.931641
0.858398 0.545898 0.931641
0.946777 0.545898 0.931641
0.000003 0.667969 0.931641
0.203125 0.667969 0.931641
0.388184 0.667969 0.931641
0.532715 0.667969 0.931641
0.653809 0.667969 0.931641
0.760742 0.667969 0.931641
0.858398 0.667969 0.931641
0.946777 0.667969 0.931641
0.000003 0.770996 0.931641
0.203125 0.770996 0.931641
0.388184 0.770996 0.931641
0.532715 0.770996 0.931641
0.653809 0.770996 0.931641
0.760742 0.770996 0.931641
0.858398 0.770996 0.931641
0.946777 0.770996 0.931641
0.000003 0.863770 0.931641
0.203125 0.863770 0.931641
0.388184 0.863770 0.931641
0.532715 0.863770 0.931641
0.653809 0.863770 0.931641
0.760742 0.863770 0.931641
0.858398 0.863770 0.931641
0.946777 0.863770 0.931641
0.000003 0.947266 0.931641
0.203125 0.947266 0.931641
0.388184 0.947266 0.931641
0.532715 0.947266 0.931641
0.653809 0.947266 0.931641
0.760742 0.947266 0.931641
0.858398 0.947266 0.931641
0.946777 0.947266 0.931641
