cubelut/Adanmq_Portra 160v.cube
TITLE "Generated by Foundry::LUT"
LUT_3D_SIZE 32
0.000000 0.000000 0.000000
0.010132 0.000000 0.000000
0.026596 0.000000 0.000000
0.046448 0.000000 0.000000
0.068115 0.000000 0.000000
0.092102 0.000000 0.000000
0.117493 0.000000 0.000000
0.143677 0.000000 0.000000
0.171265 0.000000 0.000000
0.200317 0.000000 0.000000
0.230469 0.000000 0.000000
0.261475 0.000000 0.000000
0.292969 0.000000 0.000000
0.325195 0.000000 0.000000
0.357910 0.000000 0.000000
0.391357 0.000000 0.000000
0.426025 0.000000 0.000000
0.461670 0.000000 0.000000
0.497803 0.000000 0.000000
0.534668 0.000000 0.000000
0.571777 0.000000 0.000000
0.609375 0.000000 0.000000
0.647461 0.000000 0.000000
0.686035 0.000000 0.000000
0.725586 0.000000 0.000000
0.764648 0.000000 0.000000
0.804199 0.000000 0.000000
0.844238 0.000000 0.000000
0.884277 0.000000 0.000000
0.924316 0.000000 0.000000
0.963379 0.000000 0.000000
1.000000 0.000000 0.000000
0.000000 0.008659 0.000000
0.010132 0.008659 0.000000
0.026596 0.008659 0.000000
0.046448 0.008659 0.000000
0.068115 0.008659 0.000000
0.092102 0.008659 0.000000
0.117493 0.008659 0.000000
0.143677 0.008659 0.000000
0.171265 0.008659 0.000000
0.200317 0.008659 0.000000
0.230469 0.008659 0.000000
0.261475 0.008659 0.000000
0.292969 0.008659 0.000000
0.325195 0.008659 0.000000
0.357910 0.008659 0.000000
0.391357 0.008659 0.000000
0.426025 0.008659 0.000000
0.461670 0.008667 0.000000
0.497803 0.008667 0.000000
0.534668 0.008667 0.000000
0.571777 0.008667 0.000000
0.609375 0.008667 0.000000
0.647461 0.008667 0.000000
0.686035 0.008667 0.000000
0.725586 0.008667 0.000000
0.764648 0.008667 0.000000
0.804199 0.008667 0.000000
0.844238 0.008667 0.000000
0.884277 0.008667 0.000000
0.924316 0.008667 0.000000
0.963379 0.008667 0.000000
1.000000 0.008667 0.000000
0.000000 0.023407 0.000000
0.010132 0.023407 0.000000
0.026596 0.023407 0.000000
0.046448 0.023407 0.000000
0.068115 0.023407 0.000000
0.092102 0.023407 0.000000
0.117493 0.023407 0.000000
0.143677 0.023407 0.000000
0.171265 0.023407 0.000000
0.200317 0.023407 0.000000
0.230469 0.023407 0.000000
0.261475 0.023407 0.000000
0.292969 0.023407 0.000000
0.325195 0.023407 0.000000
0.357910 0.023407 0.000000
0.391357 0.023407 0.000000
0.426025 0.023407 0.000000
0.461670 0.023407 0.000000
0.497803 0.023422 0.000000
0.534668 0.023422 0.000000
0.571777 0.023422 0.000000
0.609375 0.023422 0.000000
0.647461 0.023422 0.000000
0.686035 0.023422 0.000000
0.725586 0.023422 0.000000
0.764648 0.023422 0.000000
0.804199 0.023422 0.000000
0.844238 0.023422 0.000000
0.884277 0.023422 0.000000
0.924316 0.023422 0.000000
0.963379 0.023422 0.000000
1.000000 0.023422 0.000000
0.000000 0.041443 0.000000
0.010132 0.041443 0.000000
0.026596 0.041443 0.000000
0.046448 0.041443 0.000000
0.068115 0.041443 0.000000
0.092102 0.041443 0.000000
0.117493 0.041443 0.000000
0.143677 0.041443 0.000000
0.171265 0.041443 0.000000
0.200317 0.041443 0.000000
0.230469 0.041443 0.000000
0.261475 0.041443 0.000000
0.292969 0.041443 0.000000
0.325195 0.041443 0.000000
0.357910 0.041443 0.000000
0.391357 0.041443 0.000000
0.426025 0.041443 0.000000
0.461670 0.041443 0.000000
0.497803 0.041443 0.000000
0.534668 0.041443 0.000000
0.571777 0.041443 0.000000
0.609375 0.041443 0.000000
0.647461 0.041443 0.000000
0.686035 0.041443 0.000000
0.725586 0.041473 0.000000
0.764648 0.041473 0.000000
0.804199 0.041473 0.000000
0.844238 0.041473 0.000000
0.884277 0.041473 0.000000
0.924316 0.041473 0.000000
0.963379 0.041473 0.000000
1.000000 0.041473 0.000000
0.000000 0.061859 0.000000
0.010132 0.061859 0.000000
0.026596 0.061859 0.000000
0.046448 0.061859 0.000000
0.068115 0.061859 0.000000
0.092102 0.061859 0.000000
0.117493 0.061859 0.000000
0.143677 0.061859 0.000000
0.171265 0.061859 0.000000
0.200317 0.061859 0.000000
0.230469 0.061859 0.000000
0.261475 0.061859 0.000000
0.292969 0.061859 0.000000
0.325195 0.061859 0.000000
0.357910 0.061859 0.000000
0.391357 0.061859 0.000000
0.426025 0.061859 0.000000
0.461670 0.061859 0.000000
0.497803 0.061859 0.000000
0.534668 0.061859 0.000000
0.571777 0.061859 0.000000
0.609375 0.061859 0.000000
0.647461 0.061859 0.000000
0.686035 0.061859 0.000000
0.725586 0.061859 0.000000
0.764648 0.061859 0.000000
0.804199 0.061859 0.000000
0.844238 0.061859 0.000000
0.884277 0.061859 0.000000
0.924316 0.061859 0.000000
0.963379 0.061859 0.000000
1.000000 0.061859 0.000000
0.000000 0.084351 0.000000
0.010132 0.084351 0.000000
0.026596 0.084351 0.000000
0.046448 0.084351 0.000000
0.068115 0.084351 0.000000
0.092102 0.084351 0.000000
0.117493 0.084351 0.000000
0.143677 0.084351 0.000000
0.171265 0.084351 0.000000
0.200317 0.084351 0.000000
0.230469 0.084351 0.000000
0.261475 0.084351 0.000000
0.292969 0.084351 0.000000
0.325195 0.084351 0.000000
0.357910 0.084351 0.000000
0.391357 0.084351 0.000000
0.426025 0.084351 0.000000
0.461670 0.084351 0.000000
0.497803 0.084351 0.000000
0.534668 0.084351 0.000000
0.571777 0.084351 0.000000
0.609375 0.084351 0.000000
0.647461 0.084351 0.000000
0.686035 0.084351 0.000000
0.725586 0.084351 0.000000
0.764648 0.084351 0.000000
0.804199 0.084351 0.000000
0.844238 0.084351 0.000000
0.884277 0.084351 0.000000
0.924316 0.084351 0.000000
0.963379 0.084351 0.000000
1.000000 0.084351 0.000000
0.000000 0.108643 0.000000
0.010132 0.108643 0.000000
0.026596 0.108643 0.000000
0.046448 0.108643 0.000000
0.068115 0.108643 0.000000
0.092102 0.108643 0.000000
0.117493 0.108643 0.000000
0.143677 0.108643 0.000000
0.171265 0.108643 0.000000
0.200317 0.108643 0.000000
0.230469 0.108643 0.000000
0.261475 0.108643 0.000000
0.292969 0.108643 0.000000
0.325195 0.108643 0.000000
0.357910 0.108643 0.000000
0.391357 0.108643 0.000000
0.426025 0.108643 0.000000
0.461670 0.108643 0.000000
0.497803 0.108643 0.000000
0.534668 0.108643 0.000000
0.571777 0.108643 0.000000
0.609375 0.108643 0.000000
0.647461 0.108643 0.000000
0.686035 0.108643 0.000000
0.725586 0.108643 0.000000
0.764648 0.108643 0.000000
0.804199 0.108643 0.000000
0.844238 0.108643 0.000000
0.884277 0.108643 0.000000
0.924316 0.108643 0.000000
0.963379 0.108643 0.000000
1.000000 0.108643 0.000000
0.000000 0.134399 0.000000
0.010132 0.134399 0.000000
0.026596 0.134399 0.000000
0.046448 0.134399 0.000000
0.068115 0.134399 0.000000
0.092102 0.134399 0.000000
0.117493 0.134399 0.000000
0.143677 0.134399 0.000000
0.171265 0.134399 0.000000
0.200317 0.134399 0.000000
0.230469 0.134399 0.000000
0.261475 0.134399 0.000000
0.292969 0.134399 0.000000
0.325195 0.134399 0.000000
0.357910 0.134399 0.000000
0.391357 0.134399 0.000000
0.426025 0.134399 0.000000
0.461670 0.134399 0.000000
0.497803 0.134399 0.000000
0.534668 0.134399 0.000000
0.571777 0.134399 0.000000
0.609375 0.134399 0.000000
0.647461 0.134399 0.000000
0.686035 0.134399 0.000000
0.725586 0.134399 0.000000
0.764648 0.134399 0.000000
0.804199 0.134399 0.000000
0.844238 0.134399 0.000000
0.884277 0.134399 0.000000
0.924316 0.134399 0.000000
0.963379 0.134399 0.000000
1.000000 0.134399 0.000000
0.000000 0.161255 0.000000
0.010132 0.161255 0.000000
0.026596 0.161255 0.000000
0.046448 0.161255 0.000000
0.068115 0.161255 0.000000
0.092102 0.161255 0.000000
0.117493 0.161255 0.000000
0.143677 0.161255 0.000000
0.171265 0.161255 0.000000
0.200317 0.161255 0.000000
0.230469 0.161255 0.000000
0.261475 0.161255 0.000000
0.292969 0.161255 0.000000
0.325195 0.161255 0.000000
0.357910 0.161255 0.000000
0.391357 0.161255 0.000000
0.426025 0.161255 0.000000
0.461670 0.161255 0.000000
0.497803 0.161255 0.000000
0.534668 0.161255 0.000000
0.571777 0.161255 0.000000
0.609375 0.161255 0.000000
0.647461 0.161255 0.000000
0.686035 0.161255 0.000000
0.725586 0.161255 0.000000
0.764648 0.161255 0.000000
0.804199 0.161255 0.000000
0.844238 0.161255 0.000000
0.884277 0.161255 0.000000
0.924316 0.161377 0.000000
0.963379 0.161377 0.000000
1.000000 0.161377 0.000000
0.000000 0.189697 0.000000
0.010132 0.189697 0.000000
0.026596 0.189697 0.000000
0.046448 0.189697 0.000000
0.068115 0.189697 0.000000
0.092102 0.189697 0.000000
0.117493 0.189697 0.000000
0.143677 0.189697 0.000000
0.171265 0.189697 0.000000
0.200317 0.189697 0.000000
0.230469 0.189697 0.000000
0.261475 0.189697 0.000000
0.292969 0.189697 0.000000
0.325195 0.189697 0.000000
0.357910 0.189697 0.000000
0.391357 0.189697 0.000000
0.426025 0.189697 0.000000
0.461670 0.189697 0.000000
0.497803 0.189697 0.000000
0.534668 0.189697 0.000000
0.571777 0.189697 0.000000
0.609375 0.189697 0.000000
0.647461 0.189697 0.000000
0.686035 0.189697 0.000000
0.725586 0.189697 0.000000
0.764648 0.189697 0.000000
0.804199 0.189697 0.000000
0.844238 0.189697 0.000000
0.884277 0.189697 0.000000
0.924316 0.189697 0.000000
0.963379 0.189697 0.000000
1.000000 0.189697 0.000000
0.000000 0.219116 0.000000
0.010132 0.219116 0.000000
0.026596 0.219116 0.000000
0.046448 0.219116 0.000000
0.068115 0.219116 0.000000
0.092102 0.219116 0.000000
0.117493 0.219116 0.000000
0.143677 0.219116 0.000000
0.171265 0.219116 0.000000
0.200317 0.219116 0.000000
0.230469 0.219116 0.000000
0.261475 0.219116 0.000000
0.292969 0.219116 0.000000
0.325195 0.219116 0.000000
0.357910 0.219116 0.000000
0.391357 0.219116 0.000000
0.426025 0.219116 0.000000
0.461670 0.219116 0.000000
0.497803 0.219116 0.000000
0.534668 0.219116 0.000000
0.571777 0.219116 0.000000
0.609375 0.219116 0.000000
0.647461 0.219116 0.000000
0.686035 0.219116 0.000000
0.725586 0.219116 0.000000
0.764648 0.219116 0.000000
0.804199 0.219116 0.000000
0.844238 0.219116 0.000000
0.884277 0.219116 0.000000
0.924316 0.219116 0.000000
0.963379 0.219116 0.000000
1.000000 0.219116 0.000000
0.000000 0.249634 0.000000
0.010132 0.249634 0.000000
0.026596 0.249634 0.000000
0.046448 0.249634 0.000000
0.068115 0.249634 0.000000
0.092102 0.249756 0.000000
0.117493 0.249756 0.000000
0.143677 0.249756 0.000000
0.171265 0.249756 0.000000
0.200317 0.249756 0.000000
0.230469 0.249756 0.000000
0.261475 0.249756 0.000000
0.292969 0.249756 0.000000
0.325195 0.249756 0.000000
0.357910 0.249756 0.000000
0.391357 0.249756 0.000000
0.426025 0.249756 0.000000
0.461670 0.249756 0.000000
0.497803 0.249756 0.000000
0.534668 0.249756 0.000000
0.571777 0.249756 0.000000
0.609375 0.249756 0.000000
0.647461 0.249756 0.000000
0.686035 0.249756 0.000000
0.725586 0.249756 0.000000
0.764648 0.249756 0.000000
0.804199 0.249756 0.000000
0.844238 0.249756 0.000000
0.884277 0.249756 0.000000
0.924316 0.249756 0.000000
0.963379 0.249756 0.000000
1.000000 0.249756 0.000000
0.000000 0.281738 0.000000
0.010132 0.281738 0.000000
0.026596 0.281738 0.000000
0.046448 0.281738 0.000000
0.068115 0.281738 0.000000
0.092102 0.281738 0.000000
0.117493 0.281738 0.000000
0.143677 0.281738 0.000000
0.171265 0.281738 0.000000
0.200317 0.281738 0.000000
0.230469 0.281738 0.000000
0.261475 0.281738 0.000000
0.292969 0.281738 0.000000
0.325195 0.281738 0.000000
0.357910 0.281738 0.000000
0.391357 0.281738 0.000000
0.426025 0.281738 0.000000
0.461670 0.281738 0.000000
0.497803 0.281738 0.000000
0.534668 0.281738 0.000000
0.571777 0.281738 0.000000
0.609375 0.281738 0.000000
0.647461 0.281738 0.000000
0.686035 0.281738 0.000000
0.725586 0.281738 0.000000
0.764648 0.281738 0.000000
0.804199 0.281738 0.000000
0.844238 0.281738 0.000000
0.884277 0.281738 0.000000
0.924316 0.281738 0.000000
0.963379 0.281738 0.000000
1.000000 0.281738 0.000000
0.000000 0.314209 0.000000
0.010132 0.314209 0.000000
0.026596 0.314209 0.000000
0.046448 0.314209 0.000000
0.068115 0.314209 0.000000
0.092102 0.314209 0.000000
0.117493 0.314209 0.000000
0.143677 0.314209 0.000000
0.171265 0.314209 0.000000
0.200317 0.314209 0.000000
0.230469 0.314209 0.000000
0.261475 0.314209 0.000000
0.292969 0.314209 0.000000
0.325195 0.314209 0.000000
0.357910 0.314209 0.000000
0.391357 0.314209 0.000000
0.426025 0.314209 0.000000
0.461670 0.314209 0.000000
0.497803 0.314209 0.000000
0.534668 0.314209 0.000000
0.571777 0.314209 0.000000
0.609375 0.314209 0.000000
0.647461 0.314209 0.000000
0.686035 0.314209 0.000000
0.725586 0.314209 0.000000
0.764648 0.314209 0.000000
0.804199 0.314209 0.000000
0.844238 0.314209 0.000000
0.884277 0.314209 0.000000
0.924316 0.314209 0.000000
0.963379 0.314209 0.000000
1.000000 0.314209 0.000000
0.000000 0.347168 0.000000
0.010132 0.347168 0.000000
0.026596 0.347168 0.000000
0.046448 0.347168 0.000000
0.068115 0.347168 0.000000
0.092102 0.347168 0.000000
0.117493 0.347168 0.000000
0.143677 0.347168 0.000000
0.171265 0.347168 0.000000
0.200317 0.347168 0.000000
0.230469 0.347168 0.000000
0.261475 0.347168 0.000000
0.292969 0.347168 0.000000
0.325195 0.347168 0.000000
0.357910 0.347168 0.000000
0.391357 0.347168 0.000000
0.426025 0.347168 0.000000
0.461670 0.347168 0.000000
0.497803 0.347168 0.000000
0.534668 0.347168 0.000000
0.571777 0.347168 0.000000
0.609375 0.347168 0.000000
0.647461 0.347168 0.000000
0.686035 0.347168 0.000000
0.725586 0.347168 0.000000
0.764648 0.347168 0.000000
0.804199 0.347168 0.000000
0.844238 0.347168 0.000000
0.884277 0.347168 0.000000
0.924316 0.347168 0.000000
0.963379 0.347168 0.000000
1.000000 0.347168 0.000000
0.000000 0.380615 0.000000
0.010132 0.380615 0.000000
0.026596 0.380615 0.000000
0.046448 0.380615 0.000000
0.068115 0.380615 0.000000
0.092102 0.380615 0.000000
0.117493 0.380615 0.000000
0.143677 0.380615 0.000000
0.171265 0.380615 0.000000
0.200317 0.380615 0.000000
0.230469 0.380615 0.000000
0.261475 0.380615 0.000000
0.292969 0.380615 0.000000
0.325195 0.380615 0.000000
0.357910 0.380615 0.000000
0.391357 0.380615 0.000000
0.426025 0.380615 0.000000
0.461670 0.380615 0.000000
0.497803 0.380615 0.000000
0.534668 0.380615 0.000000
0.571777 0.380615 0.000000
0.609375 0.380615 0.000000
0.647461 0.380615 0.000000
0.686035 0.380615 0.000000
0.725586 0.380615 0.000000
0.764648 0.380615 0.000000
0.804199 0.380615 0.000000
0.844238 0.380615 0.000000
0.884277 0.380615 0.000000
0.924316 0.380615 0.000000
0.963379 0.380615 0.000000
1.000000 0.380615 0.000000
0.000000 0.415283 0.000000
0.010132 0.415283 0.000000
0.026596 0.415283 0.000000
0.046448 0.415283 0.000000
0.068115 0.415283 0.000000
0.092102 0.415283 0.000000
0.117493 0.415283 0.000000
0.143677 0.415283 0.000000
0.171265 0.415283 0.000000
0.200317 0.415283 0.000000
0.230469 0.415283 0.000000
0.261475 0.415283 0.000000
0.292969 0.415283 0.000000
0.325195 0.415283 0.000000
0.357910 0.415283 0.000000
0.391357 0.415283 0.000000
0.426025 0.415283 0.000000
0.461670 0.415283 0.000000
0.497803 0.415283 0.000000
0.534668 0.415283 0.000000
0.571777 0.415283 0.000000
0.609375 0.415283 0.000000
0.647461 0.415283 0.000000
0.686035 0.415283 0.000000
0.725586 0.415283 0.000000
0.764648 0.415283 0.000000
0.804199 0.415283 0.000000
0.844238 0.415283 0.000000
0.884277 0.415283 0.000000
0.924316 0.415283 0.000000
0.963379 0.415283 0.000000
1.000000 0.415283 0.000000
0.000000 0.451172 0.000000
0.010132 0.451172 0.000000
0.026596 0.451172 0.000000
0.046448 0.451172 0.000000
0.068115 0.451172 0.000000
0.092102 0.451172 0.000000
0.117493 0.451172 0.000000
0.143677 0.451172 0.000000
0.171265 0.451172 0.000000
0.200317 0.451172 0.000000
0.230469 0.451172 0.000000
0.261475 0.451172 0.000000
0.292969 0.451172 0.000000
0.325195 0.451172 0.000000
0.357910 0.451172 0.000000
0.391357 0.451172 0.000000
0.426025 0.451172 0.000000
0.461670 0.451172 0.000000
0.497803 0.451172 0.000000
0.534668 0.451172 0.000000
0.571777 0.451172 0.000000
0.609375 0.451172 0.000000
0.647461 0.451172 0.000000
0.686035 0.451172 0.000000
0.725586 0.451172 0.000000
0.764648 0.451172 0.000000
0.804199 0.451172 0.000000
0.844238 0.451172 0.000000
0.884277 0.451172 0.000000
0.924316 0.451172 0.000000
0.963379 0.451172 0.000000
1.000000 0.451172 0.000000
0.000000 0.487793 0.000000
0.010132 0.487793 0.000000
0.026596 0.487793 0.000000
0.046448 0.487793 0.000000
0.068115 0.487793 0.000000
0.092102 0.487793 0.000000
0.117493 0.487793 0.000000
0.143677 0.487793 0.000000
0.171265 0.487793 0.000000
0.200317 0.487793 0.000000
0.230469 0.487793 0.000000
0.261475 0.487793 0.000000
0.292969 0.487793 0.000000
0.325195 0.487793 0.000000
0.357910 0.487793 0.000000
0.391357 0.487793 0.000000
0.426025 0.487793 0.000000
0.461670 0.487793 0.000000
0.497803 0.487793 0.000000
0.534668 0.487793 0.000000
0.571777 0.487793 0.000000
0.609375 0.487793 0.000000
0.647461 0.487793 0.000000
0.686035 0.487793 0.000000
0.725586 0.487793 0.000000
0.764648 0.487793 0.000000
0.804199 0.487793 0.000000
0.844238 0.487793 0.000000
0.884277 0.487793 0.000000
0.924316 0.487793 0.000000
0.963379 0.487793 0.000000
1.000000 0.487793 0.000000
0.000000 0.524414 0.000000
0.010132 0.524414 0.000000
0.026596 0.524414 0.000000
0.046448 0.524414 0.000000
0.068115 0.524414 0.000000
0.092102 0.524414 0.000000
0.117493 0.524414 0.000000
0.143677 0.524414 0.000000
0.171265 0.524414 0.000000
0.200317 0.524414 0.000000
0.230469 0.524414 0.000000
0.261475 0.524414 0.000000
0.292969 0.524414 0.000000
0.325195 0.524414 0.000000
0.357910 0.524414 0.000000
0.391357 0.524414 0.000000
0.426025 0.524414 0.000000
0.461670 0.524414 0.000000
0.497803 0.524414 0.000000
0.534668 0.524414 0.000000
0.571777 0.524414 0.000000
0.609375 0.524414 0.000000
0.647461 0.524414 0.000000
0.686035 0.524414 0.000000
0.725586 0.524414 0.000000
0.764648 0.524414 0.000000
0.804199 0.524414 0.000000
0.844238 0.524414 0.000000
0.884277 0.524414 0.000000
0.924316 0.524414 0.000000
0.963379 0.524414 0.000000
1.000000 0.524414 0.000000
0.000000 0.561523 0.000000
0.010132 0.561523 0.000000
0.026596 0.561523 0.000000
0.046448 0.561523 0.000000
0.068115 0.561523 0.000000
0.092102 0.561523 0.000000
0.117493 0.561523 0.000000
0.143677 0.561523 0.000000
0.171265 0.561523 0.000000
0.200317 0.561523 0.000000
0.230469 0.561523 0.000000
0.261475 0.561523 0.000000
0.292969 0.561523 0.000000
0.325195 0.561523 0.000000
0.357910 0.561523 0.000000
0.391357 0.561523 0.000000
0.426025 0.561523 0.000000
0.461670 0.561523 0.000000
0.497803 0.561523 0.000000
0.534668 0.561523 0.000000
0.571777 0.561523 0.000000
0.609375 0.561523 0.000000
0.647461 0.561523 0.000000
0.686035 0.561523 0.000000
0.725586 0.561523 0.000000
0.764648 0.561523 0.000000
0.804199 0.561523 0.000000
0.844238 0.561523 0.000000
0.884277 0.561523 0.000000
0.924316 0.561523 0.000000
0.963379 0.561523 0.000000
1.000000 0.561523 0.000000
0.000000 0.600098 0.000000
0.010132 0.600098 0.000000
0.026596 0.600098 0.000000
0.046448 0.600098 0.000000
0.068115 0.600098 0.000000
0.092102 0.600098 0.000000
0.117493 0.600098 0.000000
0.143677 0.600098 0.000000
0.171265 0.600098 0.000000
0.200317 0.600098 0.000000
0.230469 0.600098 0.000000
0.261475 0.600098 0.000000
0.292969 0.600098 0.000000
0.325195 0.600098 0.000000
0.357910 0.600098 0.000000
0.391357 0.600098 0.000000
0.426025 0.600098 0.000000
0.461670 0.600098 0.000000
0.497803 0.600098 0.000000
0.534668 0.600098 0.000000
0.571777 0.600098 0.000000
0.609375 0.600098 0.000000
0.647461 0.600098 0.000000
0.686035 0.600098 0.000000
0.725586 0.600098 0.000000
0.764648 0.600098 0.000000
0.804199 0.600098 0.000000
0.844238 0.600098 0.000000
0.884277 0.600098 0.000000
0.924316 0.600098 0.000000
0.963379 0.600098 0.000000
1.000000 0.600098 0.000000
0.000000 0.639160 0.000000
0.010132 0.639160 0.000000
0.026596 0.639160 0.000000
0.046448 0.639160 0.000000
0.068115 0.639160 0.000000
0.092102 0.639160 0.000000
0.117493 0.639160 0.000000
0.143677 0.639160 0.000000
0.171265 0.639160 0.000000
0.200317 0.639160 0.000000
0.230469 0.639160 0.000000
0.261475 0.639160 0.000000
0.292969 0.639160 0.000000
0.325195 0.639160 0.000000
0.357910 0.639160 0.000000
0.391357 0.639160 0.000000
0.426025 0.639160 0.000000
0.461670 0.639160 0.000000
0.497803 0.639160 0.000000
0.534668 0.639160 0.000000
0.571777 0.639160 0.000000
0.609375 0.639160 0.000000
0.647461 0.639160 0.000000
0.686035 0.639160 0.000000
0.725586 0.639160 0.000000
0.764648 0.639160 0.000000
0.804199 0.639160 0.000000
0.844238 0.639160 0.000000
0.884277 0.639160 0.000000
0.924316 0.639160 0.000000
0.963379 0.639160 0.000000
1.000000 0.639160 0.000000
0.000000 0.678711 0.000000
0.010132 0.678711 0.000000
0.026596 0.678711 0.000000
0.046448 0.678711 0.000000
0.068115 0.678711 0.000000
0.092102 0.678711 0.000000
0.117493 0.678711 0.000000
0.143677 0.678711 0.000000
0.171265 0.678711 0.000000
0.200317 0.678711 0.000000
0.230469 0.678711 0.000000
0.261475 0.678711 0.000000
0.292969 0.678711 0.000000
0.325195 0.678711 0.000000
0.357910 0.678711 0.000000
0.391357 0.678711 0.000000
0.426025 0.678711 0.000000
0.461670 0.678711 0.000000
0.497803 0.678711 0.000000
0.534668 0.678711 0.000000
0.571777 0.678711 0.000000
0.609375 0.678711 0.000000
0.647461 0.678711 0.000000
0.686035 0.678711 0.000000
0.725586 0.678711 0.000000
0.764648 0.678711 0.000000
0.804199 0.678711 0.000000
0.844238 0.678711 0.000000
0.884277 0.678711 0.000000
0.924316 0.678711 0.000000
0.963379 0.678711 0.000000
1.000000 0.678711 0.000000
0.000000 0.719238 0.000000
0.010132 0.719238 0.000000
0.026596 0.719238 0.000000
0.046448 0.719238 0.000000
0.068115 0.719238 0.000000
0.092102 0.719238 0.000000
0.117493 0.719238 0.000000
0.143677 0.719238 0.000000
0.171265 0.719238 0.000000
0.200317 0.719238 0.000000
0.230469 0.719238 0.000000
0.261475 0.719238 0.000000
0.292969 0.719238 0.000000
0.325195 0.719238 0.000000
0.357910 0.719238 0.000000
0.391357 0.719238 0.000000
0.426025 0.719238 0.000000
0.461670 0.719238 0.000000
0.497803 0.719238 0.000000
0.534668 0.719238 0.000000
0.571777 0.719238 0.000000
0.609375 0.719238 0.000000
0.647461 0.719238 0.000000
0.686035 0.719238 0.000000
0.725586 0.719238 0.000000
0.764648 0.719238 0.000000
0.804199 0.719238 0.000000
0.844238 0.719238 0.000000
0.884277 0.719238 0.000000
0.924316 0.719238 0.000000
0.963379 0.719238 0.000000
1.000000 0.719238 0.000000
0.000000 0.759766 0.000000
0.010132 0.759766 0.000000
0.026611 0.759766 0.000000
0.046448 0.759766 0.000000
0.068115 0.759766 0.000000
0.092102 0.759766 0.000000
0.117493 0.759766 0.000000
0.143677 0.759766 0.000000
0.171265 0.759766 0.000000
0.200317 0.759766 0.000000
0.230469 0.759766 0.000000
0.261475 0.759766 0.000000
0.292969 0.759766 0.000000
0.325195 0.759766 0.000000
0.357910 0.759766 0.000000
0.391357 0.759766 0.000000
0.426025 0.759766 0.000000
0.461670 0.759766 0.000000
0.497803 0.759766 0.000000
0.534668 0.759766 0.000000
0.571777 0.759766 0.000000
0.609375 0.759766 0.000000
0.647461 0.759766 0.000000
0.686035 0.759766 0.000000
0.725586 0.759766 0.000000
0.764648 0.759766 0.000000
0.804199 0.759766 0.000000
0.844238 0.759766 0.000000
0.884277 0.759766 0.000000
0.924316 0.759766 0.000000
0.963379 0.759766 0.000000
1.000000 0.759766 0.000000
0.000000 0.801270 0.000000
0.010132 0.801270 0.000000
0.026596 0.801270 0.000000
0.046448 0.801270 0.000000
0.068115 0.801270 0.000000
0.092102 0.801270 0.000000
0.117493 0.801270 0.000000
0.143677 0.801270 0.000000
0.171265 0.801270 0.000000
0.200317 0.801270 0.000000
0.230469 0.801270 0.000000
0.261475 0.801270 0.000000
0.292969 0.801270 0.000000
0.325195 0.801270 0.000000
0.357910 0.801270 0.000000
0.391357 0.801270 0.000000
0.426025 0.801270 0.000000
0.461670 0.801270 0.000000
0.497803 0.801270 0.000000
0.534668 0.801270 0.000000
0.571777 0.801270 0.000000
0.609375 0.801270 0.000000
0.647461 0.801270 0.000000
0.686035 0.801270 0.000000
0.725586 0.801270 0.000000
0.764648 0.801270 0.000000
0.804199 0.801270 0.000000
0.844238 0.801270 0.000000
0.884277 0.801270 0.000000
0.924316 0.801270 0.000000
0.963379 0.801270 0.000000
1.000000 0.801270 0.000000
0.000000 0.842773 0.000000
0.010132 0.842773 0.000000
0.026596 0.842773 0.000000
0.046448 0.842773 0.000000
0.068115 0.842773 0.000000
0.092102 0.842773 0.000000
0.117493 0.842773 0.000000
0.143677 0.842773 0.000000
0.171265 0.842773 0.000000
0.200317 0.842773 0.000000
0.230469 0.842773 0.000000
0.261475 0.842773 0.000000
0.292969 0.842773 0.000000
0.325195 0.842773 0.000000
0.357910 0.842773 0.000000
0.391357 0.842773 0.000000
0.426025 0.842773 0.000000
0.461670 0.842773 0.000000
0.497803 0.842773 0.000000
0.534668 0.842773 0.000000
0.571777 0.842773 0.000000
0.609375 0.842773 0.000000
0.647461 0.842773 0.000000
