cubelut/Adanmq_Advantix 100.cube
TITLE "Generated by Foundry::LUT"
LUT_3D_SIZE 32
0.000000 0.000000 0.000000
0.017578 0.000000 0.000000
0.045044 0.000000 0.000000
0.077209 0.000000 0.000000
0.112976 0.000000 0.000000
0.150513 0.000000 0.000000
0.188110 0.000000 0.000000
0.225830 0.000000 0.000000
0.263672 0.000000 0.000000
0.301270 0.000000 0.000000
0.338623 0.000000 0.000000
0.375000 0.000000 0.000000
0.410889 0.000000 0.000000
0.445557 0.000000 0.000000
0.479492 0.000000 0.000000
0.513184 0.000000 0.000000
0.546387 0.000000 0.000000
0.579102 0.000000 0.000000
0.611328 0.000000 0.000000
0.643555 0.000000 0.000000
0.675293 0.000000 0.000000
0.707031 0.000000 0.000000
0.738281 0.000000 0.000000
0.769531 0.000000 0.000000
0.800781 0.000000 0.000000
0.831055 0.000000 0.000000
0.861816 0.000000 0.000000
0.891602 0.000000 0.000000
0.920898 0.000000 0.000000
0.948730 0.000000 0.000000
0.975586 0.000000 0.000000
1.000000 0.000000 0.000000
0.000000 0.013901 0.000000
0.017578 0.013901 0.000000
0.045044 0.013901 0.000000
0.077209 0.013901 0.000000
0.112976 0.013901 0.000000
0.150513 0.013901 0.000000
0.188110 0.013901 0.000000
0.225830 0.013908 0.000000
0.263672 0.013908 0.000000
0.301270 0.013908 0.000000
0.338623 0.013908 0.000000
0.375000 0.013908 0.000000
0.410889 0.013908 0.000000
0.445557 0.013908 0.000000
0.479492 0.013908 0.000000
0.513184 0.013908 0.000000
0.546387 0.013908 0.000000
0.579102 0.013908 0.000000
0.611328 0.013908 0.000000
0.643555 0.013908 0.000000
0.675293 0.013908 0.000000
0.707031 0.013908 0.000000
0.738281 0.013908 0.000000
0.769531 0.013908 0.000000
0.800781 0.013916 0.000000
0.831055 0.013916 0.000000
0.861816 0.013916 0.000000
0.891602 0.013916 0.000000
0.920898 0.013916 0.000000
0.948730 0.013916 0.000000
0.975586 0.013916 0.000000
1.000000 0.013916 0.000000
0.000000 0.037170 0.000000
0.017578 0.037170 0.000000
0.045044 0.037170 0.000000
0.077209 0.037170 0.000000
0.112976 0.037170 0.000000
0.150513 0.037170 0.000000
0.188110 0.037170 0.000000
0.225830 0.037170 0.000000
0.263672 0.037170 0.000000
0.301270 0.037170 0.000000
0.338623 0.037170 0.000000
0.375000 0.037170 0.000000
0.410889 0.037170 0.000000
0.445557 0.037170 0.000000
0.479492 0.037170 0.000000
0.513184 0.037170 0.000000
0.546387 0.037170 0.000000
0.579102 0.037170 0.000000
0.611328 0.037170 0.000000
0.643555 0.037170 0.000000
0.675293 0.037170 0.000000
0.707031 0.037170 0.000000
0.738281 0.037170 0.000000
0.769531 0.037170 0.000000
0.800781 0.037170 0.000000
0.831055 0.037170 0.000000
0.861816 0.037170 0.000000
0.891602 0.037170 0.000000
0.920898 0.037170 0.000000
0.948730 0.037170 0.000000
0.975586 0.037170 0.000000
1.000000 0.037170 0.000000
0.000000 0.065491 0.000000
0.017578 0.065491 0.000000
0.045044 0.065491 0.000000
0.077209 0.065491 0.000000
0.112976 0.065491 0.000000
0.150513 0.065491 0.000000
0.188110 0.065491 0.000000
0.225830 0.065491 0.000000
0.263672 0.065491 0.000000
0.301270 0.065491 0.000000
0.338623 0.065491 0.000000
0.375000 0.065491 0.000000
0.410889 0.065491 0.000000
0.445557 0.065491 0.000000
0.479492 0.065491 0.000000
0.513184 0.065491 0.000000
0.546387 0.065491 0.000000
0.579102 0.065491 0.000000
0.611328 0.065491 0.000000
0.643555 0.065491 0.000000
0.675293 0.065491 0.000000
0.707031 0.065491 0.000000
0.738281 0.065491 0.000000
0.769531 0.065491 0.000000
0.800781 0.065491 0.000000
0.831055 0.065491 0.000000
0.861816 0.065491 0.000000
0.891602 0.065491 0.000000
0.920898 0.065491 0.000000
0.948730 0.065491 0.000000
0.975586 0.065491 0.000000
1.000000 0.065491 0.000000
0.000000 0.097229 0.000000
0.017578 0.097229 0.000000
0.045044 0.097229 0.000000
0.077209 0.097229 0.000000
0.112976 0.097229 0.000000
0.150513 0.097229 0.000000
0.188110 0.097229 0.000000
0.225830 0.097229 0.000000
0.263672 0.097229 0.000000
0.301270 0.097229 0.000000
0.338623 0.097229 0.000000
0.375000 0.097229 0.000000
0.410889 0.097229 0.000000
0.445557 0.097229 0.000000
0.479492 0.097229 0.000000
0.513184 0.097229 0.000000
0.546387 0.097229 0.000000
0.579102 0.097229 0.000000
0.611328 0.097229 0.000000
0.643555 0.097229 0.000000
0.675293 0.097229 0.000000
0.707031 0.097229 0.000000
0.738281 0.097290 0.000000
0.769531 0.097290 0.000000
0.800781 0.097290 0.000000
0.831055 0.097290 0.000000
0.861816 0.097290 0.000000
0.891602 0.097290 0.000000
0.920898 0.097290 0.000000
0.948730 0.097290 0.000000
0.975586 0.097290 0.000000
1.000000 0.097290 0.000000
0.000000 0.131592 0.000000
0.017578 0.131592 0.000000
0.045044 0.131592 0.000000
0.077209 0.131592 0.000000
0.112976 0.131592 0.000000
0.150513 0.131592 0.000000
0.188110 0.131592 0.000000
0.225830 0.131592 0.000000
0.263672 0.131592 0.000000
0.301270 0.131592 0.000000
0.338623 0.131592 0.000000
0.375000 0.131592 0.000000
0.410889 0.131592 0.000000
0.445557 0.131592 0.000000
0.479492 0.131592 0.000000
0.513184 0.131592 0.000000
0.546387 0.131592 0.000000
0.579102 0.131592 0.000000
0.611328 0.131592 0.000000
0.643555 0.131592 0.000000
0.675293 0.131592 0.000000
0.707031 0.131592 0.000000
0.738281 0.131592 0.000000
0.769531 0.131592 0.000000
0.800781 0.131592 0.000000
0.831055 0.131592 0.000000
0.861816 0.131592 0.000000
0.891602 0.131592 0.000000
0.920898 0.131592 0.000000
0.948730 0.131592 0.000000
0.975586 0.131592 0.000000
1.000000 0.131592 0.000000
0.000000 0.167603 0.000000
0.017578 0.167603 0.000000
0.045044 0.167603 0.000000
0.077209 0.167603 0.000000
0.112976 0.167603 0.000000
0.150513 0.167603 0.000000
0.188110 0.167603 0.000000
0.225830 0.167603 0.000000
0.263672 0.167603 0.000000
0.301270 0.167603 0.000000
0.338623 0.167603 0.000000
0.375000 0.167603 0.000000
0.410889 0.167603 0.000000
0.445557 0.167603 0.000000
0.479492 0.167603 0.000000
0.513184 0.167603 0.000000
0.546387 0.167603 0.000000
0.579102 0.167603 0.000000
0.611328 0.167603 0.000000
0.643555 0.167603 0.000000
0.675293 0.167603 0.000000
0.707031 0.167603 0.000000
0.738281 0.167603 0.000000
0.769531 0.167603 0.000000
0.800781 0.167603 0.000000
0.831055 0.167603 0.000000
0.861816 0.167603 0.000000
0.891602 0.167603 0.000000
0.920898 0.167603 0.000000
0.948730 0.167603 0.000000
0.975586 0.167603 0.000000
1.000000 0.167603 0.000000
0.000000 0.204102 0.000000
0.017578 0.204102 0.000000
0.045044 0.204102 0.000000
0.077209 0.204102 0.000000
0.112976 0.204102 0.000000
0.150513 0.204102 0.000000
0.188110 0.204102 0.000000
0.225830 0.204102 0.000000
0.263672 0.204102 0.000000
0.301270 0.204102 0.000000
0.338623 0.204102 0.000000
0.375000 0.204102 0.000000
0.410889 0.204102 0.000000
0.445557 0.204102 0.000000
0.479492 0.204102 0.000000
0.513184 0.204102 0.000000
0.546387 0.204102 0.000000
0.579102 0.204102 0.000000
0.611328 0.204102 0.000000
0.643555 0.204102 0.000000
0.675293 0.204102 0.000000
0.707031 0.204102 0.000000
0.738281 0.204102 0.000000
0.769531 0.204102 0.000000
0.800781 0.204102 0.000000
0.831055 0.204102 0.000000
0.861816 0.204102 0.000000
0.891602 0.204102 0.000000
0.920898 0.204102 0.000000
0.948730 0.204102 0.000000
0.975586 0.204102 0.000000
1.000000 0.204102 0.000000
0.000000 0.241089 0.000000
0.017578 0.241089 0.000000
0.045044 0.241089 0.000000
0.077209 0.241089 0.000000
0.112976 0.241089 0.000000
0.150513 0.241089 0.000000
0.188110 0.241089 0.000000
0.225830 0.241089 0.000000
0.263672 0.241089 0.000000
0.301270 0.241089 0.000000
0.338623 0.241089 0.000000
0.375000 0.241089 0.000000
0.410889 0.241089 0.000000
0.445557 0.241089 0.000000
0.479492 0.241089 0.000000
0.513184 0.241089 0.000000
0.546387 0.241089 0.000000
0.579102 0.241089 0.000000
0.611328 0.241089 0.000000
0.643555 0.241089 0.000000
0.675293 0.241089 0.000000
0.707031 0.241089 0.000000
0.738281 0.241089 0.000000
0.769531 0.241089 0.000000
0.800781 0.241089 0.000000
0.831055 0.241089 0.000000
0.861816 0.241089 0.000000
0.891602 0.241089 0.000000
0.920898 0.241089 0.000000
0.948730 0.241089 0.000000
0.975586 0.241089 0.000000
1.000000 0.241089 0.000000
0.000000 0.278320 0.000000
0.017578 0.278320 0.000000
0.045044 0.278320 0.000000
0.077209 0.278320 0.000000
0.112976 0.278320 0.000000
0.150513 0.278320 0.000000
0.188110 0.278320 0.000000
0.225830 0.278320 0.000000
0.263672 0.278320 0.000000
0.301270 0.278320 0.000000
0.338623 0.278320 0.000000
0.375000 0.278320 0.000000
0.410889 0.278320 0.000000
0.445557 0.278320 0.000000
0.479492 0.278320 0.000000
0.513184 0.278320 0.000000
0.546387 0.278320 0.000000
0.579102 0.278320 0.000000
0.611328 0.278320 0.000000
0.643555 0.278320 0.000000
0.675293 0.278320 0.000000
0.707031 0.278320 0.000000
0.738281 0.278320 0.000000
0.769531 0.278320 0.000000
0.800781 0.278320 0.000000
0.831055 0.278320 0.000000
0.861816 0.278320 0.000000
0.891602 0.278320 0.000000
0.920898 0.278320 0.000000
0.948730 0.278320 0.000000
0.975586 0.278320 0.000000
1.000000 0.278320 0.000000
0.000000 0.314697 0.000000
0.017578 0.314697 0.000000
0.045044 0.314697 0.000000
0.077209 0.314697 0.000000
0.112976 0.314697 0.000000
0.150513 0.314697 0.000000
0.188110 0.314697 0.000000
0.225830 0.314697 0.000000
0.263672 0.314697 0.000000
0.301270 0.314697 0.000000
0.338623 0.314697 0.000000
0.375000 0.314697 0.000000
0.410889 0.314697 0.000000
0.445557 0.314697 0.000000
0.479492 0.314697 0.000000
0.513184 0.314697 0.000000
0.546387 0.314697 0.000000
0.579102 0.314697 0.000000
0.611328 0.314697 0.000000
0.643555 0.314697 0.000000
0.675293 0.314697 0.000000
0.707031 0.314697 0.000000
0.738281 0.314697 0.000000
0.769531 0.314697 0.000000
0.800781 0.314697 0.000000
0.831055 0.314697 0.000000
0.861816 0.314697 0.000000
0.891602 0.314697 0.000000
0.920898 0.314697 0.000000
0.948730 0.314697 0.000000
0.975586 0.314697 0.000000
1.000000 0.314697 0.000000
0.000000 0.350830 0.000000
0.017578 0.350830 0.000000
0.045044 0.350830 0.000000
0.077209 0.350830 0.000000
0.112976 0.350830 0.000000
0.150513 0.350830 0.000000
0.188110 0.350830 0.000000
0.225830 0.350830 0.000000
0.263672 0.350830 0.000000
0.301270 0.350830 0.000000
0.338623 0.350830 0.000000
0.375000 0.350830 0.000000
0.410889 0.350830 0.000000
0.445557 0.350830 0.000000
0.479492 0.350830 0.000000
0.513184 0.350830 0.000000
0.546387 0.350830 0.000000
0.579102 0.350830 0.000000
0.611328 0.350830 0.000000
0.643555 0.350830 0.000000
0.675293 0.350830 0.000000
0.707031 0.350830 0.000000
0.738281 0.350830 0.000000
0.769531 0.350830 0.000000
0.800781 0.350830 0.000000
0.831055 0.350830 0.000000
0.861816 0.350830 0.000000
0.891602 0.350830 0.000000
0.920898 0.350830 0.000000
0.948730 0.350830 0.000000
0.975586 0.350830 0.000000
1.000000 0.350830 0.000000
0.000000 0.386719 0.000000
0.017578 0.386719 0.000000
0.045044 0.386719 0.000000
0.077209 0.386719 0.000000
0.112976 0.386719 0.000000
0.150513 0.386719 0.000000
0.188110 0.386719 0.000000
0.225830 0.386719 0.000000
0.263672 0.386719 0.000000
0.301270 0.386719 0.000000
0.338623 0.386719 0.000000
0.375000 0.386719 0.000000
0.410889 0.386719 0.000000
0.445557 0.386719 0.000000
0.479492 0.386719 0.000000
0.513184 0.386719 0.000000
0.546387 0.386719 0.000000
0.579102 0.386719 0.000000
0.611328 0.386719 0.000000
0.643555 0.386719 0.000000
0.675293 0.386719 0.000000
0.707031 0.386719 0.000000
0.738281 0.386719 0.000000
0.769531 0.386719 0.000000
0.800781 0.386719 0.000000
0.831055 0.386719 0.000000
0.861816 0.386719 0.000000
0.891602 0.386719 0.000000
0.920898 0.386719 0.000000
0.948730 0.386719 0.000000
0.975586 0.386719 0.000000
1.000000 0.386719 0.000000
0.000000 0.421875 0.000000
0.017578 0.421875 0.000000
0.045044 0.421875 0.000000
0.077209 0.421875 0.000000
0.112976 0.421875 0.000000
0.150513 0.421875 0.000000
0.188110 0.421875 0.000000
0.225830 0.421875 0.000000
0.263672 0.421875 0.000000
0.301270 0.421875 0.000000
0.338623 0.421875 0.000000
0.375000 0.421875 0.000000
0.410889 0.421875 0.000000
0.445557 0.421875 0.000000
0.479492 0.421875 0.000000
0.513184 0.421875 0.000000
0.546387 0.421875 0.000000
0.579102 0.421875 0.000000
0.611328 0.421875 0.000000
0.643555 0.421875 0.000000
0.675293 0.421875 0.000000
0.707031 0.421875 0.000000
0.738281 0.421875 0.000000
0.769531 0.421875 0.000000
0.800781 0.421875 0.000000
0.831055 0.421875 0.000000
0.861816 0.421875 0.000000
0.891602 0.421875 0.000000
0.920898 0.421875 0.000000
0.948730 0.421875 0.000000
0.975586 0.421875 0.000000
1.000000 0.421875 0.000000
0.000000 0.456543 0.000000
0.017578 0.456543 0.000000
0.045044 0.456543 0.000000
0.077209 0.456543 0.000000
0.112976 0.456543 0.000000
0.150513 0.456543 0.000000
0.188110 0.456543 0.000000
0.225830 0.456543 0.000000
0.263672 0.456543 0.000000
0.301270 0.456543 0.000000
0.338623 0.456543 0.000000
0.375000 0.456543 0.000000
0.410889 0.456543 0.000000
0.445557 0.456543 0.000000
0.479492 0.456543 0.000000
0.513184 0.456543 0.000000
0.546387 0.456543 0.000000
0.579102 0.456543 0.000000
0.611328 0.456543 0.000000
0.643555 0.456543 0.000000
0.675293 0.456543 0.000000
0.707031 0.456543 0.000000
0.738281 0.456543 0.000000
0.769531 0.456543 0.000000
0.800781 0.456543 0.000000
0.831055 0.456543 0.000000
0.861816 0.456543 0.000000
0.891602 0.456543 0.000000
0.920898 0.456543 0.000000
0.948730 0.456543 0.000000
0.975586 0.456543 0.000000
1.000000 0.456543 0.000000
0.000000 0.490479 0.000000
0.017578 0.490479 0.000000
0.045044 0.490479 0.000000
0.077209 0.490479 0.000000
0.112976 0.490479 0.000000
0.150513 0.490479 0.000000
0.188110 0.490479 0.000000
0.225830 0.490479 0.000000
0.263672 0.490479 0.000000
0.301270 0.490479 0.000000
0.338623 0.490479 0.000000
0.375000 0.490479 0.000000
0.410889 0.490479 0.000000
0.445557 0.490479 0.000000
0.479492 0.490479 0.000000
0.513184 0.490479 0.000000
0.546387 0.490479 0.000000
0.579102 0.490479 0.000000
0.611328 0.490479 0.000000
0.643555 0.490479 0.000000
0.675293 0.490479 0.000000
0.707031 0.490479 0.000000
0.738281 0.490479 0.000000
0.769531 0.490723 0.000000
0.800781 0.490723 0.000000
0.831055 0.490723 0.000000
0.861816 0.490723 0.000000
0.891602 0.490723 0.000000
0.920898 0.490723 0.000000
0.948730 0.490723 0.000000
0.975586 0.490723 0.000000
1.000000 0.490723 0.000000
0.000000 0.523926 0.000000
0.017578 0.523926 0.000000
0.045044 0.523926 0.000000
0.077209 0.523926 0.000000
0.112976 0.523926 0.000000
0.150513 0.523926 0.000000
0.188110 0.523926 0.000000
0.225830 0.523926 0.000000
0.263672 0.523926 0.000000
0.301270 0.523926 0.000000
0.338623 0.523926 0.000000
0.375000 0.523926 0.000000
0.410889 0.523926 0.000000
0.445557 0.523926 0.000000
0.479492 0.523926 0.000000
0.513184 0.523926 0.000000
0.546387 0.523926 0.000000
0.579102 0.523926 0.000000
0.611328 0.523926 0.000000
0.643555 0.523926 0.000000
0.675293 0.523926 0.000000
0.707031 0.523926 0.000000
0.738281 0.523926 0.000000
0.769531 0.523926 0.000000
0.800781 0.523926 0.000000
0.831055 0.523926 0.000000
0.861816 0.523926 0.000000
0.891602 0.523926 0.000000
0.920898 0.523926 0.000000
0.948730 0.523926 0.000000
0.975586 0.523926 0.000000
1.000000 0.523926 0.000000
0.000000 0.557129 0.000000
0.017578 0.557129 0.000000
0.045044 0.557129 0.000000
0.077209 0.557129 0.000000
0.112976 0.557129 0.000000
0.150513 0.557129 0.000000
0.188110 0.557129 0.000000
0.225830 0.557129 0.000000
0.263672 0.557129 0.000000
0.301270 0.557129 0.000000
0.338623 0.557129 0.000000
0.375000 0.557129 0.000000
0.410889 0.557129 0.000000
0.445557 0.557129 0.000000
0.479492 0.557129 0.000000
0.513184 0.557129 0.000000
0.546387 0.557129 0.000000
0.579102 0.557129 0.000000
0.611328 0.557129 0.000000
0.643555 0.557129 0.000000
0.675293 0.557129 0.000000
0.707031 0.557129 0.000000
0.738281 0.557129 0.000000
0.769531 0.557129 0.000000
0.800781 0.557129 0.000000
0.831055 0.557129 0.000000
0.861816 0.557129 0.000000
0.891602 0.557129 0.000000
0.920898 0.557129 0.000000
0.948730 0.557129 0.000000
0.975586 0.557129 0.000000
1.000000 0.557129 0.000000
0.000000 0.589844 0.000000
0.017578 0.589844 0.000000
0.045044 0.589844 0.000000
0.077209 0.589844 0.000000
0.112976 0.589844 0.000000
0.150513 0.589844 0.000000
0.188110 0.589844 0.000000
0.225830 0.589844 0.000000
0.263672 0.589844 0.000000
0.301270 0.589844 0.000000
0.338623 0.589844 0.000000
0.375000 0.589844 0.000000
0.410889 0.589844 0.000000
0.445557 0.589844 0.000000
0.479492 0.589844 0.000000
0.513184 0.589844 0.000000
0.546387 0.589844 0.000000
0.579102 0.589844 0.000000
0.611328 0.589844 0.000000
0.643555 0.589844 0.000000
0.675293 0.589844 0.000000
0.707031 0.589844 0.000000
0.738281 0.589844 0.000000
0.769531 0.589844 0.000000
0.800781 0.589844 0.000000
0.831055 0.589844 0.000000
0.861816 0.589844 0.000000
0.891602 0.589844 0.000000
0.920898 0.589844 0.000000
0.948730 0.589844 0.000000
0.975586 0.589844 0.000000
1.000000 0.589844 0.000000
0.000000 0.623047 0.000000
0.017578 0.623047 0.000000
0.045044 0.623047 0.000000
0.077209 0.623047 0.000000
0.112976 0.623047 0.000000
0.150513 0.623047 0.000000
0.188110 0.623047 0.000000
0.225830 0.623047 0.000000
0.263672 0.623047 0.000000
0.301270 0.623047 0.000000
0.338623 0.623047 0.000000
0.375000 0.623047 0.000000
0.410889 0.623047 0.000000
0.445557 0.623047 0.000000
0.479492 0.623047 0.000000
0.513184 0.623047 0.000000
0.546387 0.623047 0.000000
0.579102 0.623047 0.000000
0.611328 0.623047 0.000000
0.643555 0.623047 0.000000
0.675293 0.623047 0.000000
0.707031 0.623047 0.000000
0.738281 0.623047 0.000000
0.769531 0.623047 0.000000
0.800781 0.623047 0.000000
0.831055 0.623047 0.000000
0.861816 0.623047 0.000000
0.891602 0.623047 0.000000
0.920898 0.623047 0.000000
0.948730 0.623047 0.000000
0.975586 0.623047 0.000000
1.000000 0.623047 0.000000
0.000000 0.655762 0.000000
0.017578 0.655762 0.000000
0.045044 0.655762 0.000000
0.077209 0.655762 0.000000
0.112976 0.655762 0.000000
0.150513 0.655762 0.000000
0.188110 0.655762 0.000000
0.225830 0.655762 0.000000
0.263672 0.655762 0.000000
0.301270 0.655762 0.000000
0.338623 0.655762 0.000000
0.375000 0.655762 0.000000
0.410889 0.655762 0.000000
0.445557 0.655762 0.000000
0.479492 0.655762 0.000000
0.513184 0.655762 0.000000
0.546387 0.655762 0.000000
0.579102 0.655762 0.000000
0.611328 0.655762 0.000000
0.643555 0.655762 0.000000
0.675293 0.655762 0.000000
0.707031 0.655762 0.000000
0.738281 0.655762 0.000000
0.769531 0.655762 0.000000
0.800781 0.655762 0.000000
0.831055 0.655762 0.000000
0.861816 0.655762 0.000000
0.891602 0.655762 0.000000
0.920898 0.655762 0.000000
0.948730 0.655762 0.000000
0.975586 0.655762 0.000000
1.000000 0.655762 0.000000
0.000000 0.688477 0.000000
0.017578 0.688477 0.000000
0.045044 0.688477 0.000000
0.077209 0.688477 0.000000
0.112976 0.688477 0.000000
0.150513 0.688477 0.000000
0.188110 0.688477 0.000000
0.225830 0.688477 0.000000
0.263672 0.688477 0.000000
0.301270 0.688477 0.000000
0.338623 0.688477 0.000000
0.375000 0.688477 0.000000
0.410889 0.688477 0.000000
0.445557 0.688477 0.000000
0.479492 0.688477 0.000000
0.513184 0.688477 0.000000
0.546387 0.688477 0.000000
0.579102 0.688477 0.000000
0.611328 0.688477 0.000000
0.643555 0.688477 0.000000
0.675293 0.688477 0.000000
0.707031 0.688477 0.000000
0.738281 0.688477 0.000000
0.769531 0.688477 0.000000
0.800781 0.688477 0.000000
0.831055 0.688477 0.000000
0.861816 0.688477 0.000000
0.891602 0.688477 0.000000
0.920898 0.688477 0.000000
0.948730 0.688477 0.000000
0.975586 0.688477 0.000000
1.000000 0.688477 0.000000
0.000000 0.721191 0.000000
0.017578 0.721191 0.000000
0.045044 0.721191 0.000000
0.077209 0.721191 0.000000
0.112976 0.721191 0.000000
0.150513 0.721191 0.000000
0.188110 0.721191 0.000000
0.225830 0.721191 0.000000
0.263672 0.721191 0.000000
0.301270 0.721191 0.000000
0.338623 0.721191 0.000000
0.375000 0.721191 0.000000
0.410889 0.721191 0.000000
0.445557 0.721191 0.000000
0.479492 0.721191 0.000000
0.513184 0.721191 0.000000
0.546387 0.721191 0.000000
0.579102 0.721191 0.000000
0.611328 0.721191 0.000000
0.643555 0.721191 0.000000
0.675293 0.721191 0.000000
0.707031 0.721191 0.000000
0.738281 0.721191 0.000000
0.769531 0.721191 0.000000
0.800781 0.721191 0.000000
0.831055 0.721191 0.000000
0.861816 0.721191 0.000000
0.891602 0.721191 0.000000
0.920898 0.721191 0.000000
0.948730 0.721191 0.000000
0.975586 0.721191 0.000000
1.000000 0.721191 0.000000
0.000000 0.753906 0.000000
0.017578 0.753906 0.000000
0.045044 0.753906 0.000000
0.077209 0.753906 0.000000
0.112976 0.753906 0.000000
0.150513 0.753906 0.000000
0.188110 0.753906 0.000000
0.225830 0.753906 0.000000
0.263672 0.753906 0.000000
0.301270 0.753906 0.000000
0.338623 0.753906 0.000000
0.375000 0.753906 0.000000
0.410889 0.753906 0.000000
0.445557 0.753906 0.000000
0.479492 0.753906 0.000000
0.513184 0.753906 0.000000
0.546387 0.753906 0.000000
0.579102 0.753906 0.000000
0.611328 0.753906 0.000000
0.643555 0.753906 0.000000
0.675293 0.753906 0.000000
0.707031 0.753906 0.000000
0.738281 0.753906 0.000000
0.769531 0.753906 0.000000
0.800781 0.753906 0.000000
0.831055 0.753906 0.000000
0.861816 0.753906 0.000000
0.891602 0.753906 0.000000
0.920898 0.753906 0.000000
0.948730 0.753906 0.000000
0.975586 0.753906 0.000000
1.000000 0.753906 0.000000
0.000000 0.787109 0.000000
0.017578 0.787109 0.000000
0.045044 0.787109 0.000000
0.077209 0.787109 0.000000
0.112976 0.787109 0.000000
0.150513 0.787109 0.000000
0.188110 0.787109 0.000000
0.225830 0.787109 0.000000
0.263672 0.787109 0.000000
0.301270 0.787109 0.000000
0.338623 0.787109 0.000000
0.375000 0.787109 0.000000
0.410889 0.787109 0.000000
0.445557 0.787109 0.000000
0.479492 0.787109 0.000000
0.513184 0.787109 0.000000
0.546387 0.787109 0.000000
0.579102 0.787109 0.000000
0.611328 0.787109 0.000000
0.643555 0.787109 0.000000
0.675293 0.787109 0.000000
0.707031 0.787109 0.000000
0.738281 0.787109 0.000000
0.769531 0.787109 0.000000
0.800781 0.787109 0.000000
0.831055 0.787109 0.000000
0.861816 0.787109 0.000000
0.891602 0.787109 0.000000
0.920898 0.787109 0.000000
0.948730 0.787109 0.000000
0.975586 0.787109 0.000000
1.000000 0.787109 0.000000
0.000000 0.818848 0.000000
0.017578 0.818848 0.000000
0.045044 0.818848 0.000000
0.077209 0.818848 0.000000
0.112976 0.818848 0.000000
0.150513 0.818848 0.000000
0.188110 0.818848 0.000000
0.225830 0.818848 0.000000
0.263672 0.818848 0.000000
0.301270 0.818848 0.000000
0.338623 0.818848 0.000000
0.375000 0.818848 0.000000
0.410889 0.818848 0.000000
0.445557 0.818848 0.000000
0.479492 0.818848 0.000000
0.513184 0.818848 0.000000
0.546387 0.818848 0.000000
0.579102 0.818848 0.000000
0.611328 0.818848 0.000000
0.643555 0.818848 0.000000
0.675293 0.818848 0.000000
0.707031 0.818848 0.000000
0.738281 0.818848 0.000000
0.769531 0.818848 0.000000
0.800781 0.818848 0.000000
0.831055 0.818848 0.000000
0.861816 0.818848 0.000000
0.891602 0.818848 0.000000
0.920898 0.818848 0.000000
0.948730 0.818848 0.000000
0.975586 0.818848 0.000000
1.000000 0.818848 0.000000
0.000000 0.850586 0.000000
0.017578 0.850586 0.000000
0.045044 0.850586 0.000000
0.077209 0.850586 0.000000
0.112976 0.850586 0.000000
0.150513 0.850586 0.000000
0.188110 0.850586 0.000000
0.225830 0.850586 0.000000
0.263672 0.850586 0.000000
0.301270 0.850586 0.000000
0.338623 0.850586 0.000000
0.375000 0.850586 0.000000
0.410889 0.850586 0.000000
0.445557 0.850586 0.000000
0.479492 0.850586 0.000000
0.513184 0.850586 0.000000
0.546387 0.850586 0.000000
0.579102 0.850586 0.000000
0.611328 0.850586 0.000000
0.643555 0.850586 0.000000
0.675293 0.850586 0.000000
0.707031 0.850586 0.000000
0.738281 0.850586 0.000000
0.769531 0.850586 0.000000
0.800781 0.850586 0.000000
0.831055 0.850586 0.000000
0.861816 0.850586 0.000000
0.891602 0.850586 0.000000
0.920898 0.850586 0.000000
0.948730 0.850586 0.000000
0.975586 0.850586 0.000000
1.000000 0.850586 0.000000
0.000000 0.881836 0.000000
0.017578 0.881836 0.000000
0.045044 0.881836 0.000000
0.077209 0.881836 0.000000
0.112976 0.881836 0.000000
0.150513 0.881836 0.000000
0.188110 0.881836 0.000000
0.225830 0.881836 0.000000
0.263672 0.881836 0.000000
0.301270 0.881836 0.000000
0.338623 0.881836 0.000000
0.375000 0.881836 0.000000
0.410889 0.881836 0.000000
0.445557 0.881836 0.000000
0.479492 0.881836 0.000000
0.513184 0.881836 0.000000
0.546387 0.881836 0.000000
0.579102 0.881836 0.000000
0.611328 0.881836 0.000000
0.643555 0.881836 0.000000
0.675293 0.881836 0.000000
0.707031 0.881836 0.000000
0.738281 0.881836 0.000000
