cubelut/Adanmq_MAX Zoom 800.cube
TITLE "Generated by Foundry::LUT"
LUT_3D_SIZE 5
DOMAIN_MIN 0.000000 0.000000 0.000000
DOMAIN_MAX 0.903226 0.903226 0.903226
0.000000 0.000000 0.000000
0.194214 0.000000 0.000000
0.432129 0.000000 0.000000
0.670410 0.000000 0.000000
0.907715 0.000000 0.000000
0.000000 0.179932 0.000000
0.194214 0.179932 0.000000
0.432129 0.179932 0.000000
0.670410 0.179932 0.000000
0.907715 0.179932 0.000000
0.000000 0.415283 0.000000
0.194214 0.415283 0.000000
0.432129 0.415283 0.000000
0.670410 0.415283 0.000000
0.907715 0.415283 0.000000
0.000000 0.659668 0.000000
0.194214 0.659668 0.000000
0.432129 0.659668 0.000000
0.670410 0.659668 0.000000
0.907715 0.659668 0.000000
0.000000 0.903809 0.000000
0.194214 0.903809 0.000000
0.432129 0.903809 0.000000
0.670410 0.904297 0.000000
0.907715 0.904297 0.000000
0.000000 0.000000 0.148193
0.194214 0.000000 0.148193
0.432129 0.000000 0.148193
0.670410 0.000000 0.148193
0.907715 0.000000 0.148193
0.000000 0.179932 0.148193
0.194214 0.179932 0.148193
0.432129 0.179932 0.148193
0.670410 0.179932 0.148193
0.907715 0.179932 0.148193
0.000000 0.415283 0.148193
0.194214 0.415283 0.148193
0.432129 0.415283 0.148193
0.670410 0.415283 0.148193
0.907715 0.415283 0.148193
0.000000 0.659668 0.148193
0.194214 0.659668 0.148193
0.432129 0.659668 0.148193
0.670410 0.659668 0.148193
0.907715 0.659668 0.148193
0.000000 0.903809 0.148193
0.194214 0.903809 0.148193
0.432129 0.903809 0.148193
0.670410 0.903809 0.148193
0.907715 0.904297 0.148193
0.000000 0.000000 0.375977
0.194336 0.000000 0.375977
0.432129 0.000000 0.375977
0.670410 0.000000 0.375977
0.907715 0.000000 0.375977
0.000000 0.179810 0.375977
0.194336 0.179932 0.375977
0.432129 0.179932 0.375977
0.670410 0.179932 0.375977
0.907715 0.179932 0.375977
0.000000 0.415283 0.375977
0.194336 0.415283 0.375977
0.432129 0.415283 0.375977
0.670410 0.415283 0.375977
0.907715 0.415283 0.375977
0.000000 0.659668 0.375977
0.194336 0.659668 0.375977
0.432129 0.659668 0.375977
0.670410 0.659668 0.375977
0.907715 0.659668 0.375977
0.000000 0.903809 0.375977
0.194336 0.903809 0.375977
0.432129 0.903809 0.375977
0.670410 0.903809 0.375977
0.907715 0.903809 0.375977
0.000000 0.000000 0.628418
0.194336 0.000000 0.628418
0.432129 0.000000 0.628418
0.670410 0.000000 0.628418
0.907715 0.000000 0.628418
0.000000 0.179810 0.628418
0.194336 0.179810 0.628418
0.432129 0.179932 0.628418
0.670410 0.179932 0.628418
0.907715 0.179932 0.628418
0.000000 0.415283 0.628418
0.194336 0.415283 0.628418
0.432129 0.415283 0.628418
0.670410 0.415283 0.628418
0.907715 0.415283 0.628418
0.000000 0.659668 0.628418
0.194336 0.659668 0.628418
0.432129 0.659668 0.628418
0.670410 0.659668 0.628418
0.907715 0.659668 0.628418
0.000000 0.903809 0.628418
0.194336 0.903809 0.628418
0.432129 0.903809 0.628418
0.670410 0.903809 0.628418
0.907715 0.903809 0.628418
0.000000 0.000000 0.899414
0.194336 0.000000 0.899414
0.432129 0.000000 0.899414
0.670410 0.000000 0.899414
0.907715 0.000000 0.899414
0.000000 0.179810 0.899414
0.194336 0.179810 0.899414
0.432129 0.179810 0.899414
0.670410 0.179932 0.899414
0.907715 0.179932 0.899414
0.000000 0.415283 0.899414
0.194336 0.415283 0.899414
0.432129 0.415283 0.899414
0.670410 0.415283 0.899414
0.907715 0.415283 0.899414
0.000000 0.659668 0.899414
0.194336 0.659668 0.899414
0.432129 0.659668 0.899414
0.670410 0.659668 0.899414
0.907715 0.659668 0.899414
0.000000 0.903809 0.899414
0.194336 0.903809 0.899414
0.432129 0.903809 0.899414
0.670410 0.903809 0.899414
0.907715 0.903809 0.899414
