cubelut/Adanmq_Gold 200.cube
TITLE "Generated by Foundry::LUT"
LUT_3D_SIZE 5
DOMAIN_MIN 0.000000 0.000000 0.000000
DOMAIN_MAX 0.903226 0.903226 0.903226
0.000000 0.000000 0.000000
0.197754 0.000000 0.000000
0.480713 0.000000 0.000000
0.729004 0.000000 0.000000
0.934570 0.000000 0.000000
0.000000 0.161865 0.000000
0.197754 0.161865 0.000000
0.480713 0.161865 0.000000
0.729004 0.161865 0.000000
0.934570 0.161865 0.000000
0.000000 0.421387 0.000000
0.197754 0.421387 0.000000
0.480713 0.421387 0.000000
0.729004 0.421387 0.000000
0.934570 0.421387 0.000000
0.000000 0.678711 0.000000
0.197754 0.678711 0.000000
0.480713 0.678711 0.000000
0.729004 0.678711 0.000000
0.934570 0.678711 0.000000
0.000000 0.911621 0.000000
0.197754 0.911621 0.000000
0.480713 0.911621 0.000000
0.729004 0.911621 0.000000
0.934570 0.911621 0.000000
0.000000 0.000000 0.128540
0.197876 0.000000 0.128540
0.480713 0.000000 0.128540
0.729004 0.000000 0.128540
0.934570 0.000000 0.128540
0.000000 0.161865 0.128540
0.197876 0.161865 0.128540
0.480713 0.161865 0.128540
0.729004 0.161865 0.128540
0.934570 0.161865 0.128540
0.000000 0.421387 0.128540
0.197876 0.421387 0.128540
0.480713 0.421387 0.128540
0.729004 0.421387 0.128540
0.934570 0.421387 0.128540
0.000000 0.678711 0.128540
0.197876 0.678711 0.128540
0.480713 0.678711 0.128540
0.729004 0.678711 0.128540
0.934570 0.678711 0.128540
0.000000 0.911621 0.128540
0.197876 0.911621 0.128540
0.480713 0.911621 0.128540
0.729004 0.911621 0.128540
0.934570 0.911621 0.128540
0.000000 0.000000 0.382080
0.197876 0.000000 0.382080
0.480957 0.000000 0.382080
0.729004 0.000000 0.382080
0.934570 0.000000 0.382080
0.000000 0.161865 0.382080
0.197876 0.161865 0.382080
0.480957 0.161865 0.382080
0.729004 0.161865 0.382080
0.934570 0.161865 0.382080
0.000000 0.421143 0.382080
0.197876 0.421387 0.382080
0.480957 0.421387 0.382080
0.729004 0.421387 0.382080
0.934570 0.421387 0.382080
0.000000 0.678711 0.382080
0.197876 0.678711 0.382080
0.480957 0.678711 0.382080
0.729004 0.678711 0.382080
0.934570 0.678711 0.382080
0.000000 0.911621 0.382080
0.197876 0.911621 0.382080
0.480957 0.911621 0.382080
0.729004 0.911621 0.382080
0.934570 0.911621 0.382080
0.000000 0.000000 0.651855
0.197998 0.000000 0.651855
0.480957 0.000000 0.651855
0.729004 0.000000 0.651855
0.934570 0.000000 0.651855
0.000000 0.161743 0.651855
0.197998 0.161865 0.651855
0.480957 0.161865 0.651855
0.729004 0.161865 0.651855
0.934570 0.161865 0.651855
0.000000 0.421143 0.651855
0.197998 0.421143 0.651855
0.480957 0.421387 0.651855
0.729004 0.421387 0.651855
0.934570 0.421387 0.651855
0.000000 0.678711 0.651855
0.197998 0.678711 0.651855
0.480957 0.678711 0.651855
0.729004 0.678711 0.651855
0.934570 0.678711 0.651855
0.000000 0.911621 0.651855
0.197998 0.911621 0.651855
0.480957 0.911621 0.651855
0.729004 0.911621 0.651855
0.934570 0.911621 0.651855
0.000000 0.000000 0.907227
0.197998 0.000000 0.907227
0.480957 0.000000 0.907227
0.729492 0.000000 0.907227
0.934570 0.000000 0.907227
0.000000 0.161743 0.907227
0.197998 0.161743 0.907227
0.480957 0.161865 0.907227
0.729492 0.161865 0.907227
0.934570 0.161865 0.907227
0.000000 0.421143 0.907227
0.197998 0.421143 0.907227
0.480957 0.421143 0.907227
0.729492 0.421387 0.907227
0.934570 0.421387 0.907227
0.000000 0.678711 0.907227
0.197998 0.678711 0.907227
0.480957 0.678711 0.907227
0.729492 0.678711 0.907227
0.934570 0.678711 0.907227
0.000000 0.911621 0.907227
0.197998 0.911621 0.907227
0.480957 0.911621 0.907227
0.729492 0.911621 0.907227
0.934570 0.911621 0.907227
