cubelut/Adanmq_Advantix 200.cube
TITLE "Generated by Foundry::LUT"
LUT_3D_SIZE 32
0.000000 0.000000 0.000000
0.017380 0.000000 0.000000
0.044922 0.000000 0.000000
0.078552 0.000000 0.000000
0.117065 0.000000 0.000000
0.155884 0.000000 0.000000
0.194214 0.000000 0.000000
0.231445 0.000000 0.000000
0.267578 0.000000 0.000000
0.303467 0.000000 0.000000
0.338135 0.000000 0.000000
0.372559 0.000000 0.000000
0.407715 0.000000 0.000000
0.442871 0.000000 0.000000
0.477539 0.000000 0.000000
0.510742 0.000000 0.000000
0.544434 0.000000 0.000000
0.577637 0.000000 0.000000
0.610840 0.000000 0.000000
0.643066 0.000000 0.000000
0.675293 0.000000 0.000000
0.707520 0.000000 0.000000
0.738770 0.000000 0.000000
0.770508 0.000000 0.000000
0.802246 0.000000 0.000000
0.832520 0.000000 0.000000
0.863281 0.000000 0.000000
0.894043 0.000000 0.000000
0.923340 0.000000 0.000000
0.951172 0.000000 0.000000
0.978027 0.000000 0.000000
1.000000 0.000000 0.000000
0.000000 0.014977 0.000000
0.017380 0.014977 0.000000
0.044922 0.014977 0.000000
0.078552 0.014984 0.000000
0.117065 0.014984 0.000000
0.155884 0.014984 0.000000
0.194214 0.014984 0.000000
0.231445 0.014984 0.000000
0.267578 0.014984 0.000000
0.303467 0.014984 0.000000
0.338135 0.014984 0.000000
0.372559 0.014984 0.000000
0.407715 0.014984 0.000000
0.442871 0.014984 0.000000
0.477539 0.014984 0.000000
0.510742 0.014984 0.000000
0.544434 0.014984 0.000000
0.577637 0.014984 0.000000
0.610840 0.014984 0.000000
0.643066 0.014992 0.000000
0.675293 0.014992 0.000000
0.707520 0.014992 0.000000
0.738770 0.014992 0.000000
0.770508 0.014992 0.000000
0.802246 0.014992 0.000000
0.832520 0.014992 0.000000
0.863281 0.014992 0.000000
0.894043 0.014992 0.000000
0.923340 0.014992 0.000000
0.951172 0.014992 0.000000
0.978027 0.014992 0.000000
1.000000 0.014992 0.000000
0.000000 0.040894 0.000000
0.017380 0.040894 0.000000
0.044922 0.040894 0.000000
0.078552 0.040894 0.000000
0.117065 0.040894 0.000000
0.155884 0.040894 0.000000
0.194214 0.040894 0.000000
0.231445 0.040894 0.000000
0.267578 0.040894 0.000000
0.303467 0.040894 0.000000
0.338135 0.040894 0.000000
0.372559 0.040894 0.000000
0.407715 0.040894 0.000000
0.442871 0.040894 0.000000
0.477539 0.040894 0.000000
0.510742 0.040894 0.000000
0.544434 0.040894 0.000000
0.577637 0.040894 0.000000
0.610840 0.040894 0.000000
0.643066 0.040894 0.000000
0.675293 0.040894 0.000000
0.707520 0.040894 0.000000
0.738770 0.040894 0.000000
0.770508 0.040894 0.000000
0.802246 0.040894 0.000000
0.832520 0.040924 0.000000
0.863281 0.040924 0.000000
0.894043 0.040924 0.000000
0.923340 0.040924 0.000000
0.951172 0.040924 0.000000
0.978027 0.040924 0.000000
1.000000 0.040924 0.000000
0.000000 0.071899 0.000000
0.017380 0.071899 0.000000
0.044922 0.071899 0.000000
0.078552 0.071899 0.000000
0.117065 0.071899 0.000000
0.155884 0.071899 0.000000
0.194214 0.071899 0.000000
0.231445 0.071899 0.000000
0.267578 0.071899 0.000000
0.303467 0.071899 0.000000
0.338135 0.071899 0.000000
0.372559 0.071899 0.000000
0.407715 0.071899 0.000000
0.442871 0.071899 0.000000
0.477539 0.071899 0.000000
0.510742 0.071899 0.000000
0.544434 0.071899 0.000000
0.577637 0.071899 0.000000
0.610840 0.071899 0.000000
0.643066 0.071899 0.000000
0.675293 0.071899 0.000000
0.707520 0.071960 0.000000
0.738770 0.071960 0.000000
0.770508 0.071960 0.000000
0.802246 0.071960 0.000000
0.832520 0.071960 0.000000
0.863281 0.071960 0.000000
0.894043 0.071960 0.000000
0.923340 0.071960 0.000000
0.951172 0.071960 0.000000
0.978027 0.071960 0.000000
1.000000 0.071960 0.000000
0.000000 0.106628 0.000000
0.017380 0.106628 0.000000
0.044922 0.106628 0.000000
0.078552 0.106628 0.000000
0.117065 0.106628 0.000000
0.155884 0.106628 0.000000
0.194214 0.106628 0.000000
0.231445 0.106628 0.000000
0.267578 0.106628 0.000000
0.303467 0.106628 0.000000
0.338135 0.106628 0.000000
0.372559 0.106628 0.000000
0.407715 0.106628 0.000000
0.442871 0.106628 0.000000
0.477539 0.106628 0.000000
0.510742 0.106628 0.000000
0.544434 0.106628 0.000000
0.577637 0.106628 0.000000
0.610840 0.106628 0.000000
0.643066 0.106628 0.000000
0.675293 0.106628 0.000000
0.707520 0.106628 0.000000
0.738770 0.106628 0.000000
0.770508 0.106628 0.000000
0.802246 0.106628 0.000000
0.832520 0.106628 0.000000
0.863281 0.106628 0.000000
0.894043 0.106628 0.000000
0.923340 0.106628 0.000000
0.951172 0.106628 0.000000
0.978027 0.106628 0.000000
1.000000 0.106628 0.000000
0.000000 0.142944 0.000000
0.017380 0.142944 0.000000
0.044922 0.142944 0.000000
0.078552 0.142944 0.000000
0.117065 0.142944 0.000000
0.155884 0.142944 0.000000
0.194214 0.142944 0.000000
0.231445 0.142944 0.000000
0.267578 0.142944 0.000000
0.303467 0.142944 0.000000
0.338135 0.142944 0.000000
0.372559 0.143066 0.000000
0.407715 0.143066 0.000000
0.442871 0.143066 0.000000
0.477539 0.143066 0.000000
0.510742 0.143066 0.000000
0.544434 0.143066 0.000000
0.577637 0.143066 0.000000
0.610840 0.143066 0.000000
0.643066 0.143066 0.000000
0.675293 0.143066 0.000000
0.707520 0.143066 0.000000
0.738770 0.143066 0.000000
0.770508 0.143066 0.000000
0.802246 0.143066 0.000000
0.832520 0.143066 0.000000
0.863281 0.143066 0.000000
0.894043 0.143066 0.000000
0.923340 0.143066 0.000000
0.951172 0.143066 0.000000
0.978027 0.143066 0.000000
1.000000 0.143066 0.000000
0.000000 0.180908 0.000000
0.017380 0.180908 0.000000
0.044922 0.180908 0.000000
0.078552 0.180908 0.000000
0.117065 0.180908 0.000000
0.155884 0.181030 0.000000
0.194214 0.181030 0.000000
0.231445 0.181030 0.000000
0.267578 0.181030 0.000000
0.303467 0.181030 0.000000
0.338135 0.181030 0.000000
0.372559 0.181030 0.000000
0.407715 0.181030 0.000000
0.442871 0.181030 0.000000
0.477539 0.181030 0.000000
0.510742 0.181030 0.000000
0.544434 0.181030 0.000000
0.577637 0.181030 0.000000
0.610840 0.181030 0.000000
0.643066 0.181030 0.000000
0.675293 0.181030 0.000000
0.707520 0.181030 0.000000
0.738770 0.181030 0.000000
0.770508 0.181030 0.000000
0.802246 0.181030 0.000000
0.832520 0.181030 0.000000
0.863281 0.181030 0.000000
0.894043 0.181030 0.000000
0.923340 0.181030 0.000000
0.951172 0.181030 0.000000
0.978027 0.181030 0.000000
1.000000 0.181030 0.000000
0.000000 0.218750 0.000000
0.017380 0.218750 0.000000
0.044922 0.218750 0.000000
0.078552 0.218750 0.000000
0.117065 0.218750 0.000000
0.155884 0.218750 0.000000
0.194214 0.218750 0.000000
0.231445 0.218750 0.000000
0.267578 0.218750 0.000000
0.303467 0.218750 0.000000
0.338135 0.218872 0.000000
0.372559 0.218872 0.000000
0.407715 0.218872 0.000000
0.442871 0.218872 0.000000
0.477539 0.218872 0.000000
0.510742 0.218872 0.000000
0.544434 0.218872 0.000000
0.577637 0.218872 0.000000
0.610840 0.218872 0.000000
0.643066 0.218872 0.000000
0.675293 0.218872 0.000000
0.707520 0.218872 0.000000
0.738770 0.218872 0.000000
0.770508 0.218872 0.000000
0.802246 0.218872 0.000000
0.832520 0.218872 0.000000
0.863281 0.218872 0.000000
0.894043 0.218872 0.000000
0.923340 0.218872 0.000000
0.951172 0.218872 0.000000
0.978027 0.218872 0.000000
1.000000 0.218872 0.000000
0.000000 0.256836 0.000000
0.017380 0.256836 0.000000
0.044922 0.256836 0.000000
0.078552 0.256836 0.000000
0.117065 0.256836 0.000000
0.155884 0.256836 0.000000
0.194214 0.256836 0.000000
0.231445 0.256836 0.000000
0.267578 0.256836 0.000000
0.303467 0.256836 0.000000
0.338135 0.256836 0.000000
0.372559 0.256836 0.000000
0.407715 0.256836 0.000000
0.442871 0.256836 0.000000
0.477539 0.256836 0.000000
0.510742 0.256836 0.000000
0.544434 0.256836 0.000000
0.577637 0.256836 0.000000
0.610840 0.256836 0.000000
0.643066 0.256836 0.000000
0.675293 0.256836 0.000000
0.707520 0.256836 0.000000
0.738770 0.256836 0.000000
0.770508 0.256836 0.000000
0.802246 0.256836 0.000000
0.832520 0.256836 0.000000
0.863281 0.256836 0.000000
0.894043 0.256836 0.000000
0.923340 0.256836 0.000000
0.951172 0.256836 0.000000
0.978027 0.256836 0.000000
1.000000 0.256836 0.000000
0.000000 0.294189 0.000000
0.017380 0.294189 0.000000
0.044922 0.294189 0.000000
0.078552 0.294189 0.000000
0.117065 0.294189 0.000000
0.155884 0.294189 0.000000
0.194214 0.294189 0.000000
0.231445 0.294189 0.000000
0.267578 0.294189 0.000000
0.303467 0.294189 0.000000
0.338135 0.294189 0.000000
0.372559 0.294189 0.000000
0.407715 0.294189 0.000000
0.442871 0.294189 0.000000
0.477539 0.294189 0.000000
0.510742 0.294189 0.000000
0.544434 0.294189 0.000000
0.577637 0.294189 0.000000
0.610840 0.294189 0.000000
0.643066 0.294189 0.000000
0.675293 0.294189 0.000000
0.707520 0.294189 0.000000
0.738770 0.294189 0.000000
0.770508 0.294189 0.000000
0.802246 0.294189 0.000000
0.832520 0.294189 0.000000
0.863281 0.294189 0.000000
0.894043 0.294189 0.000000
0.923340 0.294189 0.000000
0.951172 0.294189 0.000000
0.978027 0.294189 0.000000
1.000000 0.294189 0.000000
0.000000 0.331299 0.000000
0.017380 0.331299 0.000000
0.044922 0.331299 0.000000
0.078552 0.331299 0.000000
0.117065 0.331299 0.000000
0.155884 0.331299 0.000000
0.194214 0.331299 0.000000
0.231445 0.331299 0.000000
0.267578 0.331299 0.000000
0.303467 0.331299 0.000000
0.338135 0.331299 0.000000
0.372559 0.331299 0.000000
0.407715 0.331299 0.000000
0.442871 0.331299 0.000000
0.477539 0.331299 0.000000
0.510742 0.331299 0.000000
0.544434 0.331299 0.000000
0.577637 0.331299 0.000000
0.610840 0.331299 0.000000
0.643066 0.331299 0.000000
0.675293 0.331299 0.000000
0.707520 0.331299 0.000000
0.738770 0.331299 0.000000
0.770508 0.331299 0.000000
0.802246 0.331299 0.000000
0.832520 0.331299 0.000000
0.863281 0.331299 0.000000
0.894043 0.331299 0.000000
0.923340 0.331299 0.000000
0.951172 0.331299 0.000000
0.978027 0.331299 0.000000
1.000000 0.331299 0.000000
0.000000 0.368164 0.000000
0.017380 0.368164 0.000000
0.044922 0.368164 0.000000
0.078552 0.368164 0.000000
0.117065 0.368164 0.000000
0.155884 0.368164 0.000000
0.194214 0.368164 0.000000
0.231445 0.368164 0.000000
0.267578 0.368164 0.000000
0.303467 0.368164 0.000000
0.338135 0.368164 0.000000
0.372559 0.368164 0.000000
0.407715 0.368164 0.000000
0.442871 0.368164 0.000000
0.477539 0.368164 0.000000
0.510742 0.368164 0.000000
0.544434 0.368164 0.000000
0.577637 0.368164 0.000000
0.610840 0.368164 0.000000
0.643066 0.368164 0.000000
0.675293 0.368164 0.000000
0.707520 0.368164 0.000000
0.738770 0.368164 0.000000
0.770508 0.368164 0.000000
0.802246 0.368164 0.000000
0.832520 0.368164 0.000000
0.863281 0.368164 0.000000
0.894043 0.368164 0.000000
0.923340 0.368164 0.000000
0.951172 0.368164 0.000000
0.978027 0.368164 0.000000
1.000000 0.368164 0.000000
0.000000 0.404541 0.000000
0.017380 0.404541 0.000000
0.044922 0.404541 0.000000
0.078552 0.404541 0.000000
0.117065 0.404541 0.000000
0.155884 0.404541 0.000000
0.194214 0.404541 0.000000
0.231445 0.404541 0.000000
0.267578 0.404541 0.000000
0.303467 0.404541 0.000000
0.338135 0.404541 0.000000
0.372559 0.404541 0.000000
0.407715 0.404541 0.000000
0.442871 0.404541 0.000000
0.477539 0.404541 0.000000
0.510742 0.404541 0.000000
0.544434 0.404541 0.000000
0.577637 0.404541 0.000000
0.610840 0.404541 0.000000
0.643066 0.404541 0.000000
0.675293 0.404541 0.000000
0.707520 0.404541 0.000000
0.738770 0.404541 0.000000
0.770508 0.404541 0.000000
0.802246 0.404541 0.000000
0.832520 0.404541 0.000000
0.863281 0.404541 0.000000
0.894043 0.404541 0.000000
0.923340 0.404541 0.000000
0.951172 0.404541 0.000000
0.978027 0.404541 0.000000
1.000000 0.404541 0.000000
0.000000 0.440430 0.000000
0.017380 0.440430 0.000000
0.044922 0.440430 0.000000
0.078552 0.440430 0.000000
0.117065 0.440430 0.000000
0.155884 0.440430 0.000000
0.194214 0.440430 0.000000
0.231445 0.440430 0.000000
0.267578 0.440430 0.000000
0.303467 0.440430 0.000000
0.338135 0.440430 0.000000
0.372559 0.440430 0.000000
0.407715 0.440430 0.000000
0.442871 0.440430 0.000000
0.477539 0.440430 0.000000
0.510742 0.440430 0.000000
0.544434 0.440430 0.000000
0.577637 0.440430 0.000000
0.610840 0.440430 0.000000
0.643066 0.440430 0.000000
0.675293 0.440430 0.000000
0.707520 0.440430 0.000000
0.738770 0.440430 0.000000
0.770508 0.440430 0.000000
0.802246 0.440430 0.000000
0.832520 0.440430 0.000000
0.863281 0.440430 0.000000
0.894043 0.440430 0.000000
0.923340 0.440430 0.000000
0.951172 0.440430 0.000000
0.978027 0.440430 0.000000
1.000000 0.440430 0.000000
0.000000 0.475830 0.000000
0.017380 0.475830 0.000000
0.044922 0.475830 0.000000
0.078552 0.475830 0.000000
0.117065 0.475830 0.000000
0.155884 0.475830 0.000000
0.194214 0.475830 0.000000
0.231445 0.475830 0.000000
0.267578 0.475830 0.000000
0.303467 0.475830 0.000000
0.338135 0.475830 0.000000
0.372559 0.475830 0.000000
0.407715 0.475830 0.000000
0.442871 0.475830 0.000000
0.477539 0.475830 0.000000
0.510742 0.475830 0.000000
0.544434 0.475830 0.000000
0.577637 0.475830 0.000000
0.610840 0.475830 0.000000
0.643066 0.475830 0.000000
0.675293 0.475830 0.000000
0.707520 0.475830 0.000000
0.738770 0.475830 0.000000
0.770508 0.475830 0.000000
0.802246 0.475830 0.000000
0.832520 0.475830 0.000000
0.863281 0.475830 0.000000
0.894043 0.475830 0.000000
0.923340 0.475830 0.000000
0.951172 0.475830 0.000000
0.978027 0.475830 0.000000
1.000000 0.475830 0.000000
0.000000 0.510742 0.000000
0.017380 0.510742 0.000000
0.044922 0.510742 0.000000
0.078552 0.510742 0.000000
0.117065 0.510742 0.000000
0.155884 0.510742 0.000000
0.194214 0.510742 0.000000
0.231445 0.510742 0.000000
0.267578 0.510742 0.000000
0.303467 0.510742 0.000000
0.338135 0.510742 0.000000
0.372559 0.510742 0.000000
0.407715 0.510742 0.000000
0.442871 0.510742 0.000000
0.477539 0.510742 0.000000
0.510742 0.510742 0.000000
0.544434 0.510742 0.000000
0.577637 0.510742 0.000000
0.610840 0.510742 0.000000
0.643066 0.510742 0.000000
0.675293 0.510742 0.000000
0.707520 0.510742 0.000000
0.738770 0.510742 0.000000
0.770508 0.510742 0.000000
0.802246 0.510742 0.000000
0.832520 0.510742 0.000000
0.863281 0.510742 0.000000
0.894043 0.510742 0.000000
0.923340 0.510742 0.000000
0.951172 0.510742 0.000000
0.978027 0.510742 0.000000
1.000000 0.510742 0.000000
0.000000 0.544434 0.000000
0.017380 0.544434 0.000000
0.044922 0.544434 0.000000
0.078552 0.544434 0.000000
0.117065 0.544434 0.000000
0.155884 0.544434 0.000000
0.194214 0.544434 0.000000
0.231445 0.544434 0.000000
0.267578 0.544434 0.000000
0.303467 0.544434 0.000000
0.338135 0.544434 0.000000
0.372559 0.544434 0.000000
0.407715 0.544434 0.000000
0.442871 0.544434 0.000000
0.477539 0.544434 0.000000
0.510742 0.544434 0.000000
0.544434 0.544434 0.000000
0.577637 0.544434 0.000000
0.610840 0.544434 0.000000
0.643066 0.544434 0.000000
0.675293 0.544434 0.000000
0.707520 0.544434 0.000000
0.738770 0.544434 0.000000
0.770508 0.544434 0.000000
0.802246 0.544434 0.000000
0.832520 0.544434 0.000000
0.863281 0.544434 0.000000
0.894043 0.544434 0.000000
0.923340 0.544434 0.000000
0.951172 0.544434 0.000000
0.978027 0.544434 0.000000
1.000000 0.544434 0.000000
0.000000 0.578125 0.000000
0.017380 0.578125 0.000000
0.044922 0.578125 0.000000
0.078552 0.578125 0.000000
0.117065 0.578125 0.000000
0.155884 0.578125 0.000000
0.194214 0.578125 0.000000
0.231445 0.578125 0.000000
0.267578 0.578125 0.000000
0.303467 0.578125 0.000000
0.338135 0.578125 0.000000
0.372559 0.578125 0.000000
0.407715 0.578125 0.000000
0.442871 0.578125 0.000000
0.477539 0.578125 0.000000
0.510742 0.578125 0.000000
0.544434 0.578125 0.000000
0.577637 0.578125 0.000000
0.610840 0.578125 0.000000
0.643066 0.578125 0.000000
0.675293 0.578125 0.000000
0.707520 0.578125 0.000000
0.738770 0.578125 0.000000
0.770508 0.578125 0.000000
0.802246 0.578125 0.000000
0.832520 0.578125 0.000000
0.863281 0.578125 0.000000
0.894043 0.578125 0.000000
0.923340 0.578125 0.000000
0.951172 0.578125 0.000000
0.978027 0.578125 0.000000
1.000000 0.578125 0.000000
0.000000 0.610840 0.000000
0.017380 0.610840 0.000000
0.044922 0.610840 0.000000
0.078552 0.610840 0.000000
0.117065 0.610840 0.000000
0.155884 0.610840 0.000000
0.194214 0.610840 0.000000
0.231445 0.610840 0.000000
0.267578 0.610840 0.000000
0.303467 0.610840 0.000000
0.338135 0.610840 0.000000
0.372559 0.610840 0.000000
0.407715 0.610840 0.000000
0.442871 0.610840 0.000000
0.477539 0.610840 0.000000
0.510742 0.610840 0.000000
0.544434 0.610840 0.000000
0.577637 0.610840 0.000000
0.610840 0.610840 0.000000
0.643066 0.610840 0.000000
0.675293 0.610840 0.000000
0.707520 0.610840 0.000000
0.738770 0.610840 0.000000
0.770508 0.610840 0.000000
0.802246 0.610840 0.000000
0.832520 0.610840 0.000000
0.863281 0.610840 0.000000
0.894043 0.610840 0.000000
0.923340 0.610840 0.000000
0.951172 0.610840 0.000000
0.978027 0.610840 0.000000
1.000000 0.610840 0.000000
0.000000 0.644043 0.000000
0.017380 0.644043 0.000000
0.044922 0.644043 0.000000
0.078552 0.644043 0.000000
0.117065 0.644043 0.000000
0.155884 0.644043 0.000000
0.194214 0.644043 0.000000
0.231445 0.644043 0.000000
0.267578 0.644043 0.000000
0.303467 0.644043 0.000000
0.338135 0.644043 0.000000
0.372559 0.644043 0.000000
0.407715 0.644043 0.000000
0.442871 0.644043 0.000000
0.477539 0.644043 0.000000
0.510742 0.644043 0.000000
0.544434 0.644043 0.000000
0.577637 0.644043 0.000000
0.610840 0.644043 0.000000
0.643066 0.644043 0.000000
0.675293 0.644043 0.000000
0.707520 0.644043 0.000000
0.738770 0.644043 0.000000
0.770508 0.644043 0.000000
0.802246 0.644043 0.000000
0.832520 0.644043 0.000000
0.863281 0.644043 0.000000
0.894043 0.644043 0.000000
0.923340 0.644043 0.000000
0.951172 0.644043 0.000000
0.978027 0.644043 0.000000
1.000000 0.644043 0.000000
0.000000 0.676758 0.000000
0.017380 0.676758 0.000000
0.044922 0.676758 0.000000
0.078552 0.676758 0.000000
0.117065 0.676758 0.000000
0.155884 0.676758 0.000000
0.194214 0.676758 0.000000
0.231445 0.676758 0.000000
0.267578 0.676758 0.000000
0.303467 0.676758 0.000000
0.338135 0.676758 0.000000
0.372559 0.676758 0.000000
0.407715 0.676758 0.000000
0.442871 0.676758 0.000000
0.477539 0.676758 0.000000
0.510742 0.676758 0.000000
0.544434 0.676758 0.000000
0.577637 0.676758 0.000000
0.610840 0.676758 0.000000
0.643066 0.676758 0.000000
0.675293 0.676758 0.000000
0.707520 0.676758 0.000000
0.738770 0.676758 0.000000
0.770508 0.676758 0.000000
0.802246 0.676758 0.000000
0.832520 0.676758 0.000000
0.863281 0.676758 0.000000
0.894043 0.676758 0.000000
0.923340 0.676758 0.000000
0.951172 0.676758 0.000000
0.978027 0.676758 0.000000
1.000000 0.676758 0.000000
0.000000 0.709473 0.000000
0.017380 0.709473 0.000000
0.044922 0.709473 0.000000
0.078552 0.709473 0.000000
0.117065 0.709473 0.000000
0.155884 0.709473 0.000000
0.194214 0.709473 0.000000
0.231445 0.709473 0.000000
0.267578 0.709473 0.000000
0.303467 0.709473 0.000000
0.338135 0.709473 0.000000
0.372559 0.709473 0.000000
0.407715 0.709473 0.000000
0.442871 0.709473 0.000000
0.477539 0.709473 0.000000
0.510742 0.709473 0.000000
0.544434 0.709473 0.000000
0.577637 0.709473 0.000000
0.610840 0.709473 0.000000
0.643066 0.709473 0.000000
0.675293 0.709473 0.000000
0.707520 0.709473 0.000000
0.738770 0.709473 0.000000
0.770508 0.709473 0.000000
0.802246 0.709473 0.000000
0.832520 0.709473 0.000000
0.863281 0.709473 0.000000
0.894043 0.709473 0.000000
0.923340 0.709473 0.000000
0.951172 0.709473 0.000000
0.978027 0.709473 0.000000
1.000000 0.709473 0.000000
0.000000 0.740234 0.000000
0.017380 0.740234 0.000000
0.044922 0.740234 0.000000
0.078552 0.740234 0.000000
0.117065 0.740234 0.000000
0.155884 0.740234 0.000000
0.194214 0.740234 0.000000
0.231445 0.740234 0.000000
0.267578 0.740234 0.000000
0.303467 0.740234 0.000000
0.338135 0.740234 0.000000
0.372559 0.740234 0.000000
0.407715 0.740234 0.000000
0.442871 0.740234 0.000000
0.477539 0.740234 0.000000
0.510742 0.740234 0.000000
0.544434 0.740234 0.000000
0.577637 0.740234 0.000000
0.610840 0.740234 0.000000
0.643066 0.740234 0.000000
0.675293 0.740234 0.000000
0.707520 0.740234 0.000000
0.738770 0.740234 0.000000
0.770508 0.740234 0.000000
0.802246 0.740234 0.000000
0.832520 0.740723 0.000000
0.863281 0.740723 0.000000
0.894043 0.740723 0.000000
0.923340 0.740723 0.000000
0.951172 0.740723 0.000000
0.978027 0.740723 0.000000
1.000000 0.740723 0.000000
0.000000 0.770996 0.000000
0.017380 0.770996 0.000000
0.044922 0.770996 0.000000
0.078552 0.770996 0.000000
0.117065 0.770996 0.000000
0.155884 0.770996 0.000000
0.194214 0.770996 0.000000
0.231445 0.770996 0.000000
0.267578 0.770996 0.000000
0.303467 0.770996 0.000000
0.338135 0.770996 0.000000
0.372559 0.770996 0.000000
0.407715 0.770996 0.000000
0.442871 0.770996 0.000000
0.477539 0.770996 0.000000
0.510742 0.770996 0.000000
0.544434 0.770996 0.000000
0.577637 0.770996 0.000000
0.610840 0.770996 0.000000
0.643066 0.770996 0.000000
0.675293 0.770996 0.000000
0.707520 0.770996 0.000000
0.738770 0.770996 0.000000
0.770508 0.770996 0.000000
0.802246 0.770996 0.000000
0.832520 0.770996 0.000000
0.863281 0.770996 0.000000
0.894043 0.770996 0.000000
0.923340 0.770996 0.000000
0.951172 0.770996 0.000000
0.978027 0.770996 0.000000
1.000000 0.770996 0.000000
0.000000 0.801758 0.000000
0.017380 0.801758 0.000000
0.044922 0.801758 0.000000
0.078552 0.801758 0.000000
0.117065 0.801758 0.000000
0.155884 0.801758 0.000000
0.194214 0.801758 0.000000
0.231445 0.801758 0.000000
0.267578 0.801758 0.000000
0.303467 0.801758 0.000000
0.338135 0.801758 0.000000
0.372559 0.801758 0.000000
0.407715 0.801758 0.000000
0.442871 0.801758 0.000000
0.477539 0.801758 0.000000
0.510742 0.801758 0.000000
0.544434 0.801758 0.000000
0.577637 0.801758 0.000000
0.610840 0.801758 0.000000
0.643066 0.801758 0.000000
0.675293 0.801758 0.000000
0.707520 0.801758 0.000000
0.738770 0.801758 0.000000
0.770508 0.801758 0.000000
0.802246 0.801758 0.000000
0.832520 0.801758 0.000000
0.863281 0.801758 0.000000
0.894043 0.801758 0.000000
0.923340 0.801758 0.000000
0.951172 0.801758 0.000000
0.978027 0.801758 0.000000
1.000000 0.801758 0.000000
0.000000 0.831543 0.000000
0.017380 0.831543 0.000000
0.044922 0.831543 0.000000
0.078552 0.831543 0.000000
0.117065 0.831543 0.000000
0.155884 0.831543 0.000000
0.194214 0.831543 0.000000
0.231445 0.831543 0.000000
0.267578 0.831543 0.000000
0.303467 0.831543 0.000000
0.338135 0.831543 0.000000
0.372559 0.831543 0.000000
0.407715 0.831543 0.000000
0.442871 0.831543 0.000000
0.477539 0.831543 0.000000
0.510742 0.831543 0.000000
0.544434 0.831543 0.000000
0.577637 0.831543 0.000000
0.610840 0.831543 0.000000
0.643066 0.831543 0.000000
0.675293 0.831543 0.000000
0.707520 0.831543 0.000000
0.738770 0.831543 0.000000
0.770508 0.831543 0.000000
0.802246 0.831543 0.000000
0.832520 0.831543 0.000000
0.863281 0.831543 0.000000
0.894043 0.831543 0.000000
0.923340 0.831543 0.000000
0.951172 0.831543 0.000000
0.978027 0.831543 0.000000
1.000000 0.831543 0.000000
0.000000 0.861328 0.000000
0.017380 0.861328 0.000000
0.044922 0.861328 0.000000
0.078552 0.861328 0.000000
0.117065 0.861328 0.000000
0.155884 0.861328 0.000000
0.194214 0.861328 0.000000
0.231445 0.861328 0.000000
0.267578 0.861328 0.000000
0.303467 0.861328 0.000000
0.338135 0.861328 0.000000
0.372559 0.861328 0.000000
0.407715 0.861328 0.000000
0.442871 0.861328 0.000000
0.477539 0.861328 0.000000
0.510742 0.861328 0.000000
0.544434 0.861328 0.000000
0.577637 0.861328 0.000000
0.610840 0.861328 0.000000
0.643066 0.861328 0.000000
0.675293 0.861328 0.000000
0.707520 0.861328 0.000000
0.738770 0.861328 0.000000
0.770508 0.861328 0.000000
0.802246 0.861328 0.000000
0.832520 0.861328 0.000000
0.863281 0.861328 0.000000
0.894043 0.861328 0.000000
0.923340 0.861328 0.000000
0.951172 0.861328 0.000000
0.978027 0.861328 0.000000
1.000000 0.861328 0.000000
0.000000 0.891113 0.000000
0.017380 0.891113 0.000000
0.044922 0.891113 0.000000
0.078552 0.891113 0.000000
0.117065 0.891113 0.000000
0.155884 0.891113 0.000000
0.194214 0.891113 0.000000
0.231445 0.891113 0.000000
0.267578 0.891113 0.000000
0.303467 0.891113 0.000000
0.338135 0.891113 0.000000
0.372559 0.891113 0.000000
0.407715 0.891113 0.000000
0.442871 0.891113 0.000000
0.477539 0.891113 0.000000
0.510742 0.891113 0.000000
0.544434 0.891113 0.000000
0.577637 0.891113 0.000000
0.610840 0.891113 0.000000
0.643066 0.891113 0.000000
0.675293 0.891113 0.000000
0.707520 0.891113 0.000000
0.738770 0.891113 0.000000
