cubelut/Adanmq_Canon DSC S315 n2.cube
TITLE "Generated by Foundry::LUT"
LUT_3D_SIZE 8
DOMAIN_MIN 0.000000 0.000000 0.000000
DOMAIN_MAX 0.903226 0.903226 0.903226
0.000000 0.000000 0.000000
0.155029 0.000000 0.000000
0.413330 0.000000 0.000000
0.612305 0.000000 0.000000
0.735352 0.000000 0.000000
0.825195 0.000000 0.000000
0.897949 0.000000 0.000000
0.958984 0.000000 0.000000
0.000000 0.163086 0.000000
0.155029 0.163086 0.000000
0.413330 0.163086 0.000000
0.612305 0.163086 0.000000
0.735352 0.163086 0.000000
0.825195 0.163086 0.000000
0.897949 0.163086 0.000000
0.958984 0.163086 0.000000
0.000000 0.417480 0.000000
0.155029 0.417480 0.000000
0.413330 0.417480 0.000000
0.612305 0.417480 0.000000
0.735352 0.417480 0.000000
0.825195 0.417480 0.000000
0.897949 0.417480 0.000000
0.958984 0.417480 0.000000
0.000000 0.604980 0.000000
0.155029 0.604980 0.000000
0.413330 0.604980 0.000000
0.612305 0.604980 0.000000
0.735352 0.604980 0.000000
0.825195 0.604980 0.000000
0.897949 0.604980 0.000000
0.958984 0.604980 0.000000
0.000000 0.727539 0.000000
0.155029 0.727539 0.000000
0.413330 0.727539 0.000000
0.612305 0.727539 0.000000
0.735352 0.727539 0.000000
0.825195 0.727539 0.000000
0.897949 0.727539 0.000000
0.958984 0.727539 0.000000
0.000000 0.819336 0.000000
0.155029 0.819336 0.000000
0.413330 0.819336 0.000000
0.612305 0.819336 0.000000
0.735352 0.819336 0.000000
0.825195 0.819336 0.000000
0.897949 0.819336 0.000000
0.958984 0.819336 0.000000
0.000000 0.894531 0.000000
0.155029 0.894531 0.000000
0.413330 0.894531 0.000000
0.612305 0.894531 0.000000
0.735352 0.894531 0.000000
0.825195 0.894531 0.000000
0.897949 0.894531 0.000000
0.958984 0.894531 0.000000
0.000000 0.957520 0.000000
0.155029 0.957520 0.000000
0.413330 0.957520 0.000000
0.612305 0.957520 0.000000
0.735352 0.957520 0.000000
0.825195 0.957520 0.000000
0.897949 0.957520 0.000000
0.958984 0.957520 0.000000
0.000000 0.000000 0.162476
0.155029 0.000000 0.162476
0.413330 0.000000 0.162476
0.612305 0.000000 0.162476
0.735352 0.000000 0.162476
0.825195 0.000000 0.162476
0.897949 0.000000 0.162476
0.959473 0.000000 0.162476
0.000000 0.163086 0.162476
0.155029 0.163086 0.162476
0.413330 0.163086 0.162476
0.612305 0.163086 0.162476
0.735352 0.163086 0.162476
0.825195 0.163086 0.162476
0.897949 0.163086 0.162476
0.959473 0.163086 0.162476
0.000000 0.417480 0.162476
0.155029 0.417480 0.162476
0.413330 0.417480 0.162476
0.612305 0.417480 0.162476
0.735352 0.417480 0.162476
0.825195 0.417480 0.162476
0.897949 0.417480 0.162476
0.959473 0.417480 0.162476
0.000000 0.604980 0.162476
0.155029 0.604980 0.162476
0.413330 0.604980 0.162476
0.612305 0.604980 0.162476
0.735352 0.604980 0.162476
0.825195 0.604980 0.162476
0.897949 0.604980 0.162476
0.959473 0.604980 0.162476
0.000000 0.727539 0.162476
0.155029 0.727539 0.162476
0.413330 0.727539 0.162476
0.612305 0.727539 0.162476
0.735352 0.727539 0.162476
0.825195 0.727539 0.162476
0.897949 0.727539 0.162476
0.959473 0.727539 0.162476
0.000000 0.819336 0.162476
0.155029 0.819336 0.162476
0.413330 0.819336 0.162476
0.612305 0.819336 0.162476
0.735352 0.819336 0.162476
0.825195 0.819336 0.162476
0.897949 0.819336 0.162476
0.959473 0.819336 0.162476
0.000000 0.894531 0.162476
0.155029 0.894531 0.162476
0.413330 0.894531 0.162476
0.612305 0.894531 0.162476
0.735352 0.894531 0.162476
0.825195 0.894531 0.162476
0.897949 0.894531 0.162476
0.959473 0.894531 0.162476
0.000000 0.957520 0.162476
0.155029 0.957520 0.162476
0.413330 0.957520 0.162476
0.612305 0.957520 0.162476
0.735352 0.957520 0.162476
0.825195 0.957520 0.162476
0.897949 0.957520 0.162476
0.959473 0.957520 0.162476
0.000000 0.000000 0.419678
0.155151 0.000000 0.419678
0.413330 0.000000 0.419678
0.612305 0.000000 0.419678
0.735352 0.000000 0.419678
0.825195 0.000000 0.419678
0.897949 0.000000 0.419678
0.959473 0.000000 0.419678
0.000000 0.163086 0.419678
0.155151 0.163086 0.419678
0.413330 0.163086 0.419678
0.612305 0.163086 0.419678
0.735352 0.163086 0.419678
0.825195 0.163086 0.419678
0.897949 0.163086 0.419678
0.959473 0.163086 0.419678
0.000000 0.417480 0.419678
0.155151 0.417480 0.419678
0.413330 0.417480 0.419678
0.612305 0.417480 0.419678
0.735352 0.417480 0.419678
0.825195 0.417480 0.419678
0.897949 0.417480 0.419678
0.959473 0.417480 0.419678
0.000000 0.604980 0.419678
0.155151 0.604980 0.419678
0.413330 0.604980 0.419678
0.612305 0.604980 0.419678
0.735352 0.604980 0.419678
0.825195 0.604980 0.419678
0.897949 0.604980 0.419678
0.959473 0.604980 0.419678
0.000000 0.727539 0.419678
0.155151 0.727539 0.419678
0.413330 0.727539 0.419678
0.612305 0.727539 0.419678
0.735352 0.727539 0.419678
0.825195 0.727539 0.419678
0.897949 0.727539 0.419678
0.959473 0.727539 0.419678
0.000000 0.819336 0.419678
0.155151 0.819336 0.419678
0.413330 0.819336 0.419678
0.612305 0.819336 0.419678
0.735352 0.819336 0.419678
0.825195 0.819336 0.419678
0.897949 0.819336 0.419678
0.959473 0.819336 0.419678
0.000000 0.894531 0.419678
0.155151 0.894531 0.419678
0.413330 0.894531 0.419678
0.612305 0.894531 0.419678
0.735352 0.894531 0.419678
0.825195 0.894531 0.419678
0.897949 0.894531 0.419678
0.959473 0.894531 0.419678
0.000000 0.957520 0.419678
0.155151 0.957520 0.419678
0.413330 0.957520 0.419678
0.612305 0.957520 0.419678
0.735352 0.957520 0.419678
0.825195 0.957520 0.419678
0.897949 0.957520 0.419678
0.959473 0.957520 0.419678
0.000000 0.000000 0.604492
0.155151 0.000000 0.604492
0.413330 0.000000 0.604492
0.612305 0.000000 0.604492
0.735352 0.000000 0.604492
0.825195 0.000000 0.604492
0.897949 0.000000 0.604492
0.959473 0.000000 0.604492
0.000000 0.163086 0.604492
0.155151 0.163086 0.604492
0.413330 0.163086 0.604492
0.612305 0.163086 0.604492
0.735352 0.163086 0.604492
0.825195 0.163086 0.604492
0.897949 0.163086 0.604492
0.959473 0.163086 0.604492
0.000000 0.417236 0.604492
0.155151 0.417480 0.604492
0.413330 0.417480 0.604492
0.612305 0.417480 0.604492
0.735352 0.417480 0.604492
0.825195 0.417480 0.604492
0.897949 0.417480 0.604492
0.959473 0.417480 0.604492
0.000000 0.604980 0.604492
0.155151 0.604980 0.604492
0.413330 0.604980 0.604492
0.612305 0.604980 0.604492
0.735352 0.604980 0.604492
0.825195 0.604980 0.604492
0.897949 0.604980 0.604492
0.959473 0.604980 0.604492
0.000000 0.727539 0.604492
0.155151 0.727539 0.604492
0.413330 0.727539 0.604492
0.612305 0.727539 0.604492
0.735352 0.727539 0.604492
0.825195 0.727539 0.604492
0.897949 0.727539 0.604492
0.959473 0.727539 0.604492
0.000000 0.819336 0.604492
0.155151 0.819336 0.604492
0.413330 0.819336 0.604492
0.612305 0.819336 0.604492
0.735352 0.819336 0.604492
0.825195 0.819336 0.604492
0.897949 0.819336 0.604492
0.959473 0.819336 0.604492
0.000000 0.894531 0.604492
0.155151 0.894531 0.604492
0.413330 0.894531 0.604492
0.612305 0.894531 0.604492
0.735352 0.894531 0.604492
0.825195 0.894531 0.604492
0.897949 0.894531 0.604492
0.959473 0.894531 0.604492
0.000000 0.957520 0.604492
0.155151 0.957520 0.604492
0.413330 0.957520 0.604492
0.612305 0.957520 0.604492
0.735352 0.957520 0.604492
0.825195 0.957520 0.604492
0.897949 0.957520 0.604492
0.959473 0.957520 0.604492
0.000000 0.000000 0.726563
0.155151 0.000000 0.726563
0.413330 0.000000 0.726563
0.612305 0.000000 0.726563
0.735352 0.000000 0.726563
0.825195 0.000000 0.726563
0.897949 0.000000 0.726563
0.959473 0.000000 0.726563
0.000000 0.163086 0.726563
0.155151 0.163086 0.726563
0.413330 0.163086 0.726563
0.612305 0.163086 0.726563
0.735352 0.163086 0.726563
0.825195 0.163086 0.726563
0.897949 0.163086 0.726563
0.959473 0.163086 0.726563
0.000000 0.417236 0.726563
0.155151 0.417236 0.726563
0.413330 0.417480 0.726563
0.612305 0.417480 0.726563
0.735352 0.417480 0.726563
0.825195 0.417480 0.726563
0.897949 0.417480 0.726563
0.959473 0.417480 0.726563
0.000000 0.604980 0.726563
0.155151 0.604980 0.726563
0.413330 0.604980 0.726563
0.612305 0.604980 0.726563
0.735352 0.604980 0.726563
0.825195 0.604980 0.726563
0.897949 0.604980 0.726563
0.959473 0.604980 0.726563
0.000000 0.727539 0.726563
0.155151 0.727539 0.726563
0.413330 0.727539 0.726563
0.612305 0.727539 0.726563
0.735352 0.727539 0.726563
0.825195 0.727539 0.726563
0.897949 0.727539 0.726563
0.959473 0.727539 0.726563
0.000000 0.819336 0.726563
0.155151 0.819336 0.726563
0.413330 0.819336 0.726563
0.612305 0.819336 0.726563
0.735352 0.819336 0.726563
0.825195 0.819336 0.726563
0.897949 0.819336 0.726563
0.959473 0.819336 0.726563
0.000000 0.894531 0.726563
0.155151 0.894531 0.726563
0.413330 0.894531 0.726563
0.612305 0.894531 0.726563
0.735352 0.894531 0.726563
0.825195 0.894531 0.726563
0.897949 0.894531 0.726563
0.959473 0.894531 0.726563
0.000000 0.957520 0.726563
0.155151 0.957520 0.726563
0.413330 0.957520 0.726563
0.612305 0.957520 0.726563
0.735352 0.957520 0.726563
0.825195 0.957520 0.726563
0.897949 0.957520 0.726563
0.959473 0.957520 0.726563
0.000000 0.000000 0.818359
0.155151 0.000000 0.818359
0.413574 0.000000 0.818359
0.612305 0.000000 0.818359
0.735352 0.000000 0.818359
0.825684 0.000000 0.818359
0.897949 0.000000 0.818359
0.959473 0.000000 0.818359
0.000000 0.163086 0.818359
0.155151 0.163086 0.818359
0.413574 0.163086 0.818359
0.612305 0.163086 0.818359
0.735352 0.163086 0.818359
0.825684 0.163086 0.818359
0.897949 0.163086 0.818359
0.959473 0.163086 0.818359
0.000000 0.417236 0.818359
0.155151 0.417236 0.818359
0.413574 0.417236 0.818359
0.612305 0.417480 0.818359
0.735352 0.417480 0.818359
0.825684 0.417480 0.818359
0.897949 0.417480 0.818359
0.959473 0.417480 0.818359
0.000000 0.604980 0.818359
0.155151 0.604980 0.818359
0.413574 0.604980 0.818359
0.612305 0.604980 0.818359
0.735352 0.604980 0.818359
0.825684 0.604980 0.818359
0.897949 0.604980 0.818359
0.959473 0.604980 0.818359
0.000000 0.727539 0.818359
0.155151 0.727539 0.818359
0.413574 0.727539 0.818359
0.612305 0.727539 0.818359
0.735352 0.727539 0.818359
0.825684 0.727539 0.818359
0.897949 0.727539 0.818359
0.959473 0.727539 0.818359
0.000000 0.819336 0.818359
0.155151 0.819336 0.818359
0.413574 0.819336 0.818359
0.612305 0.819336 0.818359
0.735352 0.819336 0.818359
0.825684 0.819336 0.818359
0.897949 0.819336 0.818359
0.959473 0.819336 0.818359
0.000000 0.894531 0.818359
0.155151 0.894531 0.818359
0.413574 0.894531 0.818359
0.612305 0.894531 0.818359
0.735352 0.894531 0.818359
0.825684 0.894531 0.818359
0.897949 0.894531 0.818359
0.959473 0.894531 0.818359
0.000000 0.957520 0.818359
0.155151 0.957520 0.818359
0.413574 0.957520 0.818359
0.612305 0.957520 0.818359
0.735352 0.957520 0.818359
0.825684 0.957520 0.818359
0.897949 0.957520 0.818359
0.959473 0.957520 0.818359
0.000000 0.000000 0.893555
0.155273 0.000000 0.893555
0.413574 0.000000 0.893555
0.612305 0.000000 0.893555
0.735352 0.000000 0.893555
0.825684 0.000000 0.893555
0.897949 0.000000 0.893555
0.959473 0.000000 0.893555
0.000000 0.163086 0.893555
0.155273 0.163086 0.893555
0.413574 0.163086 0.893555
0.612305 0.163086 0.893555
0.735352 0.163086 0.893555
0.825684 0.163086 0.893555
0.897949 0.163086 0.893555
0.959473 0.163086 0.893555
0.000000 0.417236 0.893555
0.155273 0.417236 0.893555
0.413574 0.417236 0.893555
0.612305 0.417236 0.893555
0.735352 0.417480 0.893555
0.825684 0.417480 0.893555
0.897949 0.417480 0.893555
0.959473 0.417480 0.893555
0.000000 0.604980 0.893555
0.155273 0.604980 0.893555
0.413574 0.604980 0.893555
0.612305 0.604980 0.893555
0.735352 0.604980 0.893555
0.825684 0.604980 0.893555
0.897949 0.604980 0.893555
0.959473 0.604980 0.893555
0.000000 0.727539 0.893555
0.155273 0.727539 0.893555
0.413574 0.727539 0.893555
0.612305 0.727539 0.893555
0.735352 0.727539 0.893555
0.825684 0.727539 0.893555
0.897949 0.727539 0.893555
0.959473 0.727539 0.893555
0.000000 0.819336 0.893555
0.155273 0.819336 0.893555
0.413574 0.819336 0.893555
0.612305 0.819336 0.893555
0.735352 0.819336 0.893555
0.825684 0.819336 0.893555
0.897949 0.819336 0.893555
0.959473 0.819336 0.893555
0.000000 0.894531 0.893555
0.155273 0.894531 0.893555
0.413574 0.894531 0.893555
0.612305 0.894531 0.893555
0.735352 0.894531 0.893555
0.825684 0.894531 0.893555
0.897949 0.894531 0.893555
0.959473 0.894531 0.893555
0.000000 0.957520 0.893555
0.155273 0.957520 0.893555
0.413574 0.957520 0.893555
0.612305 0.957520 0.893555
0.735352 0.957520 0.893555
0.825684 0.957520 0.893555
0.897949 0.957520 0.893555
0.959473 0.957520 0.893555
0.000000 0.000000 0.957031
0.155273 0.000000 0.957031
0.413574 0.000000 0.957031
0.612305 0.000000 0.957031
0.735352 0.000000 0.957031
0.825684 0.000000 0.957031
0.897949 0.000000 0.957031
0.959473 0.000000 0.957031
0.000000 0.163086 0.957031
0.155273 0.163086 0.957031
0.413574 0.163086 0.957031
0.612305 0.163086 0.957031
0.735352 0.163086 0.957031
0.825684 0.163086 0.957031
0.897949 0.163086 0.957031
0.959473 0.163086 0.957031
0.000000 0.417236 0.957031
0.155273 0.417236 0.957031
0.413574 0.417236 0.957031
0.612305 0.417236 0.957031
0.735352 0.417236 0.957031
0.825684 0.417480 0.957031
0.897949 0.417480 0.957031
0.959473 0.417480 0.957031
0.000000 0.604980 0.957031
0.155273 0.604980 0.957031
0.413574 0.604980 0.957031
0.612305 0.604980 0.957031
0.735352 0.604980 0.957031
0.825684 0.604980 0.957031
0.897949 0.604980 0.957031
0.959473 0.604980 0.957031
0.000000 0.727539 0.957031
0.155273 0.727539 0.957031
0.413574 0.727539 0.957031
0.612305 0.727539 0.957031
0.735352 0.727539 0.957031
0.825684 0.727539 0.957031
0.897949 0.727539 0.957031
0.959473 0.727539 0.957031
0.000000 0.819336 0.957031
0.155273 0.819336 0.957031
0.413574 0.819336 0.957031
0.612305 0.819336 0.957031
0.735352 0.819336 0.957031
0.825684 0.819336 0.957031
0.897949 0.819336 0.957031
0.959473 0.819336 0.957031
0.000000 0.894531 0.957031
0.155273 0.894531 0.957031
0.413574 0.894531 0.957031
0.612305 0.894531 0.957031
0.735352 0.894531 0.957031
0.825684 0.894531 0.957031
0.897949 0.894531 0.957031
0.959473 0.894531 0.957031
0.000000 0.957520 0.957031
0.155273 0.957520 0.957031
0.413574 0.957520 0.957031
0.612305 0.957520 0.957031
0.735352 0.957520 0.957031
0.825684 0.957520 0.957031
0.897949 0.957520 0.957031
0.959473 0.957520 0.957031
