cubelut/Adanmq_F250.cube
TITLE "Generated by Foundry::LUT"
LUT_3D_SIZE 32
0.000000 0.000000 0.000000
0.066772 0.000000 0.000000
0.128906 0.000000 0.000000
0.185303 0.000000 0.000000
0.239990 0.000000 0.000000
0.293457 0.000000 0.000000
0.342773 0.000000 0.000000
0.385986 0.000000 0.000000
0.426514 0.000000 0.000000
0.464600 0.000000 0.000000
0.499756 0.000000 0.000000
0.531250 0.000000 0.000000
0.560059 0.000000 0.000000
0.588379 0.000000 0.000000
0.617188 0.000000 0.000000
0.645508 0.000000 0.000000
0.673340 0.000000 0.000000
0.700684 0.000000 0.000000
0.727539 0.000000 0.000000
0.753906 0.000000 0.000000
0.778809 0.000000 0.000000
0.803711 0.000000 0.000000
0.827637 0.000000 0.000000
0.851074 0.000000 0.000000
0.874023 0.000000 0.000000
0.895508 0.000000 0.000000
0.916016 0.000000 0.000000
0.935059 0.000000 0.000000
0.952637 0.000000 0.000000
0.969238 0.000000 0.000000
0.985352 0.000000 0.000000
1.000000 0.000000 0.000000
0.000000 0.034332 0.000000
0.066772 0.034332 0.000000
0.128906 0.034332 0.000000
0.185303 0.034332 0.000000
0.239990 0.034332 0.000000
0.293457 0.034363 0.000000
0.342773 0.034363 0.000000
0.385986 0.034363 0.000000
0.426514 0.034363 0.000000
0.464600 0.034363 0.000000
0.499756 0.034363 0.000000
0.531250 0.034363 0.000000
0.560059 0.034363 0.000000
0.588379 0.034363 0.000000
0.617188 0.034363 0.000000
0.645508 0.034363 0.000000
0.673340 0.034363 0.000000
0.700684 0.034363 0.000000
0.727539 0.034363 0.000000
0.753906 0.034363 0.000000
0.778809 0.034363 0.000000
0.803711 0.034363 0.000000
0.827637 0.034363 0.000000
0.851074 0.034363 0.000000
0.874023 0.034363 0.000000
0.895508 0.034363 0.000000
0.916016 0.034363 0.000000
0.935059 0.034363 0.000000
0.952637 0.034363 0.000000
0.969238 0.034363 0.000000
0.985352 0.034363 0.000000
1.000000 0.034363 0.000000
0.000000 0.065063 0.000000
0.066772 0.065063 0.000000
0.128906 0.065063 0.000000
0.185303 0.065063 0.000000
0.239990 0.065063 0.000000
0.293457 0.065063 0.000000
0.342773 0.065063 0.000000
0.385986 0.065063 0.000000
0.426514 0.065063 0.000000
0.464600 0.065063 0.000000
0.499756 0.065063 0.000000
0.531250 0.065063 0.000000
0.560059 0.065063 0.000000
0.588379 0.065063 0.000000
0.617188 0.065063 0.000000
0.645508 0.065063 0.000000
0.673340 0.065063 0.000000
0.700684 0.065063 0.000000
0.727539 0.065063 0.000000
0.753906 0.065063 0.000000
0.778809 0.065063 0.000000
0.803711 0.065063 0.000000
0.827637 0.065063 0.000000
0.851074 0.065063 0.000000
0.874023 0.065063 0.000000
0.895508 0.065063 0.000000
0.916016 0.065063 0.000000
0.935059 0.065063 0.000000
0.952637 0.065063 0.000000
0.969238 0.065063 0.000000
0.985352 0.065063 0.000000
1.000000 0.065063 0.000000
0.000000 0.094666 0.000000
0.066772 0.094727 0.000000
0.128906 0.094727 0.000000
0.185303 0.094727 0.000000
0.239990 0.094727 0.000000
0.293457 0.094727 0.000000
0.342773 0.094727 0.000000
0.385986 0.094727 0.000000
0.426514 0.094727 0.000000
0.464600 0.094727 0.000000
0.499756 0.094727 0.000000
0.531250 0.094727 0.000000
0.560059 0.094727 0.000000
0.588379 0.094727 0.000000
0.617188 0.094727 0.000000
0.645508 0.094727 0.000000
0.673340 0.094727 0.000000
0.700684 0.094727 0.000000
0.727539 0.094727 0.000000
0.753906 0.094727 0.000000
0.778809 0.094727 0.000000
0.803711 0.094727 0.000000
0.827637 0.094727 0.000000
0.851074 0.094727 0.000000
0.874023 0.094727 0.000000
0.895508 0.094727 0.000000
0.916016 0.094727 0.000000
0.935059 0.094727 0.000000
0.952637 0.094727 0.000000
0.969238 0.094727 0.000000
0.985352 0.094727 0.000000
1.000000 0.094727 0.000000
0.000000 0.128296 0.000000
0.066772 0.128296 0.000000
0.128906 0.128296 0.000000
0.185303 0.128296 0.000000
0.239990 0.128296 0.000000
0.293457 0.128296 0.000000
0.342773 0.128296 0.000000
0.385986 0.128296 0.000000
0.426514 0.128296 0.000000
0.464600 0.128296 0.000000
0.499756 0.128296 0.000000
0.531250 0.128296 0.000000
0.560059 0.128296 0.000000
0.588379 0.128296 0.000000
0.617188 0.128296 0.000000
0.645508 0.128296 0.000000
0.673340 0.128296 0.000000
0.700684 0.128296 0.000000
0.727539 0.128296 0.000000
0.753906 0.128296 0.000000
0.778809 0.128296 0.000000
0.803711 0.128296 0.000000
0.827637 0.128296 0.000000
0.851074 0.128296 0.000000
0.874023 0.128296 0.000000
0.895508 0.128296 0.000000
0.916016 0.128296 0.000000
0.935059 0.128296 0.000000
0.952637 0.128296 0.000000
0.969238 0.128296 0.000000
0.985352 0.128296 0.000000
1.000000 0.128296 0.000000
0.000000 0.163696 0.000000
0.066772 0.163696 0.000000
0.128906 0.163696 0.000000
0.185303 0.163696 0.000000
0.239990 0.163696 0.000000
0.293457 0.163696 0.000000
0.342773 0.163696 0.000000
0.385986 0.163696 0.000000
0.426514 0.163696 0.000000
0.464600 0.163696 0.000000
0.499756 0.163696 0.000000
0.531250 0.163696 0.000000
0.560059 0.163696 0.000000
0.588379 0.163696 0.000000
0.617188 0.163696 0.000000
0.645508 0.163696 0.000000
0.673340 0.163696 0.000000
0.700684 0.163696 0.000000
0.727539 0.163696 0.000000
0.753906 0.163696 0.000000
0.778809 0.163696 0.000000
0.803711 0.163696 0.000000
0.827637 0.163696 0.000000
0.851074 0.163696 0.000000
0.874023 0.163696 0.000000
0.895508 0.163696 0.000000
0.916016 0.163696 0.000000
0.935059 0.163696 0.000000
0.952637 0.163696 0.000000
0.969238 0.163696 0.000000
0.985352 0.163696 0.000000
1.000000 0.163696 0.000000
0.000000 0.199463 0.000000
0.066772 0.199463 0.000000
0.128906 0.199463 0.000000
0.185303 0.199463 0.000000
0.239990 0.199463 0.000000
0.293457 0.199463 0.000000
0.342773 0.199463 0.000000
0.385986 0.199463 0.000000
0.426514 0.199463 0.000000
0.464600 0.199463 0.000000
0.499756 0.199463 0.000000
0.531250 0.199463 0.000000
0.560059 0.199463 0.000000
0.588379 0.199463 0.000000
0.617188 0.199463 0.000000
0.645508 0.199463 0.000000
0.673340 0.199463 0.000000
0.700684 0.199463 0.000000
0.727539 0.199463 0.000000
0.753906 0.199463 0.000000
0.778809 0.199463 0.000000
0.803711 0.199463 0.000000
0.827637 0.199463 0.000000
0.851074 0.199463 0.000000
0.874023 0.199463 0.000000
0.895508 0.199463 0.000000
0.916016 0.199463 0.000000
0.935059 0.199463 0.000000
0.952637 0.199463 0.000000
0.969238 0.199463 0.000000
0.985352 0.199463 0.000000
1.000000 0.199463 0.000000
0.000000 0.234497 0.000000
0.066772 0.234497 0.000000
0.128906 0.234497 0.000000
0.185303 0.234497 0.000000
0.239990 0.234497 0.000000
0.293457 0.234497 0.000000
0.342773 0.234497 0.000000
0.385986 0.234497 0.000000
0.426514 0.234497 0.000000
0.464600 0.234497 0.000000
0.499756 0.234497 0.000000
0.531250 0.234497 0.000000
0.560059 0.234497 0.000000
0.588379 0.234497 0.000000
0.617188 0.234497 0.000000
0.645508 0.234497 0.000000
0.673340 0.234497 0.000000
0.700684 0.234497 0.000000
0.727539 0.234497 0.000000
0.753906 0.234497 0.000000
0.778809 0.234497 0.000000
0.803711 0.234497 0.000000
0.827637 0.234497 0.000000
0.851074 0.234497 0.000000
0.874023 0.234497 0.000000
0.895508 0.234497 0.000000
0.916016 0.234497 0.000000
0.935059 0.234497 0.000000
0.952637 0.234497 0.000000
0.969238 0.234497 0.000000
0.985352 0.234497 0.000000
1.000000 0.234497 0.000000
0.000000 0.267822 0.000000
0.066772 0.267822 0.000000
0.128906 0.267822 0.000000
0.185303 0.267822 0.000000
0.239990 0.267822 0.000000
0.293457 0.267822 0.000000
0.342773 0.267822 0.000000
0.385986 0.267822 0.000000
0.426514 0.267822 0.000000
0.464600 0.267822 0.000000
0.499756 0.267822 0.000000
0.531250 0.267822 0.000000
0.560059 0.267822 0.000000
0.588379 0.267822 0.000000
0.617188 0.267822 0.000000
0.645508 0.267822 0.000000
0.673340 0.267822 0.000000
0.700684 0.267822 0.000000
0.727539 0.267822 0.000000
0.753906 0.267822 0.000000
0.778809 0.267822 0.000000
0.803711 0.267822 0.000000
0.827637 0.267822 0.000000
0.851074 0.267822 0.000000
0.874023 0.267822 0.000000
0.895508 0.267822 0.000000
0.916016 0.267822 0.000000
0.935059 0.267822 0.000000
0.952637 0.267822 0.000000
0.969238 0.267822 0.000000
0.985352 0.267822 0.000000
1.000000 0.267822 0.000000
0.000000 0.301025 0.000000
0.066772 0.301025 0.000000
0.128906 0.301025 0.000000
0.185303 0.301025 0.000000
0.239990 0.301025 0.000000
0.293457 0.301270 0.000000
0.342773 0.301270 0.000000
0.385986 0.301270 0.000000
0.426514 0.301270 0.000000
0.464600 0.301270 0.000000
0.499756 0.301270 0.000000
0.531250 0.301270 0.000000
0.560059 0.301270 0.000000
0.588379 0.301270 0.000000
0.617188 0.301270 0.000000
0.645508 0.301270 0.000000
0.673340 0.301270 0.000000
0.700684 0.301270 0.000000
0.727539 0.301270 0.000000
0.753906 0.301270 0.000000
0.778809 0.301270 0.000000
0.803711 0.301270 0.000000
0.827637 0.301270 0.000000
0.851074 0.301270 0.000000
0.874023 0.301270 0.000000
0.895508 0.301270 0.000000
0.916016 0.301270 0.000000
0.935059 0.301270 0.000000
0.952637 0.301270 0.000000
0.969238 0.301270 0.000000
0.985352 0.301270 0.000000
1.000000 0.301270 0.000000
0.000000 0.334961 0.000000
0.066772 0.334961 0.000000
0.128906 0.334961 0.000000
0.185303 0.334961 0.000000
0.239990 0.334961 0.000000
0.293457 0.334961 0.000000
0.342773 0.334961 0.000000
0.385986 0.334961 0.000000
0.426514 0.334961 0.000000
0.464600 0.334961 0.000000
0.499756 0.334961 0.000000
0.531250 0.334961 0.000000
0.560059 0.334961 0.000000
0.588379 0.334961 0.000000
0.617188 0.334961 0.000000
0.645508 0.334961 0.000000
0.673340 0.334961 0.000000
0.700684 0.334961 0.000000
0.727539 0.334961 0.000000
0.753906 0.334961 0.000000
0.778809 0.334961 0.000000
0.803711 0.334961 0.000000
0.827637 0.334961 0.000000
0.851074 0.334961 0.000000
0.874023 0.334961 0.000000
0.895508 0.334961 0.000000
0.916016 0.334961 0.000000
0.935059 0.334961 0.000000
0.952637 0.334961 0.000000
0.969238 0.334961 0.000000
0.985352 0.334961 0.000000
1.000000 0.334961 0.000000
0.000000 0.368896 0.000000
0.066772 0.368896 0.000000
0.128906 0.368896 0.000000
0.185303 0.368896 0.000000
0.239990 0.368896 0.000000
0.293457 0.368896 0.000000
0.342773 0.368896 0.000000
0.385986 0.368896 0.000000
0.426514 0.368896 0.000000
0.464600 0.368896 0.000000
0.499756 0.368896 0.000000
0.531250 0.368896 0.000000
0.560059 0.368896 0.000000
0.588379 0.368896 0.000000
0.617188 0.368896 0.000000
0.645508 0.368896 0.000000
0.673340 0.368896 0.000000
0.700684 0.368896 0.000000
0.727539 0.368896 0.000000
0.753906 0.368896 0.000000
0.778809 0.368896 0.000000
0.803711 0.368896 0.000000
0.827637 0.368896 0.000000
0.851074 0.368896 0.000000
0.874023 0.368896 0.000000
0.895508 0.368896 0.000000
0.916016 0.368896 0.000000
0.935059 0.368896 0.000000
0.952637 0.368896 0.000000
0.969238 0.368896 0.000000
0.985352 0.368896 0.000000
1.000000 0.368896 0.000000
0.000000 0.402832 0.000000
0.066772 0.402832 0.000000
0.128906 0.402832 0.000000
0.185303 0.402832 0.000000
0.239990 0.402832 0.000000
0.293457 0.402832 0.000000
0.342773 0.402832 0.000000
0.385986 0.402832 0.000000
0.426514 0.402832 0.000000
0.464600 0.402832 0.000000
0.499756 0.402832 0.000000
0.531250 0.402832 0.000000
0.560059 0.402832 0.000000
0.588379 0.402832 0.000000
0.617188 0.402832 0.000000
0.645508 0.402832 0.000000
0.673340 0.402832 0.000000
0.700684 0.402832 0.000000
0.727539 0.402832 0.000000
0.753906 0.402832 0.000000
0.778809 0.402832 0.000000
0.803711 0.402832 0.000000
0.827637 0.402832 0.000000
0.851074 0.402832 0.000000
0.874023 0.402832 0.000000
0.895508 0.402832 0.000000
0.916016 0.402832 0.000000
0.935059 0.403076 0.000000
0.952637 0.403076 0.000000
0.969238 0.403076 0.000000
0.985352 0.403076 0.000000
1.000000 0.403076 0.000000
0.000000 0.437012 0.000000
0.066772 0.437012 0.000000
0.128906 0.437012 0.000000
0.185303 0.437012 0.000000
0.239990 0.437012 0.000000
0.293457 0.437012 0.000000
0.342773 0.437012 0.000000
0.385986 0.437012 0.000000
0.426514 0.437012 0.000000
0.464600 0.437012 0.000000
0.499756 0.437012 0.000000
0.531250 0.437012 0.000000
0.560059 0.437012 0.000000
0.588379 0.437012 0.000000
0.617188 0.437012 0.000000
0.645508 0.437012 0.000000
0.673340 0.437012 0.000000
0.700684 0.437012 0.000000
0.727539 0.437012 0.000000
0.753906 0.437012 0.000000
0.778809 0.437012 0.000000
0.803711 0.437012 0.000000
0.827637 0.437012 0.000000
0.851074 0.437012 0.000000
0.874023 0.437012 0.000000
0.895508 0.437012 0.000000
0.916016 0.437012 0.000000
0.935059 0.437012 0.000000
0.952637 0.437012 0.000000
0.969238 0.437012 0.000000
0.985352 0.437012 0.000000
1.000000 0.437012 0.000000
0.000000 0.471191 0.000000
0.066772 0.471191 0.000000
0.128906 0.471191 0.000000
0.185303 0.471191 0.000000
0.239990 0.471191 0.000000
0.293457 0.471191 0.000000
0.342773 0.471191 0.000000
0.385986 0.471191 0.000000
0.426514 0.471191 0.000000
0.464600 0.471191 0.000000
0.499756 0.471191 0.000000
0.531250 0.471191 0.000000
0.560059 0.471191 0.000000
0.588379 0.471191 0.000000
0.617188 0.471191 0.000000
0.645508 0.471191 0.000000
0.673340 0.471191 0.000000
0.700684 0.471191 0.000000
0.727539 0.471191 0.000000
0.753906 0.471191 0.000000
0.778809 0.471191 0.000000
0.803711 0.471191 0.000000
0.827637 0.471191 0.000000
0.851074 0.471191 0.000000
0.874023 0.471191 0.000000
0.895508 0.471191 0.000000
0.916016 0.471191 0.000000
0.935059 0.471191 0.000000
0.952637 0.471191 0.000000
0.969238 0.471191 0.000000
0.985352 0.471191 0.000000
1.000000 0.471191 0.000000
0.000000 0.505859 0.000000
0.066772 0.505859 0.000000
0.128906 0.505859 0.000000
0.185303 0.505859 0.000000
0.239990 0.505859 0.000000
0.293457 0.505859 0.000000
0.342773 0.505859 0.000000
0.385986 0.505859 0.000000
0.426514 0.505859 0.000000
0.464600 0.505859 0.000000
0.499756 0.505859 0.000000
0.531250 0.505859 0.000000
0.560059 0.505859 0.000000
0.588379 0.505859 0.000000
0.617188 0.505859 0.000000
0.645508 0.505859 0.000000
0.673340 0.505859 0.000000
0.700684 0.505859 0.000000
0.727539 0.505859 0.000000
0.753906 0.505859 0.000000
0.778809 0.505859 0.000000
0.803711 0.505859 0.000000
0.827637 0.505859 0.000000
0.851074 0.505859 0.000000
0.874023 0.505859 0.000000
0.895508 0.505859 0.000000
0.916016 0.505859 0.000000
0.935059 0.505859 0.000000
0.952637 0.505859 0.000000
0.969238 0.505859 0.000000
0.985352 0.505859 0.000000
1.000000 0.505859 0.000000
0.000000 0.541504 0.000000
0.066772 0.541504 0.000000
0.128906 0.541504 0.000000
0.185303 0.541504 0.000000
0.239990 0.541504 0.000000
0.293457 0.541504 0.000000
0.342773 0.541504 0.000000
0.385986 0.541504 0.000000
0.426514 0.541504 0.000000
0.464600 0.541504 0.000000
0.499756 0.541504 0.000000
0.531250 0.541504 0.000000
0.560059 0.541504 0.000000
0.588379 0.541504 0.000000
0.617188 0.541504 0.000000
0.645508 0.541504 0.000000
0.673340 0.541504 0.000000
0.700684 0.541504 0.000000
0.727539 0.541504 0.000000
0.753906 0.541504 0.000000
0.778809 0.541504 0.000000
0.803711 0.541504 0.000000
0.827637 0.541504 0.000000
0.851074 0.541504 0.000000
0.874023 0.541504 0.000000
0.895508 0.541504 0.000000
0.916016 0.541504 0.000000
0.935059 0.541504 0.000000
0.952637 0.541504 0.000000
0.969238 0.541504 0.000000
0.985352 0.541504 0.000000
1.000000 0.541504 0.000000
0.000000 0.577148 0.000000
0.066772 0.577148 0.000000
0.128906 0.577148 0.000000
0.185303 0.577148 0.000000
0.239990 0.577148 0.000000
0.293457 0.577148 0.000000
0.342773 0.577148 0.000000
0.385986 0.577148 0.000000
0.426514 0.577148 0.000000
0.464600 0.577148 0.000000
0.499756 0.577148 0.000000
0.531250 0.577148 0.000000
0.560059 0.577148 0.000000
0.588379 0.577148 0.000000
0.617188 0.577148 0.000000
0.645508 0.577148 0.000000
0.673340 0.577148 0.000000
0.700684 0.577148 0.000000
0.727539 0.577148 0.000000
0.753906 0.577148 0.000000
0.778809 0.577148 0.000000
0.803711 0.577148 0.000000
0.827637 0.577148 0.000000
0.851074 0.577148 0.000000
0.874023 0.577148 0.000000
0.895508 0.577148 0.000000
0.916016 0.577148 0.000000
0.935059 0.577148 0.000000
0.952637 0.577148 0.000000
0.969238 0.577148 0.000000
0.985352 0.577148 0.000000
1.000000 0.577148 0.000000
0.000000 0.613770 0.000000
0.066772 0.613770 0.000000
0.128906 0.613770 0.000000
0.185303 0.613770 0.000000
0.239990 0.613770 0.000000
0.293457 0.613770 0.000000
0.342773 0.613770 0.000000
0.385986 0.613770 0.000000
0.426514 0.613770 0.000000
0.464600 0.613770 0.000000
0.499756 0.613770 0.000000
0.531250 0.613770 0.000000
0.560059 0.613770 0.000000
0.588379 0.613770 0.000000
0.617188 0.613770 0.000000
0.645508 0.613770 0.000000
0.673340 0.613770 0.000000
0.700684 0.613770 0.000000
0.727539 0.613770 0.000000
0.753906 0.613770 0.000000
0.778809 0.613770 0.000000
0.803711 0.613770 0.000000
0.827637 0.613770 0.000000
0.851074 0.613770 0.000000
0.874023 0.613770 0.000000
0.895508 0.613770 0.000000
0.916016 0.613770 0.000000
0.935059 0.613770 0.000000
0.952637 0.613770 0.000000
0.969238 0.613770 0.000000
0.985352 0.613770 0.000000
1.000000 0.613770 0.000000
0.000000 0.650391 0.000000
0.066772 0.650391 0.000000
0.128906 0.650391 0.000000
0.185303 0.650391 0.000000
0.239990 0.650391 0.000000
0.293457 0.650391 0.000000
0.342773 0.650391 0.000000
0.385986 0.650391 0.000000
0.426514 0.650391 0.000000
0.464600 0.650391 0.000000
0.499756 0.650391 0.000000
0.531250 0.650391 0.000000
0.560059 0.650391 0.000000
0.588379 0.650391 0.000000
0.617188 0.650391 0.000000
0.645508 0.650391 0.000000
0.673340 0.650391 0.000000
0.700684 0.650391 0.000000
0.727539 0.650391 0.000000
0.753906 0.650391 0.000000
0.778809 0.650391 0.000000
0.803711 0.650391 0.000000
0.827637 0.650391 0.000000
0.851074 0.650391 0.000000
0.874023 0.650391 0.000000
0.895508 0.650391 0.000000
0.916016 0.650391 0.000000
0.935059 0.650391 0.000000
0.952637 0.650391 0.000000
0.969238 0.650391 0.000000
0.985352 0.650391 0.000000
1.000000 0.650391 0.000000
0.000000 0.687012 0.000000
0.066772 0.687012 0.000000
0.128906 0.687012 0.000000
0.185303 0.687012 0.000000
0.239990 0.687012 0.000000
0.293457 0.687012 0.000000
0.342773 0.687012 0.000000
0.385986 0.687012 0.000000
0.426514 0.687012 0.000000
0.464600 0.687012 0.000000
0.499756 0.687012 0.000000
0.531250 0.687012 0.000000
0.560059 0.687012 0.000000
0.588379 0.687012 0.000000
0.617188 0.687012 0.000000
0.645508 0.687012 0.000000
0.673340 0.687012 0.000000
0.700684 0.687012 0.000000
0.727539 0.687012 0.000000
0.753906 0.687012 0.000000
0.778809 0.687012 0.000000
0.803711 0.687012 0.000000
0.827637 0.687012 0.000000
0.851074 0.687012 0.000000
0.874023 0.687012 0.000000
0.895508 0.687012 0.000000
0.916016 0.687012 0.000000
0.935059 0.687012 0.000000
0.952637 0.687012 0.000000
0.969238 0.687012 0.000000
0.985352 0.687012 0.000000
1.000000 0.687012 0.000000
0.000000 0.721680 0.000000
0.066772 0.721680 0.000000
0.128906 0.721680 0.000000
0.185303 0.721680 0.000000
0.239990 0.721680 0.000000
0.293457 0.721680 0.000000
0.342773 0.721680 0.000000
0.385986 0.721680 0.000000
0.426514 0.721680 0.000000
0.464600 0.721680 0.000000
0.499756 0.721680 0.000000
0.531250 0.721680 0.000000
0.560059 0.721680 0.000000
0.588379 0.721680 0.000000
0.617188 0.721680 0.000000
0.645508 0.721680 0.000000
0.673340 0.721680 0.000000
0.700684 0.721680 0.000000
0.727539 0.721680 0.000000
0.753906 0.721680 0.000000
0.778809 0.721680 0.000000
0.803711 0.721680 0.000000
0.827637 0.721680 0.000000
0.851074 0.721680 0.000000
0.874023 0.721680 0.000000
0.895508 0.721680 0.000000
0.916016 0.721680 0.000000
0.935059 0.721680 0.000000
0.952637 0.721680 0.000000
0.969238 0.721680 0.000000
0.985352 0.721680 0.000000
1.000000 0.721680 0.000000
0.000000 0.754883 0.000000
0.066772 0.754883 0.000000
0.128906 0.754883 0.000000
0.185303 0.754883 0.000000
0.239990 0.754883 0.000000
0.293457 0.754883 0.000000
0.342773 0.754883 0.000000
0.385986 0.754883 0.000000
0.426514 0.754883 0.000000
0.464600 0.754883 0.000000
0.499756 0.754883 0.000000
0.531250 0.754883 0.000000
0.560059 0.754883 0.000000
0.588379 0.754883 0.000000
0.617188 0.754883 0.000000
0.645508 0.754883 0.000000
0.673340 0.754883 0.000000
0.700684 0.754883 0.000000
0.727539 0.754883 0.000000
0.753906 0.754883 0.000000
0.778809 0.754883 0.000000
0.803711 0.754883 0.000000
0.827637 0.754883 0.000000
0.851074 0.754883 0.000000
0.874023 0.754883 0.000000
0.895508 0.754883 0.000000
0.916016 0.754883 0.000000
0.935059 0.754883 0.000000
0.952637 0.754883 0.000000
0.969238 0.754883 0.000000
0.985352 0.754883 0.000000
1.000000 0.754883 0.000000
0.000000 0.785645 0.000000
0.066772 0.785645 0.000000
0.128906 0.785645 0.000000
0.185303 0.785645 0.000000
0.239990 0.785645 0.000000
0.293457 0.785645 0.000000
0.342773 0.785645 0.000000
0.385986 0.785645 0.000000
0.426514 0.785645 0.000000
0.464600 0.785645 0.000000
0.499756 0.785645 0.000000
0.531250 0.785645 0.000000
0.560059 0.785645 0.000000
0.588379 0.785645 0.000000
0.617188 0.785645 0.000000
0.645508 0.785645 0.000000
0.673340 0.785645 0.000000
0.700684 0.785645 0.000000
0.727539 0.785645 0.000000
0.753906 0.785645 0.000000
0.778809 0.785645 0.000000
0.803711 0.785645 0.000000
0.827637 0.785645 0.000000
0.851074 0.785645 0.000000
0.874023 0.785645 0.000000
0.895508 0.785645 0.000000
0.916016 0.785645 0.000000
0.935059 0.785645 0.000000
0.952637 0.785645 0.000000
0.969238 0.785645 0.000000
0.985352 0.785645 0.000000
1.000000 0.785645 0.000000
0.000000 0.815918 0.000000
0.066772 0.815918 0.000000
0.128906 0.815918 0.000000
0.185303 0.815918 0.000000
0.239990 0.815918 0.000000
0.293457 0.815918 0.000000
0.342773 0.815918 0.000000
0.385986 0.815918 0.000000
0.426514 0.815918 0.000000
0.464600 0.815918 0.000000
0.499756 0.815918 0.000000
0.531250 0.815918 0.000000
0.560059 0.815918 0.000000
0.588379 0.815918 0.000000
0.617188 0.815918 0.000000
0.645508 0.815918 0.000000
0.673340 0.815918 0.000000
0.700684 0.815918 0.000000
0.727539 0.815918 0.000000
0.753906 0.815918 0.000000
0.778809 0.815918 0.000000
0.803711 0.815918 0.000000
0.827637 0.815918 0.000000
0.851074 0.815918 0.000000
0.874023 0.815918 0.000000
0.895508 0.815918 0.000000
0.916016 0.815918 0.000000
0.935059 0.815918 0.000000
0.952637 0.815918 0.000000
0.969238 0.815918 0.000000
0.985352 0.815918 0.000000
1.000000 0.815918 0.000000
0.000000 0.845215 0.000000
0.066772 0.845215 0.000000
0.128906 0.845215 0.000000
0.185303 0.845215 0.000000
0.239990 0.845215 0.000000
0.293457 0.845215 0.000000
0.342773 0.845215 0.000000
0.385986 0.845215 0.000000
0.426514 0.845215 0.000000
0.464600 0.845215 0.000000
0.499756 0.845215 0.000000
0.531250 0.845215 0.000000
0.560059 0.845215 0.000000
0.588379 0.845215 0.000000
0.617188 0.845215 0.000000
0.645508 0.845215 0.000000
0.673340 0.845215 0.000000
0.700684 0.845215 0.000000
0.727539 0.845215 0.000000
0.753906 0.845215 0.000000
0.778809 0.845215 0.000000
0.803711 0.845215 0.000000
0.827637 0.845215 0.000000
0.851074 0.845215 0.000000
0.874023 0.845215 0.000000
0.895508 0.845215 0.000000
0.916016 0.845215 0.000000
0.935059 0.845215 0.000000
0.952637 0.845215 0.000000
0.969238 0.845215 0.000000
0.985352 0.845215 0.000000
1.000000 0.845215 0.000000
0.000000 0.873047 0.000000
0.066772 0.873047 0.000000
0.128906 0.873047 0.000000
0.185303 0.873047 0.000000
0.239990 0.873047 0.000000
0.293457 0.873047 0.000000
0.342773 0.873047 0.000000
0.385986 0.873047 0.000000
0.426514 0.873047 0.000000
0.464600 0.873047 0.000000
0.499756 0.873047 0.000000
0.531250 0.873047 0.000000
0.560059 0.873047 0.000000
0.588379 0.873047 0.000000
0.617188 0.873047 0.000000
0.645508 0.873047 0.000000
0.673340 0.873047 0.000000
0.700684 0.873047 0.000000
0.727539 0.873047 0.000000
0.753906 0.873047 0.000000
0.778809 0.873047 0.000000
0.803711 0.873047 0.000000
0.827637 0.873047 0.000000
0.851074 0.873047 0.000000
0.874023 0.873047 0.000000
0.895508 0.873047 0.000000
0.916016 0.873047 0.000000
0.935059 0.873047 0.000000
0.952637 0.873047 0.000000
0.969238 0.873047 0.000000
0.985352 0.873047 0.000000
1.000000 0.873047 0.000000
0.000000 0.900391 0.000000
0.066772 0.900391 0.000000
0.128906 0.900391 0.000000
0.185303 0.900391 0.000000
0.239990 0.900391 0.000000
0.293457 0.900391 0.000000
0.342773 0.900391 0.000000
0.385986 0.900391 0.000000
0.426514 0.900391 0.000000
0.464600 0.900391 0.000000
0.499756 0.900391 0.000000
0.531250 0.900391 0.000000
0.560059 0.900391 0.000000
0.588379 0.900391 0.000000
0.617188 0.900391 0.000000
0.645508 0.900391 0.000000
0.673340 0.900391 0.000000
0.700684 0.900391 0.000000
0.727539 0.900391 0.000000
0.753906 0.900391 0.000000
0.778809 0.900391 0.000000
0.803711 0.900391 0.000000
0.827637 0.900391 0.000000
