cubelut/Adanmq_Ektachrome 100.cube
TITLE "Generated by Foundry::LUT"
LUT_3D_SIZE 32
0.000000 0.000000 0.000000
0.000578 0.000000 0.000000
0.014748 0.000000 0.000000
0.087402 0.000000 0.000000
0.235352 0.000000 0.000000
0.411377 0.000000 0.000000
0.574707 0.000000 0.000000
0.699707 0.000000 0.000000
0.789551 0.000000 0.000000
0.848145 0.000000 0.000000
0.886230 0.000000 0.000000
0.906738 0.000000 0.000000
0.919922 0.000000 0.000000
0.931152 0.000000 0.000000
0.936035 0.000000 0.000000
0.942383 0.000000 0.000000
0.949219 0.000000 0.000000
0.954102 0.000000 0.000000
0.957031 0.000000 0.000000
0.957031 0.000000 0.000000
0.957520 0.000000 0.000000
0.962891 0.000000 0.000000
0.970215 0.000000 0.000000
0.976563 0.000000 0.000000
0.979004 0.000000 0.000000
0.979492 0.000000 0.000000
0.979492 0.000000 0.000000
0.979980 0.000000 0.000000
0.983398 0.000000 0.000000
0.988770 0.000000 0.000000
0.994629 0.000000 0.000000
1.000000 0.000000 0.000000
0.000000 0.000329 0.000000
0.000578 0.000329 0.000000
0.014748 0.000329 0.000000
0.087402 0.000329 0.000000
0.235352 0.000329 0.000000
0.411377 0.000329 0.000000
0.574707 0.000329 0.000000
0.699707 0.000329 0.000000
0.789551 0.000329 0.000000
0.848145 0.000329 0.000000
0.886230 0.000329 0.000000
0.906738 0.000329 0.000000
0.919922 0.000329 0.000000
0.931152 0.000329 0.000000
0.936035 0.000329 0.000000
0.942383 0.000329 0.000000
0.949219 0.000329 0.000000
0.954102 0.000329 0.000000
0.957031 0.000329 0.000000
0.957031 0.000329 0.000000
0.957520 0.000329 0.000000
0.962891 0.000329 0.000000
0.970215 0.000329 0.000000
0.976563 0.000329 0.000000
0.979004 0.000329 0.000000
0.979492 0.000329 0.000000
0.979492 0.000329 0.000000
0.979980 0.000329 0.000000
0.983398 0.000329 0.000000
0.988770 0.000329 0.000000
0.994629 0.000329 0.000000
1.000000 0.000329 0.000000
0.000000 0.007229 0.000000
0.000578 0.007229 0.000000
0.014748 0.007229 0.000000
0.087402 0.007229 0.000000
0.235352 0.007229 0.000000
0.411377 0.007229 0.000000
0.574707 0.007229 0.000000
0.699707 0.007229 0.000000
0.789551 0.007233 0.000000
0.848145 0.007233 0.000000
0.886230 0.007233 0.000000
0.906738 0.007233 0.000000
0.919922 0.007233 0.000000
0.931152 0.007233 0.000000
0.936035 0.007233 0.000000
0.942383 0.007233 0.000000
0.949219 0.007233 0.000000
0.954102 0.007233 0.000000
0.957031 0.007233 0.000000
0.957031 0.007236 0.000000
0.957520 0.007236 0.000000
0.962891 0.007236 0.000000
0.970215 0.007236 0.000000
0.976563 0.007236 0.000000
0.979004 0.007236 0.000000
0.979492 0.007236 0.000000
0.979492 0.007236 0.000000
0.979980 0.007236 0.000000
0.983398 0.007236 0.000000
0.988770 0.007236 0.000000
0.994629 0.007240 0.000000
1.000000 0.007240 0.000000
0.000000 0.041992 0.000000
0.000578 0.041992 0.000000
0.014748 0.041992 0.000000
0.087402 0.041992 0.000000
0.235352 0.041992 0.000000
0.411377 0.041992 0.000000
0.574707 0.041992 0.000000
0.699707 0.041992 0.000000
0.789551 0.041992 0.000000
0.848145 0.041992 0.000000
0.886230 0.041992 0.000000
0.906738 0.041992 0.000000
0.919922 0.041992 0.000000
0.931152 0.041992 0.000000
0.936035 0.041992 0.000000
0.942383 0.041992 0.000000
0.949219 0.042023 0.000000
0.954102 0.042023 0.000000
0.957031 0.042023 0.000000
0.957031 0.042023 0.000000
0.957520 0.042023 0.000000
0.962891 0.042023 0.000000
0.970215 0.042023 0.000000
0.976563 0.042023 0.000000
0.979004 0.042023 0.000000
0.979492 0.042023 0.000000
0.979492 0.042023 0.000000
0.979980 0.042023 0.000000
0.983398 0.042023 0.000000
0.988770 0.042023 0.000000
0.994629 0.042023 0.000000
1.000000 0.042023 0.000000
0.000000 0.120422 0.000000
0.000578 0.120422 0.000000
0.014748 0.120422 0.000000
0.087402 0.120422 0.000000
0.235352 0.120483 0.000000
0.411377 0.120483 0.000000
0.574707 0.120483 0.000000
0.699707 0.120483 0.000000
0.789551 0.120483 0.000000
0.848145 0.120483 0.000000
0.886230 0.120483 0.000000
0.906738 0.120483 0.000000
0.919922 0.120483 0.000000
0.931152 0.120483 0.000000
0.936035 0.120483 0.000000
0.942383 0.120483 0.000000
0.949219 0.120483 0.000000
0.954102 0.120483 0.000000
0.957031 0.120483 0.000000
0.957031 0.120483 0.000000
0.957520 0.120483 0.000000
0.962891 0.120483 0.000000
0.970215 0.120483 0.000000
0.976563 0.120483 0.000000
0.979004 0.120483 0.000000
0.979492 0.120483 0.000000
0.979492 0.120483 0.000000
0.979980 0.120483 0.000000
0.983398 0.120483 0.000000
0.988770 0.120483 0.000000
0.994629 0.120483 0.000000
1.000000 0.120483 0.000000
0.000000 0.232056 0.000000
0.000578 0.232056 0.000000
0.014748 0.232056 0.000000
0.087402 0.232056 0.000000
0.235352 0.232056 0.000000
0.411377 0.232056 0.000000
0.574707 0.232056 0.000000
0.699707 0.232056 0.000000
0.789551 0.232056 0.000000
0.848145 0.232056 0.000000
0.886230 0.232056 0.000000
0.906738 0.232056 0.000000
0.919922 0.232056 0.000000
0.931152 0.232056 0.000000
0.936035 0.232056 0.000000
0.942383 0.232056 0.000000
0.949219 0.232056 0.000000
0.954102 0.232178 0.000000
0.957031 0.232178 0.000000
0.957031 0.232178 0.000000
0.957520 0.232178 0.000000
0.962891 0.232178 0.000000
0.970215 0.232178 0.000000
0.976563 0.232178 0.000000
0.979004 0.232178 0.000000
0.979492 0.232178 0.000000
0.979492 0.232178 0.000000
0.979980 0.232178 0.000000
0.983398 0.232178 0.000000
0.988770 0.232178 0.000000
0.994629 0.232178 0.000000
1.000000 0.232178 0.000000
0.000000 0.353516 0.000000
0.000578 0.353516 0.000000
0.014748 0.353516 0.000000
0.087402 0.353516 0.000000
0.235352 0.353516 0.000000
0.411377 0.353516 0.000000
0.574707 0.353516 0.000000
0.699707 0.353516 0.000000
0.789551 0.353516 0.000000
0.848145 0.353516 0.000000
0.886230 0.353516 0.000000
0.906738 0.353516 0.000000
0.919922 0.353516 0.000000
0.931152 0.353516 0.000000
0.936035 0.353516 0.000000
0.942383 0.353516 0.000000
0.949219 0.353516 0.000000
0.954102 0.353516 0.000000
0.957031 0.353516 0.000000
0.957031 0.353516 0.000000
0.957520 0.353516 0.000000
0.962891 0.353516 0.000000
0.970215 0.353516 0.000000
0.976563 0.353516 0.000000
0.979004 0.353516 0.000000
0.979492 0.353516 0.000000
0.979492 0.353516 0.000000
0.979980 0.353516 0.000000
0.983398 0.353516 0.000000
0.988770 0.353516 0.000000
0.994629 0.353516 0.000000
1.000000 0.353516 0.000000
0.000000 0.467773 0.000000
0.000578 0.467773 0.000000
0.014748 0.467773 0.000000
0.087402 0.467773 0.000000
0.235352 0.467773 0.000000
0.411377 0.467773 0.000000
0.574707 0.467773 0.000000
0.699707 0.467773 0.000000
0.789551 0.467773 0.000000
0.848145 0.467773 0.000000
0.886230 0.467773 0.000000
0.906738 0.467773 0.000000
0.919922 0.467773 0.000000
0.931152 0.467773 0.000000
0.936035 0.467773 0.000000
0.942383 0.467773 0.000000
0.949219 0.467773 0.000000
0.954102 0.467773 0.000000
0.957031 0.467773 0.000000
0.957031 0.467773 0.000000
0.957520 0.467773 0.000000
0.962891 0.467773 0.000000
0.970215 0.467773 0.000000
0.976563 0.467773 0.000000
0.979004 0.467773 0.000000
0.979492 0.467773 0.000000
0.979492 0.467773 0.000000
0.979980 0.467773 0.000000
0.983398 0.467773 0.000000
0.988770 0.467773 0.000000
0.994629 0.467773 0.000000
1.000000 0.467773 0.000000
0.000000 0.566895 0.000000
0.000578 0.566895 0.000000
0.014748 0.566895 0.000000
0.087402 0.566895 0.000000
0.235352 0.566895 0.000000
0.411377 0.566895 0.000000
0.574707 0.566895 0.000000
0.699707 0.566895 0.000000
0.789551 0.566895 0.000000
0.848145 0.566895 0.000000
0.886230 0.566895 0.000000
0.906738 0.566895 0.000000
0.919922 0.566895 0.000000
0.931152 0.566895 0.000000
0.936035 0.566895 0.000000
0.942383 0.566895 0.000000
0.949219 0.566895 0.000000
0.954102 0.566895 0.000000
0.957031 0.566895 0.000000
0.957031 0.566895 0.000000
0.957520 0.566895 0.000000
0.962891 0.566895 0.000000
0.970215 0.566895 0.000000
0.976563 0.566895 0.000000
0.979004 0.566895 0.000000
0.979492 0.566895 0.000000
0.979492 0.566895 0.000000
0.979980 0.566895 0.000000
0.983398 0.566895 0.000000
0.988770 0.566895 0.000000
0.994629 0.566895 0.000000
1.000000 0.566895 0.000000
0.000000 0.650391 0.000000
0.000578 0.650391 0.000000
0.014748 0.650391 0.000000
0.087402 0.650391 0.000000
0.235352 0.650391 0.000000
0.411377 0.650391 0.000000
0.574707 0.650391 0.000000
0.699707 0.650391 0.000000
0.789551 0.650391 0.000000
0.848145 0.650391 0.000000
0.886230 0.650391 0.000000
0.906738 0.650391 0.000000
0.919922 0.650391 0.000000
0.931152 0.650391 0.000000
0.936035 0.650391 0.000000
0.942383 0.650391 0.000000
0.949219 0.650391 0.000000
0.954102 0.650391 0.000000
0.957031 0.650391 0.000000
0.957031 0.650391 0.000000
0.957520 0.650391 0.000000
0.962891 0.650391 0.000000
0.970215 0.650391 0.000000
0.976563 0.650391 0.000000
0.979004 0.650391 0.000000
0.979492 0.650391 0.000000
0.979492 0.650391 0.000000
0.979980 0.650391 0.000000
0.983398 0.650391 0.000000
0.988770 0.650391 0.000000
0.994629 0.650391 0.000000
1.000000 0.650391 0.000000
0.000000 0.718262 0.000000
0.000578 0.718262 0.000000
0.014748 0.718262 0.000000
0.087402 0.718262 0.000000
0.235352 0.718262 0.000000
0.411377 0.718262 0.000000
0.574707 0.718262 0.000000
0.699707 0.718262 0.000000
0.789551 0.718262 0.000000
0.848145 0.718262 0.000000
0.886230 0.718262 0.000000
0.906738 0.718262 0.000000
0.919922 0.718262 0.000000
0.931152 0.718262 0.000000
0.936035 0.718262 0.000000
0.942383 0.718262 0.000000
0.949219 0.718262 0.000000
0.954102 0.718262 0.000000
0.957031 0.718262 0.000000
0.957031 0.718262 0.000000
0.957520 0.718262 0.000000
0.962891 0.718262 0.000000
0.970215 0.718262 0.000000
0.976563 0.718262 0.000000
0.979004 0.718262 0.000000
0.979492 0.718262 0.000000
0.979492 0.718262 0.000000
0.979980 0.718262 0.000000
0.983398 0.718262 0.000000
0.988770 0.718262 0.000000
0.994629 0.718262 0.000000
1.000000 0.718262 0.000000
0.000000 0.771484 0.000000
0.000578 0.771484 0.000000
0.014748 0.771484 0.000000
0.087402 0.771484 0.000000
0.235352 0.771484 0.000000
0.411377 0.771484 0.000000
0.574707 0.771484 0.000000
0.699707 0.771484 0.000000
0.789551 0.771484 0.000000
0.848145 0.771484 0.000000
0.886230 0.771484 0.000000
0.906738 0.771484 0.000000
0.919922 0.771484 0.000000
0.931152 0.771484 0.000000
0.936035 0.771484 0.000000
0.942383 0.771484 0.000000
0.949219 0.771484 0.000000
0.954102 0.771484 0.000000
0.957031 0.771484 0.000000
0.957031 0.771484 0.000000
0.957520 0.771484 0.000000
0.962891 0.771484 0.000000
0.970215 0.771484 0.000000
0.976563 0.771484 0.000000
0.979004 0.771484 0.000000
0.979492 0.771484 0.000000
0.979492 0.771484 0.000000
0.979980 0.771484 0.000000
0.983398 0.771484 0.000000
0.988770 0.771484 0.000000
0.994629 0.771484 0.000000
1.000000 0.771484 0.000000
0.000000 0.814941 0.000000
0.000578 0.814941 0.000000
0.014748 0.814941 0.000000
0.087402 0.814941 0.000000
0.235352 0.814941 0.000000
0.411377 0.814941 0.000000
0.574707 0.814941 0.000000
0.699707 0.814941 0.000000
0.789551 0.814941 0.000000
0.848145 0.814941 0.000000
0.886230 0.814941 0.000000
0.906738 0.814941 0.000000
0.919922 0.814941 0.000000
0.931152 0.814941 0.000000
0.936035 0.814941 0.000000
0.942383 0.814941 0.000000
0.949219 0.814941 0.000000
0.954102 0.814941 0.000000
0.957031 0.814941 0.000000
0.957031 0.814941 0.000000
0.957520 0.814941 0.000000
0.962891 0.814941 0.000000
0.970215 0.814941 0.000000
0.976563 0.814941 0.000000
0.979004 0.814941 0.000000
0.979492 0.814941 0.000000
0.979492 0.814941 0.000000
0.979980 0.814941 0.000000
0.983398 0.814941 0.000000
0.988770 0.814941 0.000000
0.994629 0.814941 0.000000
1.000000 0.814941 0.000000
0.000000 0.849609 0.000000
0.000578 0.849609 0.000000
0.014748 0.849609 0.000000
0.087402 0.849609 0.000000
0.235352 0.849609 0.000000
0.411377 0.849609 0.000000
0.574707 0.849609 0.000000
0.699707 0.849609 0.000000
0.789551 0.849609 0.000000
0.848145 0.849609 0.000000
0.886230 0.849609 0.000000
0.906738 0.849609 0.000000
0.919922 0.849609 0.000000
0.931152 0.849609 0.000000
0.936035 0.849609 0.000000
0.942383 0.849609 0.000000
0.949219 0.849609 0.000000
0.954102 0.849609 0.000000
0.957031 0.849609 0.000000
0.957031 0.849609 0.000000
0.957520 0.849609 0.000000
0.962891 0.849609 0.000000
0.970215 0.849609 0.000000
0.976563 0.849609 0.000000
0.979004 0.849609 0.000000
0.979492 0.849609 0.000000
0.979492 0.849609 0.000000
0.979980 0.849609 0.000000
0.983398 0.849609 0.000000
0.988770 0.849609 0.000000
0.994629 0.849609 0.000000
1.000000 0.849609 0.000000
0.000000 0.876465 0.000000
0.000578 0.876465 0.000000
0.014748 0.876465 0.000000
0.087402 0.876465 0.000000
0.235352 0.876465 0.000000
0.411377 0.876465 0.000000
0.574707 0.876465 0.000000
0.699707 0.876465 0.000000
0.789551 0.876465 0.000000
0.848145 0.876465 0.000000
0.886230 0.876465 0.000000
0.906738 0.876465 0.000000
0.919922 0.876465 0.000000
0.931152 0.876465 0.000000
0.936035 0.876465 0.000000
0.942383 0.876465 0.000000
0.949219 0.876465 0.000000
0.954102 0.876465 0.000000
0.957031 0.876465 0.000000
0.957031 0.876465 0.000000
0.957520 0.876465 0.000000
0.962891 0.876465 0.000000
0.970215 0.876465 0.000000
0.976563 0.876465 0.000000
0.979004 0.876465 0.000000
0.979492 0.876465 0.000000
0.979492 0.876465 0.000000
0.979980 0.876465 0.000000
0.983398 0.876465 0.000000
0.988770 0.876465 0.000000
0.994629 0.876465 0.000000
1.000000 0.876465 0.000000
0.000000 0.897949 0.000000
0.000578 0.897949 0.000000
0.014748 0.897949 0.000000
0.087402 0.897949 0.000000
0.235352 0.897949 0.000000
0.411377 0.897949 0.000000
0.574707 0.897949 0.000000
0.699707 0.897949 0.000000
0.789551 0.897949 0.000000
0.848145 0.897949 0.000000
0.886230 0.897949 0.000000
0.906738 0.897949 0.000000
0.919922 0.897949 0.000000
0.931152 0.897949 0.000000
0.936035 0.897949 0.000000
0.942383 0.897949 0.000000
0.949219 0.897949 0.000000
0.954102 0.897949 0.000000
0.957031 0.897949 0.000000
0.957031 0.897949 0.000000
0.957520 0.897949 0.000000
0.962891 0.897949 0.000000
0.970215 0.897949 0.000000
0.976563 0.897949 0.000000
0.979004 0.897949 0.000000
0.979492 0.897949 0.000000
0.979492 0.897949 0.000000
0.979980 0.897949 0.000000
0.983398 0.897949 0.000000
0.988770 0.897949 0.000000
0.994629 0.897949 0.000000
1.000000 0.897949 0.000000
0.000000 0.915039 0.000000
0.000578 0.915039 0.000000
0.014748 0.915039 0.000000
0.087402 0.915039 0.000000
0.235352 0.915039 0.000000
0.411377 0.915039 0.000000
0.574707 0.915039 0.000000
0.699707 0.915039 0.000000
0.789551 0.915039 0.000000
0.848145 0.915039 0.000000
0.886230 0.915039 0.000000
0.906738 0.915039 0.000000
0.919922 0.915039 0.000000
0.931152 0.915039 0.000000
0.936035 0.915039 0.000000
0.942383 0.915039 0.000000
0.949219 0.915039 0.000000
0.954102 0.915039 0.000000
0.957031 0.915039 0.000000
0.957031 0.915039 0.000000
0.957520 0.915039 0.000000
0.962891 0.915039 0.000000
0.970215 0.915039 0.000000
0.976563 0.915039 0.000000
0.979004 0.915039 0.000000
0.979492 0.915039 0.000000
0.979492 0.915039 0.000000
0.979980 0.915039 0.000000
0.983398 0.915039 0.000000
0.988770 0.915039 0.000000
0.994629 0.915039 0.000000
1.000000 0.915039 0.000000
0.000000 0.928223 0.000000
0.000578 0.928223 0.000000
0.014748 0.928223 0.000000
0.087402 0.928223 0.000000
0.235352 0.928223 0.000000
0.411377 0.928223 0.000000
0.574707 0.928223 0.000000
0.699707 0.928223 0.000000
0.789551 0.928223 0.000000
0.848145 0.928223 0.000000
0.886230 0.928223 0.000000
0.906738 0.928223 0.000000
0.919922 0.928223 0.000000
0.931152 0.928223 0.000000
0.936035 0.928223 0.000000
0.942383 0.928223 0.000000
0.949219 0.928223 0.000000
0.954102 0.928223 0.000000
0.957031 0.928223 0.000000
0.957031 0.928223 0.000000
0.957520 0.928223 0.000000
0.962891 0.928223 0.000000
0.970215 0.928223 0.000000
0.976563 0.928223 0.000000
0.979004 0.928223 0.000000
0.979492 0.928223 0.000000
0.979492 0.928223 0.000000
0.979980 0.928223 0.000000
0.983398 0.928223 0.000000
0.988770 0.928223 0.000000
0.994629 0.928223 0.000000
1.000000 0.928223 0.000000
0.000000 0.939941 0.000000
0.000578 0.939941 0.000000
0.014748 0.939941 0.000000
0.087402 0.939941 0.000000
0.235352 0.939941 0.000000
0.411377 0.939941 0.000000
0.574707 0.939941 0.000000
0.699707 0.939941 0.000000
0.789551 0.939941 0.000000
0.848145 0.939941 0.000000
0.886230 0.939941 0.000000
0.906738 0.939941 0.000000
0.919922 0.939941 0.000000
0.931152 0.939941 0.000000
0.936035 0.939941 0.000000
0.942383 0.939941 0.000000
0.949219 0.939941 0.000000
0.954102 0.939941 0.000000
0.957031 0.939941 0.000000
0.957031 0.939941 0.000000
0.957520 0.939941 0.000000
0.962891 0.939941 0.000000
0.970215 0.939941 0.000000
0.976563 0.939941 0.000000
0.979004 0.939941 0.000000
0.979492 0.939941 0.000000
0.979492 0.939941 0.000000
0.979980 0.939941 0.000000
0.983398 0.939941 0.000000
0.988770 0.939941 0.000000
0.994629 0.939941 0.000000
1.000000 0.939941 0.000000
0.000000 0.948730 0.000000
0.000578 0.948730 0.000000
0.014748 0.948730 0.000000
0.087402 0.948730 0.000000
0.235352 0.948730 0.000000
0.411377 0.948730 0.000000
0.574707 0.948730 0.000000
0.699707 0.948730 0.000000
0.789551 0.948730 0.000000
0.848145 0.948730 0.000000
0.886230 0.948730 0.000000
0.906738 0.948730 0.000000
0.919922 0.948730 0.000000
0.931152 0.948730 0.000000
0.936035 0.948730 0.000000
0.942383 0.948730 0.000000
0.949219 0.948730 0.000000
0.954102 0.948730 0.000000
0.957031 0.948730 0.000000
0.957031 0.948730 0.000000
0.957520 0.948730 0.000000
0.962891 0.948730 0.000000
0.970215 0.948730 0.000000
0.976563 0.948730 0.000000
0.979004 0.948730 0.000000
0.979492 0.948730 0.000000
0.979492 0.948730 0.000000
0.979980 0.948730 0.000000
0.983398 0.948730 0.000000
0.988770 0.948730 0.000000
0.994629 0.948730 0.000000
1.000000 0.948730 0.000000
0.000000 0.958984 0.000000
0.000578 0.958984 0.000000
0.014748 0.958984 0.000000
0.087402 0.958984 0.000000
0.235352 0.958984 0.000000
0.411377 0.958984 0.000000
0.574707 0.958984 0.000000
0.699707 0.958984 0.000000
0.789551 0.958984 0.000000
0.848145 0.958984 0.000000
0.886230 0.958984 0.000000
0.906738 0.958984 0.000000
0.919922 0.958984 0.000000
0.931152 0.958984 0.000000
0.936035 0.958984 0.000000
0.942383 0.958984 0.000000
0.949219 0.958984 0.000000
0.954102 0.958984 0.000000
0.957031 0.958984 0.000000
0.957031 0.958984 0.000000
0.957520 0.958984 0.000000
0.962891 0.958984 0.000000
0.970215 0.958984 0.000000
0.976563 0.958984 0.000000
0.979004 0.958984 0.000000
0.979492 0.958984 0.000000
0.979492 0.958984 0.000000
0.979980 0.958984 0.000000
0.983398 0.958984 0.000000
0.988770 0.958984 0.000000
0.994629 0.958984 0.000000
1.000000 0.958984 0.000000
0.000000 0.967285 0.000000
0.000578 0.967285 0.000000
0.014748 0.967285 0.000000
0.087402 0.967285 0.000000
0.235352 0.967285 0.000000
0.411377 0.967285 0.000000
0.574707 0.967285 0.000000
0.699707 0.967285 0.000000
0.789551 0.967285 0.000000
0.848145 0.967285 0.000000
0.886230 0.967285 0.000000
0.906738 0.967285 0.000000
0.919922 0.967285 0.000000
0.931152 0.967285 0.000000
0.936035 0.967285 0.000000
0.942383 0.967285 0.000000
0.949219 0.967285 0.000000
0.954102 0.967285 0.000000
0.957031 0.967285 0.000000
0.957031 0.967285 0.000000
0.957520 0.967285 0.000000
0.962891 0.967285 0.000000
0.970215 0.967285 0.000000
0.976563 0.967285 0.000000
0.979004 0.967285 0.000000
0.979492 0.967285 0.000000
0.979492 0.967285 0.000000
0.979980 0.967285 0.000000
0.983398 0.967285 0.000000
0.988770 0.967285 0.000000
0.994629 0.967285 0.000000
1.000000 0.967285 0.000000
0.000000 0.974609 0.000000
0.000578 0.974609 0.000000
0.014748 0.974609 0.000000
0.087402 0.974609 0.000000
0.235352 0.974609 0.000000
0.411377 0.974609 0.000000
0.574707 0.974609 0.000000
0.699707 0.974609 0.000000
0.789551 0.974609 0.000000
0.848145 0.974609 0.000000
0.886230 0.974609 0.000000
0.906738 0.974609 0.000000
0.919922 0.974609 0.000000
0.931152 0.974609 0.000000
0.936035 0.974609 0.000000
0.942383 0.974609 0.000000
0.949219 0.974609 0.000000
0.954102 0.974609 0.000000
0.957031 0.974609 0.000000
0.957031 0.974609 0.000000
0.957520 0.974609 0.000000
0.962891 0.974609 0.000000
0.970215 0.974609 0.000000
0.976563 0.974609 0.000000
0.979004 0.974609 0.000000
0.979492 0.974609 0.000000
0.979492 0.974609 0.000000
0.979980 0.974609 0.000000
0.983398 0.974609 0.000000
0.988770 0.974609 0.000000
0.994629 0.974609 0.000000
1.000000 0.974609 0.000000
0.000000 0.978027 0.000000
0.000578 0.978027 0.000000
0.014748 0.978027 0.000000
0.087402 0.978027 0.000000
0.235352 0.978027 0.000000
0.411377 0.978027 0.000000
0.574707 0.978027 0.000000
0.699707 0.978027 0.000000
0.789551 0.978027 0.000000
0.848145 0.978027 0.000000
0.886230 0.978027 0.000000
0.906738 0.978027 0.000000
0.919922 0.978027 0.000000
0.931152 0.978027 0.000000
0.936035 0.978027 0.000000
0.942383 0.978027 0.000000
0.949219 0.978027 0.000000
0.954102 0.978027 0.000000
0.957031 0.978027 0.000000
0.957031 0.978027 0.000000
0.957520 0.978027 0.000000
0.962891 0.978027 0.000000
0.970215 0.978027 0.000000
0.976563 0.978027 0.000000
0.979004 0.978027 0.000000
0.979492 0.978027 0.000000
0.979492 0.978027 0.000000
0.979980 0.978027 0.000000
0.983398 0.978027 0.000000
0.988770 0.978027 0.000000
0.994629 0.978027 0.000000
1.000000 0.978027 0.000000
0.000000 0.978027 0.000000
0.000578 0.978027 0.000000
0.014748 0.978027 0.000000
0.087402 0.978027 0.000000
0.235352 0.978027 0.000000
0.411377 0.978027 0.000000
0.574707 0.978027 0.000000
0.699707 0.978027 0.000000
0.789551 0.978027 0.000000
0.848145 0.978027 0.000000
0.886230 0.978027 0.000000
0.906738 0.978027 0.000000
0.919922 0.978027 0.000000
0.931152 0.978027 0.000000
0.936035 0.978027 0.000000
0.942383 0.978027 0.000000
0.949219 0.978027 0.000000
0.954102 0.978027 0.000000
0.957031 0.978027 0.000000
0.957031 0.978027 0.000000
0.957520 0.978027 0.000000
0.962891 0.978027 0.000000
0.970215 0.978027 0.000000
0.976563 0.978027 0.000000
0.979004 0.978027 0.000000
0.979492 0.978027 0.000000
0.979492 0.978027 0.000000
0.979980 0.978027 0.000000
0.983398 0.978027 0.000000
0.988770 0.978027 0.000000
0.994629 0.978027 0.000000
1.000000 0.978027 0.000000
0.000000 0.978516 0.000000
0.000578 0.978516 0.000000
0.014748 0.978516 0.000000
0.087402 0.978516 0.000000
0.235352 0.978516 0.000000
0.411377 0.978516 0.000000
0.574707 0.978516 0.000000
0.699707 0.978516 0.000000
0.789551 0.978516 0.000000
0.848145 0.978516 0.000000
0.886230 0.978516 0.000000
0.906738 0.978516 0.000000
0.919922 0.978516 0.000000
0.931152 0.978516 0.000000
0.936035 0.978516 0.000000
0.942383 0.978516 0.000000
0.949219 0.978516 0.000000
0.954102 0.978516 0.000000
0.957031 0.978516 0.000000
0.957031 0.978516 0.000000
0.957520 0.978516 0.000000
0.962891 0.978516 0.000000
0.970215 0.978516 0.000000
0.976563 0.978516 0.000000
0.979004 0.978516 0.000000
0.979492 0.978516 0.000000
0.979492 0.978516 0.000000
0.979980 0.978516 0.000000
0.983398 0.978516 0.000000
0.988770 0.978516 0.000000
0.994629 0.978516 0.000000
1.000000 0.978516 0.000000
0.000000 0.978516 0.000000
0.000578 0.978516 0.000000
0.014748 0.978516 0.000000
0.087402 0.978516 0.000000
0.235352 0.978516 0.000000
0.411377 0.978516 0.000000
0.574707 0.978516 0.000000
0.699707 0.978516 0.000000
0.789551 0.978516 0.000000
0.848145 0.978516 0.000000
0.886230 0.978516 0.000000
0.906738 0.978516 0.000000
0.919922 0.978516 0.000000
0.931152 0.978516 0.000000
0.936035 0.978516 0.000000
0.942383 0.978516 0.000000
0.949219 0.978516 0.000000
0.954102 0.978516 0.000000
0.957031 0.978516 0.000000
0.957031 0.978516 0.000000
0.957520 0.978516 0.000000
0.962891 0.978516 0.000000
0.970215 0.978516 0.000000
0.976563 0.978516 0.000000
0.979004 0.978516 0.000000
0.979492 0.978516 0.000000
0.979492 0.978516 0.000000
0.979980 0.978516 0.000000
0.983398 0.978516 0.000000
0.988770 0.978516 0.000000
0.994629 0.978516 0.000000
1.000000 0.978516 0.000000
0.000000 0.978516 0.000000
0.000578 0.978516 0.000000
0.014748 0.978516 0.000000
0.087402 0.978516 0.000000
0.235352 0.978516 0.000000
0.411377 0.978516 0.000000
0.574707 0.978516 0.000000
0.699707 0.978516 0.000000
0.789551 0.978516 0.000000
0.848145 0.978516 0.000000
0.886230 0.978516 0.000000
0.906738 0.978516 0.000000
0.919922 0.978516 0.000000
0.931152 0.978516 0.000000
0.936035 0.978516 0.000000
0.942383 0.978516 0.000000
0.949219 0.978516 0.000000
0.954102 0.978516 0.000000
0.957031 0.978516 0.000000
0.957031 0.978516 0.000000
0.957520 0.978516 0.000000
0.962891 0.978516 0.000000
0.970215 0.978516 0.000000
