cubelut/Adanmq_AgfaColor Optima II 200.cube
TITLE "Generated by Foundry::LUT"
LUT_3D_SIZE 8
DOMAIN_MIN 0.000000 0.000000 0.000000
DOMAIN_MAX 0.903226 0.903226 0.903226
0.000000 0.000000 0.000000
0.127197 0.000000 0.000000
0.285156 0.000000 0.000000
0.441406 0.000000 0.000000
0.586426 0.000000 0.000000
0.716309 0.000000 0.000000
0.833496 0.000000 0.000000
0.936523 0.000000 0.000000
0.000000 0.142334 0.000000
0.127197 0.142456 0.000000
0.285156 0.142456 0.000000
0.441406 0.142456 0.000000
0.586426 0.142456 0.000000
0.716309 0.142456 0.000000
0.833496 0.142456 0.000000
0.936523 0.142456 0.000000
0.000000 0.315186 0.000000
0.127197 0.315186 0.000000
0.285156 0.315186 0.000000
0.441406 0.315186 0.000000
0.586426 0.315186 0.000000
0.716309 0.315186 0.000000
0.833496 0.315186 0.000000
0.936523 0.315186 0.000000
0.000000 0.474609 0.000000
0.127197 0.474609 0.000000
0.285156 0.474609 0.000000
0.441406 0.474609 0.000000
0.586426 0.474609 0.000000
0.716309 0.474609 0.000000
0.833496 0.474609 0.000000
0.936523 0.474609 0.000000
0.000000 0.613281 0.000000
0.127197 0.613281 0.000000
0.285156 0.613281 0.000000
0.441406 0.613281 0.000000
0.586426 0.613770 0.000000
0.716309 0.613770 0.000000
0.833496 0.613770 0.000000
0.936523 0.613770 0.000000
0.000000 0.734375 0.000000
0.127197 0.734375 0.000000
0.285156 0.734375 0.000000
0.441406 0.734375 0.000000
0.586426 0.734375 0.000000
0.716309 0.734375 0.000000
0.833496 0.734375 0.000000
0.936523 0.734375 0.000000
0.000000 0.842773 0.000000
0.127197 0.842773 0.000000
0.285156 0.842773 0.000000
0.441406 0.842773 0.000000
0.586426 0.842773 0.000000
0.716309 0.842773 0.000000
0.833496 0.842773 0.000000
0.936523 0.842773 0.000000
0.000000 0.939453 0.000000
0.127197 0.939453 0.000000
0.285156 0.939453 0.000000
0.441406 0.939453 0.000000
0.586426 0.939453 0.000000
0.716309 0.939453 0.000000
0.833496 0.939453 0.000000
0.936523 0.939453 0.000000
0.000000 0.000000 0.142334
0.127197 0.000000 0.142334
0.285156 0.000000 0.142334
0.441406 0.000000 0.142334
0.586426 0.000000 0.142334
0.716309 0.000000 0.142334
0.833496 0.000000 0.142334
0.936523 0.000000 0.142334
0.000000 0.142334 0.142334
0.127197 0.142334 0.142334
0.285156 0.142456 0.142334
0.441406 0.142456 0.142334
0.586426 0.142456 0.142334
0.716309 0.142456 0.142334
0.833496 0.142456 0.142334
0.936523 0.142456 0.142334
0.000000 0.315186 0.142334
0.127197 0.315186 0.142334
0.285156 0.315186 0.142334
0.441406 0.315186 0.142334
0.586426 0.315186 0.142334
0.716309 0.315186 0.142334
0.833496 0.315186 0.142334
0.936523 0.315186 0.142334
0.000000 0.474609 0.142334
0.127197 0.474609 0.142334
0.285156 0.474609 0.142334
0.441406 0.474609 0.142334
0.586426 0.474609 0.142334
0.716309 0.474609 0.142334
0.833496 0.474609 0.142334
0.936523 0.474609 0.142334
0.000000 0.613281 0.142334
0.127197 0.613281 0.142334
0.285156 0.613281 0.142334
0.441406 0.613281 0.142334
0.586426 0.613281 0.142334
0.716309 0.613770 0.142334
0.833496 0.613770 0.142334
0.936523 0.613770 0.142334
0.000000 0.734375 0.142334
0.127197 0.734375 0.142334
0.285156 0.734375 0.142334
0.441406 0.734375 0.142334
0.586426 0.734375 0.142334
0.716309 0.734375 0.142334
0.833496 0.734375 0.142334
0.936523 0.734375 0.142334
0.000000 0.842773 0.142334
0.127197 0.842773 0.142334
0.285156 0.842773 0.142334
0.441406 0.842773 0.142334
0.586426 0.842773 0.142334
0.716309 0.842773 0.142334
0.833496 0.842773 0.142334
0.936523 0.842773 0.142334
0.000000 0.939453 0.142334
0.127197 0.939453 0.142334
0.285156 0.939453 0.142334
0.441406 0.939453 0.142334
0.586426 0.939453 0.142334
0.716309 0.939453 0.142334
0.833496 0.939453 0.142334
0.936523 0.939453 0.142334
0.000000 0.000000 0.315186
0.127197 0.000000 0.315186
0.285156 0.000000 0.315186
0.441650 0.000000 0.315186
0.586426 0.000000 0.315186
0.716309 0.000000 0.315186
0.833496 0.000000 0.315186
0.936523 0.000000 0.315186
0.000000 0.142334 0.315186
0.127197 0.142334 0.315186
0.285156 0.142334 0.315186
0.441650 0.142456 0.315186
0.586426 0.142456 0.315186
0.716309 0.142456 0.315186
0.833496 0.142456 0.315186
0.936523 0.142456 0.315186
0.000000 0.315186 0.315186
0.127197 0.315186 0.315186
0.285156 0.315186 0.315186
0.441650 0.315186 0.315186
0.586426 0.315186 0.315186
0.716309 0.315186 0.315186
0.833496 0.315186 0.315186
0.936523 0.315186 0.315186
0.000000 0.474609 0.315186
0.127197 0.474609 0.315186
0.285156 0.474609 0.315186
0.441650 0.474609 0.315186
0.586426 0.474609 0.315186
0.716309 0.474609 0.315186
0.833496 0.474609 0.315186
0.936523 0.474609 0.315186
0.000000 0.613281 0.315186
0.127197 0.613281 0.315186
0.285156 0.613281 0.315186
0.441650 0.613281 0.315186
0.586426 0.613281 0.315186
0.716309 0.613281 0.315186
0.833496 0.613770 0.315186
0.936523 0.613770 0.315186
0.000000 0.734375 0.315186
0.127197 0.734375 0.315186
0.285156 0.734375 0.315186
0.441650 0.734375 0.315186
0.586426 0.734375 0.315186
0.716309 0.734375 0.315186
0.833496 0.734375 0.315186
0.936523 0.734375 0.315186
0.000000 0.842773 0.315186
0.127197 0.842773 0.315186
0.285156 0.842773 0.315186
0.441650 0.842773 0.315186
0.586426 0.842773 0.315186
0.716309 0.842773 0.315186
0.833496 0.842773 0.315186
0.936523 0.842773 0.315186
0.000000 0.939453 0.315186
0.127197 0.939453 0.315186
0.285156 0.939453 0.315186
0.441650 0.939453 0.315186
0.586426 0.939453 0.315186
0.716309 0.939453 0.315186
0.833496 0.939453 0.315186
0.936523 0.939453 0.315186
0.000000 0.000000 0.474365
0.127319 0.000000 0.474365
0.285156 0.000000 0.474365
0.441650 0.000000 0.474365
0.586426 0.000000 0.474365
0.716309 0.000000 0.474365
0.833496 0.000000 0.474365
0.936523 0.000000 0.474365
0.000000 0.142334 0.474365
0.127319 0.142334 0.474365
0.285156 0.142334 0.474365
0.441650 0.142334 0.474365
0.586426 0.142456 0.474365
0.716309 0.142456 0.474365
0.833496 0.142456 0.474365
0.936523 0.142456 0.474365
0.000000 0.315186 0.474365
0.127319 0.315186 0.474365
0.285156 0.315186 0.474365
0.441650 0.315186 0.474365
0.586426 0.315186 0.474365
0.716309 0.315186 0.474365
0.833496 0.315186 0.474365
0.936523 0.315186 0.474365
0.000000 0.474609 0.474365
0.127319 0.474609 0.474365
0.285156 0.474609 0.474365
0.441650 0.474609 0.474365
0.586426 0.474609 0.474365
0.716309 0.474609 0.474365
0.833496 0.474609 0.474365
0.936523 0.474609 0.474365
0.000000 0.613281 0.474365
0.127319 0.613281 0.474365
0.285156 0.613281 0.474365
0.441650 0.613281 0.474365
0.586426 0.613281 0.474365
0.716309 0.613281 0.474365
0.833496 0.613281 0.474365
0.936523 0.613770 0.474365
0.000000 0.734375 0.474365
0.127319 0.734375 0.474365
0.285156 0.734375 0.474365
0.441650 0.734375 0.474365
0.586426 0.734375 0.474365
0.716309 0.734375 0.474365
0.833496 0.734375 0.474365
0.936523 0.734375 0.474365
0.000000 0.842773 0.474365
0.127319 0.842773 0.474365
0.285156 0.842773 0.474365
0.441650 0.842773 0.474365
0.586426 0.842773 0.474365
0.716309 0.842773 0.474365
0.833496 0.842773 0.474365
0.936523 0.842773 0.474365
0.000000 0.939453 0.474365
0.127319 0.939453 0.474365
0.285156 0.939453 0.474365
0.441650 0.939453 0.474365
0.586426 0.939453 0.474365
0.716309 0.939453 0.474365
0.833496 0.939453 0.474365
0.936523 0.939453 0.474365
0.000000 0.000000 0.613281
0.127319 0.000000 0.613281
0.285400 0.000000 0.613281
0.441650 0.000000 0.613281
0.586426 0.000000 0.613281
0.716797 0.000000 0.613281
0.833496 0.000000 0.613281
0.936523 0.000000 0.613281
0.000000 0.142334 0.613281
0.127319 0.142334 0.613281
0.285400 0.142334 0.613281
0.441650 0.142334 0.613281
0.586426 0.142334 0.613281
0.716797 0.142456 0.613281
0.833496 0.142456 0.613281
0.936523 0.142456 0.613281
0.000000 0.315186 0.613281
0.127319 0.315186 0.613281
0.285400 0.315186 0.613281
0.441650 0.315186 0.613281
0.586426 0.315186 0.613281
0.716797 0.315186 0.613281
0.833496 0.315186 0.613281
0.936523 0.315186 0.613281
0.000000 0.474609 0.613281
0.127319 0.474609 0.613281
0.285400 0.474609 0.613281
0.441650 0.474609 0.613281
0.586426 0.474609 0.613281
0.716797 0.474609 0.613281
0.833496 0.474609 0.613281
0.936523 0.474609 0.613281
0.000000 0.613281 0.613281
0.127319 0.613281 0.613281
0.285400 0.613281 0.613281
0.441650 0.613281 0.613281
0.586426 0.613281 0.613281
0.716797 0.613281 0.613281
0.833496 0.613281 0.613281
0.936523 0.613281 0.613281
0.000000 0.734375 0.613281
0.127319 0.734375 0.613281
0.285400 0.734375 0.613281
0.441650 0.734375 0.613281
0.586426 0.734375 0.613281
0.716797 0.734375 0.613281
0.833496 0.734375 0.613281
0.936523 0.734375 0.613281
0.000000 0.842773 0.613281
0.127319 0.842773 0.613281
0.285400 0.842773 0.613281
0.441650 0.842773 0.613281
0.586426 0.842773 0.613281
0.716797 0.842773 0.613281
0.833496 0.842773 0.613281
0.936523 0.842773 0.613281
0.000000 0.939453 0.613281
0.127319 0.939453 0.613281
0.285400 0.939453 0.613281
0.441650 0.939453 0.613281
0.586426 0.939453 0.613281
0.716797 0.939453 0.613281
0.833496 0.939453 0.613281
0.936523 0.939453 0.613281
0.000000 0.000000 0.734375
0.127319 0.000000 0.734375
0.285400 0.000000 0.734375
0.441650 0.000000 0.734375
0.586426 0.000000 0.734375
0.716797 0.000000 0.734375
0.833496 0.000000 0.734375
0.936523 0.000000 0.734375
0.000000 0.142334 0.734375
0.127319 0.142334 0.734375
0.285400 0.142334 0.734375
0.441650 0.142334 0.734375
0.586426 0.142334 0.734375
0.716797 0.142334 0.734375
0.833496 0.142456 0.734375
0.936523 0.142456 0.734375
0.000000 0.315186 0.734375
0.127319 0.315186 0.734375
0.285400 0.315186 0.734375
0.441650 0.315186 0.734375
0.586426 0.315186 0.734375
0.716797 0.315186 0.734375
0.833496 0.315186 0.734375
0.936523 0.315186 0.734375
0.000000 0.474609 0.734375
0.127319 0.474609 0.734375
0.285400 0.474609 0.734375
0.441650 0.474609 0.734375
0.586426 0.474609 0.734375
0.716797 0.474609 0.734375
0.833496 0.474609 0.734375
0.936523 0.474609 0.734375
0.000000 0.613281 0.734375
0.127319 0.613281 0.734375
0.285400 0.613281 0.734375
0.441650 0.613281 0.734375
0.586426 0.613281 0.734375
0.716797 0.613281 0.734375
0.833496 0.613281 0.734375
0.936523 0.613281 0.734375
0.000000 0.734375 0.734375
0.127319 0.734375 0.734375
0.285400 0.734375 0.734375
0.441650 0.734375 0.734375
0.586426 0.734375 0.734375
0.716797 0.734375 0.734375
0.833496 0.734375 0.734375
0.936523 0.734375 0.734375
0.000000 0.842773 0.734375
0.127319 0.842773 0.734375
0.285400 0.842773 0.734375
0.441650 0.842773 0.734375
0.586426 0.842773 0.734375
0.716797 0.842773 0.734375
0.833496 0.842773 0.734375
0.936523 0.842773 0.734375
0.000000 0.939453 0.734375
0.127319 0.939453 0.734375
0.285400 0.939453 0.734375
0.441650 0.939453 0.734375
0.586426 0.939453 0.734375
0.716797 0.939453 0.734375
0.833496 0.939453 0.734375
0.936523 0.939453 0.734375
0.000001 0.000000 0.842773
0.127319 0.000000 0.842773
0.285400 0.000000 0.842773
0.441650 0.000000 0.842773
0.586426 0.000000 0.842773
0.716797 0.000000 0.842773
0.833496 0.000000 0.842773
0.936523 0.000000 0.842773
0.000001 0.142334 0.842773
0.127319 0.142334 0.842773
0.285400 0.142334 0.842773
0.441650 0.142334 0.842773
0.586426 0.142334 0.842773
0.716797 0.142334 0.842773
0.833496 0.142334 0.842773
0.936523 0.142456 0.842773
0.000001 0.315186 0.842773
0.127319 0.315186 0.842773
0.285400 0.315186 0.842773
0.441650 0.315186 0.842773
0.586426 0.315186 0.842773
0.716797 0.315186 0.842773
0.833496 0.315186 0.842773
0.936523 0.315186 0.842773
0.000001 0.474609 0.842773
0.127319 0.474609 0.842773
0.285400 0.474609 0.842773
0.441650 0.474609 0.842773
0.586426 0.474609 0.842773
0.716797 0.474609 0.842773
0.833496 0.474609 0.842773
0.936523 0.474609 0.842773
0.000001 0.613281 0.842773
0.127319 0.613281 0.842773
0.285400 0.613281 0.842773
0.441650 0.613281 0.842773
0.586426 0.613281 0.842773
0.716797 0.613281 0.842773
0.833496 0.613281 0.842773
0.936523 0.613281 0.842773
0.000001 0.734375 0.842773
0.127319 0.734375 0.842773
0.285400 0.734375 0.842773
0.441650 0.734375 0.842773
0.586426 0.734375 0.842773
0.716797 0.734375 0.842773
0.833496 0.734375 0.842773
0.936523 0.734375 0.842773
0.000001 0.842773 0.842773
0.127319 0.842773 0.842773
0.285400 0.842773 0.842773
0.441650 0.842773 0.842773
0.586426 0.842773 0.842773
0.716797 0.842773 0.842773
0.833496 0.842773 0.842773
0.936523 0.842773 0.842773
0.000001 0.939453 0.842773
0.127319 0.939453 0.842773
0.285400 0.939453 0.842773
0.441650 0.939453 0.842773
0.586426 0.939453 0.842773
0.716797 0.939453 0.842773
0.833496 0.939453 0.842773
0.936523 0.939453 0.842773
0.000001 0.000000 0.939453
0.127441 0.000000 0.939453
0.285400 0.000000 0.939453
0.441650 0.000000 0.939453
0.586426 0.000000 0.939453
0.716797 0.000000 0.939453
0.833496 0.000000 0.939453
0.936523 0.000000 0.939453
0.000001 0.142334 0.939453
0.127441 0.142334 0.939453
0.285400 0.142334 0.939453
0.441650 0.142334 0.939453
0.586426 0.142334 0.939453
0.716797 0.142334 0.939453
0.833496 0.142334 0.939453
0.936523 0.142334 0.939453
0.000001 0.315186 0.939453
0.127441 0.315186 0.939453
0.285400 0.315186 0.939453
0.441650 0.315186 0.939453
0.586426 0.315186 0.939453
0.716797 0.315186 0.939453
0.833496 0.315186 0.939453
0.936523 0.315186 0.939453
0.000001 0.474609 0.939453
0.127441 0.474609 0.939453
0.285400 0.474609 0.939453
0.441650 0.474609 0.939453
0.586426 0.474609 0.939453
0.716797 0.474609 0.939453
0.833496 0.474609 0.939453
0.936523 0.474609 0.939453
0.000001 0.613281 0.939453
0.127441 0.613281 0.939453
0.285400 0.613281 0.939453
0.441650 0.613281 0.939453
0.586426 0.613281 0.939453
0.716797 0.613281 0.939453
0.833496 0.613281 0.939453
0.936523 0.613281 0.939453
0.000001 0.734375 0.939453
0.127441 0.734375 0.939453
0.285400 0.734375 0.939453
0.441650 0.734375 0.939453
0.586426 0.734375 0.939453
0.716797 0.734375 0.939453
0.833496 0.734375 0.939453
0.936523 0.734375 0.939453
0.000001 0.842773 0.939453
0.127441 0.842773 0.939453
0.285400 0.842773 0.939453
0.441650 0.842773 0.939453
0.586426 0.842773 0.939453
0.716797 0.842773 0.939453
0.833496 0.842773 0.939453
0.936523 0.842773 0.939453
0.000001 0.939453 0.939453
0.127441 0.939453 0.939453
0.285400 0.939453 0.939453
0.441650 0.939453 0.939453
0.586426 0.939453 0.939453
0.716797 0.939453 0.939453
0.833496 0.939453 0.939453
0.936523 0.939453 0.939453
