cubelut/Adanmq_AgfaColor Optima II 100.cube
TITLE "Generated by Foundry::LUT"
LUT_3D_SIZE 32
0.000000 0.000000 0.000000
0.015549 0.000000 0.000000
0.041962 0.000000 0.000000
0.072693 0.000000 0.000000
0.106079 0.000000 0.000000
0.141235 0.000000 0.000000
0.177490 0.000000 0.000000
0.214478 0.000000 0.000000
0.251709 0.000000 0.000000
0.289063 0.000000 0.000000
0.326904 0.000000 0.000000
0.364746 0.000000 0.000000
0.401611 0.000000 0.000000
0.437744 0.000000 0.000000
0.473877 0.000000 0.000000
0.509766 0.000000 0.000000
0.545410 0.000000 0.000000
0.580078 0.000000 0.000000
0.614258 0.000000 0.000000
0.647949 0.000000 0.000000
0.681152 0.000000 0.000000
0.713867 0.000000 0.000000
0.746094 0.000000 0.000000
0.778320 0.000000 0.000000
0.810059 0.000000 0.000000
0.840820 0.000000 0.000000
0.871582 0.000000 0.000000
0.900391 0.000000 0.000000
0.928711 0.000000 0.000000
0.955566 0.000000 0.000000
0.979492 0.000000 0.000000
1.000000 0.000000 0.000000
0.000000 0.017639 0.000000
0.015549 0.017639 0.000000
0.041962 0.017639 0.000000
0.072693 0.017639 0.000000
0.106079 0.017639 0.000000
0.141235 0.017639 0.000000
0.177490 0.017639 0.000000
0.214478 0.017639 0.000000
0.251709 0.017639 0.000000
0.289063 0.017639 0.000000
0.326904 0.017639 0.000000
0.364746 0.017639 0.000000
0.401611 0.017639 0.000000
0.437744 0.017639 0.000000
0.473877 0.017639 0.000000
0.509766 0.017639 0.000000
0.545410 0.017639 0.000000
0.580078 0.017639 0.000000
0.614258 0.017639 0.000000
0.647949 0.017639 0.000000
0.681152 0.017639 0.000000
0.713867 0.017639 0.000000
0.746094 0.017639 0.000000
0.778320 0.017639 0.000000
0.810059 0.017639 0.000000
0.840820 0.017654 0.000000
0.871582 0.017654 0.000000
0.900391 0.017654 0.000000
0.928711 0.017654 0.000000
0.955566 0.017654 0.000000
0.979492 0.017654 0.000000
1.000000 0.017654 0.000000
0.000000 0.047699 0.000000
0.015549 0.047699 0.000000
0.041962 0.047699 0.000000
0.072693 0.047699 0.000000
0.106079 0.047699 0.000000
0.141235 0.047699 0.000000
0.177490 0.047699 0.000000
0.214478 0.047699 0.000000
0.251709 0.047699 0.000000
0.289063 0.047699 0.000000
0.326904 0.047699 0.000000
0.364746 0.047729 0.000000
0.401611 0.047729 0.000000
0.437744 0.047729 0.000000
0.473877 0.047729 0.000000
0.509766 0.047729 0.000000
0.545410 0.047729 0.000000
0.580078 0.047729 0.000000
0.614258 0.047729 0.000000
0.647949 0.047729 0.000000
0.681152 0.047729 0.000000
0.713867 0.047729 0.000000
0.746094 0.047729 0.000000
0.778320 0.047729 0.000000
0.810059 0.047729 0.000000
0.840820 0.047729 0.000000
0.871582 0.047729 0.000000
0.900391 0.047729 0.000000
0.928711 0.047729 0.000000
0.955566 0.047729 0.000000
0.979492 0.047729 0.000000
1.000000 0.047729 0.000000
0.000000 0.081055 0.000000
0.015549 0.081055 0.000000
0.041962 0.081055 0.000000
0.072693 0.081055 0.000000
0.106079 0.081055 0.000000
0.141235 0.081055 0.000000
0.177490 0.081055 0.000000
0.214478 0.081055 0.000000
0.251709 0.081055 0.000000
0.289063 0.081055 0.000000
0.326904 0.081055 0.000000
0.364746 0.081055 0.000000
0.401611 0.081055 0.000000
0.437744 0.081055 0.000000
0.473877 0.081055 0.000000
0.509766 0.081055 0.000000
0.545410 0.081055 0.000000
0.580078 0.081055 0.000000
0.614258 0.081055 0.000000
0.647949 0.081055 0.000000
0.681152 0.081055 0.000000
0.713867 0.081055 0.000000
0.746094 0.081055 0.000000
0.778320 0.081055 0.000000
0.810059 0.081055 0.000000
0.840820 0.081055 0.000000
0.871582 0.081055 0.000000
0.900391 0.081055 0.000000
0.928711 0.081055 0.000000
0.955566 0.081055 0.000000
0.979492 0.081055 0.000000
1.000000 0.081055 0.000000
0.000000 0.116211 0.000000
0.015549 0.116211 0.000000
0.041962 0.116211 0.000000
0.072693 0.116211 0.000000
0.106079 0.116211 0.000000
0.141235 0.116211 0.000000
0.177490 0.116211 0.000000
0.214478 0.116211 0.000000
0.251709 0.116211 0.000000
0.289063 0.116211 0.000000
0.326904 0.116272 0.000000
0.364746 0.116272 0.000000
0.401611 0.116272 0.000000
0.437744 0.116272 0.000000
0.473877 0.116272 0.000000
0.509766 0.116272 0.000000
0.545410 0.116272 0.000000
0.580078 0.116272 0.000000
0.614258 0.116272 0.000000
0.647949 0.116272 0.000000
0.681152 0.116272 0.000000
0.713867 0.116272 0.000000
0.746094 0.116272 0.000000
0.778320 0.116272 0.000000
0.810059 0.116272 0.000000
0.840820 0.116272 0.000000
0.871582 0.116272 0.000000
0.900391 0.116272 0.000000
0.928711 0.116272 0.000000
0.955566 0.116272 0.000000
0.979492 0.116272 0.000000
1.000000 0.116272 0.000000
0.000000 0.153076 0.000000
0.015549 0.153076 0.000000
0.041962 0.153076 0.000000
0.072693 0.153076 0.000000
0.106079 0.153076 0.000000
0.141235 0.153076 0.000000
0.177490 0.153076 0.000000
0.214478 0.153076 0.000000
0.251709 0.153076 0.000000
0.289063 0.153076 0.000000
0.326904 0.153076 0.000000
0.364746 0.153076 0.000000
0.401611 0.153076 0.000000
0.437744 0.153198 0.000000
0.473877 0.153198 0.000000
0.509766 0.153198 0.000000
0.545410 0.153198 0.000000
0.580078 0.153198 0.000000
0.614258 0.153198 0.000000
0.647949 0.153198 0.000000
0.681152 0.153198 0.000000
0.713867 0.153198 0.000000
0.746094 0.153198 0.000000
0.778320 0.153198 0.000000
0.810059 0.153198 0.000000
0.840820 0.153198 0.000000
0.871582 0.153198 0.000000
0.900391 0.153198 0.000000
0.928711 0.153198 0.000000
0.955566 0.153198 0.000000
0.979492 0.153198 0.000000
1.000000 0.153198 0.000000
0.000000 0.191528 0.000000
0.015549 0.191528 0.000000
0.041962 0.191528 0.000000
0.072693 0.191528 0.000000
0.106079 0.191528 0.000000
0.141235 0.191528 0.000000
0.177490 0.191528 0.000000
0.214478 0.191528 0.000000
0.251709 0.191528 0.000000
0.289063 0.191528 0.000000
0.326904 0.191528 0.000000
0.364746 0.191528 0.000000
0.401611 0.191528 0.000000
0.437744 0.191528 0.000000
0.473877 0.191528 0.000000
0.509766 0.191528 0.000000
0.545410 0.191528 0.000000
0.580078 0.191528 0.000000
0.614258 0.191528 0.000000
0.647949 0.191528 0.000000
0.681152 0.191528 0.000000
0.713867 0.191528 0.000000
0.746094 0.191528 0.000000
0.778320 0.191528 0.000000
0.810059 0.191528 0.000000
0.840820 0.191528 0.000000
0.871582 0.191528 0.000000
0.900391 0.191528 0.000000
0.928711 0.191528 0.000000
0.955566 0.191528 0.000000
0.979492 0.191528 0.000000
1.000000 0.191528 0.000000
0.000000 0.230591 0.000000
0.015549 0.230591 0.000000
0.041962 0.230591 0.000000
0.072693 0.230591 0.000000
0.106079 0.230591 0.000000
0.141235 0.230591 0.000000
0.177490 0.230591 0.000000
0.214478 0.230591 0.000000
0.251709 0.230591 0.000000
0.289063 0.230591 0.000000
0.326904 0.230591 0.000000
0.364746 0.230591 0.000000
0.401611 0.230591 0.000000
0.437744 0.230591 0.000000
0.473877 0.230591 0.000000
0.509766 0.230591 0.000000
0.545410 0.230591 0.000000
0.580078 0.230591 0.000000
0.614258 0.230591 0.000000
0.647949 0.230591 0.000000
0.681152 0.230591 0.000000
0.713867 0.230591 0.000000
0.746094 0.230591 0.000000
0.778320 0.230591 0.000000
0.810059 0.230591 0.000000
0.840820 0.230591 0.000000
0.871582 0.230591 0.000000
0.900391 0.230591 0.000000
0.928711 0.230591 0.000000
0.955566 0.230591 0.000000
0.979492 0.230591 0.000000
1.000000 0.230591 0.000000
0.000000 0.270264 0.000000
0.015549 0.270264 0.000000
0.041962 0.270264 0.000000
0.072693 0.270264 0.000000
0.106079 0.270264 0.000000
0.141235 0.270264 0.000000
0.177490 0.270264 0.000000
0.214478 0.270264 0.000000
0.251709 0.270264 0.000000
0.289063 0.270264 0.000000
0.326904 0.270264 0.000000
0.364746 0.270264 0.000000
0.401611 0.270264 0.000000
0.437744 0.270264 0.000000
0.473877 0.270264 0.000000
0.509766 0.270264 0.000000
0.545410 0.270264 0.000000
0.580078 0.270264 0.000000
0.614258 0.270264 0.000000
0.647949 0.270264 0.000000
0.681152 0.270264 0.000000
0.713867 0.270264 0.000000
0.746094 0.270264 0.000000
0.778320 0.270264 0.000000
0.810059 0.270264 0.000000
0.840820 0.270264 0.000000
0.871582 0.270264 0.000000
0.900391 0.270264 0.000000
0.928711 0.270264 0.000000
0.955566 0.270264 0.000000
0.979492 0.270264 0.000000
1.000000 0.270264 0.000000
0.000000 0.309570 0.000000
0.015549 0.309570 0.000000
0.041962 0.309570 0.000000
0.072693 0.309570 0.000000
0.106079 0.309570 0.000000
0.141235 0.309570 0.000000
0.177490 0.309570 0.000000
0.214478 0.309570 0.000000
0.251709 0.309570 0.000000
0.289063 0.309570 0.000000
0.326904 0.309570 0.000000
0.364746 0.309570 0.000000
0.401611 0.309570 0.000000
0.437744 0.309570 0.000000
0.473877 0.309570 0.000000
0.509766 0.309570 0.000000
0.545410 0.309570 0.000000
0.580078 0.309570 0.000000
0.614258 0.309570 0.000000
0.647949 0.309570 0.000000
0.681152 0.309570 0.000000
0.713867 0.309570 0.000000
0.746094 0.309570 0.000000
0.778320 0.309570 0.000000
0.810059 0.309570 0.000000
0.840820 0.309570 0.000000
0.871582 0.309570 0.000000
0.900391 0.309570 0.000000
0.928711 0.309570 0.000000
0.955566 0.309570 0.000000
0.979492 0.309570 0.000000
1.000000 0.309570 0.000000
0.000000 0.349121 0.000000
0.015549 0.349121 0.000000
0.041962 0.349121 0.000000
0.072693 0.349121 0.000000
0.106079 0.349121 0.000000
0.141235 0.349121 0.000000
0.177490 0.349121 0.000000
0.214478 0.349121 0.000000
0.251709 0.349121 0.000000
0.289063 0.349121 0.000000
0.326904 0.349121 0.000000
0.364746 0.349121 0.000000
0.401611 0.349121 0.000000
0.437744 0.349121 0.000000
0.473877 0.349121 0.000000
0.509766 0.349121 0.000000
0.545410 0.349121 0.000000
0.580078 0.349121 0.000000
0.614258 0.349121 0.000000
0.647949 0.349121 0.000000
0.681152 0.349121 0.000000
0.713867 0.349121 0.000000
0.746094 0.349121 0.000000
0.778320 0.349121 0.000000
0.810059 0.349121 0.000000
0.840820 0.349121 0.000000
0.871582 0.349121 0.000000
0.900391 0.349121 0.000000
0.928711 0.349121 0.000000
0.955566 0.349121 0.000000
0.979492 0.349121 0.000000
1.000000 0.349121 0.000000
0.000000 0.388672 0.000000
0.015549 0.388672 0.000000
0.041962 0.388672 0.000000
0.072693 0.388672 0.000000
0.106079 0.388672 0.000000
0.141235 0.388672 0.000000
0.177490 0.388672 0.000000
0.214478 0.388672 0.000000
0.251709 0.388672 0.000000
0.289063 0.388672 0.000000
0.326904 0.388672 0.000000
0.364746 0.388672 0.000000
0.401611 0.388672 0.000000
0.437744 0.388672 0.000000
0.473877 0.388672 0.000000
0.509766 0.388672 0.000000
0.545410 0.388672 0.000000
0.580078 0.388672 0.000000
0.614258 0.388672 0.000000
0.647949 0.388672 0.000000
0.681152 0.388672 0.000000
0.713867 0.388672 0.000000
0.746094 0.388672 0.000000
0.778320 0.388672 0.000000
0.810059 0.388672 0.000000
0.840820 0.388672 0.000000
0.871582 0.388672 0.000000
0.900391 0.388672 0.000000
0.928711 0.388672 0.000000
0.955566 0.388672 0.000000
0.979492 0.388672 0.000000
1.000000 0.388672 0.000000
0.000000 0.428223 0.000000
0.015549 0.428223 0.000000
0.041962 0.428223 0.000000
0.072693 0.428223 0.000000
0.106079 0.428223 0.000000
0.141235 0.428223 0.000000
0.177490 0.428223 0.000000
0.214478 0.428223 0.000000
0.251709 0.428223 0.000000
0.289063 0.428223 0.000000
0.326904 0.428223 0.000000
0.364746 0.428223 0.000000
0.401611 0.428223 0.000000
0.437744 0.428223 0.000000
0.473877 0.428223 0.000000
0.509766 0.428223 0.000000
0.545410 0.428223 0.000000
0.580078 0.428223 0.000000
0.614258 0.428223 0.000000
0.647949 0.428223 0.000000
0.681152 0.428223 0.000000
0.713867 0.428223 0.000000
0.746094 0.428223 0.000000
0.778320 0.428223 0.000000
0.810059 0.428223 0.000000
0.840820 0.428223 0.000000
0.871582 0.428223 0.000000
0.900391 0.428223 0.000000
0.928711 0.428223 0.000000
0.955566 0.428223 0.000000
0.979492 0.428223 0.000000
1.000000 0.428223 0.000000
0.000000 0.466797 0.000000
0.015549 0.466797 0.000000
0.041962 0.466797 0.000000
0.072693 0.466797 0.000000
0.106079 0.466797 0.000000
0.141235 0.466797 0.000000
0.177490 0.466797 0.000000
0.214478 0.466797 0.000000
0.251709 0.466797 0.000000
0.289063 0.466797 0.000000
0.326904 0.466797 0.000000
0.364746 0.466797 0.000000
0.401611 0.466797 0.000000
0.437744 0.466797 0.000000
0.473877 0.466797 0.000000
0.509766 0.466797 0.000000
0.545410 0.466797 0.000000
0.580078 0.466797 0.000000
0.614258 0.466797 0.000000
0.647949 0.466797 0.000000
0.681152 0.466797 0.000000
0.713867 0.466797 0.000000
0.746094 0.466797 0.000000
0.778320 0.466797 0.000000
0.810059 0.466797 0.000000
0.840820 0.466797 0.000000
0.871582 0.466797 0.000000
0.900391 0.466797 0.000000
0.928711 0.466797 0.000000
0.955566 0.466797 0.000000
0.979492 0.466797 0.000000
1.000000 0.466797 0.000000
0.000000 0.504883 0.000000
0.015549 0.504883 0.000000
0.041962 0.504883 0.000000
0.072693 0.504883 0.000000
0.106079 0.504883 0.000000
0.141235 0.504883 0.000000
0.177490 0.504883 0.000000
0.214478 0.504883 0.000000
0.251709 0.504883 0.000000
0.289063 0.504883 0.000000
0.326904 0.504883 0.000000
0.364746 0.504883 0.000000
0.401611 0.504883 0.000000
0.437744 0.504883 0.000000
0.473877 0.504883 0.000000
0.509766 0.504883 0.000000
0.545410 0.504883 0.000000
0.580078 0.504883 0.000000
0.614258 0.504883 0.000000
0.647949 0.504883 0.000000
0.681152 0.504883 0.000000
0.713867 0.504883 0.000000
0.746094 0.504883 0.000000
0.778320 0.504883 0.000000
0.810059 0.504883 0.000000
0.840820 0.504883 0.000000
0.871582 0.504883 0.000000
0.900391 0.504883 0.000000
0.928711 0.504883 0.000000
0.955566 0.504883 0.000000
0.979492 0.504883 0.000000
1.000000 0.504883 0.000000
0.000000 0.541992 0.000000
0.015549 0.541992 0.000000
0.041962 0.541992 0.000000
0.072693 0.541992 0.000000
0.106079 0.541992 0.000000
0.141235 0.541992 0.000000
0.177490 0.541992 0.000000
0.214478 0.541992 0.000000
0.251709 0.541992 0.000000
0.289063 0.541992 0.000000
0.326904 0.541992 0.000000
0.364746 0.541992 0.000000
0.401611 0.541992 0.000000
0.437744 0.541992 0.000000
0.473877 0.541992 0.000000
0.509766 0.541992 0.000000
0.545410 0.541992 0.000000
0.580078 0.541992 0.000000
0.614258 0.541992 0.000000
0.647949 0.541992 0.000000
0.681152 0.541992 0.000000
0.713867 0.541992 0.000000
0.746094 0.541992 0.000000
0.778320 0.541992 0.000000
0.810059 0.541992 0.000000
0.840820 0.541992 0.000000
0.871582 0.541992 0.000000
0.900391 0.541992 0.000000
0.928711 0.541992 0.000000
0.955566 0.541992 0.000000
0.979492 0.541992 0.000000
1.000000 0.541992 0.000000
0.000000 0.577637 0.000000
0.015549 0.577637 0.000000
0.041962 0.577637 0.000000
0.072693 0.577637 0.000000
0.106079 0.577637 0.000000
0.141235 0.577637 0.000000
0.177490 0.577637 0.000000
0.214478 0.577637 0.000000
0.251709 0.577637 0.000000
0.289063 0.577637 0.000000
0.326904 0.577637 0.000000
0.364746 0.577637 0.000000
0.401611 0.577637 0.000000
0.437744 0.577637 0.000000
0.473877 0.577637 0.000000
0.509766 0.577637 0.000000
0.545410 0.577637 0.000000
0.580078 0.577637 0.000000
0.614258 0.577637 0.000000
0.647949 0.577637 0.000000
0.681152 0.577637 0.000000
0.713867 0.577637 0.000000
0.746094 0.577637 0.000000
0.778320 0.577637 0.000000
0.810059 0.577637 0.000000
0.840820 0.577637 0.000000
0.871582 0.577637 0.000000
0.900391 0.577637 0.000000
0.928711 0.577637 0.000000
0.955566 0.577637 0.000000
0.979492 0.577637 0.000000
1.000000 0.577637 0.000000
0.000000 0.612793 0.000000
0.015549 0.612793 0.000000
0.041962 0.612793 0.000000
0.072693 0.612793 0.000000
0.106079 0.612793 0.000000
0.141235 0.612793 0.000000
0.177490 0.612793 0.000000
0.214478 0.612793 0.000000
0.251709 0.612793 0.000000
0.289063 0.612793 0.000000
0.326904 0.612793 0.000000
0.364746 0.612793 0.000000
0.401611 0.612793 0.000000
0.437744 0.612793 0.000000
0.473877 0.612793 0.000000
0.509766 0.612793 0.000000
0.545410 0.612793 0.000000
0.580078 0.612793 0.000000
0.614258 0.612793 0.000000
0.647949 0.612793 0.000000
0.681152 0.612793 0.000000
0.713867 0.612793 0.000000
0.746094 0.612793 0.000000
0.778320 0.612793 0.000000
0.810059 0.612793 0.000000
0.840820 0.612793 0.000000
0.871582 0.612793 0.000000
0.900391 0.612793 0.000000
0.928711 0.612793 0.000000
0.955566 0.612793 0.000000
0.979492 0.612793 0.000000
1.000000 0.612793 0.000000
0.000000 0.646973 0.000000
0.015549 0.646973 0.000000
0.041962 0.646973 0.000000
0.072693 0.646973 0.000000
0.106079 0.646973 0.000000
0.141235 0.646973 0.000000
0.177490 0.646973 0.000000
0.214478 0.646973 0.000000
0.251709 0.646973 0.000000
0.289063 0.646973 0.000000
0.326904 0.646973 0.000000
0.364746 0.646973 0.000000
0.401611 0.646973 0.000000
0.437744 0.646973 0.000000
0.473877 0.646973 0.000000
0.509766 0.646973 0.000000
0.545410 0.646973 0.000000
0.580078 0.646973 0.000000
0.614258 0.646973 0.000000
0.647949 0.646973 0.000000
0.681152 0.646973 0.000000
0.713867 0.646973 0.000000
0.746094 0.646973 0.000000
0.778320 0.646973 0.000000
0.810059 0.646973 0.000000
0.840820 0.646973 0.000000
0.871582 0.646973 0.000000
0.900391 0.646973 0.000000
0.928711 0.646973 0.000000
0.955566 0.646973 0.000000
0.979492 0.646973 0.000000
1.000000 0.646973 0.000000
0.000000 0.680176 0.000000
0.015549 0.680176 0.000000
0.041962 0.680176 0.000000
0.072693 0.680176 0.000000
0.106079 0.680176 0.000000
0.141235 0.680176 0.000000
0.177490 0.680176 0.000000
0.214478 0.680176 0.000000
0.251709 0.680176 0.000000
0.289063 0.680176 0.000000
0.326904 0.680176 0.000000
0.364746 0.680176 0.000000
0.401611 0.680176 0.000000
0.437744 0.680176 0.000000
0.473877 0.680176 0.000000
0.509766 0.680176 0.000000
0.545410 0.680176 0.000000
0.580078 0.680176 0.000000
0.614258 0.680176 0.000000
0.647949 0.680176 0.000000
0.681152 0.680176 0.000000
0.713867 0.680176 0.000000
0.746094 0.680176 0.000000
0.778320 0.680176 0.000000
0.810059 0.680176 0.000000
0.840820 0.680176 0.000000
0.871582 0.680176 0.000000
0.900391 0.680176 0.000000
0.928711 0.680176 0.000000
0.955566 0.680176 0.000000
0.979492 0.680176 0.000000
1.000000 0.680176 0.000000
0.000000 0.712402 0.000000
0.015549 0.712402 0.000000
0.041962 0.712402 0.000000
0.072693 0.712402 0.000000
0.106079 0.712402 0.000000
0.141235 0.712402 0.000000
0.177490 0.712402 0.000000
0.214478 0.712402 0.000000
0.251709 0.712402 0.000000
0.289063 0.712402 0.000000
0.326904 0.712402 0.000000
0.364746 0.712402 0.000000
0.401611 0.712402 0.000000
0.437744 0.712402 0.000000
0.473877 0.712402 0.000000
0.509766 0.712402 0.000000
0.545410 0.712402 0.000000
0.580078 0.712402 0.000000
0.614258 0.712402 0.000000
0.647949 0.712402 0.000000
0.681152 0.712402 0.000000
0.713867 0.712402 0.000000
0.746094 0.712402 0.000000
0.778320 0.712402 0.000000
0.810059 0.712402 0.000000
0.840820 0.712402 0.000000
0.871582 0.712402 0.000000
0.900391 0.712402 0.000000
0.928711 0.712402 0.000000
0.955566 0.712402 0.000000
0.979492 0.712402 0.000000
1.000000 0.712402 0.000000
0.000000 0.743164 0.000000
0.015549 0.743164 0.000000
0.041962 0.743164 0.000000
0.072693 0.743164 0.000000
0.106079 0.743164 0.000000
0.141235 0.743164 0.000000
0.177490 0.743164 0.000000
0.214478 0.743164 0.000000
0.251709 0.743164 0.000000
0.289063 0.743164 0.000000
0.326904 0.743164 0.000000
0.364746 0.743164 0.000000
0.401611 0.743164 0.000000
0.437744 0.743164 0.000000
0.473877 0.743164 0.000000
0.509766 0.743164 0.000000
0.545410 0.743164 0.000000
0.580078 0.743164 0.000000
0.614258 0.743164 0.000000
0.647949 0.743164 0.000000
0.681152 0.743164 0.000000
0.713867 0.743164 0.000000
0.746094 0.743164 0.000000
0.778320 0.743164 0.000000
0.810059 0.743164 0.000000
0.840820 0.743164 0.000000
0.871582 0.743652 0.000000
0.900391 0.743652 0.000000
0.928711 0.743652 0.000000
0.955566 0.743652 0.000000
0.979492 0.743652 0.000000
1.000000 0.743652 0.000000
0.000000 0.773438 0.000000
0.015549 0.773438 0.000000
0.041962 0.773438 0.000000
0.072693 0.773438 0.000000
0.106079 0.773438 0.000000
0.141235 0.773438 0.000000
0.177490 0.773438 0.000000
0.214478 0.773438 0.000000
0.251709 0.773438 0.000000
0.289063 0.773438 0.000000
0.326904 0.773438 0.000000
0.364746 0.773438 0.000000
0.401611 0.773438 0.000000
0.437744 0.773438 0.000000
0.473877 0.773438 0.000000
0.509766 0.773438 0.000000
0.545410 0.773438 0.000000
0.580078 0.773438 0.000000
0.614258 0.773438 0.000000
0.647949 0.773438 0.000000
0.681152 0.773438 0.000000
0.713867 0.773438 0.000000
0.746094 0.773438 0.000000
0.778320 0.773438 0.000000
0.810059 0.773438 0.000000
0.840820 0.773438 0.000000
0.871582 0.773438 0.000000
0.900391 0.773438 0.000000
0.928711 0.773438 0.000000
0.955566 0.773438 0.000000
0.979492 0.773438 0.000000
1.000000 0.773438 0.000000
0.000000 0.802734 0.000000
0.015549 0.802734 0.000000
0.041962 0.802734 0.000000
0.072693 0.802734 0.000000
0.106079 0.802734 0.000000
0.141235 0.802734 0.000000
0.177490 0.802734 0.000000
0.214478 0.802734 0.000000
0.251709 0.802734 0.000000
0.289063 0.802734 0.000000
0.326904 0.802734 0.000000
0.364746 0.802734 0.000000
0.401611 0.802734 0.000000
0.437744 0.802734 0.000000
0.473877 0.802734 0.000000
0.509766 0.802734 0.000000
0.545410 0.802734 0.000000
0.580078 0.802734 0.000000
0.614258 0.802734 0.000000
0.647949 0.802734 0.000000
0.681152 0.802734 0.000000
0.713867 0.802734 0.000000
0.746094 0.802734 0.000000
0.778320 0.802734 0.000000
0.810059 0.802734 0.000000
0.840820 0.802734 0.000000
0.871582 0.802734 0.000000
0.900391 0.802734 0.000000
0.928711 0.802734 0.000000
0.955566 0.802734 0.000000
0.979492 0.802734 0.000000
1.000000 0.802734 0.000000
0.000000 0.831543 0.000000
0.015549 0.831543 0.000000
0.041962 0.831543 0.000000
0.072693 0.831543 0.000000
0.106079 0.831543 0.000000
0.141235 0.831543 0.000000
0.177490 0.831543 0.000000
0.214478 0.831543 0.000000
0.251709 0.831543 0.000000
0.289063 0.831543 0.000000
0.326904 0.831543 0.000000
0.364746 0.831543 0.000000
0.401611 0.831543 0.000000
0.437744 0.831543 0.000000
0.473877 0.831543 0.000000
0.509766 0.831543 0.000000
0.545410 0.831543 0.000000
0.580078 0.831543 0.000000
0.614258 0.831543 0.000000
0.647949 0.831543 0.000000
0.681152 0.831543 0.000000
0.713867 0.831543 0.000000
0.746094 0.831543 0.000000
0.778320 0.831543 0.000000
0.810059 0.831543 0.000000
0.840820 0.831543 0.000000
0.871582 0.831543 0.000000
0.900391 0.831543 0.000000
0.928711 0.831543 0.000000
0.955566 0.831543 0.000000
0.979492 0.831543 0.000000
1.000000 0.831543 0.000000
0.000000 0.859375 0.000000
0.015549 0.859375 0.000000
0.041962 0.859375 0.000000
0.072693 0.859375 0.000000
0.106079 0.859375 0.000000
0.141235 0.859375 0.000000
0.177490 0.859375 0.000000
0.214478 0.859375 0.000000
0.251709 0.859375 0.000000
0.289063 0.859375 0.000000
0.326904 0.859375 0.000000
0.364746 0.859375 0.000000
0.401611 0.859375 0.000000
0.437744 0.859375 0.000000
0.473877 0.859375 0.000000
0.509766 0.859375 0.000000
0.545410 0.859375 0.000000
0.580078 0.859375 0.000000
0.614258 0.859375 0.000000
0.647949 0.859375 0.000000
0.681152 0.859375 0.000000
0.713867 0.859375 0.000000
0.746094 0.859375 0.000000
0.778320 0.859375 0.000000
0.810059 0.859375 0.000000
0.840820 0.859375 0.000000
0.871582 0.859375 0.000000
0.900391 0.859375 0.000000
0.928711 0.859375 0.000000
0.955566 0.859375 0.000000
0.979492 0.859375 0.000000
1.000000 0.859375 0.000000
0.000000 0.886230 0.000000
0.015549 0.886230 0.000000
0.041962 0.886230 0.000000
0.072693 0.886230 0.000000
0.106079 0.886230 0.000000
0.141235 0.886230 0.000000
0.177490 0.886230 0.000000
0.214478 0.886230 0.000000
0.251709 0.886230 0.000000
0.289063 0.886230 0.000000
0.326904 0.886230 0.000000
0.364746 0.886230 0.000000
0.401611 0.886230 0.000000
0.437744 0.886230 0.000000
0.473877 0.886230 0.000000
0.509766 0.886230 0.000000
0.545410 0.886230 0.000000
0.580078 0.886230 0.000000
0.614258 0.886230 0.000000
0.647949 0.886230 0.000000
0.681152 0.886230 0.000000
0.713867 0.886230 0.000000
0.746094 0.886230 0.000000
0.778320 0.886230 0.000000
0.810059 0.886230 0.000000
0.840820 0.886230 0.000000
0.871582 0.886230 0.000000
0.900391 0.886230 0.000000
0.928711 0.886230 0.000000
0.955566 0.886230 0.000000
0.979492 0.886230 0.000000
1.000000 0.886230 0.000000
0.000000 0.912109 0.000000
0.015549 0.912109 0.000000
0.041962 0.912109 0.000000
0.072693 0.912109 0.000000
0.106079 0.912109 0.000000
0.141235 0.912109 0.000000
0.177490 0.912109 0.000000
0.214478 0.912109 0.000000
0.251709 0.912109 0.000000
0.289063 0.912109 0.000000
0.326904 0.912109 0.000000
0.364746 0.912109 0.000000
0.401611 0.912109 0.000000
0.437744 0.912109 0.000000
0.473877 0.912109 0.000000
0.509766 0.912109 0.000000
0.545410 0.912109 0.000000
0.580078 0.912109 0.000000
0.614258 0.912109 0.000000
0.647949 0.912109 0.000000
0.681152 0.912109 0.000000
0.713867 0.912109 0.000000
0.746094 0.912109 0.000000
