cubelut/Adanmq_Canon DSC S315 n6.cube
TITLE "Generated by Foundry::LUT"
LUT_3D_SIZE 8
DOMAIN_MIN 0.000000 0.000000 0.000000
DOMAIN_MAX 0.903226 0.903226 0.903226
0.000000 0.000000 0.000000
0.137329 0.000000 0.000000
0.363037 0.000000 0.000000
0.561523 0.000000 0.000000
0.700684 0.000000 0.000000
0.803223 0.000000 0.000000
0.885742 0.000000 0.000000
0.954590 0.000000 0.000000
0.000000 0.090027 0.000000
0.137329 0.090027 0.000000
0.363037 0.090027 0.000000
0.561523 0.090027 0.000000
0.700684 0.090088 0.000000
0.803223 0.090088 0.000000
0.885742 0.090088 0.000000
0.954590 0.090088 0.000000
0.000000 0.313965 0.000000
0.137329 0.313965 0.000000
0.363037 0.314209 0.000000
0.561523 0.314209 0.000000
0.700684 0.314209 0.000000
0.803223 0.314209 0.000000
0.885742 0.314209 0.000000
0.954590 0.314209 0.000000
0.000000 0.517578 0.000000
0.137329 0.517578 0.000000
0.363037 0.517578 0.000000
0.561523 0.517578 0.000000
0.700684 0.517578 0.000000
0.803223 0.517578 0.000000
0.885742 0.517578 0.000000
0.954590 0.517578 0.000000
0.000000 0.670898 0.000000
0.137329 0.670898 0.000000
0.363037 0.670898 0.000000
0.561523 0.670898 0.000000
0.700684 0.670898 0.000000
0.803223 0.670898 0.000000
0.885742 0.670898 0.000000
0.954590 0.670898 0.000000
0.000000 0.785156 0.000000
0.137329 0.785156 0.000000
0.363037 0.785156 0.000000
0.561523 0.785156 0.000000
0.700684 0.785156 0.000000
0.803223 0.785156 0.000000
0.885742 0.785156 0.000000
0.954590 0.785156 0.000000
0.000000 0.875977 0.000000
0.137329 0.875977 0.000000
0.363037 0.875977 0.000000
0.561523 0.875977 0.000000
0.700684 0.875977 0.000000
0.803223 0.875977 0.000000
0.885742 0.875977 0.000000
0.954590 0.875977 0.000000
0.000000 0.950684 0.000000
0.137329 0.950684 0.000000
0.363037 0.950684 0.000000
0.561523 0.950684 0.000000
0.700684 0.950684 0.000000
0.803223 0.950684 0.000000
0.885742 0.950684 0.000000
0.954590 0.950684 0.000000
0.000000 0.000000 0.004902
0.137329 0.000000 0.004902
0.363037 0.000000 0.004902
0.561523 0.000000 0.004902
0.700684 0.000000 0.004902
0.803223 0.000000 0.004902
0.885742 0.000000 0.004902
0.954590 0.000000 0.004902
0.000000 0.090027 0.004902
0.137329 0.090027 0.004902
0.363037 0.090027 0.004902
0.561523 0.090027 0.004902
0.700684 0.090027 0.004902
0.803223 0.090088 0.004902
0.885742 0.090088 0.004902
0.954590 0.090088 0.004902
0.000000 0.313965 0.004902
0.137329 0.313965 0.004902
0.363037 0.313965 0.004902
0.561523 0.314209 0.004902
0.700684 0.314209 0.004902
0.803223 0.314209 0.004902
0.885742 0.314209 0.004902
0.954590 0.314209 0.004902
0.000000 0.517578 0.004902
0.137329 0.517578 0.004902
0.363037 0.517578 0.004902
0.561523 0.517578 0.004902
0.700684 0.517578 0.004902
0.803223 0.517578 0.004902
0.885742 0.517578 0.004902
0.954590 0.517578 0.004902
0.000000 0.670898 0.004902
0.137329 0.670898 0.004902
0.363037 0.670898 0.004902
0.561523 0.670898 0.004902
0.700684 0.670898 0.004902
0.803223 0.670898 0.004902
0.885742 0.670898 0.004902
0.954590 0.670898 0.004902
0.000000 0.785156 0.004902
0.137329 0.785156 0.004902
0.363037 0.785156 0.004902
0.561523 0.785156 0.004902
0.700684 0.785156 0.004902
0.803223 0.785156 0.004902
0.885742 0.785156 0.004902
0.954590 0.785156 0.004902
0.000000 0.875977 0.004902
0.137329 0.875977 0.004902
0.363037 0.875977 0.004902
0.561523 0.875977 0.004902
0.700684 0.875977 0.004902
0.803223 0.875977 0.004902
0.885742 0.875977 0.004902
0.954590 0.875977 0.004902
0.000000 0.950684 0.004902
0.137329 0.950684 0.004902
0.363037 0.950684 0.004902
0.561523 0.950684 0.004902
0.700684 0.950684 0.004902
0.803223 0.950684 0.004902
0.885742 0.950684 0.004902
0.954590 0.950684 0.004902
0.000000 0.000000 0.190063
0.137451 0.000000 0.190063
0.363281 0.000000 0.190063
0.561523 0.000000 0.190063
0.700684 0.000000 0.190063
0.803223 0.000000 0.190063
0.885742 0.000000 0.190063
0.954590 0.000000 0.190063
0.000000 0.090027 0.190063
0.137451 0.090027 0.190063
0.363281 0.090027 0.190063
0.561523 0.090027 0.190063
0.700684 0.090027 0.190063
0.803223 0.090027 0.190063
0.885742 0.090088 0.190063
0.954590 0.090088 0.190063
0.000000 0.313965 0.190063
0.137451 0.313965 0.190063
0.363281 0.313965 0.190063
0.561523 0.313965 0.190063
0.700684 0.314209 0.190063
0.803223 0.314209 0.190063
0.885742 0.314209 0.190063
0.954590 0.314209 0.190063
0.000000 0.517578 0.190063
0.137451 0.517578 0.190063
0.363281 0.517578 0.190063
0.561523 0.517578 0.190063
0.700684 0.517578 0.190063
0.803223 0.517578 0.190063
0.885742 0.517578 0.190063
0.954590 0.517578 0.190063
0.000000 0.670898 0.190063
0.137451 0.670898 0.190063
0.363281 0.670898 0.190063
0.561523 0.670898 0.190063
0.700684 0.670898 0.190063
0.803223 0.670898 0.190063
0.885742 0.670898 0.190063
0.954590 0.670898 0.190063
0.000000 0.785156 0.190063
0.137451 0.785156 0.190063
0.363281 0.785156 0.190063
0.561523 0.785156 0.190063
0.700684 0.785156 0.190063
0.803223 0.785156 0.190063
0.885742 0.785156 0.190063
0.954590 0.785156 0.190063
0.000000 0.875977 0.190063
0.137451 0.875977 0.190063
0.363281 0.875977 0.190063
0.561523 0.875977 0.190063
0.700684 0.875977 0.190063
0.803223 0.875977 0.190063
0.885742 0.875977 0.190063
0.954590 0.875977 0.190063
0.000000 0.950684 0.190063
0.137451 0.950684 0.190063
0.363281 0.950684 0.190063
0.561523 0.950684 0.190063
0.700684 0.950684 0.190063
0.803223 0.950684 0.190063
0.885742 0.950684 0.190063
0.954590 0.950684 0.190063
0.000000 0.000000 0.438232
0.137451 0.000000 0.438232
0.363281 0.000000 0.438232
0.561523 0.000000 0.438232
0.700684 0.000000 0.438232
0.803711 0.000000 0.438232
0.885742 0.000000 0.438232
0.954590 0.000000 0.438232
0.000000 0.090027 0.438232
0.137451 0.090027 0.438232
0.363281 0.090027 0.438232
0.561523 0.090027 0.438232
0.700684 0.090027 0.438232
0.803711 0.090027 0.438232
0.885742 0.090027 0.438232
0.954590 0.090088 0.438232
0.000000 0.313965 0.438232
0.137451 0.313965 0.438232
0.363281 0.313965 0.438232
0.561523 0.313965 0.438232
0.700684 0.313965 0.438232
0.803711 0.314209 0.438232
0.885742 0.314209 0.438232
0.954590 0.314209 0.438232
0.000000 0.517578 0.438232
0.137451 0.517578 0.438232
0.363281 0.517578 0.438232
0.561523 0.517578 0.438232
0.700684 0.517578 0.438232
0.803711 0.517578 0.438232
0.885742 0.517578 0.438232
0.954590 0.517578 0.438232
0.000000 0.670898 0.438232
0.137451 0.670898 0.438232
0.363281 0.670898 0.438232
0.561523 0.670898 0.438232
0.700684 0.670898 0.438232
0.803711 0.670898 0.438232
0.885742 0.670898 0.438232
0.954590 0.670898 0.438232
0.000000 0.785156 0.438232
0.137451 0.785156 0.438232
0.363281 0.785156 0.438232
0.561523 0.785156 0.438232
0.700684 0.785156 0.438232
0.803711 0.785156 0.438232
0.885742 0.785156 0.438232
0.954590 0.785156 0.438232
0.000000 0.875977 0.438232
0.137451 0.875977 0.438232
0.363281 0.875977 0.438232
0.561523 0.875977 0.438232
0.700684 0.875977 0.438232
0.803711 0.875977 0.438232
0.885742 0.875977 0.438232
0.954590 0.875977 0.438232
0.000000 0.950684 0.438232
0.137451 0.950684 0.438232
0.363281 0.950684 0.438232
0.561523 0.950684 0.438232
0.700684 0.950684 0.438232
0.803711 0.950684 0.438232
0.885742 0.950684 0.438232
0.954590 0.950684 0.438232
0.000000 0.000000 0.635742
0.137451 0.000000 0.635742
0.363281 0.000000 0.635742
0.561523 0.000000 0.635742
0.700684 0.000000 0.635742
0.803711 0.000000 0.635742
0.885742 0.000000 0.635742
0.954590 0.000000 0.635742
0.000000 0.090027 0.635742
0.137451 0.090027 0.635742
0.363281 0.090027 0.635742
0.561523 0.090027 0.635742
0.700684 0.090027 0.635742
0.803711 0.090027 0.635742
0.885742 0.090027 0.635742
0.954590 0.090027 0.635742
0.000000 0.313965 0.635742
0.137451 0.313965 0.635742
0.363281 0.313965 0.635742
0.561523 0.313965 0.635742
0.700684 0.313965 0.635742
0.803711 0.313965 0.635742
0.885742 0.314209 0.635742
0.954590 0.314209 0.635742
0.000000 0.517578 0.635742
0.137451 0.517578 0.635742
0.363281 0.517578 0.635742
0.561523 0.517578 0.635742
0.700684 0.517578 0.635742
0.803711 0.517578 0.635742
0.885742 0.517578 0.635742
0.954590 0.517578 0.635742
0.000000 0.670898 0.635742
0.137451 0.670898 0.635742
0.363281 0.670898 0.635742
0.561523 0.670898 0.635742
0.700684 0.670898 0.635742
0.803711 0.670898 0.635742
0.885742 0.670898 0.635742
0.954590 0.670898 0.635742
0.000000 0.785156 0.635742
0.137451 0.785156 0.635742
0.363281 0.785156 0.635742
0.561523 0.785156 0.635742
0.700684 0.785156 0.635742
0.803711 0.785156 0.635742
0.885742 0.785156 0.635742
0.954590 0.785156 0.635742
0.000000 0.875977 0.635742
0.137451 0.875977 0.635742
0.363281 0.875977 0.635742
0.561523 0.875977 0.635742
0.700684 0.875977 0.635742
0.803711 0.875977 0.635742
0.885742 0.875977 0.635742
0.954590 0.875977 0.635742
0.000000 0.950684 0.635742
0.137451 0.950684 0.635742
0.363281 0.950684 0.635742
0.561523 0.950684 0.635742
0.700684 0.950684 0.635742
0.803711 0.950684 0.635742
0.885742 0.950684 0.635742
0.954590 0.950684 0.635742
0.000000 0.000000 0.770508
0.137573 0.000000 0.770508
0.363281 0.000000 0.770508
0.561523 0.000000 0.770508
0.700684 0.000000 0.770508
0.803711 0.000000 0.770508
0.885742 0.000000 0.770508
0.954590 0.000000 0.770508
0.000000 0.090027 0.770508
0.137573 0.090027 0.770508
0.363281 0.090027 0.770508
0.561523 0.090027 0.770508
0.700684 0.090027 0.770508
0.803711 0.090027 0.770508
0.885742 0.090027 0.770508
0.954590 0.090027 0.770508
0.000000 0.313965 0.770508
0.137573 0.313965 0.770508
0.363281 0.313965 0.770508
0.561523 0.313965 0.770508
0.700684 0.313965 0.770508
0.803711 0.313965 0.770508
0.885742 0.313965 0.770508
0.954590 0.314209 0.770508
0.000000 0.517578 0.770508
0.137573 0.517578 0.770508
0.363281 0.517578 0.770508
0.561523 0.517578 0.770508
0.700684 0.517578 0.770508
0.803711 0.517578 0.770508
0.885742 0.517578 0.770508
0.954590 0.517578 0.770508
0.000000 0.670898 0.770508
0.137573 0.670898 0.770508
0.363281 0.670898 0.770508
0.561523 0.670898 0.770508
0.700684 0.670898 0.770508
0.803711 0.670898 0.770508
0.885742 0.670898 0.770508
0.954590 0.670898 0.770508
0.000000 0.785156 0.770508
0.137573 0.785156 0.770508
0.363281 0.785156 0.770508
0.561523 0.785156 0.770508
0.700684 0.785156 0.770508
0.803711 0.785156 0.770508
0.885742 0.785156 0.770508
0.954590 0.785156 0.770508
0.000000 0.875977 0.770508
0.137573 0.875977 0.770508
0.363281 0.875977 0.770508
0.561523 0.875977 0.770508
0.700684 0.875977 0.770508
0.803711 0.875977 0.770508
0.885742 0.875977 0.770508
0.954590 0.875977 0.770508
0.000000 0.950684 0.770508
0.137573 0.950684 0.770508
0.363281 0.950684 0.770508
0.561523 0.950684 0.770508
0.700684 0.950684 0.770508
0.803711 0.950684 0.770508
0.885742 0.950684 0.770508
0.954590 0.950684 0.770508
0.000000 0.000000 0.870117
0.137573 0.000000 0.870117
0.363281 0.000000 0.870117
0.561523 0.000000 0.870117
0.700684 0.000000 0.870117
0.803711 0.000000 0.870117
0.885742 0.000000 0.870117
0.954590 0.000000 0.870117
0.000000 0.090027 0.870117
0.137573 0.090027 0.870117
0.363281 0.090027 0.870117
0.561523 0.090027 0.870117
0.700684 0.090027 0.870117
0.803711 0.090027 0.870117
0.885742 0.090027 0.870117
0.954590 0.090027 0.870117
0.000000 0.313965 0.870117
0.137573 0.313965 0.870117
0.363281 0.313965 0.870117
0.561523 0.313965 0.870117
0.700684 0.313965 0.870117
0.803711 0.313965 0.870117
0.885742 0.313965 0.870117
0.954590 0.313965 0.870117
0.000000 0.517578 0.870117
0.137573 0.517578 0.870117
0.363281 0.517578 0.870117
0.561523 0.517578 0.870117
0.700684 0.517578 0.870117
0.803711 0.517578 0.870117
0.885742 0.517578 0.870117
0.954590 0.517578 0.870117
0.000000 0.670898 0.870117
0.137573 0.670898 0.870117
0.363281 0.670898 0.870117
0.561523 0.670898 0.870117
0.700684 0.670898 0.870117
0.803711 0.670898 0.870117
0.885742 0.670898 0.870117
0.954590 0.670898 0.870117
0.000000 0.785156 0.870117
0.137573 0.785156 0.870117
0.363281 0.785156 0.870117
0.561523 0.785156 0.870117
0.700684 0.785156 0.870117
0.803711 0.785156 0.870117
0.885742 0.785156 0.870117
0.954590 0.785156 0.870117
0.000000 0.875977 0.870117
0.137573 0.875977 0.870117
0.363281 0.875977 0.870117
0.561523 0.875977 0.870117
0.700684 0.875977 0.870117
0.803711 0.875977 0.870117
0.885742 0.875977 0.870117
0.954590 0.875977 0.870117
0.000000 0.950684 0.870117
0.137573 0.950684 0.870117
0.363281 0.950684 0.870117
0.561523 0.950684 0.870117
0.700684 0.950684 0.870117
0.803711 0.950684 0.870117
0.885742 0.950684 0.870117
0.954590 0.950684 0.870117
0.000000 0.000000 0.949219
0.137573 0.000000 0.949219
0.363281 0.000000 0.949219
0.561523 0.000000 0.949219
0.700684 0.000000 0.949219
0.803711 0.000000 0.949219
0.885742 0.000000 0.949219
0.954590 0.000000 0.949219
0.000000 0.090027 0.949219
0.137573 0.090027 0.949219
0.363281 0.090027 0.949219
0.561523 0.090027 0.949219
0.700684 0.090027 0.949219
0.803711 0.090027 0.949219
0.885742 0.090027 0.949219
0.954590 0.090027 0.949219
0.000000 0.313965 0.949219
0.137573 0.313965 0.949219
0.363281 0.313965 0.949219
0.561523 0.313965 0.949219
0.700684 0.313965 0.949219
0.803711 0.313965 0.949219
0.885742 0.313965 0.949219
0.954590 0.313965 0.949219
0.000000 0.517578 0.949219
0.137573 0.517578 0.949219
0.363281 0.517578 0.949219
0.561523 0.517578 0.949219
0.700684 0.517578 0.949219
0.803711 0.517578 0.949219
0.885742 0.517578 0.949219
0.954590 0.517578 0.949219
0.000000 0.670898 0.949219
0.137573 0.670898 0.949219
0.363281 0.670898 0.949219
0.561523 0.670898 0.949219
0.700684 0.670898 0.949219
0.803711 0.670898 0.949219
0.885742 0.670898 0.949219
0.954590 0.670898 0.949219
0.000000 0.785156 0.949219
0.137573 0.785156 0.949219
0.363281 0.785156 0.949219
0.561523 0.785156 0.949219
0.700684 0.785156 0.949219
0.803711 0.785156 0.949219
0.885742 0.785156 0.949219
0.954590 0.785156 0.949219
0.000000 0.875977 0.949219
0.137573 0.875977 0.949219
0.363281 0.875977 0.949219
0.561523 0.875977 0.949219
0.700684 0.875977 0.949219
0.803711 0.875977 0.949219
0.885742 0.875977 0.949219
0.954590 0.875977 0.949219
0.000000 0.950684 0.949219
0.137573 0.950684 0.949219
0.363281 0.950684 0.949219
0.561523 0.950684 0.949219
0.700684 0.950684 0.949219
0.803711 0.950684 0.949219
0.885742 0.950684 0.949219
0.954590 0.950684 0.949219
