cubelut/Adanmq_AgfaColor Optima II 100.cube
TITLE "Generated by Foundry::LUT"
LUT_3D_SIZE 8
DOMAIN_MIN 0.000000 0.000000 0.000000
DOMAIN_MAX 0.903226 0.903226 0.903226
0.000000 0.000000 0.000000
0.106079 0.000000 0.000000
0.251709 0.000000 0.000000
0.401611 0.000000 0.000000
0.545410 0.000000 0.000000
0.681152 0.000000 0.000000
0.810059 0.000000 0.000000
0.928711 0.000000 0.000000
0.000000 0.116211 0.000000
0.106079 0.116211 0.000000
0.251709 0.116211 0.000000
0.401611 0.116272 0.000000
0.545410 0.116272 0.000000
0.681152 0.116272 0.000000
0.810059 0.116272 0.000000
0.928711 0.116272 0.000000
0.000000 0.270264 0.000000
0.106079 0.270264 0.000000
0.251709 0.270264 0.000000
0.401611 0.270264 0.000000
0.545410 0.270264 0.000000
0.681152 0.270264 0.000000
0.810059 0.270264 0.000000
0.928711 0.270264 0.000000
0.000000 0.428223 0.000000
0.106079 0.428223 0.000000
0.251709 0.428223 0.000000
0.401611 0.428223 0.000000
0.545410 0.428223 0.000000
0.681152 0.428223 0.000000
0.810059 0.428223 0.000000
0.928711 0.428223 0.000000
0.000000 0.577637 0.000000
0.106079 0.577637 0.000000
0.251709 0.577637 0.000000
0.401611 0.577637 0.000000
0.545410 0.577637 0.000000
0.681152 0.577637 0.000000
0.810059 0.577637 0.000000
0.928711 0.577637 0.000000
0.000000 0.712402 0.000000
0.106079 0.712402 0.000000
0.251709 0.712402 0.000000
0.401611 0.712402 0.000000
0.545410 0.712402 0.000000
0.681152 0.712402 0.000000
0.810059 0.712402 0.000000
0.928711 0.712402 0.000000
0.000000 0.831543 0.000000
0.106079 0.831543 0.000000
0.251709 0.831543 0.000000
0.401611 0.831543 0.000000
0.545410 0.831543 0.000000
0.681152 0.831543 0.000000
0.810059 0.831543 0.000000
0.928711 0.831543 0.000000
0.000000 0.936523 0.000000
0.106079 0.936523 0.000000
0.251709 0.936523 0.000000
0.401611 0.936523 0.000000
0.545410 0.936523 0.000000
0.681152 0.936523 0.000000
0.810059 0.936523 0.000000
0.928711 0.936523 0.000000
0.000000 0.000000 0.081360
0.106140 0.000000 0.081360
0.251709 0.000000 0.081360
0.401611 0.000000 0.081360
0.545410 0.000000 0.081360
0.681152 0.000000 0.081360
0.810059 0.000000 0.081360
0.928711 0.000000 0.081360
0.000000 0.116211 0.081360
0.106140 0.116211 0.081360
0.251709 0.116211 0.081360
0.401611 0.116211 0.081360
0.545410 0.116272 0.081360
0.681152 0.116272 0.081360
0.810059 0.116272 0.081360
0.928711 0.116272 0.081360
0.000000 0.270264 0.081360
0.106140 0.270264 0.081360
0.251709 0.270264 0.081360
0.401611 0.270264 0.081360
0.545410 0.270264 0.081360
0.681152 0.270264 0.081360
0.810059 0.270264 0.081360
0.928711 0.270264 0.081360
0.000000 0.428223 0.081360
0.106140 0.428223 0.081360
0.251709 0.428223 0.081360
0.401611 0.428223 0.081360
0.545410 0.428223 0.081360
0.681152 0.428223 0.081360
0.810059 0.428223 0.081360
0.928711 0.428223 0.081360
0.000000 0.577637 0.081360
0.106140 0.577637 0.081360
0.251709 0.577637 0.081360
0.401611 0.577637 0.081360
0.545410 0.577637 0.081360
0.681152 0.577637 0.081360
0.810059 0.577637 0.081360
0.928711 0.577637 0.081360
0.000000 0.712402 0.081360
0.106140 0.712402 0.081360
0.251709 0.712402 0.081360
0.401611 0.712402 0.081360
0.545410 0.712402 0.081360
0.681152 0.712402 0.081360
0.810059 0.712402 0.081360
0.928711 0.712402 0.081360
0.000000 0.831543 0.081360
0.106140 0.831543 0.081360
0.251709 0.831543 0.081360
0.401611 0.831543 0.081360
0.545410 0.831543 0.081360
0.681152 0.831543 0.081360
0.810059 0.831543 0.081360
0.928711 0.831543 0.081360
0.000000 0.936523 0.081360
0.106140 0.936523 0.081360
0.251709 0.936523 0.081360
0.401611 0.936523 0.081360
0.545410 0.936523 0.081360
0.681152 0.936523 0.081360
0.810059 0.936523 0.081360
0.928711 0.936523 0.081360
0.000000 0.000000 0.213623
0.106140 0.000000 0.213623
0.251709 0.000000 0.213623
0.401611 0.000000 0.213623
0.545410 0.000000 0.213623
0.681152 0.000000 0.213623
0.810059 0.000000 0.213623
0.928711 0.000000 0.213623
0.000000 0.116211 0.213623
0.106140 0.116211 0.213623
0.251709 0.116211 0.213623
0.401611 0.116211 0.213623
0.545410 0.116211 0.213623
0.681152 0.116272 0.213623
0.810059 0.116272 0.213623
0.928711 0.116272 0.213623
0.000000 0.270264 0.213623
0.106140 0.270264 0.213623
0.251709 0.270264 0.213623
0.401611 0.270264 0.213623
0.545410 0.270264 0.213623
0.681152 0.270264 0.213623
0.810059 0.270264 0.213623
0.928711 0.270264 0.213623
0.000000 0.428223 0.213623
0.106140 0.428223 0.213623
0.251709 0.428223 0.213623
0.401611 0.428223 0.213623
0.545410 0.428223 0.213623
0.681152 0.428223 0.213623
0.810059 0.428223 0.213623
0.928711 0.428223 0.213623
0.000000 0.577637 0.213623
0.106140 0.577637 0.213623
0.251709 0.577637 0.213623
0.401611 0.577637 0.213623
0.545410 0.577637 0.213623
0.681152 0.577637 0.213623
0.810059 0.577637 0.213623
0.928711 0.577637 0.213623
0.000000 0.712402 0.213623
0.106140 0.712402 0.213623
0.251709 0.712402 0.213623
0.401611 0.712402 0.213623
0.545410 0.712402 0.213623
0.681152 0.712402 0.213623
0.810059 0.712402 0.213623
0.928711 0.712402 0.213623
0.000000 0.831543 0.213623
0.106140 0.831543 0.213623
0.251709 0.831543 0.213623
0.401611 0.831543 0.213623
0.545410 0.831543 0.213623
0.681152 0.831543 0.213623
0.810059 0.831543 0.213623
0.928711 0.831543 0.213623
0.000000 0.936523 0.213623
0.106140 0.936523 0.213623
0.251709 0.936523 0.213623
0.401611 0.936523 0.213623
0.545410 0.936523 0.213623
0.681152 0.936523 0.213623
0.810059 0.936523 0.213623
0.928711 0.936523 0.213623
0.000000 0.000000 0.356934
0.106140 0.000000 0.356934
0.251709 0.000000 0.356934
0.401611 0.000000 0.356934
0.545410 0.000000 0.356934
0.681152 0.000000 0.356934
0.810059 0.000000 0.356934
0.928711 0.000000 0.356934
0.000000 0.116211 0.356934
0.106140 0.116211 0.356934
0.251709 0.116211 0.356934
0.401611 0.116211 0.356934
0.545410 0.116211 0.356934
0.681152 0.116211 0.356934
0.810059 0.116272 0.356934
0.928711 0.116272 0.356934
0.000000 0.270264 0.356934
0.106140 0.270264 0.356934
0.251709 0.270264 0.356934
0.401611 0.270264 0.356934
0.545410 0.270264 0.356934
0.681152 0.270264 0.356934
0.810059 0.270264 0.356934
0.928711 0.270264 0.356934
0.000000 0.428223 0.356934
0.106140 0.428223 0.356934
0.251709 0.428223 0.356934
0.401611 0.428223 0.356934
0.545410 0.428223 0.356934
0.681152 0.428223 0.356934
0.810059 0.428223 0.356934
0.928711 0.428223 0.356934
0.000000 0.577637 0.356934
0.106140 0.577637 0.356934
0.251709 0.577637 0.356934
0.401611 0.577637 0.356934
0.545410 0.577637 0.356934
0.681152 0.577637 0.356934
0.810059 0.577637 0.356934
0.928711 0.577637 0.356934
0.000000 0.712402 0.356934
0.106140 0.712402 0.356934
0.251709 0.712402 0.356934
0.401611 0.712402 0.356934
0.545410 0.712402 0.356934
0.681152 0.712402 0.356934
0.810059 0.712402 0.356934
0.928711 0.712402 0.356934
0.000000 0.831543 0.356934
0.106140 0.831543 0.356934
0.251709 0.831543 0.356934
0.401611 0.831543 0.356934
0.545410 0.831543 0.356934
0.681152 0.831543 0.356934
0.810059 0.831543 0.356934
0.928711 0.831543 0.356934
0.000000 0.936523 0.356934
0.106140 0.936523 0.356934
0.251709 0.936523 0.356934
0.401611 0.936523 0.356934
0.545410 0.936523 0.356934
0.681152 0.936523 0.356934
0.810059 0.936523 0.356934
0.928711 0.936523 0.356934
0.000000 0.000000 0.499268
0.106201 0.000000 0.499268
0.251953 0.000000 0.499268
0.401611 0.000000 0.499268
0.545410 0.000000 0.499268
0.681152 0.000000 0.499268
0.810059 0.000000 0.499268
0.928711 0.000000 0.499268
0.000000 0.116211 0.499268
0.106201 0.116211 0.499268
0.251953 0.116211 0.499268
0.401611 0.116211 0.499268
0.545410 0.116211 0.499268
0.681152 0.116211 0.499268
0.810059 0.116211 0.499268
0.928711 0.116272 0.499268
0.000000 0.270264 0.499268
0.106201 0.270264 0.499268
0.251953 0.270264 0.499268
0.401611 0.270264 0.499268
0.545410 0.270264 0.499268
0.681152 0.270264 0.499268
0.810059 0.270264 0.499268
0.928711 0.270264 0.499268
0.000000 0.428223 0.499268
0.106201 0.428223 0.499268
0.251953 0.428223 0.499268
0.401611 0.428223 0.499268
0.545410 0.428223 0.499268
0.681152 0.428223 0.499268
0.810059 0.428223 0.499268
0.928711 0.428223 0.499268
0.000000 0.577637 0.499268
0.106201 0.577637 0.499268
0.251953 0.577637 0.499268
0.401611 0.577637 0.499268
0.545410 0.577637 0.499268
0.681152 0.577637 0.499268
0.810059 0.577637 0.499268
0.928711 0.577637 0.499268
0.000000 0.712402 0.499268
0.106201 0.712402 0.499268
0.251953 0.712402 0.499268
0.401611 0.712402 0.499268
0.545410 0.712402 0.499268
0.681152 0.712402 0.499268
0.810059 0.712402 0.499268
0.928711 0.712402 0.499268
0.000000 0.831543 0.499268
0.106201 0.831543 0.499268
0.251953 0.831543 0.499268
0.401611 0.831543 0.499268
0.545410 0.831543 0.499268
0.681152 0.831543 0.499268
0.810059 0.831543 0.499268
0.928711 0.831543 0.499268
0.000000 0.936523 0.499268
0.106201 0.936523 0.499268
0.251953 0.936523 0.499268
0.401611 0.936523 0.499268
0.545410 0.936523 0.499268
0.681152 0.936523 0.499268
0.810059 0.936523 0.499268
0.928711 0.936523 0.499268
0.000000 0.000000 0.639160
0.106201 0.000000 0.639160
0.251953 0.000000 0.639160
0.401611 0.000000 0.639160
0.545410 0.000000 0.639160
0.681152 0.000000 0.639160
0.810059 0.000000 0.639160
0.928711 0.000000 0.639160
0.000000 0.116211 0.639160
0.106201 0.116211 0.639160
0.251953 0.116211 0.639160
0.401611 0.116211 0.639160
0.545410 0.116211 0.639160
0.681152 0.116211 0.639160
0.810059 0.116211 0.639160
0.928711 0.116211 0.639160
0.000000 0.270264 0.639160
0.106201 0.270264 0.639160
0.251953 0.270264 0.639160
0.401611 0.270264 0.639160
0.545410 0.270264 0.639160
0.681152 0.270264 0.639160
0.810059 0.270264 0.639160
0.928711 0.270264 0.639160
0.000000 0.428223 0.639160
0.106201 0.428223 0.639160
0.251953 0.428223 0.639160
0.401611 0.428223 0.639160
0.545410 0.428223 0.639160
0.681152 0.428223 0.639160
0.810059 0.428223 0.639160
0.928711 0.428223 0.639160
0.000000 0.577637 0.639160
0.106201 0.577637 0.639160
0.251953 0.577637 0.639160
0.401611 0.577637 0.639160
0.545410 0.577637 0.639160
0.681152 0.577637 0.639160
0.810059 0.577637 0.639160
0.928711 0.577637 0.639160
0.000000 0.712402 0.639160
0.106201 0.712402 0.639160
0.251953 0.712402 0.639160
0.401611 0.712402 0.639160
0.545410 0.712402 0.639160
0.681152 0.712402 0.639160
0.810059 0.712402 0.639160
0.928711 0.712402 0.639160
0.000000 0.831543 0.639160
0.106201 0.831543 0.639160
0.251953 0.831543 0.639160
0.401611 0.831543 0.639160
0.545410 0.831543 0.639160
0.681152 0.831543 0.639160
0.810059 0.831543 0.639160
0.928711 0.831543 0.639160
0.000000 0.936523 0.639160
0.106201 0.936523 0.639160
0.251953 0.936523 0.639160
0.401611 0.936523 0.639160
0.545410 0.936523 0.639160
0.681152 0.936523 0.639160
0.810059 0.936523 0.639160
0.928711 0.936523 0.639160
0.000000 0.000000 0.778320
0.106262 0.000000 0.778320
0.251953 0.000000 0.778320
0.401611 0.000000 0.778320
0.545410 0.000000 0.778320
0.681152 0.000000 0.778320
0.810059 0.000000 0.778320
0.928711 0.000000 0.778320
0.000000 0.116211 0.778320
0.106262 0.116211 0.778320
0.251953 0.116211 0.778320
0.401611 0.116211 0.778320
0.545410 0.116211 0.778320
0.681152 0.116211 0.778320
0.810059 0.116211 0.778320
0.928711 0.116211 0.778320
0.000000 0.270264 0.778320
0.106262 0.270264 0.778320
0.251953 0.270264 0.778320
0.401611 0.270264 0.778320
0.545410 0.270264 0.778320
0.681152 0.270264 0.778320
0.810059 0.270264 0.778320
0.928711 0.270264 0.778320
0.000000 0.428223 0.778320
0.106262 0.428223 0.778320
0.251953 0.428223 0.778320
0.401611 0.428223 0.778320
0.545410 0.428223 0.778320
0.681152 0.428223 0.778320
0.810059 0.428223 0.778320
0.928711 0.428223 0.778320
0.000000 0.577637 0.778320
0.106262 0.577637 0.778320
0.251953 0.577637 0.778320
0.401611 0.577637 0.778320
0.545410 0.577637 0.778320
0.681152 0.577637 0.778320
0.810059 0.577637 0.778320
0.928711 0.577637 0.778320
0.000000 0.712402 0.778320
0.106262 0.712402 0.778320
0.251953 0.712402 0.778320
0.401611 0.712402 0.778320
0.545410 0.712402 0.778320
0.681152 0.712402 0.778320
0.810059 0.712402 0.778320
0.928711 0.712402 0.778320
0.000000 0.831543 0.778320
0.106262 0.831543 0.778320
0.251953 0.831543 0.778320
0.401611 0.831543 0.778320
0.545410 0.831543 0.778320
0.681152 0.831543 0.778320
0.810059 0.831543 0.778320
0.928711 0.831543 0.778320
0.000000 0.936523 0.778320
0.106262 0.936523 0.778320
0.251953 0.936523 0.778320
0.401611 0.936523 0.778320
0.545410 0.936523 0.778320
0.681152 0.936523 0.778320
0.810059 0.936523 0.778320
0.928711 0.936523 0.778320
0.000000 0.000000 0.914551
0.106262 0.000000 0.914551
0.251953 0.000000 0.914551
0.401855 0.000000 0.914551
0.545410 0.000000 0.914551
0.681152 0.000000 0.914551
0.810059 0.000000 0.914551
0.928711 0.000000 0.914551
0.000000 0.116211 0.914551
0.106262 0.116211 0.914551
0.251953 0.116211 0.914551
0.401855 0.116211 0.914551
0.545410 0.116211 0.914551
0.681152 0.116211 0.914551
0.810059 0.116211 0.914551
0.928711 0.116211 0.914551
0.000000 0.270264 0.914551
0.106262 0.270264 0.914551
0.251953 0.270264 0.914551
0.401855 0.270264 0.914551
0.545410 0.270264 0.914551
0.681152 0.270264 0.914551
0.810059 0.270264 0.914551
0.928711 0.270264 0.914551
0.000000 0.428223 0.914551
0.106262 0.428223 0.914551
0.251953 0.428223 0.914551
0.401855 0.428223 0.914551
0.545410 0.428223 0.914551
0.681152 0.428223 0.914551
0.810059 0.428223 0.914551
0.928711 0.428223 0.914551
0.000000 0.577637 0.914551
0.106262 0.577637 0.914551
0.251953 0.577637 0.914551
0.401855 0.577637 0.914551
0.545410 0.577637 0.914551
0.681152 0.577637 0.914551
0.810059 0.577637 0.914551
0.928711 0.577637 0.914551
0.000000 0.712402 0.914551
0.106262 0.712402 0.914551
0.251953 0.712402 0.914551
0.401855 0.712402 0.914551
0.545410 0.712402 0.914551
0.681152 0.712402 0.914551
0.810059 0.712402 0.914551
0.928711 0.712402 0.914551
0.000000 0.831543 0.914551
0.106262 0.831543 0.914551
0.251953 0.831543 0.914551
0.401855 0.831543 0.914551
0.545410 0.831543 0.914551
0.681152 0.831543 0.914551
0.810059 0.831543 0.914551
0.928711 0.831543 0.914551
0.000000 0.936523 0.914551
0.106262 0.936523 0.914551
0.251953 0.936523 0.914551
0.401855 0.936523 0.914551
0.545410 0.936523 0.914551
0.681152 0.936523 0.914551
0.810059 0.936523 0.914551
0.928711 0.936523 0.914551
