cubelut/Adanmq_AgfaColor Futura 200.cube
TITLE "Generated by Foundry::LUT"
LUT_3D_SIZE 8
DOMAIN_MIN 0.000000 0.000000 0.000000
DOMAIN_MAX 0.903226 0.903226 0.903226
0.000000 0.000000 0.000000
0.202637 0.000000 0.000000
0.386719 0.000000 0.000000
0.530273 0.000000 0.000000
0.651367 0.000000 0.000000
0.757813 0.000000 0.000000
0.854492 0.000000 0.000000
0.942383 0.000000 0.000000
0.000000 0.205566 0.000000
0.202637 0.205566 0.000000
0.386719 0.205566 0.000000
0.530273 0.205566 0.000000
0.651367 0.205566 0.000000
0.757813 0.205566 0.000000
0.854492 0.205566 0.000000
0.942383 0.205566 0.000000
0.000000 0.395020 0.000000
0.202637 0.395020 0.000000
0.386719 0.395020 0.000000
0.530273 0.395020 0.000000
0.651367 0.395020 0.000000
0.757813 0.395020 0.000000
0.854492 0.395020 0.000000
0.942383 0.395020 0.000000
0.000000 0.544434 0.000000
0.202637 0.544434 0.000000
0.386719 0.544434 0.000000
0.530273 0.544434 0.000000
0.651367 0.544434 0.000000
0.757813 0.544434 0.000000
0.854492 0.544434 0.000000
0.942383 0.544434 0.000000
0.000000 0.665527 0.000000
0.202637 0.665527 0.000000
0.386719 0.665527 0.000000
0.530273 0.665527 0.000000
0.651367 0.665527 0.000000
0.757813 0.665527 0.000000
0.854492 0.665527 0.000000
0.942383 0.665527 0.000000
0.000000 0.768066 0.000000
0.202637 0.768066 0.000000
0.386719 0.768066 0.000000
0.530273 0.768066 0.000000
0.651367 0.768066 0.000000
0.757813 0.768066 0.000000
0.854492 0.768066 0.000000
0.942383 0.768066 0.000000
0.000000 0.859863 0.000000
0.202637 0.859863 0.000000
0.386719 0.859863 0.000000
0.530273 0.859863 0.000000
0.651367 0.859863 0.000000
0.757813 0.859863 0.000000
0.854492 0.859863 0.000000
0.942383 0.859863 0.000000
0.000000 0.942871 0.000000
0.202637 0.942871 0.000000
0.386719 0.942871 0.000000
0.530273 0.942871 0.000000
0.651367 0.942871 0.000000
0.757813 0.942871 0.000000
0.854492 0.942871 0.000000
0.942383 0.942871 0.000000
0.000000 0.000000 0.160767
0.202637 0.000000 0.160767
0.386963 0.000000 0.160767
0.530273 0.000000 0.160767
0.651367 0.000000 0.160767
0.757813 0.000000 0.160767
0.854492 0.000000 0.160767
0.942383 0.000000 0.160767
0.000000 0.205566 0.160767
0.202637 0.205566 0.160767
0.386963 0.205566 0.160767
0.530273 0.205566 0.160767
0.651367 0.205566 0.160767
0.757813 0.205566 0.160767
0.854492 0.205566 0.160767
0.942383 0.205566 0.160767
0.000000 0.395020 0.160767
0.202637 0.395020 0.160767
0.386963 0.395020 0.160767
0.530273 0.395020 0.160767
0.651367 0.395020 0.160767
0.757813 0.395020 0.160767
0.854492 0.395020 0.160767
0.942383 0.395020 0.160767
0.000000 0.544434 0.160767
0.202637 0.544434 0.160767
0.386963 0.544434 0.160767
0.530273 0.544434 0.160767
0.651367 0.544434 0.160767
0.757813 0.544434 0.160767
0.854492 0.544434 0.160767
0.942383 0.544434 0.160767
0.000000 0.665527 0.160767
0.202637 0.665527 0.160767
0.386963 0.665527 0.160767
0.530273 0.665527 0.160767
0.651367 0.665527 0.160767
0.757813 0.665527 0.160767
0.854492 0.665527 0.160767
0.942383 0.665527 0.160767
0.000000 0.768066 0.160767
0.202637 0.768066 0.160767
0.386963 0.768066 0.160767
0.530273 0.768066 0.160767
0.651367 0.768066 0.160767
0.757813 0.768066 0.160767
0.854492 0.768066 0.160767
0.942383 0.768066 0.160767
0.000000 0.859863 0.160767
0.202637 0.859863 0.160767
0.386963 0.859863 0.160767
0.530273 0.859863 0.160767
0.651367 0.859863 0.160767
0.757813 0.859863 0.160767
0.854492 0.859863 0.160767
0.942383 0.859863 0.160767
0.000000 0.942871 0.160767
0.202637 0.942871 0.160767
0.386963 0.942871 0.160767
0.530273 0.942871 0.160767
0.651367 0.942871 0.160767
0.757813 0.942871 0.160767
0.854492 0.942871 0.160767
0.942383 0.942871 0.160767
0.000000 0.000000 0.331055
0.202637 0.000000 0.331055
0.386963 0.000000 0.331055
0.530273 0.000000 0.331055
0.651367 0.000000 0.331055
0.757813 0.000000 0.331055
0.854492 0.000000 0.331055
0.942383 0.000000 0.331055
0.000000 0.205566 0.331055
0.202637 0.205566 0.331055
0.386963 0.205566 0.331055
0.530273 0.205566 0.331055
0.651367 0.205566 0.331055
0.757813 0.205566 0.331055
0.854492 0.205566 0.331055
0.942383 0.205566 0.331055
0.000000 0.395020 0.331055
0.202637 0.395020 0.331055
0.386963 0.395020 0.331055
0.530273 0.395020 0.331055
0.651367 0.395020 0.331055
0.757813 0.395020 0.331055
0.854492 0.395020 0.331055
0.942383 0.395020 0.331055
0.000000 0.544434 0.331055
0.202637 0.544434 0.331055
0.386963 0.544434 0.331055
0.530273 0.544434 0.331055
0.651367 0.544434 0.331055
0.757813 0.544434 0.331055
0.854492 0.544434 0.331055
0.942383 0.544434 0.331055
0.000000 0.665527 0.331055
0.202637 0.665527 0.331055
0.386963 0.665527 0.331055
0.530273 0.665527 0.331055
0.651367 0.665527 0.331055
0.757813 0.665527 0.331055
0.854492 0.665527 0.331055
0.942383 0.665527 0.331055
0.000000 0.768066 0.331055
0.202637 0.768066 0.331055
0.386963 0.768066 0.331055
0.530273 0.768066 0.331055
0.651367 0.768066 0.331055
0.757813 0.768066 0.331055
0.854492 0.768066 0.331055
0.942383 0.768066 0.331055
0.000000 0.859863 0.331055
0.202637 0.859863 0.331055
0.386963 0.859863 0.331055
0.530273 0.859863 0.331055
0.651367 0.859863 0.331055
0.757813 0.859863 0.331055
0.854492 0.859863 0.331055
0.942383 0.859863 0.331055
0.000000 0.942871 0.331055
0.202637 0.942871 0.331055
0.386963 0.942871 0.331055
0.530273 0.942871 0.331055
0.651367 0.942871 0.331055
0.757813 0.942871 0.331055
0.854492 0.942871 0.331055
0.942383 0.942871 0.331055
0.000000 0.000000 0.476563
0.202759 0.000000 0.476563
0.386963 0.000000 0.476563
0.530273 0.000000 0.476563
0.651367 0.000000 0.476563
0.757813 0.000000 0.476563
0.854492 0.000000 0.476563
0.942383 0.000000 0.476563
0.000000 0.205444 0.476563
0.202759 0.205566 0.476563
0.386963 0.205566 0.476563
0.530273 0.205566 0.476563
0.651367 0.205566 0.476563
0.757813 0.205566 0.476563
0.854492 0.205566 0.476563
0.942383 0.205566 0.476563
0.000000 0.395020 0.476563
0.202759 0.395020 0.476563
0.386963 0.395020 0.476563
0.530273 0.395020 0.476563
0.651367 0.395020 0.476563
0.757813 0.395020 0.476563
0.854492 0.395020 0.476563
0.942383 0.395020 0.476563
0.000000 0.544434 0.476563
0.202759 0.544434 0.476563
0.386963 0.544434 0.476563
0.530273 0.544434 0.476563
0.651367 0.544434 0.476563
0.757813 0.544434 0.476563
0.854492 0.544434 0.476563
0.942383 0.544434 0.476563
0.000000 0.665527 0.476563
0.202759 0.665527 0.476563
0.386963 0.665527 0.476563
0.530273 0.665527 0.476563
0.651367 0.665527 0.476563
0.757813 0.665527 0.476563
0.854492 0.665527 0.476563
0.942383 0.665527 0.476563
0.000000 0.768066 0.476563
0.202759 0.768066 0.476563
0.386963 0.768066 0.476563
0.530273 0.768066 0.476563
0.651367 0.768066 0.476563
0.757813 0.768066 0.476563
0.854492 0.768066 0.476563
0.942383 0.768066 0.476563
0.000000 0.859863 0.476563
0.202759 0.859863 0.476563
0.386963 0.859863 0.476563
0.530273 0.859863 0.476563
0.651367 0.859863 0.476563
0.757813 0.859863 0.476563
0.854492 0.859863 0.476563
0.942383 0.859863 0.476563
0.000000 0.942871 0.476563
0.202759 0.942871 0.476563
0.386963 0.942871 0.476563
0.530273 0.942871 0.476563
0.651367 0.942871 0.476563
0.757813 0.942871 0.476563
0.854492 0.942871 0.476563
0.942383 0.942871 0.476563
0.000001 0.000000 0.600098
0.202759 0.000000 0.600098
0.386963 0.000000 0.600098
0.530273 0.000000 0.600098
0.651367 0.000000 0.600098
0.757813 0.000000 0.600098
0.854492 0.000000 0.600098
0.942383 0.000000 0.600098
0.000001 0.205444 0.600098
0.202759 0.205444 0.600098
0.386963 0.205566 0.600098
0.530273 0.205566 0.600098
0.651367 0.205566 0.600098
0.757813 0.205566 0.600098
0.854492 0.205566 0.600098
0.942383 0.205566 0.600098
0.000001 0.395020 0.600098
0.202759 0.395020 0.600098
0.386963 0.395020 0.600098
0.530273 0.395020 0.600098
0.651367 0.395020 0.600098
0.757813 0.395020 0.600098
0.854492 0.395020 0.600098
0.942383 0.395020 0.600098
0.000001 0.544434 0.600098
0.202759 0.544434 0.600098
0.386963 0.544434 0.600098
0.530273 0.544434 0.600098
0.651367 0.544434 0.600098
0.757813 0.544434 0.600098
0.854492 0.544434 0.600098
0.942383 0.544434 0.600098
0.000001 0.665527 0.600098
0.202759 0.665527 0.600098
0.386963 0.665527 0.600098
0.530273 0.665527 0.600098
0.651367 0.665527 0.600098
0.757813 0.665527 0.600098
0.854492 0.665527 0.600098
0.942383 0.665527 0.600098
0.000001 0.768066 0.600098
0.202759 0.768066 0.600098
0.386963 0.768066 0.600098
0.530273 0.768066 0.600098
0.651367 0.768066 0.600098
0.757813 0.768066 0.600098
0.854492 0.768066 0.600098
0.942383 0.768066 0.600098
0.000001 0.859863 0.600098
0.202759 0.859863 0.600098
0.386963 0.859863 0.600098
0.530273 0.859863 0.600098
0.651367 0.859863 0.600098
0.757813 0.859863 0.600098
0.854492 0.859863 0.600098
0.942383 0.859863 0.600098
0.000001 0.942871 0.600098
0.202759 0.942871 0.600098
0.386963 0.942871 0.600098
0.530273 0.942871 0.600098
0.651367 0.942871 0.600098
0.757813 0.942871 0.600098
0.854492 0.942871 0.600098
0.942383 0.942871 0.600098
0.000001 0.000000 0.710938
0.202759 0.000000 0.710938
0.386963 0.000000 0.710938
0.530273 0.000000 0.710938
0.651367 0.000000 0.710938
0.757813 0.000000 0.710938
0.854980 0.000000 0.710938
0.942383 0.000000 0.710938
0.000001 0.205444 0.710938
0.202759 0.205444 0.710938
0.386963 0.205444 0.710938
0.530273 0.205566 0.710938
0.651367 0.205566 0.710938
0.757813 0.205566 0.710938
0.854980 0.205566 0.710938
0.942383 0.205566 0.710938
0.000001 0.395020 0.710938
0.202759 0.395020 0.710938
0.386963 0.395020 0.710938
0.530273 0.395020 0.710938
0.651367 0.395020 0.710938
0.757813 0.395020 0.710938
0.854980 0.395020 0.710938
0.942383 0.395020 0.710938
0.000001 0.544434 0.710938
0.202759 0.544434 0.710938
0.386963 0.544434 0.710938
0.530273 0.544434 0.710938
0.651367 0.544434 0.710938
0.757813 0.544434 0.710938
0.854980 0.544434 0.710938
0.942383 0.544434 0.710938
0.000001 0.665527 0.710938
0.202759 0.665527 0.710938
0.386963 0.665527 0.710938
0.530273 0.665527 0.710938
0.651367 0.665527 0.710938
0.757813 0.665527 0.710938
0.854980 0.665527 0.710938
0.942383 0.665527 0.710938
0.000001 0.768066 0.710938
0.202759 0.768066 0.710938
0.386963 0.768066 0.710938
0.530273 0.768066 0.710938
0.651367 0.768066 0.710938
0.757813 0.768066 0.710938
0.854980 0.768066 0.710938
0.942383 0.768066 0.710938
0.000001 0.859863 0.710938
0.202759 0.859863 0.710938
0.386963 0.859863 0.710938
0.530273 0.859863 0.710938
0.651367 0.859863 0.710938
0.757813 0.859863 0.710938
0.854980 0.859863 0.710938
0.942383 0.859863 0.710938
0.000001 0.942871 0.710938
0.202759 0.942871 0.710938
0.386963 0.942871 0.710938
0.530273 0.942871 0.710938
0.651367 0.942871 0.710938
0.757813 0.942871 0.710938
0.854980 0.942871 0.710938
0.942383 0.942871 0.710938
0.000002 0.000000 0.817871
0.202881 0.000000 0.817871
0.386963 0.000000 0.817871
0.530273 0.000000 0.817871
0.651367 0.000000 0.817871
0.757813 0.000000 0.817871
0.854980 0.000000 0.817871
0.942383 0.000000 0.817871
0.000002 0.205444 0.817871
0.202881 0.205444 0.817871
0.386963 0.205444 0.817871
0.530273 0.205444 0.817871
0.651367 0.205566 0.817871
0.757813 0.205566 0.817871
0.854980 0.205566 0.817871
0.942383 0.205566 0.817871
0.000002 0.395020 0.817871
0.202881 0.395020 0.817871
0.386963 0.395020 0.817871
0.530273 0.395020 0.817871
0.651367 0.395020 0.817871
0.757813 0.395020 0.817871
0.854980 0.395020 0.817871
0.942383 0.395020 0.817871
0.000002 0.544434 0.817871
0.202881 0.544434 0.817871
0.386963 0.544434 0.817871
0.530273 0.544434 0.817871
0.651367 0.544434 0.817871
0.757813 0.544434 0.817871
0.854980 0.544434 0.817871
0.942383 0.544434 0.817871
0.000002 0.665527 0.817871
0.202881 0.665527 0.817871
0.386963 0.665527 0.817871
0.530273 0.665527 0.817871
0.651367 0.665527 0.817871
0.757813 0.665527 0.817871
0.854980 0.665527 0.817871
0.942383 0.665527 0.817871
0.000002 0.768066 0.817871
0.202881 0.768066 0.817871
0.386963 0.768066 0.817871
0.530273 0.768066 0.817871
0.651367 0.768066 0.817871
0.757813 0.768066 0.817871
0.854980 0.768066 0.817871
0.942383 0.768066 0.817871
0.000002 0.859863 0.817871
0.202881 0.859863 0.817871
0.386963 0.859863 0.817871
0.530273 0.859863 0.817871
0.651367 0.859863 0.817871
0.757813 0.859863 0.817871
0.854980 0.859863 0.817871
0.942383 0.859863 0.817871
0.000002 0.942871 0.817871
0.202881 0.942871 0.817871
0.386963 0.942871 0.817871
0.530273 0.942871 0.817871
0.651367 0.942871 0.817871
0.757813 0.942871 0.817871
0.854980 0.942871 0.817871
0.942383 0.942871 0.817871
0.000003 0.000000 0.923828
0.202881 0.000000 0.923828
0.386963 0.000000 0.923828
0.530273 0.000000 0.923828
0.651367 0.000000 0.923828
0.757813 0.000000 0.923828
0.854980 0.000000 0.923828
0.942383 0.000000 0.923828
0.000003 0.205444 0.923828
0.202881 0.205444 0.923828
0.386963 0.205444 0.923828
0.530273 0.205444 0.923828
0.651367 0.205444 0.923828
0.757813 0.205566 0.923828
0.854980 0.205566 0.923828
0.942383 0.205566 0.923828
0.000003 0.395020 0.923828
0.202881 0.395020 0.923828
0.386963 0.395020 0.923828
0.530273 0.395020 0.923828
0.651367 0.395020 0.923828
0.757813 0.395020 0.923828
0.854980 0.395020 0.923828
0.942383 0.395020 0.923828
0.000003 0.544434 0.923828
0.202881 0.544434 0.923828
0.386963 0.544434 0.923828
0.530273 0.544434 0.923828
0.651367 0.544434 0.923828
0.757813 0.544434 0.923828
0.854980 0.544434 0.923828
0.942383 0.544434 0.923828
0.000003 0.665527 0.923828
0.202881 0.665527 0.923828
0.386963 0.665527 0.923828
0.530273 0.665527 0.923828
0.651367 0.665527 0.923828
0.757813 0.665527 0.923828
0.854980 0.665527 0.923828
0.942383 0.665527 0.923828
0.000003 0.768066 0.923828
0.202881 0.768066 0.923828
0.386963 0.768066 0.923828
0.530273 0.768066 0.923828
0.651367 0.768066 0.923828
0.757813 0.768066 0.923828
0.854980 0.768066 0.923828
0.942383 0.768066 0.923828
0.000003 0.859863 0.923828
0.202881 0.859863 0.923828
0.386963 0.859863 0.923828
0.530273 0.859863 0.923828
0.651367 0.859863 0.923828
0.757813 0.859863 0.923828
0.854980 0.859863 0.923828
0.942383 0.859863 0.923828
0.000003 0.942871 0.923828
0.202881 0.942871 0.923828
0.386963 0.942871 0.923828
0.530273 0.942871 0.923828
0.651367 0.942871 0.923828
0.757813 0.942871 0.923828
0.854980 0.942871 0.923828
0.942383 0.942871 0.923828
