cubelut/Adanmq_Canon DSC S315 n2.cube
TITLE "Generated by Foundry::LUT"
LUT_3D_SIZE 32
0.000000 0.000000 0.000000
0.017334 0.000000 0.000000
0.059570 0.000000 0.000000
0.104858 0.000000 0.000000
0.155029 0.000000 0.000000
0.212158 0.000000 0.000000
0.277100 0.000000 0.000000
0.345947 0.000000 0.000000
0.413330 0.000000 0.000000
0.473633 0.000000 0.000000
0.526367 0.000000 0.000000
0.571777 0.000000 0.000000
0.612305 0.000000 0.000000
0.647461 0.000000 0.000000
0.679688 0.000000 0.000000
0.708496 0.000000 0.000000
0.735352 0.000000 0.000000
0.760254 0.000000 0.000000
0.783203 0.000000 0.000000
0.804688 0.000000 0.000000
0.825195 0.000000 0.000000
0.844727 0.000000 0.000000
0.863281 0.000000 0.000000
0.880859 0.000000 0.000000
0.897949 0.000000 0.000000
0.914063 0.000000 0.000000
0.929688 0.000000 0.000000
0.944824 0.000000 0.000000
0.958984 0.000000 0.000000
0.973145 0.000000 0.000000
0.986816 0.000000 0.000000
1.000000 0.000000 0.000000
0.000000 0.017197 0.000000
0.017334 0.017197 0.000000
0.059570 0.017197 0.000000
0.104858 0.017197 0.000000
0.155029 0.017197 0.000000
0.212158 0.017197 0.000000
0.277100 0.017197 0.000000
0.345947 0.017197 0.000000
0.413330 0.017197 0.000000
0.473633 0.017197 0.000000
0.526367 0.017197 0.000000
0.571777 0.017197 0.000000
0.612305 0.017197 0.000000
0.647461 0.017197 0.000000
0.679688 0.017212 0.000000
0.708496 0.017212 0.000000
0.735352 0.017212 0.000000
0.760254 0.017212 0.000000
0.783203 0.017212 0.000000
0.804688 0.017212 0.000000
0.825195 0.017212 0.000000
0.844727 0.017212 0.000000
0.863281 0.017212 0.000000
0.880859 0.017212 0.000000
0.897949 0.017212 0.000000
0.914063 0.017212 0.000000
0.929688 0.017212 0.000000
0.944824 0.017212 0.000000
0.958984 0.017212 0.000000
0.973145 0.017212 0.000000
0.986816 0.017212 0.000000
1.000000 0.017212 0.000000
0.000000 0.060760 0.000000
0.017334 0.060791 0.000000
0.059570 0.060791 0.000000
0.104858 0.060791 0.000000
0.155029 0.060791 0.000000
0.212158 0.060791 0.000000
0.277100 0.060791 0.000000
0.345947 0.060791 0.000000
0.413330 0.060791 0.000000
0.473633 0.060791 0.000000
0.526367 0.060791 0.000000
0.571777 0.060791 0.000000
0.612305 0.060791 0.000000
0.647461 0.060791 0.000000
0.679688 0.060791 0.000000
0.708496 0.060791 0.000000
0.735352 0.060791 0.000000
0.760254 0.060791 0.000000
0.783203 0.060791 0.000000
0.804688 0.060791 0.000000
0.825195 0.060791 0.000000
0.844727 0.060791 0.000000
0.863281 0.060791 0.000000
0.880859 0.060791 0.000000
0.897949 0.060791 0.000000
0.914063 0.060791 0.000000
0.929688 0.060791 0.000000
0.944824 0.060791 0.000000
0.958984 0.060791 0.000000
0.973145 0.060791 0.000000
0.986816 0.060791 0.000000
1.000000 0.060791 0.000000
0.000000 0.109192 0.000000
0.017334 0.109192 0.000000
0.059570 0.109192 0.000000
0.104858 0.109192 0.000000
0.155029 0.109192 0.000000
0.212158 0.109192 0.000000
0.277100 0.109253 0.000000
0.345947 0.109253 0.000000
0.413330 0.109253 0.000000
0.473633 0.109253 0.000000
0.526367 0.109253 0.000000
0.571777 0.109253 0.000000
0.612305 0.109253 0.000000
0.647461 0.109253 0.000000
0.679688 0.109253 0.000000
0.708496 0.109253 0.000000
0.735352 0.109253 0.000000
0.760254 0.109253 0.000000
0.783203 0.109253 0.000000
0.804688 0.109253 0.000000
0.825195 0.109253 0.000000
0.844727 0.109253 0.000000
0.863281 0.109253 0.000000
0.880859 0.109253 0.000000
0.897949 0.109253 0.000000
0.914063 0.109253 0.000000
0.929688 0.109253 0.000000
0.944824 0.109253 0.000000
0.958984 0.109253 0.000000
0.973145 0.109253 0.000000
0.986816 0.109253 0.000000
1.000000 0.109253 0.000000
0.000000 0.163086 0.000000
0.017334 0.163086 0.000000
0.059570 0.163086 0.000000
0.104858 0.163086 0.000000
0.155029 0.163086 0.000000
0.212158 0.163086 0.000000
0.277100 0.163086 0.000000
0.345947 0.163086 0.000000
0.413330 0.163086 0.000000
0.473633 0.163086 0.000000
0.526367 0.163086 0.000000
0.571777 0.163086 0.000000
0.612305 0.163086 0.000000
0.647461 0.163086 0.000000
0.679688 0.163086 0.000000
0.708496 0.163086 0.000000
0.735352 0.163086 0.000000
0.760254 0.163086 0.000000
0.783203 0.163086 0.000000
0.804688 0.163086 0.000000
0.825195 0.163086 0.000000
0.844727 0.163086 0.000000
0.863281 0.163086 0.000000
0.880859 0.163086 0.000000
0.897949 0.163086 0.000000
0.914063 0.163086 0.000000
0.929688 0.163086 0.000000
0.944824 0.163086 0.000000
0.958984 0.163086 0.000000
0.973145 0.163208 0.000000
0.986816 0.163208 0.000000
1.000000 0.163208 0.000000
0.000000 0.223389 0.000000
0.017334 0.223389 0.000000
0.059570 0.223389 0.000000
0.104858 0.223389 0.000000
0.155029 0.223389 0.000000
0.212158 0.223389 0.000000
0.277100 0.223389 0.000000
0.345947 0.223389 0.000000
0.413330 0.223389 0.000000
0.473633 0.223389 0.000000
0.526367 0.223389 0.000000
0.571777 0.223389 0.000000
0.612305 0.223389 0.000000
0.647461 0.223389 0.000000
0.679688 0.223389 0.000000
0.708496 0.223389 0.000000
0.735352 0.223389 0.000000
0.760254 0.223389 0.000000
0.783203 0.223389 0.000000
0.804688 0.223389 0.000000
0.825195 0.223389 0.000000
0.844727 0.223389 0.000000
0.863281 0.223389 0.000000
0.880859 0.223389 0.000000
0.897949 0.223389 0.000000
0.914063 0.223389 0.000000
0.929688 0.223389 0.000000
0.944824 0.223389 0.000000
0.958984 0.223389 0.000000
0.973145 0.223389 0.000000
0.986816 0.223389 0.000000
1.000000 0.223389 0.000000
0.000000 0.288818 0.000000
0.017334 0.288818 0.000000
0.059570 0.288818 0.000000
0.104858 0.288818 0.000000
0.155029 0.288818 0.000000
0.212158 0.288818 0.000000
0.277100 0.288818 0.000000
0.345947 0.288818 0.000000
0.413330 0.288818 0.000000
0.473633 0.288818 0.000000
0.526367 0.288818 0.000000
0.571777 0.288818 0.000000
0.612305 0.288818 0.000000
0.647461 0.288818 0.000000
0.679688 0.288818 0.000000
0.708496 0.288818 0.000000
0.735352 0.288818 0.000000
0.760254 0.288818 0.000000
0.783203 0.288818 0.000000
0.804688 0.288818 0.000000
0.825195 0.288818 0.000000
0.844727 0.288818 0.000000
0.863281 0.288818 0.000000
0.880859 0.288818 0.000000
0.897949 0.288818 0.000000
0.914063 0.288818 0.000000
0.929688 0.288818 0.000000
0.944824 0.288818 0.000000
0.958984 0.289063 0.000000
0.973145 0.289063 0.000000
0.986816 0.289063 0.000000
1.000000 0.289063 0.000000
0.000000 0.354980 0.000000
0.017334 0.354980 0.000000
0.059570 0.354980 0.000000
0.104858 0.354980 0.000000
0.155029 0.354980 0.000000
0.212158 0.354980 0.000000
0.277100 0.354980 0.000000
0.345947 0.354980 0.000000
0.413330 0.354980 0.000000
0.473633 0.354980 0.000000
0.526367 0.354980 0.000000
0.571777 0.354980 0.000000
0.612305 0.354980 0.000000
0.647461 0.354980 0.000000
0.679688 0.354980 0.000000
0.708496 0.354980 0.000000
0.735352 0.354980 0.000000
0.760254 0.354980 0.000000
0.783203 0.354980 0.000000
0.804688 0.354980 0.000000
0.825195 0.354980 0.000000
0.844727 0.354980 0.000000
0.863281 0.354980 0.000000
0.880859 0.354980 0.000000
0.897949 0.354980 0.000000
0.914063 0.354980 0.000000
0.929688 0.354980 0.000000
0.944824 0.354980 0.000000
0.958984 0.354980 0.000000
0.973145 0.354980 0.000000
0.986816 0.354980 0.000000
1.000000 0.354980 0.000000
0.000000 0.417480 0.000000
0.017334 0.417480 0.000000
0.059570 0.417480 0.000000
0.104858 0.417480 0.000000
0.155029 0.417480 0.000000
0.212158 0.417480 0.000000
0.277100 0.417480 0.000000
0.345947 0.417480 0.000000
0.413330 0.417480 0.000000
0.473633 0.417480 0.000000
0.526367 0.417480 0.000000
0.571777 0.417480 0.000000
0.612305 0.417480 0.000000
0.647461 0.417480 0.000000
0.679688 0.417480 0.000000
0.708496 0.417480 0.000000
0.735352 0.417480 0.000000
0.760254 0.417480 0.000000
0.783203 0.417480 0.000000
0.804688 0.417480 0.000000
0.825195 0.417480 0.000000
0.844727 0.417480 0.000000
0.863281 0.417480 0.000000
0.880859 0.417480 0.000000
0.897949 0.417480 0.000000
0.914063 0.417480 0.000000
0.929688 0.417480 0.000000
0.944824 0.417480 0.000000
0.958984 0.417480 0.000000
0.973145 0.417480 0.000000
0.986816 0.417480 0.000000
1.000000 0.417480 0.000000
0.000000 0.473145 0.000000
0.017334 0.473145 0.000000
0.059570 0.473389 0.000000
0.104858 0.473389 0.000000
0.155029 0.473389 0.000000
0.212158 0.473389 0.000000
0.277100 0.473389 0.000000
0.345947 0.473389 0.000000
0.413330 0.473389 0.000000
0.473633 0.473389 0.000000
0.526367 0.473389 0.000000
0.571777 0.473389 0.000000
0.612305 0.473389 0.000000
0.647461 0.473389 0.000000
0.679688 0.473389 0.000000
0.708496 0.473389 0.000000
0.735352 0.473389 0.000000
0.760254 0.473389 0.000000
0.783203 0.473389 0.000000
0.804688 0.473389 0.000000
0.825195 0.473389 0.000000
0.844727 0.473389 0.000000
0.863281 0.473389 0.000000
0.880859 0.473389 0.000000
0.897949 0.473389 0.000000
0.914063 0.473389 0.000000
0.929688 0.473389 0.000000
0.944824 0.473389 0.000000
0.958984 0.473389 0.000000
0.973145 0.473389 0.000000
0.986816 0.473389 0.000000
1.000000 0.473389 0.000000
0.000000 0.522461 0.000000
0.017334 0.522461 0.000000
0.059570 0.522461 0.000000
0.104858 0.522461 0.000000
0.155029 0.522461 0.000000
0.212158 0.522461 0.000000
0.277100 0.522461 0.000000
0.345947 0.522461 0.000000
0.413330 0.522461 0.000000
0.473633 0.522461 0.000000
0.526367 0.522461 0.000000
0.571777 0.522461 0.000000
0.612305 0.522461 0.000000
0.647461 0.522461 0.000000
0.679688 0.522461 0.000000
0.708496 0.522461 0.000000
0.735352 0.522461 0.000000
0.760254 0.522461 0.000000
0.783203 0.522461 0.000000
0.804688 0.522461 0.000000
0.825195 0.522461 0.000000
0.844727 0.522461 0.000000
0.863281 0.522461 0.000000
0.880859 0.522461 0.000000
0.897949 0.522461 0.000000
0.914063 0.522461 0.000000
0.929688 0.522461 0.000000
0.944824 0.522461 0.000000
0.958984 0.522461 0.000000
0.973145 0.522461 0.000000
0.986816 0.522461 0.000000
1.000000 0.522461 0.000000
0.000000 0.565918 0.000000
0.017334 0.565918 0.000000
0.059570 0.565918 0.000000
0.104858 0.565918 0.000000
0.155029 0.565918 0.000000
0.212158 0.565918 0.000000
0.277100 0.565918 0.000000
0.345947 0.565918 0.000000
0.413330 0.565918 0.000000
0.473633 0.565918 0.000000
0.526367 0.565918 0.000000
0.571777 0.565918 0.000000
0.612305 0.565918 0.000000
0.647461 0.565918 0.000000
0.679688 0.565918 0.000000
0.708496 0.565918 0.000000
0.735352 0.565918 0.000000
0.760254 0.565918 0.000000
0.783203 0.565918 0.000000
0.804688 0.565918 0.000000
0.825195 0.565918 0.000000
0.844727 0.565918 0.000000
0.863281 0.565918 0.000000
0.880859 0.565918 0.000000
0.897949 0.565918 0.000000
0.914063 0.565918 0.000000
0.929688 0.565918 0.000000
0.944824 0.565918 0.000000
0.958984 0.565918 0.000000
0.973145 0.565918 0.000000
0.986816 0.565918 0.000000
1.000000 0.565918 0.000000
0.000000 0.604980 0.000000
0.017334 0.604980 0.000000
0.059570 0.604980 0.000000
0.104858 0.604980 0.000000
0.155029 0.604980 0.000000
0.212158 0.604980 0.000000
0.277100 0.604980 0.000000
0.345947 0.604980 0.000000
0.413330 0.604980 0.000000
0.473633 0.604980 0.000000
0.526367 0.604980 0.000000
0.571777 0.604980 0.000000
0.612305 0.604980 0.000000
0.647461 0.604980 0.000000
0.679688 0.604980 0.000000
0.708496 0.604980 0.000000
0.735352 0.604980 0.000000
0.760254 0.604980 0.000000
0.783203 0.604980 0.000000
0.804688 0.604980 0.000000
0.825195 0.604980 0.000000
0.844727 0.604980 0.000000
0.863281 0.604980 0.000000
0.880859 0.604980 0.000000
0.897949 0.604980 0.000000
0.914063 0.604980 0.000000
0.929688 0.604980 0.000000
0.944824 0.604980 0.000000
0.958984 0.604980 0.000000
0.973145 0.604980 0.000000
0.986816 0.604980 0.000000
1.000000 0.604980 0.000000
0.000000 0.640137 0.000000
0.017334 0.640137 0.000000
0.059570 0.640137 0.000000
0.104858 0.640137 0.000000
0.155029 0.640137 0.000000
0.212158 0.640137 0.000000
0.277100 0.640137 0.000000
0.345947 0.640137 0.000000
0.413330 0.640137 0.000000
0.473633 0.640137 0.000000
0.526367 0.640137 0.000000
0.571777 0.640137 0.000000
0.612305 0.640137 0.000000
0.647461 0.640137 0.000000
0.679688 0.640137 0.000000
0.708496 0.640137 0.000000
0.735352 0.640137 0.000000
0.760254 0.640137 0.000000
0.783203 0.640137 0.000000
0.804688 0.640137 0.000000
0.825195 0.640137 0.000000
0.844727 0.640137 0.000000
0.863281 0.640137 0.000000
0.880859 0.640137 0.000000
0.897949 0.640137 0.000000
0.914063 0.640137 0.000000
0.929688 0.640137 0.000000
0.944824 0.640137 0.000000
0.958984 0.640137 0.000000
0.973145 0.640137 0.000000
0.986816 0.640137 0.000000
1.000000 0.640137 0.000000
0.000000 0.671875 0.000000
0.017334 0.671875 0.000000
0.059570 0.671875 0.000000
0.104858 0.671875 0.000000
0.155029 0.671875 0.000000
0.212158 0.671875 0.000000
0.277100 0.671875 0.000000
0.345947 0.671875 0.000000
0.413330 0.671875 0.000000
0.473633 0.671875 0.000000
0.526367 0.671875 0.000000
0.571777 0.671875 0.000000
0.612305 0.671875 0.000000
0.647461 0.671875 0.000000
0.679688 0.671875 0.000000
0.708496 0.671875 0.000000
0.735352 0.671875 0.000000
0.760254 0.671875 0.000000
0.783203 0.671875 0.000000
0.804688 0.671875 0.000000
0.825195 0.671875 0.000000
0.844727 0.671875 0.000000
0.863281 0.671875 0.000000
0.880859 0.671875 0.000000
0.897949 0.671875 0.000000
0.914063 0.671875 0.000000
0.929688 0.671875 0.000000
0.944824 0.671875 0.000000
0.958984 0.671875 0.000000
0.973145 0.671875 0.000000
0.986816 0.671875 0.000000
1.000000 0.671875 0.000000
0.000000 0.700684 0.000000
0.017334 0.700684 0.000000
0.059570 0.700684 0.000000
0.104858 0.700684 0.000000
0.155029 0.700684 0.000000
0.212158 0.700684 0.000000
0.277100 0.700684 0.000000
0.345947 0.700684 0.000000
0.413330 0.700684 0.000000
0.473633 0.700684 0.000000
0.526367 0.700684 0.000000
0.571777 0.700684 0.000000
0.612305 0.700684 0.000000
0.647461 0.700684 0.000000
0.679688 0.700684 0.000000
0.708496 0.700684 0.000000
0.735352 0.700684 0.000000
0.760254 0.700684 0.000000
0.783203 0.700684 0.000000
0.804688 0.700684 0.000000
0.825195 0.700684 0.000000
0.844727 0.700684 0.000000
0.863281 0.700684 0.000000
0.880859 0.700684 0.000000
0.897949 0.700684 0.000000
0.914063 0.700684 0.000000
0.929688 0.700684 0.000000
0.944824 0.700684 0.000000
0.958984 0.700684 0.000000
0.973145 0.700684 0.000000
0.986816 0.700684 0.000000
1.000000 0.700684 0.000000
0.000000 0.727539 0.000000
0.017334 0.727539 0.000000
0.059570 0.727539 0.000000
0.104858 0.727539 0.000000
0.155029 0.727539 0.000000
0.212158 0.727539 0.000000
0.277100 0.727539 0.000000
0.345947 0.727539 0.000000
0.413330 0.727539 0.000000
0.473633 0.727539 0.000000
0.526367 0.727539 0.000000
0.571777 0.727539 0.000000
0.612305 0.727539 0.000000
0.647461 0.727539 0.000000
0.679688 0.727539 0.000000
0.708496 0.727539 0.000000
0.735352 0.727539 0.000000
0.760254 0.727539 0.000000
0.783203 0.727539 0.000000
0.804688 0.727539 0.000000
0.825195 0.727539 0.000000
0.844727 0.727539 0.000000
0.863281 0.727539 0.000000
0.880859 0.727539 0.000000
0.897949 0.727539 0.000000
0.914063 0.727539 0.000000
0.929688 0.727539 0.000000
0.944824 0.727539 0.000000
0.958984 0.727539 0.000000
0.973145 0.727539 0.000000
0.986816 0.727539 0.000000
1.000000 0.727539 0.000000
0.000000 0.752930 0.000000
0.017334 0.752930 0.000000
0.059570 0.752930 0.000000
0.104858 0.752930 0.000000
0.155029 0.752930 0.000000
0.212158 0.752930 0.000000
0.277100 0.752930 0.000000
0.345947 0.752930 0.000000
0.413330 0.752930 0.000000
0.473633 0.752930 0.000000
0.526367 0.752930 0.000000
0.571777 0.752930 0.000000
0.612305 0.752930 0.000000
0.647461 0.752930 0.000000
0.679688 0.752930 0.000000
0.708496 0.752930 0.000000
0.735352 0.752930 0.000000
0.760254 0.752930 0.000000
0.783203 0.752930 0.000000
0.804688 0.752930 0.000000
0.825195 0.752930 0.000000
0.844727 0.752930 0.000000
0.863281 0.752930 0.000000
0.880859 0.752930 0.000000
0.897949 0.752930 0.000000
0.914063 0.752930 0.000000
0.929688 0.752930 0.000000
0.944824 0.752930 0.000000
0.958984 0.752930 0.000000
0.973145 0.752930 0.000000
0.986816 0.752930 0.000000
1.000000 0.752930 0.000000
0.000000 0.776367 0.000000
0.017334 0.776367 0.000000
0.059570 0.776367 0.000000
0.104858 0.776367 0.000000
0.155029 0.776367 0.000000
0.212158 0.776367 0.000000
0.277100 0.776367 0.000000
0.345947 0.776367 0.000000
0.413330 0.776367 0.000000
0.473633 0.776367 0.000000
0.526367 0.776367 0.000000
0.571777 0.776367 0.000000
0.612305 0.776367 0.000000
0.647461 0.776367 0.000000
0.679688 0.776367 0.000000
0.708496 0.776367 0.000000
0.735352 0.776367 0.000000
0.760254 0.776367 0.000000
0.783203 0.776367 0.000000
0.804688 0.776367 0.000000
0.825195 0.776367 0.000000
0.844727 0.776367 0.000000
0.863281 0.776367 0.000000
0.880859 0.776367 0.000000
0.897949 0.776367 0.000000
0.914063 0.776367 0.000000
0.929688 0.776367 0.000000
0.944824 0.776367 0.000000
0.958984 0.776367 0.000000
0.973145 0.776367 0.000000
0.986816 0.776367 0.000000
1.000000 0.776367 0.000000
0.000000 0.798340 0.000000
0.017334 0.798340 0.000000
0.059570 0.798340 0.000000
0.104858 0.798340 0.000000
0.155029 0.798340 0.000000
0.212158 0.798340 0.000000
0.277100 0.798340 0.000000
0.345947 0.798340 0.000000
0.413330 0.798340 0.000000
0.473633 0.798340 0.000000
0.526367 0.798340 0.000000
0.571777 0.798340 0.000000
0.612305 0.798340 0.000000
0.647461 0.798340 0.000000
0.679688 0.798340 0.000000
0.708496 0.798340 0.000000
0.735352 0.798340 0.000000
0.760254 0.798340 0.000000
0.783203 0.798340 0.000000
0.804688 0.798340 0.000000
0.825195 0.798340 0.000000
0.844727 0.798340 0.000000
0.863281 0.798340 0.000000
0.880859 0.798340 0.000000
0.897949 0.798340 0.000000
0.914063 0.798340 0.000000
0.929688 0.798340 0.000000
0.944824 0.798340 0.000000
0.958984 0.798340 0.000000
0.973145 0.798340 0.000000
0.986816 0.798340 0.000000
1.000000 0.798340 0.000000
0.000000 0.819336 0.000000
0.017334 0.819336 0.000000
0.059570 0.819336 0.000000
0.104858 0.819336 0.000000
0.155029 0.819336 0.000000
0.212158 0.819336 0.000000
0.277100 0.819336 0.000000
0.345947 0.819336 0.000000
0.413330 0.819336 0.000000
0.473633 0.819336 0.000000
0.526367 0.819336 0.000000
0.571777 0.819336 0.000000
0.612305 0.819336 0.000000
0.647461 0.819336 0.000000
0.679688 0.819336 0.000000
0.708496 0.819336 0.000000
0.735352 0.819336 0.000000
0.760254 0.819336 0.000000
0.783203 0.819336 0.000000
0.804688 0.819336 0.000000
0.825195 0.819336 0.000000
0.844727 0.819336 0.000000
0.863281 0.819336 0.000000
0.880859 0.819336 0.000000
0.897949 0.819336 0.000000
0.914063 0.819336 0.000000
0.929688 0.819336 0.000000
0.944824 0.819336 0.000000
0.958984 0.819336 0.000000
0.973145 0.819336 0.000000
0.986816 0.819336 0.000000
1.000000 0.819336 0.000000
0.000000 0.839355 0.000000
0.017334 0.839355 0.000000
0.059570 0.839355 0.000000
0.104858 0.839355 0.000000
0.155029 0.839355 0.000000
0.212158 0.839355 0.000000
0.277100 0.839355 0.000000
0.345947 0.839355 0.000000
0.413330 0.839355 0.000000
0.473633 0.839355 0.000000
0.526367 0.839355 0.000000
0.571777 0.839355 0.000000
0.612305 0.839355 0.000000
0.647461 0.839355 0.000000
0.679688 0.839355 0.000000
0.708496 0.839355 0.000000
0.735352 0.839355 0.000000
0.760254 0.839355 0.000000
0.783203 0.839355 0.000000
0.804688 0.839355 0.000000
0.825195 0.839355 0.000000
0.844727 0.839355 0.000000
0.863281 0.839355 0.000000
0.880859 0.839355 0.000000
0.897949 0.839355 0.000000
0.914063 0.839355 0.000000
0.929688 0.839355 0.000000
0.944824 0.839355 0.000000
0.958984 0.839355 0.000000
0.973145 0.839355 0.000000
0.986816 0.839355 0.000000
1.000000 0.839355 0.000000
0.000000 0.858398 0.000000
0.017334 0.858398 0.000000
0.059570 0.858398 0.000000
0.104858 0.858398 0.000000
0.155029 0.858398 0.000000
0.212158 0.858398 0.000000
0.277100 0.858398 0.000000
0.345947 0.858398 0.000000
0.413330 0.858398 0.000000
0.473633 0.858398 0.000000
0.526367 0.858398 0.000000
0.571777 0.858398 0.000000
0.612305 0.858398 0.000000
0.647461 0.858398 0.000000
0.679688 0.858398 0.000000
0.708496 0.858398 0.000000
0.735352 0.858398 0.000000
0.760254 0.858398 0.000000
0.783203 0.858398 0.000000
0.804688 0.858398 0.000000
0.825195 0.858398 0.000000
0.844727 0.858398 0.000000
0.863281 0.858398 0.000000
0.880859 0.858398 0.000000
0.897949 0.858398 0.000000
0.914063 0.858398 0.000000
0.929688 0.858398 0.000000
0.944824 0.858398 0.000000
0.958984 0.858398 0.000000
0.973145 0.858398 0.000000
0.986816 0.858398 0.000000
1.000000 0.858398 0.000000
0.000000 0.876465 0.000000
0.017334 0.876465 0.000000
0.059570 0.876465 0.000000
0.104858 0.876465 0.000000
0.155029 0.876465 0.000000
0.212158 0.876465 0.000000
0.277100 0.876465 0.000000
0.345947 0.876465 0.000000
0.413330 0.876465 0.000000
0.473633 0.876465 0.000000
0.526367 0.876465 0.000000
0.571777 0.876465 0.000000
0.612305 0.876465 0.000000
0.647461 0.876465 0.000000
0.679688 0.876465 0.000000
0.708496 0.876465 0.000000
0.735352 0.876465 0.000000
0.760254 0.876465 0.000000
0.783203 0.876465 0.000000
0.804688 0.876465 0.000000
0.825195 0.876465 0.000000
0.844727 0.876465 0.000000
0.863281 0.876465 0.000000
0.880859 0.876465 0.000000
0.897949 0.876465 0.000000
0.914063 0.876465 0.000000
0.929688 0.876465 0.000000
0.944824 0.876465 0.000000
0.958984 0.876465 0.000000
0.973145 0.876465 0.000000
0.986816 0.876465 0.000000
1.000000 0.876465 0.000000
0.000000 0.894531 0.000000
0.017334 0.894531 0.000000
0.059570 0.894531 0.000000
0.104858 0.894531 0.000000
0.155029 0.894531 0.000000
0.212158 0.894531 0.000000
0.277100 0.894531 0.000000
0.345947 0.894531 0.000000
0.413330 0.894531 0.000000
0.473633 0.894531 0.000000
0.526367 0.894531 0.000000
0.571777 0.894531 0.000000
0.612305 0.894531 0.000000
0.647461 0.894531 0.000000
0.679688 0.894531 0.000000
0.708496 0.894531 0.000000
0.735352 0.894531 0.000000
0.760254 0.894531 0.000000
0.783203 0.894531 0.000000
0.804688 0.894531 0.000000
0.825195 0.894531 0.000000
0.844727 0.894531 0.000000
0.863281 0.894531 0.000000
0.880859 0.894531 0.000000
0.897949 0.894531 0.000000
0.914063 0.894531 0.000000
0.929688 0.894531 0.000000
0.944824 0.894531 0.000000
0.958984 0.894531 0.000000
0.973145 0.894531 0.000000
0.986816 0.894531 0.000000
1.000000 0.894531 0.000000
0.000000 0.911133 0.000000
0.017334 0.911133 0.000000
0.059570 0.911133 0.000000
0.104858 0.911133 0.000000
0.155029 0.911133 0.000000
0.212158 0.911133 0.000000
0.277100 0.911133 0.000000
0.345947 0.911133 0.000000
0.413330 0.911133 0.000000
0.473633 0.911133 0.000000
0.526367 0.911133 0.000000
0.571777 0.911133 0.000000
0.612305 0.911133 0.000000
0.647461 0.911133 0.000000
0.679688 0.911133 0.000000
0.708496 0.911133 0.000000
0.735352 0.911133 0.000000
0.760254 0.911133 0.000000
0.783203 0.911133 0.000000
0.804688 0.911133 0.000000
0.825195 0.911133 0.000000
0.844727 0.911133 0.000000
0.863281 0.911133 0.000000
0.880859 0.911133 0.000000
0.897949 0.911133 0.000000
0.914063 0.911133 0.000000
0.929688 0.911133 0.000000
0.944824 0.911133 0.000000
0.958984 0.911133 0.000000
0.973145 0.911133 0.000000
0.986816 0.911133 0.000000
1.000000 0.911133 0.000000
0.000000 0.927246 0.000000
0.017334 0.927246 0.000000
0.059570 0.927246 0.000000
0.104858 0.927246 0.000000
0.155029 0.927246 0.000000
0.212158 0.927246 0.000000
0.277100 0.927246 0.000000
0.345947 0.927246 0.000000
0.413330 0.927246 0.000000
0.473633 0.927246 0.000000
0.526367 0.927246 0.000000
0.571777 0.927246 0.000000
0.612305 0.927246 0.000000
0.647461 0.927246 0.000000
0.679688 0.927246 0.000000
0.708496 0.927246 0.000000
0.735352 0.927246 0.000000
0.760254 0.927246 0.000000
0.783203 0.927246 0.000000
0.804688 0.927246 0.000000
0.825195 0.927246 0.000000
0.844727 0.927246 0.000000
0.863281 0.927246 0.000000
0.880859 0.927246 0.000000
0.897949 0.927246 0.000000
0.914063 0.927246 0.000000
0.929688 0.927246 0.000000
0.944824 0.927246 0.000000
0.958984 0.927246 0.000000
0.973145 0.927246 0.000000
0.986816 0.927246 0.000000
1.000000 0.927246 0.000000
0.000000 0.942383 0.000000
0.017334 0.942383 0.000000
0.059570 0.942383 0.000000
0.104858 0.942383 0.000000
0.155029 0.942383 0.000000
0.212158 0.942383 0.000000
0.277100 0.942383 0.000000
0.345947 0.942383 0.000000
0.413330 0.942383 0.000000
0.473633 0.942383 0.000000
0.526367 0.942383 0.000000
0.571777 0.942383 0.000000
0.612305 0.942383 0.000000
0.647461 0.942383 0.000000
0.679688 0.942383 0.000000
0.708496 0.942383 0.000000
0.735352 0.942383 0.000000
0.760254 0.942383 0.000000
0.783203 0.942383 0.000000
0.804688 0.942383 0.000000
0.825195 0.942383 0.000000
0.844727 0.942383 0.000000
0.863281 0.942383 0.000000
