cubelut/Adanmq_AgfaColor Futura 100.cube
TITLE "Generated by Foundry::LUT"
LUT_3D_SIZE 5
DOMAIN_MIN 0.000000 0.000000 0.000000
DOMAIN_MAX 0.903226 0.903226 0.903226
0.000000 0.000000 0.000000
0.343018 0.000000 0.000000
0.589844 0.000000 0.000000
0.779297 0.000000 0.000000
0.939453 0.000000 0.000000
0.000000 0.350098 0.000000
0.343018 0.350098 0.000000
0.589844 0.350098 0.000000
0.779297 0.350098 0.000000
0.939453 0.350098 0.000000
0.000000 0.606445 0.000000
0.343018 0.606445 0.000000
0.589844 0.606445 0.000000
0.779297 0.606445 0.000000
0.939453 0.606445 0.000000
0.000000 0.791016 0.000000
0.343018 0.791016 0.000000
0.589844 0.791016 0.000000
0.779297 0.791016 0.000000
0.939453 0.791016 0.000000
0.000000 0.942871 0.000000
0.343018 0.942871 0.000000
0.589844 0.942871 0.000000
0.779297 0.942871 0.000000
0.939453 0.942871 0.000000
0.000000 0.000000 0.289063
0.343018 0.000000 0.289063
0.589844 0.000000 0.289063
0.779297 0.000000 0.289063
0.939941 0.000000 0.289063
0.000000 0.350098 0.289063
0.343018 0.350098 0.289063
0.589844 0.350098 0.289063
0.779297 0.350098 0.289063
0.939941 0.350098 0.289063
0.000000 0.606445 0.289063
0.343018 0.606445 0.289063
0.589844 0.606445 0.289063
0.779297 0.606445 0.289063
0.939941 0.606445 0.289063
0.000000 0.791016 0.289063
0.343018 0.791016 0.289063
0.589844 0.791016 0.289063
0.779297 0.791016 0.289063
0.939941 0.791016 0.289063
0.000000 0.942871 0.289063
0.343018 0.942871 0.289063
0.589844 0.942871 0.289063
0.779297 0.942871 0.289063
0.939941 0.942871 0.289063
0.000001 0.000000 0.539551
0.343018 0.000000 0.539551
0.589844 0.000000 0.539551
0.779785 0.000000 0.539551
0.939941 0.000000 0.539551
0.000001 0.350098 0.539551
0.343018 0.350098 0.539551
0.589844 0.350098 0.539551
0.779785 0.350098 0.539551
0.939941 0.350098 0.539551
0.000001 0.606445 0.539551
0.343018 0.606445 0.539551
0.589844 0.606445 0.539551
0.779785 0.606445 0.539551
0.939941 0.606445 0.539551
0.000001 0.791016 0.539551
0.343018 0.791016 0.539551
0.589844 0.791016 0.539551
0.779785 0.791016 0.539551
0.939941 0.791016 0.539551
0.000001 0.942871 0.539551
0.343018 0.942871 0.539551
0.589844 0.942871 0.539551
0.779785 0.942871 0.539551
0.939941 0.942871 0.539551
0.000001 0.000000 0.737793
0.343018 0.000000 0.737793
0.589844 0.000000 0.737793
0.779785 0.000000 0.737793
0.939941 0.000000 0.737793
0.000001 0.350098 0.737793
0.343018 0.350098 0.737793
0.589844 0.350098 0.737793
0.779785 0.350098 0.737793
0.939941 0.350098 0.737793
0.000001 0.606445 0.737793
0.343018 0.606445 0.737793
0.589844 0.606445 0.737793
0.779785 0.606445 0.737793
0.939941 0.606445 0.737793
0.000001 0.791016 0.737793
0.343018 0.791016 0.737793
0.589844 0.791016 0.737793
0.779785 0.791016 0.737793
0.939941 0.791016 0.737793
0.000001 0.942871 0.737793
0.343018 0.942871 0.737793
0.589844 0.942871 0.737793
0.779785 0.942871 0.737793
0.939941 0.942871 0.737793
0.000003 0.000000 0.923828
0.343018 0.000000 0.923828
0.589844 0.000000 0.923828
0.779785 0.000000 0.923828
0.939941 0.000000 0.923828
0.000003 0.350098 0.923828
0.343018 0.350098 0.923828
0.589844 0.350098 0.923828
0.779785 0.350098 0.923828
0.939941 0.350098 0.923828
0.000003 0.606445 0.923828
0.343018 0.606445 0.923828
0.589844 0.606445 0.923828
0.779785 0.606445 0.923828
0.939941 0.606445 0.923828
0.000003 0.791016 0.923828
0.343018 0.791016 0.923828
0.589844 0.791016 0.923828
0.779785 0.791016 0.923828
0.939941 0.791016 0.923828
0.000003 0.942871 0.923828
0.343018 0.942871 0.923828
0.589844 0.942871 0.923828
0.779785 0.942871 0.923828
0.939941 0.942871 0.923828
