cubelut/Adanmq_Portra 100t.cube
TITLE "Generated by Foundry::LUT"
LUT_3D_SIZE 5
DOMAIN_MIN 0.000000 0.000000 0.000000
DOMAIN_MAX 0.903226 0.903226 0.903226
0.000000 0.000000 0.000000
0.145996 0.000000 0.000000
0.362061 0.000000 0.000000
0.612793 0.000000 0.000000
0.893555 0.000000 0.000000
0.000000 0.135620 0.000000
0.145996 0.135620 0.000000
0.362061 0.135620 0.000000
0.612793 0.135620 0.000000
0.893555 0.135620 0.000000
0.000000 0.349609 0.000000
0.145996 0.349609 0.000000
0.362061 0.349609 0.000000
0.612793 0.349609 0.000000
0.893555 0.349609 0.000000
0.000000 0.605469 0.000000
0.145996 0.605469 0.000000
0.362061 0.605469 0.000000
0.612793 0.605469 0.000000
0.893555 0.605469 0.000000
0.000000 0.891113 0.000000
0.145996 0.891113 0.000000
0.362061 0.891113 0.000000
0.612793 0.891113 0.000000
0.893555 0.891113 0.000000
0.000000 0.000000 0.111328
0.145996 0.000000 0.111328
0.362061 0.000000 0.111328
0.612793 0.000000 0.111328
0.893555 0.000000 0.111328
0.000000 0.135620 0.111328
0.145996 0.135620 0.111328
0.362061 0.135620 0.111328
0.612793 0.135620 0.111328
0.893555 0.135620 0.111328
0.000000 0.349609 0.111328
0.145996 0.349609 0.111328
0.362061 0.349609 0.111328
0.612793 0.349609 0.111328
0.893555 0.349609 0.111328
0.000000 0.605469 0.111328
0.145996 0.605469 0.111328
0.362061 0.605469 0.111328
0.612793 0.605469 0.111328
0.893555 0.605469 0.111328
0.000000 0.891113 0.111328
0.145996 0.891113 0.111328
0.362061 0.891113 0.111328
0.612793 0.891113 0.111328
0.893555 0.891113 0.111328
0.000000 0.000000 0.313477
0.145996 0.000000 0.313477
0.362061 0.000000 0.313477
0.612793 0.000000 0.313477
0.893555 0.000000 0.313477
0.000000 0.135620 0.313477
0.145996 0.135620 0.313477
0.362061 0.135620 0.313477
0.612793 0.135620 0.313477
0.893555 0.135620 0.313477
0.000000 0.349609 0.313477
0.145996 0.349609 0.313477
0.362061 0.349609 0.313477
0.612793 0.349609 0.313477
0.893555 0.349609 0.313477
0.000000 0.605469 0.313477
0.145996 0.605469 0.313477
0.362061 0.605469 0.313477
0.612793 0.605469 0.313477
0.893555 0.605469 0.313477
0.000000 0.891113 0.313477
0.145996 0.891113 0.313477
0.362061 0.891113 0.313477
0.612793 0.891113 0.313477
0.893555 0.891113 0.313477
0.000000 0.000000 0.571289
0.146118 0.000000 0.571289
0.362061 0.000000 0.571289
0.612793 0.000000 0.571289
0.893555 0.000000 0.571289
0.000000 0.135620 0.571289
0.146118 0.135620 0.571289
0.362061 0.135620 0.571289
0.612793 0.135620 0.571289
0.893555 0.135620 0.571289
0.000000 0.349609 0.571289
0.146118 0.349609 0.571289
0.362061 0.349609 0.571289
0.612793 0.349609 0.571289
0.893555 0.349609 0.571289
0.000000 0.605469 0.571289
0.146118 0.605469 0.571289
0.362061 0.605469 0.571289
0.612793 0.605469 0.571289
0.893555 0.605469 0.571289
0.000000 0.891113 0.571289
0.146118 0.891113 0.571289
0.362061 0.891113 0.571289
0.612793 0.891113 0.571289
0.893555 0.891113 0.571289
0.000000 0.000000 0.873535
0.146118 0.000000 0.873535
0.362305 0.000000 0.873535
0.612793 0.000000 0.873535
0.893555 0.000000 0.873535
0.000000 0.135620 0.873535
0.146118 0.135620 0.873535
0.362305 0.135620 0.873535
0.612793 0.135620 0.873535
0.893555 0.135620 0.873535
0.000000 0.349609 0.873535
0.146118 0.349609 0.873535
0.362305 0.349609 0.873535
0.612793 0.349609 0.873535
0.893555 0.349609 0.873535
0.000000 0.605469 0.873535
0.146118 0.605469 0.873535
0.362305 0.605469 0.873535
0.612793 0.605469 0.873535
0.893555 0.605469 0.873535
0.000000 0.891113 0.873535
0.146118 0.891113 0.873535
0.362305 0.891113 0.873535
0.612793 0.891113 0.873535
0.893555 0.891113 0.873535
