cubelut/Adanmq_Portra 400v.cube
TITLE "Generated by Foundry::LUT"
LUT_3D_SIZE 8
DOMAIN_MIN 0.000000 0.000000 0.000000
DOMAIN_MAX 0.903226 0.903226 0.903226
0.000000 0.000000 0.000000
0.069763 0.000000 0.000000
0.174561 0.000000 0.000000
0.296875 0.000000 0.000000
0.432129 0.000000 0.000000
0.577148 0.000000 0.000000
0.733398 0.000000 0.000000
0.894043 0.000000 0.000000
0.000000 0.062378 0.000000
0.069763 0.062378 0.000000
0.174561 0.062378 0.000000
0.296875 0.062378 0.000000
0.432129 0.062378 0.000000
0.577148 0.062378 0.000000
0.733398 0.062378 0.000000
0.894043 0.062378 0.000000
0.000000 0.161255 0.000000
0.069763 0.161255 0.000000
0.174561 0.161255 0.000000
0.296875 0.161377 0.000000
0.432129 0.161377 0.000000
0.577148 0.161377 0.000000
0.733398 0.161377 0.000000
0.894043 0.161377 0.000000
0.000000 0.280518 0.000000
0.069763 0.280518 0.000000
0.174561 0.280518 0.000000
0.296875 0.280518 0.000000
0.432129 0.280518 0.000000
0.577148 0.280518 0.000000
0.733398 0.280518 0.000000
0.894043 0.280518 0.000000
0.000000 0.414063 0.000000
0.069763 0.414063 0.000000
0.174561 0.414063 0.000000
0.296875 0.414063 0.000000
0.432129 0.414063 0.000000
0.577148 0.414063 0.000000
0.733398 0.414063 0.000000
0.894043 0.414063 0.000000
0.000000 0.559082 0.000000
0.069763 0.559082 0.000000
0.174561 0.559082 0.000000
0.296875 0.559082 0.000000
0.432129 0.559082 0.000000
0.577148 0.559082 0.000000
0.733398 0.559082 0.000000
0.894043 0.559082 0.000000
0.000000 0.717285 0.000000
0.069763 0.717285 0.000000
0.174561 0.717285 0.000000
0.296875 0.717285 0.000000
0.432129 0.717285 0.000000
0.577148 0.717285 0.000000
0.733398 0.717285 0.000000
0.894043 0.717285 0.000000
0.000000 0.878906 0.000000
0.069763 0.878906 0.000000
0.174561 0.878906 0.000000
0.296875 0.878906 0.000000
0.432129 0.878906 0.000000
0.577148 0.878906 0.000000
0.733398 0.878906 0.000000
0.894043 0.878906 0.000000
0.000000 0.000000 0.048737
0.069763 0.000000 0.048737
0.174561 0.000000 0.048737
0.296875 0.000000 0.048737
0.432129 0.000000 0.048737
0.577148 0.000000 0.048737
0.733398 0.000000 0.048737
0.894043 0.000000 0.048737
0.000000 0.062378 0.048737
0.069763 0.062378 0.048737
0.174561 0.062378 0.048737
0.296875 0.062378 0.048737
0.432129 0.062378 0.048737
0.577148 0.062378 0.048737
0.733398 0.062378 0.048737
0.894043 0.062378 0.048737
0.000000 0.161255 0.048737
0.069763 0.161255 0.048737
0.174561 0.161255 0.048737
0.296875 0.161255 0.048737
0.432129 0.161377 0.048737
0.577148 0.161377 0.048737
0.733398 0.161377 0.048737
0.894043 0.161377 0.048737
0.000000 0.280518 0.048737
0.069763 0.280518 0.048737
0.174561 0.280518 0.048737
0.296875 0.280518 0.048737
0.432129 0.280518 0.048737
0.577148 0.280518 0.048737
0.733398 0.280518 0.048737
0.894043 0.280518 0.048737
0.000000 0.414063 0.048737
0.069763 0.414063 0.048737
0.174561 0.414063 0.048737
0.296875 0.414063 0.048737
0.432129 0.414063 0.048737
0.577148 0.414063 0.048737
0.733398 0.414063 0.048737
0.894043 0.414063 0.048737
0.000000 0.559082 0.048737
0.069763 0.559082 0.048737
0.174561 0.559082 0.048737
0.296875 0.559082 0.048737
0.432129 0.559082 0.048737
0.577148 0.559082 0.048737
0.733398 0.559082 0.048737
0.894043 0.559082 0.048737
0.000000 0.717285 0.048737
0.069763 0.717285 0.048737
0.174561 0.717285 0.048737
0.296875 0.717285 0.048737
0.432129 0.717285 0.048737
0.577148 0.717285 0.048737
0.733398 0.717285 0.048737
0.894043 0.717285 0.048737
0.000000 0.878906 0.048737
0.069763 0.878906 0.048737
0.174561 0.878906 0.048737
0.296875 0.878906 0.048737
0.432129 0.878906 0.048737
0.577148 0.878906 0.048737
0.733398 0.878906 0.048737
0.894043 0.878906 0.048737
0.000000 0.000000 0.137817
0.069763 0.000000 0.137817
0.174561 0.000000 0.137817
0.296875 0.000000 0.137817
0.432129 0.000000 0.137817
0.577148 0.000000 0.137817
0.733398 0.000000 0.137817
0.894043 0.000000 0.137817
0.000000 0.062378 0.137817
0.069763 0.062378 0.137817
0.174561 0.062378 0.137817
0.296875 0.062378 0.137817
0.432129 0.062378 0.137817
0.577148 0.062378 0.137817
0.733398 0.062378 0.137817
0.894043 0.062378 0.137817
0.000000 0.161255 0.137817
0.069763 0.161255 0.137817
0.174561 0.161255 0.137817
0.296875 0.161255 0.137817
0.432129 0.161255 0.137817
0.577148 0.161377 0.137817
0.733398 0.161377 0.137817
0.894043 0.161377 0.137817
0.000000 0.280518 0.137817
0.069763 0.280518 0.137817
0.174561 0.280518 0.137817
0.296875 0.280518 0.137817
0.432129 0.280518 0.137817
0.577148 0.280518 0.137817
0.733398 0.280518 0.137817
0.894043 0.280518 0.137817
0.000000 0.414063 0.137817
0.069763 0.414063 0.137817
0.174561 0.414063 0.137817
0.296875 0.414063 0.137817
0.432129 0.414063 0.137817
0.577148 0.414063 0.137817
0.733398 0.414063 0.137817
0.894043 0.414063 0.137817
0.000000 0.559082 0.137817
0.069763 0.559082 0.137817
0.174561 0.559082 0.137817
0.296875 0.559082 0.137817
0.432129 0.559082 0.137817
0.577148 0.559082 0.137817
0.733398 0.559082 0.137817
0.894043 0.559082 0.137817
0.000000 0.717285 0.137817
0.069763 0.717285 0.137817
0.174561 0.717285 0.137817
0.296875 0.717285 0.137817
0.432129 0.717285 0.137817
0.577148 0.717285 0.137817
0.733398 0.717285 0.137817
0.894043 0.717285 0.137817
0.000000 0.878906 0.137817
0.069763 0.878906 0.137817
0.174561 0.878906 0.137817
0.296875 0.878906 0.137817
0.432129 0.878906 0.137817
0.577148 0.878906 0.137817
0.733398 0.878906 0.137817
0.894043 0.878906 0.137817
0.000000 0.000000 0.252197
0.069763 0.000000 0.252197
0.174561 0.000000 0.252197
0.296875 0.000000 0.252197
0.432129 0.000000 0.252197
0.577148 0.000000 0.252197
0.733398 0.000000 0.252197
0.894043 0.000000 0.252197
0.000000 0.062378 0.252197
0.069763 0.062378 0.252197
0.174561 0.062378 0.252197
0.296875 0.062378 0.252197
0.432129 0.062378 0.252197
0.577148 0.062378 0.252197
0.733398 0.062378 0.252197
0.894043 0.062378 0.252197
0.000000 0.161255 0.252197
0.069763 0.161255 0.252197
0.174561 0.161255 0.252197
0.296875 0.161255 0.252197
0.432129 0.161255 0.252197
0.577148 0.161255 0.252197
0.733398 0.161377 0.252197
0.894043 0.161377 0.252197
0.000000 0.280518 0.252197
0.069763 0.280518 0.252197
0.174561 0.280518 0.252197
0.296875 0.280518 0.252197
0.432129 0.280518 0.252197
0.577148 0.280518 0.252197
0.733398 0.280518 0.252197
0.894043 0.280518 0.252197
0.000000 0.414063 0.252197
0.069763 0.414063 0.252197
0.174561 0.414063 0.252197
0.296875 0.414063 0.252197
0.432129 0.414063 0.252197
0.577148 0.414063 0.252197
0.733398 0.414063 0.252197
0.894043 0.414063 0.252197
0.000000 0.559082 0.252197
0.069763 0.559082 0.252197
0.174561 0.559082 0.252197
0.296875 0.559082 0.252197
0.432129 0.559082 0.252197
0.577148 0.559082 0.252197
0.733398 0.559082 0.252197
0.894043 0.559082 0.252197
0.000000 0.717285 0.252197
0.069763 0.717285 0.252197
0.174561 0.717285 0.252197
0.296875 0.717285 0.252197
0.432129 0.717285 0.252197
0.577148 0.717285 0.252197
0.733398 0.717285 0.252197
0.894043 0.717285 0.252197
0.000000 0.878906 0.252197
0.069763 0.878906 0.252197
0.174561 0.878906 0.252197
0.296875 0.878906 0.252197
0.432129 0.878906 0.252197
0.577148 0.878906 0.252197
0.733398 0.878906 0.252197
0.894043 0.878906 0.252197
0.000000 0.000000 0.386719
0.069824 0.000000 0.386719
0.174561 0.000000 0.386719
0.296875 0.000000 0.386719
0.432129 0.000000 0.386719
0.577148 0.000000 0.386719
0.733398 0.000000 0.386719
0.894043 0.000000 0.386719
0.000000 0.062347 0.386719
0.069824 0.062378 0.386719
0.174561 0.062378 0.386719
0.296875 0.062378 0.386719
0.432129 0.062378 0.386719
0.577148 0.062378 0.386719
0.733398 0.062378 0.386719
0.894043 0.062378 0.386719
0.000000 0.161255 0.386719
0.069824 0.161255 0.386719
0.174561 0.161255 0.386719
0.296875 0.161255 0.386719
0.432129 0.161255 0.386719
0.577148 0.161255 0.386719
0.733398 0.161255 0.386719
0.894043 0.161377 0.386719
0.000000 0.280518 0.386719
0.069824 0.280518 0.386719
0.174561 0.280518 0.386719
0.296875 0.280518 0.386719
0.432129 0.280518 0.386719
0.577148 0.280518 0.386719
0.733398 0.280518 0.386719
0.894043 0.280518 0.386963
0.000000 0.414063 0.386963
0.069824 0.414063 0.386963
0.174561 0.414063 0.386963
0.296875 0.414063 0.386963
0.432129 0.414063 0.386963
0.577148 0.414063 0.386963
0.733398 0.414063 0.386963
0.894043 0.414063 0.386963
0.000000 0.559082 0.386963
0.069824 0.559082 0.386963
0.174561 0.559082 0.386963
0.296875 0.559082 0.386963
0.432129 0.559082 0.386963
0.577148 0.559082 0.386963
0.733398 0.559082 0.386963
0.894043 0.559082 0.386963
0.000000 0.717285 0.386963
0.069824 0.717285 0.386963
0.174561 0.717285 0.386963
0.296875 0.717285 0.386963
0.432129 0.717285 0.386963
0.577148 0.717285 0.386963
0.733398 0.717285 0.386963
0.894043 0.717285 0.386963
0.000000 0.878906 0.386963
0.069824 0.878906 0.386963
0.174561 0.878906 0.386963
0.296875 0.878906 0.386963
0.432129 0.878906 0.386963
0.577148 0.878906 0.386963
0.733398 0.878906 0.386963
0.894043 0.878906 0.386963
0.000000 0.000000 0.537109
0.069824 0.000000 0.537109
0.174683 0.000000 0.537109
0.296875 0.000000 0.537109
0.432129 0.000000 0.537109
0.577637 0.000000 0.537109
0.733398 0.000000 0.537109
0.894043 0.000000 0.537109
0.000000 0.062347 0.537109
0.069824 0.062347 0.537109
0.174683 0.062378 0.537109
0.296875 0.062378 0.537109
0.432129 0.062378 0.537109
0.577637 0.062378 0.537109
0.733398 0.062378 0.537109
0.894043 0.062378 0.537109
0.000000 0.161255 0.537109
0.069824 0.161255 0.537109
0.174683 0.161255 0.537109
0.296875 0.161255 0.537109
0.432129 0.161255 0.537109
0.577637 0.161255 0.537109
0.733398 0.161255 0.537109
0.894043 0.161255 0.537109
0.000000 0.280518 0.537109
0.069824 0.280518 0.537109
0.174683 0.280518 0.537109
0.296875 0.280518 0.537109
0.432129 0.280518 0.537109
0.577637 0.280518 0.537109
0.733398 0.280518 0.537109
0.894043 0.280518 0.537109
0.000000 0.414063 0.537109
0.069824 0.414063 0.537109
0.174683 0.414063 0.537109
0.296875 0.414063 0.537109
0.432129 0.414063 0.537109
0.577637 0.414063 0.537109
0.733398 0.414063 0.537109
0.894043 0.414063 0.537109
0.000000 0.559082 0.537109
0.069824 0.559082 0.537109
0.174683 0.559082 0.537109
0.296875 0.559082 0.537109
0.432129 0.559082 0.537109
0.577637 0.559082 0.537109
0.733398 0.559082 0.537109
0.894043 0.559082 0.537109
0.000000 0.717285 0.537109
0.069824 0.717285 0.537109
0.174683 0.717285 0.537109
0.296875 0.717285 0.537109
0.432129 0.717285 0.537109
0.577637 0.717285 0.537109
0.733398 0.717285 0.537109
0.894043 0.717285 0.537109
0.000000 0.878906 0.537109
0.069824 0.878906 0.537109
0.174683 0.878906 0.537109
0.296875 0.878906 0.537109
0.432129 0.878906 0.537109
0.577637 0.878906 0.537109
0.733398 0.878906 0.537109
0.894043 0.878906 0.537109
0.000000 0.000000 0.704590
0.069824 0.000000 0.704590
0.174683 0.000000 0.704590
0.296875 0.000000 0.704590
0.432373 0.000000 0.704590
0.577637 0.000000 0.704590
0.733398 0.000000 0.704590
0.894043 0.000000 0.704590
0.000000 0.062347 0.704590
0.069824 0.062347 0.704590
0.174683 0.062347 0.704590
0.296875 0.062378 0.704590
0.432373 0.062378 0.704590
0.577637 0.062378 0.704590
0.733398 0.062378 0.704590
0.894043 0.062378 0.704590
0.000000 0.161255 0.704590
0.069824 0.161255 0.704590
0.174683 0.161255 0.704590
0.296875 0.161255 0.704590
0.432373 0.161255 0.704590
0.577637 0.161255 0.704590
0.733398 0.161255 0.704590
0.894043 0.161255 0.704590
0.000000 0.280518 0.704590
0.069824 0.280518 0.704590
0.174683 0.280518 0.704590
0.296875 0.280518 0.704590
0.432373 0.280518 0.704590
0.577637 0.280518 0.704590
0.733398 0.280518 0.704590
0.894043 0.280518 0.704590
0.000000 0.414063 0.704590
0.069824 0.414063 0.704590
0.174683 0.414063 0.704590
0.296875 0.414063 0.704590
0.432373 0.414063 0.704590
0.577637 0.414063 0.704590
0.733398 0.414063 0.704590
0.894043 0.414063 0.704590
0.000000 0.559082 0.704590
0.069824 0.559082 0.704590
0.174683 0.559082 0.704590
0.296875 0.559082 0.704590
0.432373 0.559082 0.704590
0.577637 0.559082 0.704590
0.733398 0.559082 0.704590
0.894043 0.559082 0.704590
0.000000 0.717285 0.704590
0.069824 0.717285 0.704590
0.174683 0.717285 0.704590
0.296875 0.717285 0.704590
0.432373 0.717285 0.704590
0.577637 0.717285 0.704590
0.733398 0.717285 0.704590
0.894043 0.717285 0.704590
0.000000 0.878906 0.704590
0.069824 0.878906 0.704590
0.174683 0.878906 0.704590
0.296875 0.878906 0.704590
0.432373 0.878906 0.704590
0.577637 0.878906 0.704590
0.733398 0.878906 0.704590
0.894043 0.878906 0.704590
0.000001 0.000000 0.882813
0.069885 0.000000 0.882813
0.174683 0.000000 0.882813
0.296875 0.000000 0.882813
0.432373 0.000000 0.882813
0.577637 0.000000 0.882813
0.733398 0.000000 0.882813
0.894043 0.000000 0.882813
0.000001 0.062347 0.882813
0.069885 0.062347 0.882813
0.174683 0.062347 0.882813
0.296875 0.062347 0.882813
0.432373 0.062378 0.882813
0.577637 0.062378 0.882813
0.733398 0.062378 0.882813
0.894043 0.062378 0.882813
0.000001 0.161255 0.882813
0.069885 0.161255 0.882813
0.174683 0.161255 0.882813
0.296875 0.161255 0.882813
0.432373 0.161255 0.882813
0.577637 0.161255 0.882813
0.733398 0.161255 0.882813
0.894043 0.161255 0.882813
0.000001 0.280518 0.882813
0.069885 0.280518 0.882813
0.174683 0.280518 0.882813
0.296875 0.280518 0.882813
0.432373 0.280518 0.882813
0.577637 0.280518 0.882813
0.733398 0.280518 0.882813
0.894043 0.280518 0.882813
0.000001 0.414063 0.882813
0.069885 0.414063 0.882813
0.174683 0.414063 0.882813
0.296875 0.414063 0.882813
0.432373 0.414063 0.882813
0.577637 0.414063 0.882813
0.733398 0.414063 0.882813
0.894043 0.414063 0.882813
0.000001 0.559082 0.882813
0.069885 0.559082 0.882813
0.174683 0.559082 0.882813
0.296875 0.559082 0.882813
0.432373 0.559082 0.882813
0.577637 0.559082 0.882813
0.733398 0.559082 0.882813
0.894043 0.559082 0.882813
0.000001 0.717285 0.882813
0.069885 0.717285 0.882813
0.174683 0.717285 0.882813
0.296875 0.717285 0.882813
0.432373 0.717285 0.882813
0.577637 0.717285 0.882813
0.733398 0.717285 0.882813
0.894043 0.717285 0.882813
0.000001 0.878906 0.882813
0.069885 0.878906 0.882813
0.174683 0.878906 0.882813
0.296875 0.878906 0.882813
0.432373 0.878906 0.882813
0.577637 0.878906 0.882813
0.733398 0.878906 0.882813
0.894043 0.878906 0.882813
