cubelut/Adanmq_AgfaColor Ultra 050.cube
TITLE "Generated by Foundry::LUT"
LUT_3D_SIZE 5
DOMAIN_MIN 0.000000 0.000000 0.000000
DOMAIN_MAX 0.903226 0.903226 0.903226
0.000000 0.000000 0.000000
0.297363 0.000000 0.000000
0.525879 0.000000 0.000000
0.734863 0.000000 0.000000
0.930664 0.000000 0.000000
0.000000 0.446289 0.000000
0.297363 0.446289 0.000000
0.525879 0.446289 0.000000
0.734863 0.446289 0.000000
0.930664 0.446289 0.000000
0.000000 0.686523 0.000000
0.297363 0.686523 0.000000
0.525879 0.686523 0.000000
0.734863 0.686523 0.000000
0.930664 0.686523 0.000000
0.000000 0.843750 0.000000
0.297363 0.843750 0.000000
0.525879 0.843750 0.000000
0.734863 0.843750 0.000000
0.930664 0.843750 0.000000
0.000000 0.961426 0.000000
0.297363 0.961426 0.000000
0.525879 0.961426 0.000000
0.734863 0.961426 0.000000
0.930664 0.961426 0.000000
0.000000 0.000000 0.416992
0.297363 0.000000 0.416992
0.525879 0.000000 0.416992
0.734863 0.000000 0.416992
0.930664 0.000000 0.416992
0.000000 0.446289 0.416992
0.297363 0.446289 0.416992
0.525879 0.446289 0.416992
0.734863 0.446289 0.416992
0.930664 0.446289 0.416992
0.000000 0.686523 0.416992
0.297363 0.686523 0.416992
0.525879 0.686523 0.416992
0.734863 0.686523 0.416992
0.930664 0.686523 0.416992
0.000000 0.843750 0.416992
0.297363 0.843750 0.416992
0.525879 0.843750 0.416992
0.734863 0.843750 0.416992
0.930664 0.843750 0.416992
0.000000 0.961426 0.416992
0.297363 0.961426 0.416992
0.525879 0.961426 0.416992
0.734863 0.961426 0.416992
0.930664 0.961426 0.416992
0.000001 0.000000 0.645996
0.297607 0.000000 0.645996
0.526367 0.000000 0.645996
0.734863 0.000000 0.645996
0.930664 0.000000 0.645996
0.000001 0.446289 0.645996
0.297607 0.446289 0.645996
0.526367 0.446289 0.645996
0.734863 0.446289 0.645996
0.930664 0.446289 0.645996
0.000001 0.686523 0.645996
0.297607 0.686523 0.645996
0.526367 0.686523 0.645996
0.734863 0.686523 0.645996
0.930664 0.686523 0.645996
0.000001 0.843750 0.645996
0.297607 0.843750 0.645996
0.526367 0.843750 0.645996
0.734863 0.843750 0.645996
0.930664 0.843750 0.645996
0.000001 0.961426 0.645996
0.297607 0.961426 0.645996
0.526367 0.961426 0.645996
0.734863 0.961426 0.645996
0.930664 0.961426 0.645996
0.000003 0.000000 0.814453
0.297607 0.000000 0.814453
0.526367 0.000000 0.814453
0.734863 0.000000 0.814453
0.930664 0.000000 0.814453
0.000003 0.446289 0.814453
0.297607 0.446289 0.814453
0.526367 0.446289 0.814453
0.734863 0.446289 0.814453
0.930664 0.446289 0.814453
0.000003 0.686523 0.814453
0.297607 0.686523 0.814453
0.526367 0.686523 0.814453
0.734863 0.686523 0.814453
0.930664 0.686523 0.814453
0.000003 0.843750 0.814453
0.297607 0.843750 0.814453
0.526367 0.843750 0.814453
0.734863 0.843750 0.814453
0.930664 0.843750 0.814453
0.000003 0.961426 0.814453
0.297607 0.961426 0.814453
0.526367 0.961426 0.814453
0.734863 0.961426 0.814453
0.930664 0.961426 0.814453
0.000006 0.000000 0.952637
0.297607 0.000000 0.952637
0.526367 0.000000 0.952637
0.734863 0.000000 0.952637
0.930664 0.000000 0.952637
0.000006 0.446289 0.952637
0.297607 0.446289 0.952637
0.526367 0.446289 0.952637
0.734863 0.446289 0.952637
0.930664 0.446289 0.952637
0.000006 0.686523 0.952637
0.297607 0.686523 0.952637
0.526367 0.686523 0.952637
0.734863 0.686523 0.952637
0.930664 0.686523 0.952637
0.000006 0.843750 0.952637
0.297607 0.843750 0.952637
0.526367 0.843750 0.952637
0.734863 0.843750 0.952637
0.930664 0.843750 0.952637
0.000006 0.961426 0.952637
0.297607 0.961426 0.952637
0.526367 0.961426 0.952637
0.734863 0.961426 0.952637
0.930664 0.961426 0.952637
