cubelut/Adanmq_AgfaColor Futura II 100.cube
TITLE "Generated by Foundry::LUT"
LUT_3D_SIZE 5
DOMAIN_MIN 0.000000 0.000000 0.000000
DOMAIN_MAX 0.903226 0.903226 0.903226
0.000000 0.000000 0.000000
0.229980 0.000000 0.000000
0.499268 0.000000 0.000000
0.748047 0.000000 0.000000
0.940430 0.000000 0.000000
0.000000 0.224243 0.000000
0.229980 0.224243 0.000000
0.499268 0.224243 0.000000
0.748047 0.224365 0.000000
0.940430 0.224365 0.000000
0.000000 0.488037 0.000000
0.229980 0.488037 0.000000
0.499268 0.488037 0.000000
0.748047 0.488037 0.000000
0.940430 0.488037 0.000000
0.000000 0.728027 0.000000
0.229980 0.728027 0.000000
0.499268 0.728027 0.000000
0.748047 0.728027 0.000000
0.940430 0.728027 0.000000
0.000000 0.933594 0.000000
0.229980 0.933594 0.000000
0.499268 0.933594 0.000000
0.748047 0.933594 0.000000
0.940430 0.933594 0.000000
0.000000 0.000000 0.194092
0.229980 0.000000 0.194092
0.499268 0.000000 0.194092
0.748047 0.000000 0.194092
0.940430 0.000000 0.194092
0.000000 0.224243 0.194092
0.229980 0.224243 0.194092
0.499268 0.224243 0.194092
0.748047 0.224243 0.194092
0.940430 0.224365 0.194092
0.000000 0.488037 0.194092
0.229980 0.488037 0.194092
0.499268 0.488037 0.194092
0.748047 0.488037 0.194092
0.940430 0.488037 0.194092
0.000000 0.728027 0.194092
0.229980 0.728027 0.194092
0.499268 0.728027 0.194092
0.748047 0.728027 0.194092
0.940430 0.728027 0.194092
0.000000 0.933594 0.194092
0.229980 0.933594 0.194092
0.499268 0.933594 0.194092
0.748047 0.933594 0.194092
0.940430 0.933594 0.194092
0.000000 0.000000 0.450928
0.229980 0.000000 0.450928
0.499512 0.000000 0.450928
0.748047 0.000000 0.450928
0.940430 0.000000 0.450928
0.000000 0.224243 0.450928
0.229980 0.224243 0.450928
0.499512 0.224243 0.450928
0.748047 0.224243 0.450928
0.940430 0.224243 0.450928
0.000000 0.488037 0.450928
0.229980 0.488037 0.450928
0.499512 0.488037 0.450928
0.748047 0.488037 0.450928
0.940430 0.488037 0.450928
0.000000 0.728027 0.450928
0.229980 0.728027 0.450928
0.499512 0.728027 0.450928
0.748047 0.728027 0.450928
0.940430 0.728027 0.450928
0.000000 0.933594 0.450928
0.229980 0.933594 0.450928
0.499512 0.933594 0.450928
0.748047 0.933594 0.450928
0.940430 0.933594 0.450928
0.000000 0.000000 0.712402
0.230103 0.000000 0.712402
0.499512 0.000000 0.712402
0.748047 0.000000 0.712402
0.940430 0.000000 0.712402
0.000000 0.224243 0.712402
0.230103 0.224243 0.712402
0.499512 0.224243 0.712402
0.748047 0.224243 0.712402
0.940430 0.224243 0.712402
0.000000 0.488037 0.712402
0.230103 0.488037 0.712402
0.499512 0.488037 0.712402
0.748047 0.488037 0.712402
0.940430 0.488037 0.712402
0.000000 0.728027 0.712402
0.230103 0.728027 0.712402
0.499512 0.728027 0.712402
0.748047 0.728027 0.712402
0.940430 0.728027 0.712402
0.000000 0.933594 0.712402
0.230103 0.933594 0.712402
0.499512 0.933594 0.712402
0.748047 0.933594 0.712402
0.940430 0.933594 0.712402
0.000001 0.000000 0.934570
0.230103 0.000000 0.934570
0.499512 0.000000 0.934570
0.748047 0.000000 0.934570
0.940430 0.000000 0.934570
0.000001 0.224243 0.934570
0.230103 0.224243 0.934570
0.499512 0.224243 0.934570
0.748047 0.224243 0.934570
0.940430 0.224243 0.934570
0.000001 0.488037 0.934570
0.230103 0.488037 0.934570
0.499512 0.488037 0.934570
0.748047 0.488037 0.934570
0.940430 0.488037 0.934570
0.000001 0.728027 0.934570
0.230103 0.728027 0.934570
0.499512 0.728027 0.934570
0.748047 0.728027 0.934570
0.940430 0.728027 0.934570
0.000001 0.933594 0.934570
0.230103 0.933594 0.934570
0.499512 0.933594 0.934570
0.748047 0.933594 0.934570
0.940430 0.933594 0.934570
