cubelut/Adanmq_Ektachrome 100+.cube
TITLE "Generated by Foundry::LUT"
LUT_3D_SIZE 8
DOMAIN_MIN 0.000000 0.000000 0.000000
DOMAIN_MAX 0.903226 0.903226 0.903226
0.000000 0.000000 0.000000
0.108032 0.000000 0.000000
0.533691 0.000000 0.000000
0.794434 0.000000 0.000000
0.906250 0.000000 0.000000
0.956055 0.000000 0.000000
0.980469 0.000000 0.000000
0.992188 0.000000 0.000000
0.000000 0.029617 0.000000
0.108032 0.029617 0.000000
0.533691 0.029617 0.000000
0.794434 0.029617 0.000000
0.906250 0.029633 0.000000
0.956055 0.029633 0.000000
0.980469 0.029633 0.000000
0.992188 0.029633 0.000000
0.000000 0.311523 0.000000
0.108032 0.311523 0.000000
0.533691 0.311523 0.000000
0.794434 0.311523 0.000000
0.906250 0.311523 0.000000
0.956055 0.311523 0.000000
0.980469 0.311523 0.000000
0.992188 0.311523 0.000000
0.000000 0.629395 0.000000
0.108032 0.629395 0.000000
0.533691 0.629395 0.000000
0.794434 0.629395 0.000000
0.906250 0.629395 0.000000
0.956055 0.629395 0.000000
0.980469 0.629395 0.000000
0.992188 0.629395 0.000000
0.000000 0.822266 0.000000
0.108032 0.822266 0.000000
0.533691 0.822266 0.000000
0.794434 0.822266 0.000000
0.906250 0.822266 0.000000
0.956055 0.822266 0.000000
0.980469 0.822266 0.000000
0.992188 0.822266 0.000000
0.000000 0.916992 0.000000
0.108032 0.916992 0.000000
0.533691 0.916992 0.000000
0.794434 0.916992 0.000000
0.906250 0.916992 0.000000
0.956055 0.916992 0.000000
0.980469 0.916992 0.000000
0.992188 0.916992 0.000000
0.000000 0.962891 0.000000
0.108032 0.962891 0.000000
0.533691 0.962891 0.000000
0.794434 0.962891 0.000000
0.906250 0.962891 0.000000
0.956055 0.962891 0.000000
0.980469 0.962891 0.000000
0.992188 0.962891 0.000000
0.000000 0.985840 0.000000
0.108032 0.985840 0.000000
0.533691 0.985840 0.000000
0.794434 0.985840 0.000000
0.906250 0.985840 0.000000
0.956055 0.985840 0.000000
0.980469 0.985840 0.000000
0.992188 0.985840 0.000000
0.000000 0.000000 0.028168
0.108093 0.000000 0.028168
0.533691 0.000000 0.028168
0.794434 0.000000 0.028168
0.906250 0.000000 0.028168
0.956055 0.000000 0.028168
0.980469 0.000000 0.028168
0.992188 0.000000 0.028168
0.000000 0.029617 0.028168
0.108093 0.029617 0.028168
0.533691 0.029617 0.028168
0.794434 0.029617 0.028168
0.906250 0.029617 0.028168
0.956055 0.029633 0.028168
0.980469 0.029633 0.028168
0.992188 0.029633 0.028168
0.000000 0.311523 0.028168
0.108093 0.311523 0.028168
0.533691 0.311523 0.028168
0.794434 0.311523 0.028168
0.906250 0.311523 0.028168
0.956055 0.311523 0.028168
0.980469 0.311523 0.028168
0.992188 0.311523 0.028168
0.000000 0.629395 0.028168
0.108093 0.629395 0.028168
0.533691 0.629395 0.028168
0.794434 0.629395 0.028168
0.906250 0.629395 0.028168
0.956055 0.629395 0.028168
0.980469 0.629395 0.028168
0.992188 0.629395 0.028168
0.000000 0.822266 0.028168
0.108093 0.822266 0.028168
0.533691 0.822266 0.028168
0.794434 0.822266 0.028168
0.906250 0.822266 0.028168
0.956055 0.822266 0.028168
0.980469 0.822266 0.028168
0.992188 0.822266 0.028168
0.000000 0.916992 0.028168
0.108093 0.916992 0.028168
0.533691 0.916992 0.028168
0.794434 0.916992 0.028168
0.906250 0.916992 0.028168
0.956055 0.916992 0.028168
0.980469 0.916992 0.028168
0.992188 0.916992 0.028168
0.000000 0.962891 0.028168
0.108093 0.962891 0.028168
0.533691 0.962891 0.028168
0.794434 0.962891 0.028168
0.906250 0.962891 0.028168
0.956055 0.962891 0.028168
0.980469 0.962891 0.028168
0.992188 0.962891 0.028168
0.000000 0.985840 0.028168
0.108093 0.985840 0.028168
0.533691 0.985840 0.028168
0.794434 0.985840 0.028168
0.906250 0.985840 0.028168
0.956055 0.985840 0.028168
0.980469 0.985840 0.028168
0.992188 0.985840 0.028168
0.000000 0.000000 0.233521
0.108154 0.000000 0.233521
0.533691 0.000000 0.233521
0.794434 0.000000 0.233521
0.906250 0.000000 0.233521
0.956055 0.000000 0.233521
0.980469 0.000000 0.233521
0.992188 0.000000 0.233521
0.000000 0.029602 0.233521
0.108154 0.029617 0.233521
0.533691 0.029617 0.233521
0.794434 0.029617 0.233521
0.906250 0.029617 0.233521
0.956055 0.029617 0.233521
0.980469 0.029633 0.233521
0.992188 0.029633 0.233521
0.000000 0.311523 0.233521
0.108154 0.311523 0.233521
0.533691 0.311523 0.233521
0.794434 0.311523 0.233521
0.906250 0.311523 0.233521
0.956055 0.311523 0.233521
0.980469 0.311523 0.233521
0.992188 0.311523 0.233521
0.000000 0.629395 0.233521
0.108154 0.629395 0.233521
0.533691 0.629395 0.233521
0.794434 0.629395 0.233521
0.906250 0.629395 0.233521
0.956055 0.629395 0.233521
0.980469 0.629395 0.233521
0.992188 0.629395 0.233521
0.000000 0.822266 0.233521
0.108154 0.822266 0.233521
0.533691 0.822266 0.233521
0.794434 0.822266 0.233521
0.906250 0.822266 0.233521
0.956055 0.822266 0.233521
0.980469 0.822266 0.233521
0.992188 0.822266 0.233521
0.000000 0.916992 0.233521
0.108154 0.916992 0.233521
0.533691 0.916992 0.233521
0.794434 0.916992 0.233521
0.906250 0.916992 0.233521
0.956055 0.916992 0.233521
0.980469 0.916992 0.233521
0.992188 0.916992 0.233521
0.000000 0.962891 0.233521
0.108154 0.962891 0.233521
0.533691 0.962891 0.233521
0.794434 0.962891 0.233521
0.906250 0.962891 0.233521
0.956055 0.962891 0.233521
0.980469 0.962891 0.233521
0.992188 0.962891 0.233521
0.000000 0.985840 0.233521
0.108154 0.985840 0.233521
0.533691 0.985840 0.233521
0.794434 0.985840 0.233521
0.906250 0.985840 0.233521
0.956055 0.985840 0.233521
0.980469 0.985840 0.233521
0.992188 0.985840 0.233521
0.000000 0.000000 0.500488
0.108215 0.000000 0.500488
0.533691 0.000000 0.500488
0.794434 0.000000 0.500488
0.906250 0.000000 0.500488
0.956055 0.000000 0.500488
0.980469 0.000000 0.500488
0.992188 0.000000 0.500488
0.000000 0.029602 0.500488
0.108215 0.029617 0.500488
0.533691 0.029617 0.500488
0.794434 0.029617 0.500488
0.906250 0.029617 0.500488
0.956055 0.029617 0.500488
0.980469 0.029617 0.500488
0.992188 0.029633 0.500488
0.000000 0.311523 0.500488
0.108215 0.311523 0.500488
0.533691 0.311523 0.500488
0.794434 0.311523 0.500488
0.906250 0.311523 0.500488
0.956055 0.311523 0.500488
0.980469 0.311523 0.500488
0.992188 0.311523 0.500488
0.000000 0.629395 0.500488
0.108215 0.629395 0.500488
0.533691 0.629395 0.500488
0.794434 0.629395 0.500488
0.906250 0.629395 0.500488
0.956055 0.629395 0.500488
0.980469 0.629395 0.500488
0.992188 0.629395 0.500488
0.000000 0.822266 0.500488
0.108215 0.822266 0.500488
0.533691 0.822266 0.500488
0.794434 0.822266 0.500488
0.906250 0.822266 0.500488
0.956055 0.822266 0.500488
0.980469 0.822266 0.500488
0.992188 0.822266 0.500488
0.000000 0.916992 0.500488
0.108215 0.916992 0.500488
0.533691 0.916992 0.500488
0.794434 0.916992 0.500488
0.906250 0.916992 0.500488
0.956055 0.916992 0.500488
0.980469 0.916992 0.500488
0.992188 0.916992 0.500488
0.000000 0.962891 0.500488
0.108215 0.962891 0.500488
0.533691 0.962891 0.500488
0.794434 0.962891 0.500488
0.906250 0.962891 0.500488
0.956055 0.962891 0.500488
0.980469 0.962891 0.500488
0.992188 0.962891 0.500488
0.000000 0.985840 0.500488
0.108215 0.985840 0.500488
0.533691 0.985840 0.500488
0.794434 0.985840 0.500488
0.906250 0.985840 0.500488
0.956055 0.985840 0.500488
0.980469 0.985840 0.500488
0.992188 0.985840 0.500488
0.000000 0.000000 0.676758
0.108276 0.000000 0.676758
0.534180 0.000000 0.676758
0.794434 0.000000 0.676758
0.906250 0.000000 0.676758
0.956055 0.000000 0.676758
0.980469 0.000000 0.676758
0.992188 0.000000 0.676758
0.000000 0.029602 0.676758
0.108276 0.029602 0.676758
0.534180 0.029617 0.676758
0.794434 0.029617 0.676758
0.906250 0.029617 0.676758
0.956055 0.029617 0.676758
0.980469 0.029617 0.676758
0.992188 0.029617 0.676758
0.000000 0.311523 0.676758
0.108276 0.311523 0.676758
0.534180 0.311523 0.676758
0.794434 0.311523 0.676758
0.906250 0.311523 0.676758
0.956055 0.311523 0.676758
0.980469 0.311523 0.676758
0.992188 0.311523 0.676758
0.000000 0.629395 0.676758
0.108276 0.629395 0.676758
0.534180 0.629395 0.676758
0.794434 0.629395 0.676758
0.906250 0.629395 0.676758
0.956055 0.629395 0.676758
0.980469 0.629395 0.676758
0.992188 0.629395 0.676758
0.000000 0.822266 0.676758
0.108276 0.822266 0.676758
0.534180 0.822266 0.676758
0.794434 0.822266 0.676758
0.906250 0.822266 0.676758
0.956055 0.822266 0.676758
0.980469 0.822266 0.676758
0.992188 0.822266 0.676758
0.000000 0.916992 0.676758
0.108276 0.916992 0.676758
0.534180 0.916992 0.676758
0.794434 0.916992 0.676758
0.906250 0.916992 0.676758
0.956055 0.916992 0.676758
0.980469 0.916992 0.676758
0.992188 0.916992 0.676758
0.000000 0.962891 0.676758
0.108276 0.962891 0.676758
0.534180 0.962891 0.676758
0.794434 0.962891 0.676758
0.906250 0.962891 0.676758
0.956055 0.962891 0.676758
0.980469 0.962891 0.676758
0.992188 0.962891 0.676758
0.000000 0.985840 0.676758
0.108276 0.985840 0.676758
0.534180 0.985840 0.676758
0.794434 0.985840 0.676758
0.906250 0.985840 0.676758
0.956055 0.985840 0.676758
0.980469 0.985840 0.676758
0.992188 0.985840 0.676758
0.000000 0.000000 0.799316
0.108337 0.000000 0.799316
0.534180 0.000000 0.799316
0.794434 0.000000 0.799316
0.906250 0.000000 0.799316
0.956055 0.000000 0.799316
0.980469 0.000000 0.799316
0.992188 0.000000 0.799316
0.000000 0.029602 0.799316
0.108337 0.029602 0.799316
0.534180 0.029602 0.799316
0.794434 0.029617 0.799316
0.906250 0.029617 0.799316
0.956055 0.029617 0.799316
0.980469 0.029617 0.799316
0.992188 0.029617 0.799316
0.000000 0.311523 0.799316
0.108337 0.311523 0.799316
0.534180 0.311523 0.799316
0.794434 0.311523 0.799316
0.906250 0.311523 0.799316
0.956055 0.311523 0.799316
0.980469 0.311523 0.799316
0.992188 0.311523 0.799316
0.000000 0.629395 0.799316
0.108337 0.629395 0.799316
0.534180 0.629395 0.799316
0.794434 0.629395 0.799316
0.906250 0.629395 0.799316
0.956055 0.629395 0.799316
0.980469 0.629395 0.799316
0.992188 0.629395 0.799316
0.000000 0.821777 0.799316
0.108337 0.822266 0.799316
0.534180 0.822266 0.799316
0.794434 0.822266 0.799316
0.906250 0.822266 0.799316
0.956055 0.822266 0.799316
0.980469 0.822266 0.799316
0.992188 0.822266 0.799316
0.000000 0.916992 0.799316
0.108337 0.916992 0.799316
0.534180 0.916992 0.799316
0.794434 0.916992 0.799316
0.906250 0.916992 0.799316
0.956055 0.916992 0.799316
0.980469 0.916992 0.799316
0.992188 0.916992 0.799316
0.000000 0.962891 0.799316
0.108337 0.962891 0.799316
0.534180 0.962891 0.799316
0.794434 0.962891 0.799316
0.906250 0.962891 0.799316
0.956055 0.962891 0.799316
0.980469 0.962891 0.799316
0.992188 0.962891 0.799316
0.000000 0.985840 0.799316
0.108337 0.985840 0.799316
0.534180 0.985840 0.799316
0.794434 0.985840 0.799316
0.906250 0.985840 0.799316
0.956055 0.985840 0.799316
0.980469 0.985840 0.799316
0.992188 0.985840 0.799316
0.000000 0.000000 0.888184
0.108398 0.000000 0.888184
0.534180 0.000000 0.888184
0.794434 0.000000 0.888184
0.906250 0.000000 0.888184
0.956055 0.000000 0.888184
0.980469 0.000000 0.888184
0.992188 0.000000 0.888184
0.000000 0.029602 0.888184
0.108398 0.029602 0.888184
0.534180 0.029602 0.888184
0.794434 0.029602 0.888184
0.906250 0.029617 0.888184
0.956055 0.029617 0.888184
0.980469 0.029617 0.888184
0.992188 0.029617 0.888184
0.000000 0.311523 0.888184
0.108398 0.311523 0.888184
0.534180 0.311523 0.888184
0.794434 0.311523 0.888184
0.906250 0.311523 0.888184
0.956055 0.311523 0.888184
0.980469 0.311523 0.888184
0.992188 0.311523 0.888184
0.000000 0.629395 0.888184
0.108398 0.629395 0.888184
0.534180 0.629395 0.888184
0.794434 0.629395 0.888184
0.906250 0.629395 0.888184
0.956055 0.629395 0.888184
0.980469 0.629395 0.888184
0.992188 0.629395 0.888184
0.000000 0.821777 0.888184
0.108398 0.821777 0.888184
0.534180 0.822266 0.888184
0.794434 0.822266 0.888184
0.906250 0.822266 0.888184
0.956055 0.822266 0.888184
0.980469 0.822266 0.888184
0.992188 0.822266 0.888184
0.000000 0.916992 0.888184
0.108398 0.916992 0.888184
0.534180 0.916992 0.888184
0.794434 0.916992 0.888184
0.906250 0.916992 0.888184
0.956055 0.916992 0.888184
0.980469 0.916992 0.888184
0.992188 0.916992 0.888184
0.000000 0.962891 0.888184
0.108398 0.962891 0.888184
0.534180 0.962891 0.888184
0.794434 0.962891 0.888184
0.906250 0.962891 0.888184
0.956055 0.962891 0.888184
0.980469 0.962891 0.888184
0.992188 0.962891 0.888184
0.000000 0.985840 0.888184
0.108398 0.985840 0.888184
0.534180 0.985840 0.888184
0.794434 0.985840 0.888184
0.906250 0.985840 0.888184
0.956055 0.985840 0.888184
0.980469 0.985840 0.888184
0.992188 0.985840 0.888184
0.000000 0.000000 0.958984
0.108459 0.000000 0.958984
0.534180 0.000000 0.958984
0.794434 0.000000 0.958984
0.906250 0.000000 0.958984
0.956055 0.000000 0.958984
0.980469 0.000000 0.958984
0.992188 0.000000 0.958984
0.000000 0.029602 0.958984
0.108459 0.029602 0.958984
0.534180 0.029602 0.958984
0.794434 0.029602 0.958984
0.906250 0.029602 0.958984
0.956055 0.029617 0.958984
0.980469 0.029617 0.958984
0.992188 0.029617 0.958984
0.000000 0.311523 0.958984
0.108459 0.311523 0.958984
0.534180 0.311523 0.958984
0.794434 0.311523 0.958984
0.906250 0.311523 0.958984
0.956055 0.311523 0.958984
0.980469 0.311523 0.958984
0.992188 0.311523 0.958984
0.000000 0.629395 0.958984
0.108459 0.629395 0.958984
0.534180 0.629395 0.958984
0.794434 0.629395 0.958984
0.906250 0.629395 0.958984
0.956055 0.629395 0.958984
0.980469 0.629395 0.958984
0.992188 0.629395 0.958984
0.000000 0.821777 0.958984
0.108459 0.821777 0.958984
0.534180 0.821777 0.958984
0.794434 0.822266 0.958984
0.906250 0.822266 0.958984
0.956055 0.822266 0.958984
0.980469 0.822266 0.958984
0.992188 0.822266 0.958984
0.000000 0.916992 0.958984
0.108459 0.916992 0.958984
0.534180 0.916992 0.958984
0.794434 0.916992 0.958984
0.906250 0.916992 0.958984
0.956055 0.916992 0.958984
0.980469 0.916992 0.958984
0.992188 0.916992 0.958984
0.000000 0.962891 0.958984
0.108459 0.962891 0.958984
0.534180 0.962891 0.958984
0.794434 0.962891 0.958984
0.906250 0.962891 0.958984
0.956055 0.962891 0.958984
0.980469 0.962891 0.958984
0.992188 0.962891 0.958984
0.000000 0.985840 0.958984
0.108459 0.985840 0.958984
0.534180 0.985840 0.958984
0.794434 0.985840 0.958984
0.906250 0.985840 0.958984
0.956055 0.985840 0.958984
0.980469 0.985840 0.958984
0.992188 0.985840 0.958984
