cubelut/Adanmq_Portra 160n.cube
TITLE "Generated by Foundry::LUT"
LUT_3D_SIZE 8
DOMAIN_MIN 0.000000 0.000000 0.000000
DOMAIN_MAX 0.903226 0.903226 0.903226
0.000000 0.000000 0.000000
0.085754 0.000000 0.000000
0.200806 0.000000 0.000000
0.328369 0.000000 0.000000
0.463379 0.000000 0.000000
0.604980 0.000000 0.000000
0.750488 0.000000 0.000000
0.900391 0.000000 0.000000
0.000000 0.078674 0.000000
0.085754 0.078674 0.000000
0.200806 0.078674 0.000000
0.328369 0.078735 0.000000
0.463379 0.078735 0.000000
0.604980 0.078735 0.000000
0.750488 0.078735 0.000000
0.900391 0.078735 0.000000
0.000000 0.189575 0.000000
0.085754 0.189575 0.000000
0.200806 0.189575 0.000000
0.328369 0.189575 0.000000
0.463379 0.189575 0.000000
0.604980 0.189575 0.000000
0.750488 0.189575 0.000000
0.900391 0.189575 0.000000
0.000000 0.314941 0.000000
0.085754 0.314941 0.000000
0.200806 0.314941 0.000000
0.328369 0.314941 0.000000
0.463379 0.314941 0.000000
0.604980 0.314941 0.000000
0.750488 0.314941 0.000000
0.900391 0.314941 0.000000
0.000000 0.450684 0.000000
0.085754 0.450684 0.000000
0.200806 0.450684 0.000000
0.328369 0.450684 0.000000
0.463379 0.450684 0.000000
0.604980 0.450684 0.000000
0.750488 0.450684 0.000000
0.900391 0.450684 0.000000
0.000000 0.593750 0.000000
0.085754 0.593750 0.000000
0.200806 0.593750 0.000000
0.328369 0.593750 0.000000
0.463379 0.593750 0.000000
0.604980 0.593750 0.000000
0.750488 0.593750 0.000000
0.900391 0.593750 0.000000
0.000000 0.745117 0.000000
0.085754 0.745117 0.000000
0.200806 0.745117 0.000000
0.328369 0.745117 0.000000
0.463379 0.745117 0.000000
0.604980 0.745117 0.000000
0.750488 0.745117 0.000000
0.900391 0.745117 0.000000
0.000000 0.898438 0.000000
0.085754 0.898438 0.000000
0.200806 0.898438 0.000000
0.328369 0.898438 0.000000
0.463379 0.898438 0.000000
0.604980 0.898438 0.000000
0.750488 0.898438 0.000000
0.900391 0.898438 0.000000
0.000000 0.000000 0.062469
0.085815 0.000000 0.062469
0.200806 0.000000 0.062469
0.328369 0.000000 0.062469
0.463379 0.000000 0.062469
0.604980 0.000000 0.062469
0.750488 0.000000 0.062469
0.900391 0.000000 0.062469
0.000000 0.078674 0.062469
0.085815 0.078674 0.062469
0.200806 0.078674 0.062469
0.328369 0.078674 0.062469
0.463379 0.078735 0.062469
0.604980 0.078735 0.062469
0.750488 0.078735 0.062469
0.900391 0.078735 0.062469
0.000000 0.189575 0.062469
0.085815 0.189575 0.062469
0.200806 0.189575 0.062469
0.328369 0.189575 0.062469
0.463379 0.189575 0.062469
0.604980 0.189575 0.062469
0.750488 0.189575 0.062469
0.900391 0.189575 0.062469
0.000000 0.314941 0.062469
0.085815 0.314941 0.062469
0.200806 0.314941 0.062469
0.328369 0.314941 0.062469
0.463379 0.314941 0.062469
0.604980 0.314941 0.062469
0.750488 0.314941 0.062469
0.900391 0.314941 0.062469
0.000000 0.450684 0.062469
0.085815 0.450684 0.062469
0.200806 0.450684 0.062469
0.328369 0.450684 0.062469
0.463379 0.450684 0.062469
0.604980 0.450684 0.062469
0.750488 0.450684 0.062469
0.900391 0.450684 0.062469
0.000000 0.593750 0.062469
0.085815 0.593750 0.062469
0.200806 0.593750 0.062469
0.328369 0.593750 0.062469
0.463379 0.593750 0.062469
0.604980 0.593750 0.062469
0.750488 0.593750 0.062469
0.900391 0.593750 0.062469
0.000000 0.745117 0.062469
0.085815 0.745117 0.062469
0.200806 0.745117 0.062469
0.328369 0.745117 0.062469
0.463379 0.745117 0.062469
0.604980 0.745117 0.062469
0.750488 0.745117 0.062469
0.900391 0.745117 0.062469
0.000000 0.898438 0.062469
0.085815 0.898438 0.062469
0.200806 0.898438 0.062469
0.328369 0.898438 0.062469
0.463379 0.898438 0.062469
0.604980 0.898438 0.062469
0.750488 0.898438 0.062469
0.900391 0.898438 0.062469
0.000000 0.000000 0.162109
0.085815 0.000000 0.162109
0.200806 0.000000 0.162109
0.328369 0.000000 0.162109
0.463623 0.000000 0.162109
0.604980 0.000000 0.162109
0.750488 0.000000 0.162109
0.900391 0.000000 0.162109
0.000000 0.078674 0.162109
0.085815 0.078674 0.162109
0.200806 0.078674 0.162109
0.328369 0.078674 0.162109
0.463623 0.078674 0.162109
0.604980 0.078735 0.162109
0.750488 0.078735 0.162109
0.900391 0.078735 0.162109
0.000000 0.189575 0.162109
0.085815 0.189575 0.162109
0.200806 0.189575 0.162109
0.328369 0.189575 0.162109
0.463623 0.189575 0.162109
0.604980 0.189575 0.162109
0.750488 0.189575 0.162109
0.900391 0.189575 0.162109
0.000000 0.314941 0.162109
0.085815 0.314941 0.162109
0.200806 0.314941 0.162109
0.328369 0.314941 0.162109
0.463623 0.314941 0.162109
0.604980 0.314941 0.162109
0.750488 0.314941 0.162109
0.900391 0.314941 0.162109
0.000000 0.450684 0.162109
0.085815 0.450684 0.162109
0.200806 0.450684 0.162109
0.328369 0.450684 0.162109
0.463623 0.450684 0.162109
0.604980 0.450684 0.162109
0.750488 0.450684 0.162109
0.900391 0.450684 0.162109
0.000000 0.593750 0.162109
0.085815 0.593750 0.162109
0.200806 0.593750 0.162109
0.328369 0.593750 0.162109
0.463623 0.593750 0.162109
0.604980 0.593750 0.162109
0.750488 0.593750 0.162109
0.900391 0.593750 0.162109
0.000000 0.745117 0.162109
0.085815 0.745117 0.162109
0.200806 0.745117 0.162109
0.328369 0.745117 0.162109
0.463623 0.745117 0.162109
0.604980 0.745117 0.162109
0.750488 0.745117 0.162109
0.900391 0.745117 0.162109
0.000000 0.898438 0.162109
0.085815 0.898438 0.162109
0.200806 0.898438 0.162109
0.328369 0.898438 0.162109
0.463623 0.898438 0.162109
0.604980 0.898438 0.162109
0.750488 0.898438 0.162109
0.900391 0.898438 0.162109
0.000000 0.000000 0.281982
0.085815 0.000000 0.281982
0.200928 0.000000 0.281982
0.328369 0.000000 0.281982
0.463623 0.000000 0.281982
0.604980 0.000000 0.281982
0.750488 0.000000 0.281982
0.900391 0.000000 0.281982
0.000000 0.078674 0.281982
0.085815 0.078674 0.281982
0.200928 0.078674 0.281982
0.328369 0.078674 0.281982
0.463623 0.078674 0.281982
0.604980 0.078674 0.281982
0.750488 0.078735 0.281982
0.900391 0.078735 0.281982
0.000000 0.189575 0.281982
0.085815 0.189575 0.281982
0.200928 0.189575 0.281982
0.328369 0.189575 0.281982
0.463623 0.189575 0.281982
0.604980 0.189575 0.281982
0.750488 0.189575 0.281982
0.900391 0.189575 0.281982
0.000000 0.314941 0.281982
0.085815 0.314941 0.281982
0.200928 0.314941 0.281982
0.328369 0.314941 0.281982
0.463623 0.314941 0.281982
0.604980 0.314941 0.281982
0.750488 0.314941 0.281982
0.900391 0.314941 0.281982
0.000000 0.450684 0.281982
0.085815 0.450684 0.281982
0.200928 0.450684 0.281982
0.328369 0.450684 0.281982
0.463623 0.450684 0.281982
0.604980 0.450684 0.281982
0.750488 0.450684 0.281982
0.900391 0.450684 0.281982
0.000000 0.593750 0.281982
0.085815 0.593750 0.281982
0.200928 0.593750 0.281982
0.328369 0.593750 0.281982
0.463623 0.593750 0.281982
0.604980 0.593750 0.281982
0.750488 0.593750 0.281982
0.900391 0.593750 0.281982
0.000000 0.745117 0.281982
0.085815 0.745117 0.281982
0.200928 0.745117 0.281982
0.328369 0.745117 0.281982
0.463623 0.745117 0.281982
0.604980 0.745117 0.281982
0.750488 0.745117 0.281982
0.900391 0.745117 0.281982
0.000000 0.898438 0.281982
0.085815 0.898438 0.281982
0.200928 0.898438 0.281982
0.328369 0.898438 0.281982
0.463623 0.898438 0.281982
0.604980 0.898438 0.281982
0.750488 0.898438 0.281982
0.900391 0.898438 0.281982
0.000000 0.000000 0.418701
0.085815 0.000000 0.418701
0.200928 0.000000 0.418701
0.328369 0.000000 0.418701
0.463623 0.000000 0.418701
0.604980 0.000000 0.418701
0.750488 0.000000 0.418701
0.900391 0.000000 0.418701
0.000000 0.078674 0.418701
0.085815 0.078674 0.418701
0.200928 0.078674 0.418701
0.328369 0.078674 0.418701
0.463623 0.078674 0.418701
0.604980 0.078674 0.418701
0.750488 0.078674 0.418701
0.900391 0.078735 0.418701
0.000000 0.189575 0.418701
0.085815 0.189575 0.418701
0.200928 0.189575 0.418701
0.328369 0.189575 0.418701
0.463623 0.189575 0.418701
0.604980 0.189575 0.418701
0.750488 0.189575 0.418701
0.900391 0.189575 0.418701
0.000000 0.314941 0.418701
0.085815 0.314941 0.418701
0.200928 0.314941 0.418701
0.328369 0.314941 0.418701
0.463623 0.314941 0.418701
0.604980 0.314941 0.418701
0.750488 0.314941 0.418701
0.900391 0.314941 0.418701
0.000000 0.450684 0.418701
0.085815 0.450684 0.418701
0.200928 0.450684 0.418701
0.328369 0.450684 0.418701
0.463623 0.450684 0.418701
0.604980 0.450684 0.418701
0.750488 0.450684 0.418701
0.900391 0.450684 0.418701
0.000000 0.593750 0.418701
0.085815 0.593750 0.418701
0.200928 0.593750 0.418701
0.328369 0.593750 0.418701
0.463623 0.593750 0.418701
0.604980 0.593750 0.418701
0.750488 0.593750 0.418701
0.900391 0.593750 0.418701
0.000000 0.745117 0.418701
0.085815 0.745117 0.418701
0.200928 0.745117 0.418701
0.328369 0.745117 0.418701
0.463623 0.745117 0.418701
0.604980 0.745117 0.418701
0.750488 0.745117 0.418701
0.900391 0.745117 0.418701
0.000000 0.898438 0.418701
0.085815 0.898438 0.418701
0.200928 0.898438 0.418701
0.328369 0.898438 0.418701
0.463623 0.898438 0.418701
0.604980 0.898438 0.418701
0.750488 0.898438 0.418701
0.900391 0.898438 0.418701
0.000000 0.000000 0.564941
0.085876 0.000000 0.564941
0.200928 0.000000 0.564941
0.328369 0.000000 0.564941
0.463623 0.000000 0.564941
0.604980 0.000000 0.564941
0.750488 0.000000 0.564941
0.900391 0.000000 0.564941
0.000000 0.078674 0.564941
0.085876 0.078674 0.564941
0.200928 0.078674 0.564941
0.328369 0.078674 0.564941
0.463623 0.078674 0.564941
0.604980 0.078674 0.564941
0.750488 0.078674 0.564941
0.900391 0.078674 0.564941
0.000000 0.189575 0.564941
0.085876 0.189575 0.564941
0.200928 0.189575 0.564941
0.328369 0.189575 0.564941
0.463623 0.189575 0.564941
0.604980 0.189575 0.564941
0.750488 0.189575 0.564941
0.900391 0.189575 0.564941
0.000000 0.314941 0.564941
0.085876 0.314941 0.564941
0.200928 0.314941 0.564941
0.328369 0.314941 0.564941
0.463623 0.314941 0.564941
0.604980 0.314941 0.564941
0.750488 0.314941 0.564941
0.900391 0.314941 0.564941
0.000000 0.450684 0.564941
0.085876 0.450684 0.564941
0.200928 0.450684 0.564941
0.328369 0.450684 0.564941
0.463623 0.450684 0.564941
0.604980 0.450684 0.564941
0.750488 0.450684 0.564941
0.900391 0.450684 0.564941
0.000000 0.593750 0.564941
0.085876 0.593750 0.564941
0.200928 0.593750 0.564941
0.328369 0.593750 0.564941
0.463623 0.593750 0.564941
0.604980 0.593750 0.564941
0.750488 0.593750 0.564941
0.900391 0.593750 0.564941
0.000000 0.745117 0.564941
0.085876 0.745117 0.564941
0.200928 0.745117 0.564941
0.328369 0.745117 0.564941
0.463623 0.745117 0.564941
0.604980 0.745117 0.564941
0.750488 0.745117 0.564941
0.900391 0.745117 0.564941
0.000000 0.898438 0.564941
0.085876 0.898438 0.564941
0.200928 0.898438 0.564941
0.328369 0.898438 0.564941
0.463623 0.898438 0.564941
0.604980 0.898438 0.564941
0.750488 0.898438 0.564941
0.900391 0.898438 0.564941
0.000001 0.000000 0.723145
0.085876 0.000000 0.723145
0.200928 0.000000 0.723145
0.328369 0.000000 0.723145
0.463623 0.000000 0.723145
0.604980 0.000000 0.723145
0.750977 0.000000 0.723145
0.900391 0.000000 0.723145
0.000001 0.078674 0.723145
0.085876 0.078674 0.723145
0.200928 0.078674 0.723145
0.328369 0.078674 0.723145
0.463623 0.078674 0.723145
0.604980 0.078674 0.723145
0.750977 0.078674 0.723145
0.900391 0.078674 0.723145
0.000001 0.189575 0.723145
0.085876 0.189575 0.723145
0.200928 0.189575 0.723145
0.328369 0.189575 0.723145
0.463623 0.189575 0.723145
0.604980 0.189575 0.723145
0.750977 0.189575 0.723145
0.900391 0.189575 0.723145
0.000001 0.314941 0.723145
0.085876 0.314941 0.723145
0.200928 0.314941 0.723145
0.328369 0.314941 0.723145
0.463623 0.314941 0.723145
0.604980 0.314941 0.723145
0.750977 0.314941 0.723145
0.900391 0.314941 0.723145
0.000001 0.450684 0.723145
0.085876 0.450684 0.723145
0.200928 0.450684 0.723145
0.328369 0.450684 0.723145
0.463623 0.450684 0.723145
0.604980 0.450684 0.723145
0.750977 0.450684 0.723145
0.900391 0.450684 0.723145
0.000001 0.593750 0.723145
0.085876 0.593750 0.723145
0.200928 0.593750 0.723145
0.328369 0.593750 0.723145
0.463623 0.593750 0.723145
0.604980 0.593750 0.723145
0.750977 0.593750 0.723145
0.900391 0.593750 0.723145
0.000001 0.745117 0.723145
0.085876 0.745117 0.723145
0.200928 0.745117 0.723145
0.328369 0.745117 0.723145
0.463623 0.745117 0.723145
0.604980 0.745117 0.723145
0.750977 0.745117 0.723145
0.900391 0.745117 0.723145
0.000001 0.898438 0.723145
0.085876 0.898438 0.723145
0.200928 0.898438 0.723145
0.328369 0.898438 0.723145
0.463623 0.898438 0.723145
0.604980 0.898438 0.723145
0.750977 0.898438 0.723145
0.900391 0.898438 0.723145
0.000001 0.000000 0.887695
0.085876 0.000000 0.887695
0.200928 0.000000 0.887695
0.328369 0.000000 0.887695
0.463623 0.000000 0.887695
0.604980 0.000000 0.887695
0.750977 0.000000 0.887695
0.900391 0.000000 0.887695
0.000001 0.078674 0.887695
0.085876 0.078674 0.887695
0.200928 0.078674 0.887695
0.328369 0.078674 0.887695
0.463623 0.078674 0.887695
0.604980 0.078674 0.887695
0.750977 0.078674 0.887695
0.900391 0.078674 0.887695
0.000001 0.189575 0.887695
0.085876 0.189575 0.887695
0.200928 0.189575 0.887695
0.328369 0.189575 0.887695
0.463623 0.189575 0.887695
0.604980 0.189575 0.887695
0.750977 0.189575 0.887695
0.900391 0.189575 0.887695
0.000001 0.314941 0.887695
0.085876 0.314941 0.887695
0.200928 0.314941 0.887695
0.328369 0.314941 0.887695
0.463623 0.314941 0.887695
0.604980 0.314941 0.887695
0.750977 0.314941 0.887695
0.900391 0.314941 0.887695
0.000001 0.450684 0.887695
0.085876 0.450684 0.887695
0.200928 0.450684 0.887695
0.328369 0.450684 0.887695
0.463623 0.450684 0.887695
0.604980 0.450684 0.887695
0.750977 0.450684 0.887695
0.900391 0.450684 0.887695
0.000001 0.593750 0.887695
0.085876 0.593750 0.887695
0.200928 0.593750 0.887695
0.328369 0.593750 0.887695
0.463623 0.593750 0.887695
0.604980 0.593750 0.887695
0.750977 0.593750 0.887695
0.900391 0.593750 0.887695
0.000001 0.745117 0.887695
0.085876 0.745117 0.887695
0.200928 0.745117 0.887695
0.328369 0.745117 0.887695
0.463623 0.745117 0.887695
0.604980 0.745117 0.887695
0.750977 0.745117 0.887695
0.900391 0.745117 0.887695
0.000001 0.898438 0.887695
0.085876 0.898438 0.887695
0.200928 0.898438 0.887695
0.328369 0.898438 0.887695
0.463623 0.898438 0.887695
0.604980 0.898438 0.887695
0.750977 0.898438 0.887695
0.900391 0.898438 0.887695
