cubelut/Adanmq_Ektachrome 400x.cube
TITLE "Generated by Foundry::LUT"
LUT_3D_SIZE 32
0.000000 0.000000 0.000000
0.000425 0.000000 0.000000
0.008453 0.000000 0.000000
0.046967 0.000000 0.000000
0.126953 0.000000 0.000000
0.231079 0.000000 0.000000
0.339111 0.000000 0.000000
0.441650 0.000000 0.000000
0.534668 0.000000 0.000000
0.618164 0.000000 0.000000
0.688965 0.000000 0.000000
0.747559 0.000000 0.000000
0.794922 0.000000 0.000000
0.830566 0.000000 0.000000
0.857910 0.000000 0.000000
0.883301 0.000000 0.000000
0.904785 0.000000 0.000000
0.921387 0.000000 0.000000
0.936035 0.000000 0.000000
0.950195 0.000000 0.000000
0.959961 0.000000 0.000000
0.965820 0.000000 0.000000
0.972656 0.000000 0.000000
0.980469 0.000000 0.000000
0.987305 0.000000 0.000000
0.989746 0.000000 0.000000
0.989746 0.000000 0.000000
0.989746 0.000000 0.000000
0.990234 0.000000 0.000000
0.991699 0.000000 0.000000
0.994629 0.000000 0.000000
1.000000 0.000000 0.000000
0.000000 0.000183 0.000000
0.000425 0.000183 0.000000
0.008453 0.000183 0.000000
0.046967 0.000183 0.000000
0.126953 0.000184 0.000000
0.231079 0.000184 0.000000
0.339111 0.000184 0.000000
0.441650 0.000184 0.000000
0.534668 0.000184 0.000000
0.618164 0.000184 0.000000
0.688965 0.000184 0.000000
0.747559 0.000184 0.000000
0.794922 0.000184 0.000000
0.830566 0.000184 0.000000
0.857910 0.000184 0.000000
0.883301 0.000184 0.000000
0.904785 0.000184 0.000000
0.921387 0.000184 0.000000
0.936035 0.000184 0.000000
0.950195 0.000184 0.000000
0.959961 0.000184 0.000000
0.965820 0.000184 0.000000
0.972656 0.000184 0.000000
0.980469 0.000184 0.000000
0.987305 0.000184 0.000000
0.989746 0.000184 0.000000
0.989746 0.000184 0.000000
0.989746 0.000184 0.000000
0.990234 0.000184 0.000000
0.991699 0.000184 0.000000
0.994629 0.000184 0.000000
1.000000 0.000184 0.000000
0.000000 0.003349 0.000000
0.000425 0.003349 0.000000
0.008453 0.003349 0.000000
0.046967 0.003349 0.000000
0.126953 0.003349 0.000000
0.231079 0.003349 0.000000
0.339111 0.003349 0.000000
0.441650 0.003349 0.000000
0.534668 0.003349 0.000000
0.618164 0.003349 0.000000
0.688965 0.003351 0.000000
0.747559 0.003351 0.000000
0.794922 0.003351 0.000000
0.830566 0.003351 0.000000
0.857910 0.003351 0.000000
0.883301 0.003351 0.000000
0.904785 0.003351 0.000000
0.921387 0.003351 0.000000
0.936035 0.003351 0.000000
0.950195 0.003351 0.000000
0.959961 0.003351 0.000000
0.965820 0.003351 0.000000
0.972656 0.003353 0.000000
0.980469 0.003353 0.000000
0.987305 0.003353 0.000000
0.989746 0.003353 0.000000
0.989746 0.003353 0.000000
0.989746 0.003353 0.000000
0.990234 0.003353 0.000000
0.991699 0.003353 0.000000
0.994629 0.003353 0.000000
1.000000 0.003353 0.000000
0.000000 0.020721 0.000000
0.000425 0.020721 0.000000
0.008453 0.020721 0.000000
0.046967 0.020721 0.000000
0.126953 0.020721 0.000000
0.231079 0.020721 0.000000
0.339111 0.020721 0.000000
0.441650 0.020721 0.000000
0.534668 0.020721 0.000000
0.618164 0.020721 0.000000
0.688965 0.020721 0.000000
0.747559 0.020721 0.000000
0.794922 0.020721 0.000000
0.830566 0.020721 0.000000
0.857910 0.020721 0.000000
0.883301 0.020721 0.000000
0.904785 0.020721 0.000000
0.921387 0.020721 0.000000
0.936035 0.020721 0.000000
0.950195 0.020737 0.000000
0.959961 0.020737 0.000000
0.965820 0.020737 0.000000
0.972656 0.020737 0.000000
0.980469 0.020737 0.000000
0.987305 0.020737 0.000000
0.989746 0.020737 0.000000
0.989746 0.020737 0.000000
0.989746 0.020737 0.000000
0.990234 0.020737 0.000000
0.991699 0.020737 0.000000
0.994629 0.020737 0.000000
1.000000 0.020737 0.000000
0.000000 0.066772 0.000000
0.000425 0.066772 0.000000
0.008453 0.066772 0.000000
0.046967 0.066772 0.000000
0.126953 0.066772 0.000000
0.231079 0.066772 0.000000
0.339111 0.066772 0.000000
0.441650 0.066772 0.000000
0.534668 0.066772 0.000000
0.618164 0.066772 0.000000
0.688965 0.066772 0.000000
0.747559 0.066772 0.000000
0.794922 0.066772 0.000000
0.830566 0.066772 0.000000
0.857910 0.066772 0.000000
0.883301 0.066772 0.000000
0.904785 0.066772 0.000000
0.921387 0.066772 0.000000
0.936035 0.066772 0.000000
0.950195 0.066772 0.000000
0.959961 0.066772 0.000000
0.965820 0.066772 0.000000
0.972656 0.066772 0.000000
0.980469 0.066772 0.000000
0.987305 0.066772 0.000000
0.989746 0.066772 0.000000
0.989746 0.066772 0.000000
0.989746 0.066772 0.000000
0.990234 0.066772 0.000000
0.991699 0.066833 0.000000
0.994629 0.066833 0.000000
1.000000 0.066833 0.000000
0.000000 0.138916 0.000000
0.000425 0.138916 0.000000
0.008453 0.138916 0.000000
0.046967 0.138916 0.000000
0.126953 0.138916 0.000000
0.231079 0.138916 0.000000
0.339111 0.138916 0.000000
0.441650 0.138916 0.000000
0.534668 0.138916 0.000000
0.618164 0.138916 0.000000
0.688965 0.138916 0.000000
0.747559 0.138916 0.000000
0.794922 0.138916 0.000000
0.830566 0.138916 0.000000
0.857910 0.138916 0.000000
0.883301 0.138916 0.000000
0.904785 0.138916 0.000000
0.921387 0.138916 0.000000
0.936035 0.138916 0.000000
0.950195 0.138916 0.000000
0.959961 0.138916 0.000000
0.965820 0.138916 0.000000
0.972656 0.138916 0.000000
0.980469 0.138916 0.000000
0.987305 0.138916 0.000000
0.989746 0.138916 0.000000
0.989746 0.138916 0.000000
0.989746 0.138916 0.000000
0.990234 0.138916 0.000000
0.991699 0.138916 0.000000
0.994629 0.138916 0.000000
1.000000 0.138916 0.000000
0.000000 0.227783 0.000000
0.000425 0.227783 0.000000
0.008453 0.227783 0.000000
0.046967 0.227783 0.000000
0.126953 0.227783 0.000000
0.231079 0.227783 0.000000
0.339111 0.227783 0.000000
0.441650 0.227783 0.000000
0.534668 0.227783 0.000000
0.618164 0.227783 0.000000
0.688965 0.227783 0.000000
0.747559 0.227783 0.000000
0.794922 0.227783 0.000000
0.830566 0.227783 0.000000
0.857910 0.227783 0.000000
0.883301 0.227783 0.000000
0.904785 0.227783 0.000000
0.921387 0.227783 0.000000
0.936035 0.227783 0.000000
0.950195 0.227783 0.000000
0.959961 0.227783 0.000000
0.965820 0.227783 0.000000
0.972656 0.227783 0.000000
0.980469 0.227783 0.000000
0.987305 0.227783 0.000000
0.989746 0.227783 0.000000
0.989746 0.227783 0.000000
0.989746 0.227783 0.000000
0.990234 0.227783 0.000000
0.991699 0.227783 0.000000
0.994629 0.227783 0.000000
1.000000 0.227783 0.000000
0.000000 0.321777 0.000000
0.000425 0.321777 0.000000
0.008453 0.321777 0.000000
0.046967 0.321777 0.000000
0.126953 0.321777 0.000000
0.231079 0.321777 0.000000
0.339111 0.321777 0.000000
0.441650 0.321777 0.000000
0.534668 0.321777 0.000000
0.618164 0.321777 0.000000
0.688965 0.321777 0.000000
0.747559 0.321777 0.000000
0.794922 0.321777 0.000000
0.830566 0.321777 0.000000
0.857910 0.321777 0.000000
0.883301 0.321777 0.000000
0.904785 0.321777 0.000000
0.921387 0.321777 0.000000
0.936035 0.321777 0.000000
0.950195 0.321777 0.000000
0.959961 0.321777 0.000000
0.965820 0.321777 0.000000
0.972656 0.321777 0.000000
0.980469 0.321777 0.000000
0.987305 0.321777 0.000000
0.989746 0.321777 0.000000
0.989746 0.321777 0.000000
0.989746 0.321777 0.000000
0.990234 0.321777 0.000000
0.991699 0.321777 0.000000
0.994629 0.321777 0.000000
1.000000 0.321777 0.000000
0.000000 0.413818 0.000000
0.000425 0.413818 0.000000
0.008453 0.413818 0.000000
0.046967 0.413818 0.000000
0.126953 0.413818 0.000000
0.231079 0.413818 0.000000
0.339111 0.413818 0.000000
0.441650 0.413818 0.000000
0.534668 0.413818 0.000000
0.618164 0.413818 0.000000
0.688965 0.413818 0.000000
0.747559 0.413818 0.000000
0.794922 0.414063 0.000000
0.830566 0.414063 0.000000
0.857910 0.414063 0.000000
0.883301 0.414063 0.000000
0.904785 0.414063 0.000000
0.921387 0.414063 0.000000
0.936035 0.414063 0.000000
0.950195 0.414063 0.000000
0.959961 0.414063 0.000000
0.965820 0.414063 0.000000
0.972656 0.414063 0.000000
0.980469 0.414063 0.000000
0.987305 0.414063 0.000000
0.989746 0.414063 0.000000
0.989746 0.414063 0.000000
0.989746 0.414063 0.000000
0.990234 0.414063 0.000000
0.991699 0.414063 0.000000
0.994629 0.414063 0.000000
1.000000 0.414063 0.000000
0.000000 0.494385 0.000000
0.000425 0.494385 0.000000
0.008453 0.494385 0.000000
0.046967 0.494385 0.000000
0.126953 0.494385 0.000000
0.231079 0.494385 0.000000
0.339111 0.494385 0.000000
0.441650 0.494385 0.000000
0.534668 0.494385 0.000000
0.618164 0.494385 0.000000
0.688965 0.494385 0.000000
0.747559 0.494385 0.000000
0.794922 0.494385 0.000000
0.830566 0.494385 0.000000
0.857910 0.494385 0.000000
0.883301 0.494385 0.000000
0.904785 0.494385 0.000000
0.921387 0.494385 0.000000
0.936035 0.494385 0.000000
0.950195 0.494385 0.000000
0.959961 0.494385 0.000000
0.965820 0.494385 0.000000
0.972656 0.494385 0.000000
0.980469 0.494385 0.000000
0.987305 0.494385 0.000000
0.989746 0.494385 0.000000
0.989746 0.494385 0.000000
0.989746 0.494385 0.000000
0.990234 0.494385 0.000000
0.991699 0.494385 0.000000
0.994629 0.494629 0.000000
1.000000 0.494629 0.000000
0.000000 0.568359 0.000000
0.000425 0.568359 0.000000
0.008453 0.568359 0.000000
0.046967 0.568359 0.000000
0.126953 0.568359 0.000000
0.231079 0.568359 0.000000
0.339111 0.568359 0.000000
0.441650 0.568359 0.000000
0.534668 0.568359 0.000000
0.618164 0.568359 0.000000
0.688965 0.568359 0.000000
0.747559 0.568359 0.000000
0.794922 0.568359 0.000000
0.830566 0.568359 0.000000
0.857910 0.568359 0.000000
0.883301 0.568359 0.000000
0.904785 0.568359 0.000000
0.921387 0.568359 0.000000
0.936035 0.568359 0.000000
0.950195 0.568359 0.000000
0.959961 0.568359 0.000000
0.965820 0.568359 0.000000
0.972656 0.568359 0.000000
0.980469 0.568359 0.000000
0.987305 0.568359 0.000000
0.989746 0.568359 0.000000
0.989746 0.568359 0.000000
0.989746 0.568359 0.000000
0.990234 0.568359 0.000000
0.991699 0.568359 0.000000
0.994629 0.568359 0.000000
1.000000 0.568359 0.000000
0.000000 0.629883 0.000000
0.000425 0.629883 0.000000
0.008453 0.629883 0.000000
0.046967 0.629883 0.000000
0.126953 0.629883 0.000000
0.231079 0.629883 0.000000
0.339111 0.629883 0.000000
0.441650 0.629883 0.000000
0.534668 0.629883 0.000000
0.618164 0.629883 0.000000
0.688965 0.629883 0.000000
0.747559 0.629883 0.000000
0.794922 0.629883 0.000000
0.830566 0.629883 0.000000
0.857910 0.629883 0.000000
0.883301 0.629883 0.000000
0.904785 0.629883 0.000000
0.921387 0.629883 0.000000
0.936035 0.629883 0.000000
0.950195 0.629883 0.000000
0.959961 0.629883 0.000000
0.965820 0.629883 0.000000
0.972656 0.629883 0.000000
0.980469 0.629883 0.000000
0.987305 0.629883 0.000000
0.989746 0.629883 0.000000
0.989746 0.629883 0.000000
0.989746 0.629883 0.000000
0.990234 0.629883 0.000000
0.991699 0.629883 0.000000
0.994629 0.629883 0.000000
1.000000 0.629883 0.000000
0.000000 0.687012 0.000000
0.000425 0.687012 0.000000
0.008453 0.687012 0.000000
0.046967 0.687012 0.000000
0.126953 0.687012 0.000000
0.231079 0.687012 0.000000
0.339111 0.687012 0.000000
0.441650 0.687012 0.000000
0.534668 0.687012 0.000000
0.618164 0.687012 0.000000
0.688965 0.687012 0.000000
0.747559 0.687012 0.000000
0.794922 0.687012 0.000000
0.830566 0.687012 0.000000
0.857910 0.687012 0.000000
0.883301 0.687012 0.000000
0.904785 0.687012 0.000000
0.921387 0.687012 0.000000
0.936035 0.687012 0.000000
0.950195 0.687012 0.000000
0.959961 0.687012 0.000000
0.965820 0.687012 0.000000
0.972656 0.687012 0.000000
0.980469 0.687012 0.000000
0.987305 0.687012 0.000000
0.989746 0.687012 0.000000
0.989746 0.687012 0.000000
0.989746 0.687012 0.000000
0.990234 0.687012 0.000000
0.991699 0.687012 0.000000
0.994629 0.687012 0.000000
1.000000 0.687012 0.000000
0.000000 0.736328 0.000000
0.000425 0.736328 0.000000
0.008453 0.736328 0.000000
0.046967 0.736328 0.000000
0.126953 0.736328 0.000000
0.231079 0.736328 0.000000
0.339111 0.736328 0.000000
0.441650 0.736328 0.000000
0.534668 0.736328 0.000000
0.618164 0.736328 0.000000
0.688965 0.736328 0.000000
0.747559 0.736328 0.000000
0.794922 0.736328 0.000000
0.830566 0.736328 0.000000
0.857910 0.736328 0.000000
0.883301 0.736328 0.000000
0.904785 0.736328 0.000000
0.921387 0.736328 0.000000
0.936035 0.736328 0.000000
0.950195 0.736328 0.000000
0.959961 0.736328 0.000000
0.965820 0.736328 0.000000
0.972656 0.736328 0.000000
0.980469 0.736328 0.000000
0.987305 0.736328 0.000000
0.989746 0.736328 0.000000
0.989746 0.736328 0.000000
0.989746 0.736328 0.000000
0.990234 0.736328 0.000000
0.991699 0.736328 0.000000
0.994629 0.736328 0.000000
1.000000 0.736328 0.000000
0.000000 0.778320 0.000000
0.000425 0.778320 0.000000
0.008453 0.778320 0.000000
0.046967 0.778320 0.000000
0.126953 0.778320 0.000000
0.231079 0.778320 0.000000
0.339111 0.778320 0.000000
0.441650 0.778320 0.000000
0.534668 0.778320 0.000000
0.618164 0.778320 0.000000
0.688965 0.778320 0.000000
0.747559 0.778320 0.000000
0.794922 0.778320 0.000000
0.830566 0.778320 0.000000
0.857910 0.778320 0.000000
0.883301 0.778320 0.000000
0.904785 0.778320 0.000000
0.921387 0.778320 0.000000
0.936035 0.778320 0.000000
0.950195 0.778320 0.000000
0.959961 0.778320 0.000000
0.965820 0.778320 0.000000
0.972656 0.778320 0.000000
0.980469 0.778320 0.000000
0.987305 0.778320 0.000000
0.989746 0.778320 0.000000
0.989746 0.778320 0.000000
0.989746 0.778320 0.000000
0.990234 0.778320 0.000000
0.991699 0.778320 0.000000
0.994629 0.778320 0.000000
1.000000 0.778320 0.000000
0.000000 0.814941 0.000000
0.000425 0.814941 0.000000
0.008453 0.814941 0.000000
0.046967 0.814941 0.000000
0.126953 0.814941 0.000000
0.231079 0.814941 0.000000
0.339111 0.814941 0.000000
0.441650 0.814941 0.000000
0.534668 0.814941 0.000000
0.618164 0.814941 0.000000
0.688965 0.814941 0.000000
0.747559 0.814941 0.000000
0.794922 0.814941 0.000000
0.830566 0.814941 0.000000
0.857910 0.814941 0.000000
0.883301 0.814941 0.000000
0.904785 0.814941 0.000000
0.921387 0.814941 0.000000
0.936035 0.814941 0.000000
0.950195 0.814941 0.000000
0.959961 0.814941 0.000000
0.965820 0.814941 0.000000
0.972656 0.814941 0.000000
0.980469 0.814941 0.000000
0.987305 0.814941 0.000000
0.989746 0.814941 0.000000
0.989746 0.814941 0.000000
0.989746 0.814941 0.000000
0.990234 0.814941 0.000000
0.991699 0.814941 0.000000
0.994629 0.814941 0.000000
1.000000 0.814941 0.000000
0.000000 0.847656 0.000000
0.000425 0.847656 0.000000
0.008453 0.847656 0.000000
0.046967 0.847656 0.000000
0.126953 0.847656 0.000000
0.231079 0.847656 0.000000
0.339111 0.847656 0.000000
0.441650 0.847656 0.000000
0.534668 0.847656 0.000000
0.618164 0.847656 0.000000
0.688965 0.847656 0.000000
0.747559 0.847656 0.000000
0.794922 0.847656 0.000000
0.830566 0.847656 0.000000
0.857910 0.847656 0.000000
0.883301 0.847656 0.000000
0.904785 0.847656 0.000000
0.921387 0.847656 0.000000
0.936035 0.847656 0.000000
0.950195 0.847656 0.000000
0.959961 0.847656 0.000000
0.965820 0.847656 0.000000
0.972656 0.847656 0.000000
0.980469 0.847656 0.000000
0.987305 0.847656 0.000000
0.989746 0.847656 0.000000
0.989746 0.847656 0.000000
0.989746 0.847656 0.000000
0.990234 0.847656 0.000000
0.991699 0.847656 0.000000
0.994629 0.847656 0.000000
1.000000 0.847656 0.000000
0.000000 0.872559 0.000000
0.000425 0.872559 0.000000
0.008453 0.872559 0.000000
0.046967 0.872559 0.000000
0.126953 0.872559 0.000000
0.231079 0.872559 0.000000
0.339111 0.872559 0.000000
0.441650 0.872559 0.000000
0.534668 0.872559 0.000000
0.618164 0.872559 0.000000
0.688965 0.872559 0.000000
0.747559 0.872559 0.000000
0.794922 0.872559 0.000000
0.830566 0.872559 0.000000
0.857910 0.872559 0.000000
0.883301 0.872559 0.000000
0.904785 0.872559 0.000000
0.921387 0.872559 0.000000
0.936035 0.872559 0.000000
0.950195 0.872559 0.000000
0.959961 0.872559 0.000000
0.965820 0.872559 0.000000
0.972656 0.872559 0.000000
0.980469 0.872559 0.000000
0.987305 0.872559 0.000000
0.989746 0.872559 0.000000
0.989746 0.872559 0.000000
0.989746 0.872559 0.000000
0.990234 0.872559 0.000000
0.991699 0.872559 0.000000
0.994629 0.872559 0.000000
1.000000 0.872559 0.000000
0.000000 0.894531 0.000000
0.000425 0.894531 0.000000
0.008453 0.894531 0.000000
0.046967 0.894531 0.000000
0.126953 0.894531 0.000000
0.231079 0.894531 0.000000
0.339111 0.894531 0.000000
0.441650 0.894531 0.000000
0.534668 0.894531 0.000000
0.618164 0.894531 0.000000
0.688965 0.894531 0.000000
0.747559 0.894531 0.000000
0.794922 0.894531 0.000000
0.830566 0.894531 0.000000
0.857910 0.894531 0.000000
0.883301 0.894531 0.000000
0.904785 0.894531 0.000000
0.921387 0.894531 0.000000
0.936035 0.894531 0.000000
0.950195 0.894531 0.000000
0.959961 0.894531 0.000000
0.965820 0.894531 0.000000
0.972656 0.894531 0.000000
0.980469 0.894531 0.000000
0.987305 0.894531 0.000000
0.989746 0.894531 0.000000
0.989746 0.894531 0.000000
0.989746 0.894531 0.000000
0.990234 0.894531 0.000000
0.991699 0.894531 0.000000
0.994629 0.894531 0.000000
1.000000 0.894531 0.000000
0.000000 0.916016 0.000000
0.000425 0.916016 0.000000
0.008453 0.916016 0.000000
0.046967 0.916016 0.000000
0.126953 0.916016 0.000000
0.231079 0.916016 0.000000
0.339111 0.916016 0.000000
0.441650 0.916016 0.000000
0.534668 0.916016 0.000000
0.618164 0.916016 0.000000
0.688965 0.916016 0.000000
0.747559 0.916016 0.000000
0.794922 0.916016 0.000000
0.830566 0.916016 0.000000
0.857910 0.916016 0.000000
0.883301 0.916016 0.000000
0.904785 0.916016 0.000000
0.921387 0.916016 0.000000
0.936035 0.916016 0.000000
0.950195 0.916016 0.000000
0.959961 0.916016 0.000000
0.965820 0.916016 0.000000
0.972656 0.916016 0.000000
0.980469 0.916016 0.000000
0.987305 0.916016 0.000000
0.989746 0.916016 0.000000
0.989746 0.916016 0.000000
0.989746 0.916016 0.000000
0.990234 0.916016 0.000000
0.991699 0.916016 0.000000
0.994629 0.916016 0.000000
1.000000 0.916016 0.000000
0.000000 0.934082 0.000000
0.000425 0.934082 0.000000
0.008453 0.934082 0.000000
0.046967 0.934082 0.000000
0.126953 0.934082 0.000000
0.231079 0.934082 0.000000
0.339111 0.934082 0.000000
0.441650 0.934082 0.000000
0.534668 0.934082 0.000000
0.618164 0.934082 0.000000
0.688965 0.934082 0.000000
0.747559 0.934082 0.000000
0.794922 0.934082 0.000000
0.830566 0.934082 0.000000
0.857910 0.934082 0.000000
0.883301 0.934082 0.000000
0.904785 0.934082 0.000000
0.921387 0.934082 0.000000
0.936035 0.934082 0.000000
0.950195 0.934082 0.000000
0.959961 0.934082 0.000000
0.965820 0.934570 0.000000
0.972656 0.934570 0.000000
0.980469 0.934570 0.000000
0.987305 0.934570 0.000000
0.989746 0.934570 0.000000
0.989746 0.934570 0.000000
0.989746 0.934570 0.000000
0.990234 0.934570 0.000000
0.991699 0.934570 0.000000
0.994629 0.934570 0.000000
1.000000 0.934570 0.000000
0.000000 0.948242 0.000000
0.000425 0.948242 0.000000
0.008453 0.948242 0.000000
0.046967 0.948242 0.000000
0.126953 0.948242 0.000000
0.231079 0.948242 0.000000
0.339111 0.948242 0.000000
0.441650 0.948242 0.000000
0.534668 0.948242 0.000000
0.618164 0.948242 0.000000
0.688965 0.948242 0.000000
0.747559 0.948242 0.000000
0.794922 0.948242 0.000000
0.830566 0.948242 0.000000
0.857910 0.948242 0.000000
0.883301 0.948242 0.000000
0.904785 0.948242 0.000000
0.921387 0.948242 0.000000
0.936035 0.948242 0.000000
0.950195 0.948242 0.000000
0.959961 0.948242 0.000000
0.965820 0.948242 0.000000
0.972656 0.948242 0.000000
0.980469 0.948242 0.000000
0.987305 0.948242 0.000000
0.989746 0.948242 0.000000
0.989746 0.948242 0.000000
0.989746 0.948242 0.000000
0.990234 0.948242 0.000000
0.991699 0.948242 0.000000
0.994629 0.948242 0.000000
1.000000 0.948242 0.000000
0.000000 0.958008 0.000000
0.000425 0.958008 0.000000
0.008453 0.958008 0.000000
0.046967 0.958008 0.000000
0.126953 0.958008 0.000000
0.231079 0.958008 0.000000
0.339111 0.958008 0.000000
0.441650 0.958008 0.000000
0.534668 0.958008 0.000000
0.618164 0.958008 0.000000
0.688965 0.958008 0.000000
0.747559 0.958008 0.000000
0.794922 0.958008 0.000000
0.830566 0.958008 0.000000
0.857910 0.958008 0.000000
0.883301 0.958008 0.000000
0.904785 0.958008 0.000000
0.921387 0.958008 0.000000
0.936035 0.958008 0.000000
0.950195 0.958008 0.000000
0.959961 0.958008 0.000000
0.965820 0.958008 0.000000
0.972656 0.958008 0.000000
0.980469 0.958008 0.000000
0.987305 0.958008 0.000000
0.989746 0.958008 0.000000
0.989746 0.958008 0.000000
0.989746 0.958008 0.000000
0.990234 0.958008 0.000000
0.991699 0.958008 0.000000
0.994629 0.958008 0.000000
1.000000 0.958008 0.000000
0.000000 0.967773 0.000000
0.000425 0.967773 0.000000
0.008453 0.967773 0.000000
0.046967 0.967773 0.000000
0.126953 0.967773 0.000000
0.231079 0.967773 0.000000
0.339111 0.967773 0.000000
0.441650 0.967773 0.000000
0.534668 0.967773 0.000000
0.618164 0.967773 0.000000
0.688965 0.967773 0.000000
0.747559 0.967773 0.000000
0.794922 0.967773 0.000000
0.830566 0.967773 0.000000
0.857910 0.967773 0.000000
0.883301 0.967773 0.000000
0.904785 0.967773 0.000000
0.921387 0.967773 0.000000
0.936035 0.967773 0.000000
0.950195 0.967773 0.000000
0.959961 0.967773 0.000000
0.965820 0.967773 0.000000
0.972656 0.967773 0.000000
0.980469 0.967773 0.000000
0.987305 0.967773 0.000000
0.989746 0.967773 0.000000
0.989746 0.967773 0.000000
0.989746 0.967773 0.000000
0.990234 0.967773 0.000000
0.991699 0.967773 0.000000
0.994629 0.967773 0.000000
1.000000 0.967773 0.000000
0.000000 0.976074 0.000000
0.000425 0.976074 0.000000
0.008453 0.976074 0.000000
0.046967 0.976074 0.000000
0.126953 0.976074 0.000000
0.231079 0.976074 0.000000
0.339111 0.976074 0.000000
0.441650 0.976563 0.000000
0.534668 0.976563 0.000000
0.618164 0.976563 0.000000
0.688965 0.976563 0.000000
0.747559 0.976563 0.000000
0.794922 0.976563 0.000000
0.830566 0.976563 0.000000
0.857910 0.976563 0.000000
0.883301 0.976563 0.000000
0.904785 0.976563 0.000000
0.921387 0.976563 0.000000
0.936035 0.976563 0.000000
0.950195 0.976563 0.000000
0.959961 0.976563 0.000000
0.965820 0.976563 0.000000
0.972656 0.976563 0.000000
0.980469 0.976563 0.000000
0.987305 0.976563 0.000000
0.989746 0.976563 0.000000
0.989746 0.976563 0.000000
0.989746 0.976563 0.000000
0.990234 0.976563 0.000000
0.991699 0.976563 0.000000
0.994629 0.976563 0.000000
1.000000 0.976563 0.000000
0.000000 0.979980 0.000000
0.000425 0.979980 0.000000
0.008453 0.979980 0.000000
0.046967 0.979980 0.000000
0.126953 0.979980 0.000000
0.231079 0.979980 0.000000
0.339111 0.979980 0.000000
0.441650 0.979980 0.000000
0.534668 0.979980 0.000000
0.618164 0.979980 0.000000
0.688965 0.979980 0.000000
0.747559 0.979980 0.000000
0.794922 0.979980 0.000000
0.830566 0.979980 0.000000
0.857910 0.979980 0.000000
0.883301 0.979980 0.000000
0.904785 0.979980 0.000000
0.921387 0.979980 0.000000
0.936035 0.979980 0.000000
0.950195 0.979980 0.000000
0.959961 0.979980 0.000000
0.965820 0.979980 0.000000
0.972656 0.979980 0.000000
0.980469 0.979980 0.000000
0.987305 0.979980 0.000000
0.989746 0.979980 0.000000
0.989746 0.979980 0.000000
0.989746 0.979980 0.000000
0.990234 0.979980 0.000000
0.991699 0.979980 0.000000
0.994629 0.979980 0.000000
1.000000 0.979980 0.000000
0.000000 0.982422 0.000000
0.000425 0.982422 0.000000
0.008453 0.982422 0.000000
0.046967 0.982422 0.000000
0.126953 0.982422 0.000000
0.231079 0.982422 0.000000
0.339111 0.982422 0.000000
0.441650 0.982422 0.000000
0.534668 0.982422 0.000000
0.618164 0.982422 0.000000
0.688965 0.982422 0.000000
0.747559 0.982422 0.000000
0.794922 0.982422 0.000000
0.830566 0.982422 0.000000
0.857910 0.982422 0.000000
0.883301 0.982422 0.000000
0.904785 0.982422 0.000000
0.921387 0.982422 0.000000
0.936035 0.982422 0.000000
0.950195 0.982422 0.000000
0.959961 0.982422 0.000000
0.965820 0.982422 0.000000
0.972656 0.982422 0.000000
0.980469 0.982422 0.000000
0.987305 0.982422 0.000000
0.989746 0.982422 0.000000
0.989746 0.982422 0.000000
0.989746 0.982422 0.000000
0.990234 0.982422 0.000000
0.991699 0.982422 0.000000
0.994629 0.982422 0.000000
1.000000 0.982422 0.000000
0.000000 0.985840 0.000000
0.000425 0.985840 0.000000
0.008453 0.985840 0.000000
0.046967 0.985840 0.000000
0.126953 0.985840 0.000000
0.231079 0.985840 0.000000
0.339111 0.985840 0.000000
0.441650 0.985840 0.000000
0.534668 0.985840 0.000000
0.618164 0.985840 0.000000
0.688965 0.985840 0.000000
0.747559 0.985840 0.000000
0.794922 0.985840 0.000000
0.830566 0.985840 0.000000
0.857910 0.985840 0.000000
0.883301 0.985840 0.000000
0.904785 0.985840 0.000000
0.921387 0.985840 0.000000
0.936035 0.985840 0.000000
0.950195 0.985840 0.000000
0.959961 0.985840 0.000000
0.965820 0.985840 0.000000
0.972656 0.985840 0.000000
