cubelut/Adanmq_AgfaColor Optima II 200.cube
TITLE "Generated by Foundry::LUT"
LUT_3D_SIZE 32
0.000000 0.000000 0.000000
0.022385 0.000000 0.000000
0.054474 0.000000 0.000000
0.089783 0.000000 0.000000
0.127197 0.000000 0.000000
0.166016 0.000000 0.000000
0.205811 0.000000 0.000000
0.245361 0.000000 0.000000
0.285156 0.000000 0.000000
0.325195 0.000000 0.000000
0.364502 0.000000 0.000000
0.403076 0.000000 0.000000
0.441406 0.000000 0.000000
0.479004 0.000000 0.000000
0.515625 0.000000 0.000000
0.551270 0.000000 0.000000
0.586426 0.000000 0.000000
0.620117 0.000000 0.000000
0.653320 0.000000 0.000000
0.685547 0.000000 0.000000
0.716309 0.000000 0.000000
0.746582 0.000000 0.000000
0.776367 0.000000 0.000000
0.805176 0.000000 0.000000
0.833496 0.000000 0.000000
0.860352 0.000000 0.000000
0.887207 0.000000 0.000000
0.912109 0.000000 0.000000
0.936523 0.000000 0.000000
0.959473 0.000000 0.000000
0.981445 0.000000 0.000000
1.000000 0.000000 0.000000
0.000000 0.024109 0.000000
0.022385 0.024109 0.000000
0.054474 0.024109 0.000000
0.089783 0.024109 0.000000
0.127197 0.024109 0.000000
0.166016 0.024109 0.000000
0.205811 0.024109 0.000000
0.245361 0.024109 0.000000
0.285156 0.024109 0.000000
0.325195 0.024109 0.000000
0.364502 0.024109 0.000000
0.403076 0.024109 0.000000
0.441406 0.024109 0.000000
0.479004 0.024109 0.000000
0.515625 0.024109 0.000000
0.551270 0.024109 0.000000
0.586426 0.024109 0.000000
0.620117 0.024124 0.000000
0.653320 0.024124 0.000000
0.685547 0.024124 0.000000
0.716309 0.024124 0.000000
0.746582 0.024124 0.000000
0.776367 0.024124 0.000000
0.805176 0.024124 0.000000
0.833496 0.024124 0.000000
0.860352 0.024124 0.000000
0.887207 0.024124 0.000000
0.912109 0.024124 0.000000
0.936523 0.024124 0.000000
0.959473 0.024124 0.000000
0.981445 0.024124 0.000000
1.000000 0.024124 0.000000
0.000000 0.059845 0.000000
0.022385 0.059845 0.000000
0.054474 0.059845 0.000000
0.089783 0.059845 0.000000
0.127197 0.059845 0.000000
0.166016 0.059845 0.000000
0.205811 0.059845 0.000000
0.245361 0.059845 0.000000
0.285156 0.059845 0.000000
0.325195 0.059845 0.000000
0.364502 0.059845 0.000000
0.403076 0.059845 0.000000
0.441406 0.059845 0.000000
0.479004 0.059845 0.000000
0.515625 0.059845 0.000000
0.551270 0.059845 0.000000
0.586426 0.059845 0.000000
0.620117 0.059845 0.000000
0.653320 0.059845 0.000000
0.685547 0.059845 0.000000
0.716309 0.059845 0.000000
0.746582 0.059845 0.000000
0.776367 0.059845 0.000000
0.805176 0.059845 0.000000
0.833496 0.059845 0.000000
0.860352 0.059845 0.000000
0.887207 0.059845 0.000000
0.912109 0.059845 0.000000
0.936523 0.059845 0.000000
0.959473 0.059875 0.000000
0.981445 0.059875 0.000000
1.000000 0.059875 0.000000
0.000000 0.099915 0.000000
0.022385 0.099915 0.000000
0.054474 0.099915 0.000000
0.089783 0.099915 0.000000
0.127197 0.099915 0.000000
0.166016 0.099915 0.000000
0.205811 0.099915 0.000000
0.245361 0.099915 0.000000
0.285156 0.099915 0.000000
0.325195 0.099915 0.000000
0.364502 0.099915 0.000000
0.403076 0.099915 0.000000
0.441406 0.099915 0.000000
0.479004 0.099915 0.000000
0.515625 0.099976 0.000000
0.551270 0.099976 0.000000
0.586426 0.099976 0.000000
0.620117 0.099976 0.000000
0.653320 0.099976 0.000000
0.685547 0.099976 0.000000
0.716309 0.099976 0.000000
0.746582 0.099976 0.000000
0.776367 0.099976 0.000000
0.805176 0.099976 0.000000
0.833496 0.099976 0.000000
0.860352 0.099976 0.000000
0.887207 0.099976 0.000000
0.912109 0.099976 0.000000
0.936523 0.099976 0.000000
0.959473 0.099976 0.000000
0.981445 0.099976 0.000000
1.000000 0.099976 0.000000
0.000000 0.142334 0.000000
0.022385 0.142334 0.000000
0.054474 0.142334 0.000000
0.089783 0.142334 0.000000
0.127197 0.142456 0.000000
0.166016 0.142456 0.000000
0.205811 0.142456 0.000000
0.245361 0.142456 0.000000
0.285156 0.142456 0.000000
0.325195 0.142456 0.000000
0.364502 0.142456 0.000000
0.403076 0.142456 0.000000
0.441406 0.142456 0.000000
0.479004 0.142456 0.000000
0.515625 0.142456 0.000000
0.551270 0.142456 0.000000
0.586426 0.142456 0.000000
0.620117 0.142456 0.000000
0.653320 0.142456 0.000000
0.685547 0.142456 0.000000
0.716309 0.142456 0.000000
0.746582 0.142456 0.000000
0.776367 0.142456 0.000000
0.805176 0.142456 0.000000
0.833496 0.142456 0.000000
0.860352 0.142456 0.000000
0.887207 0.142456 0.000000
0.912109 0.142456 0.000000
0.936523 0.142456 0.000000
0.959473 0.142456 0.000000
0.981445 0.142456 0.000000
1.000000 0.142456 0.000000
0.000000 0.185669 0.000000
0.022385 0.185669 0.000000
0.054474 0.185669 0.000000
0.089783 0.185669 0.000000
0.127197 0.185669 0.000000
0.166016 0.185669 0.000000
0.205811 0.185669 0.000000
0.245361 0.185669 0.000000
0.285156 0.185669 0.000000
0.325195 0.185669 0.000000
0.364502 0.185669 0.000000
0.403076 0.185669 0.000000
0.441406 0.185669 0.000000
0.479004 0.185669 0.000000
0.515625 0.185669 0.000000
0.551270 0.185669 0.000000
0.586426 0.185669 0.000000
0.620117 0.185669 0.000000
0.653320 0.185669 0.000000
0.685547 0.185669 0.000000
0.716309 0.185669 0.000000
0.746582 0.185669 0.000000
0.776367 0.185669 0.000000
0.805176 0.185669 0.000000
0.833496 0.185669 0.000000
0.860352 0.185669 0.000000
0.887207 0.185669 0.000000
0.912109 0.185669 0.000000
0.936523 0.185669 0.000000
0.959473 0.185669 0.000000
0.981445 0.185669 0.000000
1.000000 0.185669 0.000000
0.000000 0.228638 0.000000
0.022385 0.228638 0.000000
0.054474 0.228760 0.000000
0.089783 0.228760 0.000000
0.127197 0.228760 0.000000
0.166016 0.228760 0.000000
0.205811 0.228760 0.000000
0.245361 0.228760 0.000000
0.285156 0.228760 0.000000
0.325195 0.228760 0.000000
0.364502 0.228760 0.000000
0.403076 0.228760 0.000000
0.441406 0.228760 0.000000
0.479004 0.228760 0.000000
0.515625 0.228760 0.000000
0.551270 0.228760 0.000000
0.586426 0.228760 0.000000
0.620117 0.228760 0.000000
0.653320 0.228760 0.000000
0.685547 0.228760 0.000000
0.716309 0.228760 0.000000
0.746582 0.228760 0.000000
0.776367 0.228760 0.000000
0.805176 0.228760 0.000000
0.833496 0.228760 0.000000
0.860352 0.228760 0.000000
0.887207 0.228760 0.000000
0.912109 0.228760 0.000000
0.936523 0.228760 0.000000
0.959473 0.228760 0.000000
0.981445 0.228760 0.000000
1.000000 0.228760 0.000000
0.000000 0.272217 0.000000
0.022385 0.272217 0.000000
0.054474 0.272217 0.000000
0.089783 0.272217 0.000000
0.127197 0.272217 0.000000
0.166016 0.272217 0.000000
0.205811 0.272217 0.000000
0.245361 0.272217 0.000000
0.285156 0.272217 0.000000
0.325195 0.272217 0.000000
0.364502 0.272217 0.000000
0.403076 0.272217 0.000000
0.441406 0.272217 0.000000
0.479004 0.272217 0.000000
0.515625 0.272217 0.000000
0.551270 0.272217 0.000000
0.586426 0.272217 0.000000
0.620117 0.272217 0.000000
0.653320 0.272217 0.000000
0.685547 0.272217 0.000000
0.716309 0.272217 0.000000
0.746582 0.272217 0.000000
0.776367 0.272217 0.000000
0.805176 0.272217 0.000000
0.833496 0.272217 0.000000
0.860352 0.272217 0.000000
0.887207 0.272217 0.000000
0.912109 0.272217 0.000000
0.936523 0.272217 0.000000
0.959473 0.272217 0.000000
0.981445 0.272217 0.000000
1.000000 0.272217 0.000000
0.000000 0.315186 0.000000
0.022385 0.315186 0.000000
0.054474 0.315186 0.000000
0.089783 0.315186 0.000000
0.127197 0.315186 0.000000
0.166016 0.315186 0.000000
0.205811 0.315186 0.000000
0.245361 0.315186 0.000000
0.285156 0.315186 0.000000
0.325195 0.315186 0.000000
0.364502 0.315186 0.000000
0.403076 0.315186 0.000000
0.441406 0.315186 0.000000
0.479004 0.315186 0.000000
0.515625 0.315186 0.000000
0.551270 0.315186 0.000000
0.586426 0.315186 0.000000
0.620117 0.315186 0.000000
0.653320 0.315186 0.000000
0.685547 0.315186 0.000000
0.716309 0.315186 0.000000
0.746582 0.315186 0.000000
0.776367 0.315186 0.000000
0.805176 0.315186 0.000000
0.833496 0.315186 0.000000
0.860352 0.315186 0.000000
0.887207 0.315186 0.000000
0.912109 0.315186 0.000000
0.936523 0.315186 0.000000
0.959473 0.315186 0.000000
0.981445 0.315186 0.000000
1.000000 0.315186 0.000000
0.000000 0.356934 0.000000
0.022385 0.356934 0.000000
0.054474 0.356934 0.000000
0.089783 0.356934 0.000000
0.127197 0.356934 0.000000
0.166016 0.356934 0.000000
0.205811 0.356934 0.000000
0.245361 0.356934 0.000000
0.285156 0.356934 0.000000
0.325195 0.356934 0.000000
0.364502 0.356934 0.000000
0.403076 0.356934 0.000000
0.441406 0.356934 0.000000
0.479004 0.356934 0.000000
0.515625 0.356934 0.000000
0.551270 0.356934 0.000000
0.586426 0.356934 0.000000
0.620117 0.356934 0.000000
0.653320 0.356934 0.000000
0.685547 0.356934 0.000000
0.716309 0.356934 0.000000
0.746582 0.356934 0.000000
0.776367 0.356934 0.000000
0.805176 0.356934 0.000000
0.833496 0.356934 0.000000
0.860352 0.356934 0.000000
0.887207 0.356934 0.000000
0.912109 0.356934 0.000000
0.936523 0.356934 0.000000
0.959473 0.356934 0.000000
0.981445 0.356934 0.000000
1.000000 0.356934 0.000000
0.000000 0.397217 0.000000
0.022385 0.397217 0.000000
0.054474 0.397217 0.000000
0.089783 0.397217 0.000000
0.127197 0.397217 0.000000
0.166016 0.397217 0.000000
0.205811 0.397217 0.000000
0.245361 0.397217 0.000000
0.285156 0.397217 0.000000
0.325195 0.397217 0.000000
0.364502 0.397217 0.000000
0.403076 0.397217 0.000000
0.441406 0.397217 0.000000
0.479004 0.397217 0.000000
0.515625 0.397217 0.000000
0.551270 0.397217 0.000000
0.586426 0.397217 0.000000
0.620117 0.397217 0.000000
0.653320 0.397217 0.000000
0.685547 0.397217 0.000000
0.716309 0.397217 0.000000
0.746582 0.397217 0.000000
0.776367 0.397217 0.000000
0.805176 0.397217 0.000000
0.833496 0.397217 0.000000
0.860352 0.397217 0.000000
0.887207 0.397217 0.000000
0.912109 0.397217 0.000000
0.936523 0.397217 0.000000
0.959473 0.397217 0.000000
0.981445 0.397217 0.000000
1.000000 0.397217 0.000000
0.000000 0.436279 0.000000
0.022385 0.436279 0.000000
0.054474 0.436279 0.000000
0.089783 0.436279 0.000000
0.127197 0.436279 0.000000
0.166016 0.436279 0.000000
0.205811 0.436279 0.000000
0.245361 0.436279 0.000000
0.285156 0.436279 0.000000
0.325195 0.436279 0.000000
0.364502 0.436279 0.000000
0.403076 0.436279 0.000000
0.441406 0.436279 0.000000
0.479004 0.436279 0.000000
0.515625 0.436279 0.000000
0.551270 0.436279 0.000000
0.586426 0.436279 0.000000
0.620117 0.436279 0.000000
0.653320 0.436279 0.000000
0.685547 0.436279 0.000000
0.716309 0.436279 0.000000
0.746582 0.436279 0.000000
0.776367 0.436279 0.000000
0.805176 0.436279 0.000000
0.833496 0.436279 0.000000
0.860352 0.436279 0.000000
0.887207 0.436279 0.000000
0.912109 0.436279 0.000000
0.936523 0.436279 0.000000
0.959473 0.436279 0.000000
0.981445 0.436279 0.000000
1.000000 0.436279 0.000000
0.000000 0.474609 0.000000
0.022385 0.474609 0.000000
0.054474 0.474609 0.000000
0.089783 0.474609 0.000000
0.127197 0.474609 0.000000
0.166016 0.474609 0.000000
0.205811 0.474609 0.000000
0.245361 0.474609 0.000000
0.285156 0.474609 0.000000
0.325195 0.474609 0.000000
0.364502 0.474609 0.000000
0.403076 0.474609 0.000000
0.441406 0.474609 0.000000
0.479004 0.474609 0.000000
0.515625 0.474609 0.000000
0.551270 0.474609 0.000000
0.586426 0.474609 0.000000
0.620117 0.474609 0.000000
0.653320 0.474609 0.000000
0.685547 0.474609 0.000000
0.716309 0.474609 0.000000
0.746582 0.474609 0.000000
0.776367 0.474609 0.000000
0.805176 0.474609 0.000000
0.833496 0.474609 0.000000
0.860352 0.474609 0.000000
0.887207 0.474609 0.000000
0.912109 0.474609 0.000000
0.936523 0.474609 0.000000
0.959473 0.474609 0.000000
0.981445 0.474609 0.000000
1.000000 0.474609 0.000000
0.000000 0.511230 0.000000
0.022385 0.511230 0.000000
0.054474 0.511230 0.000000
0.089783 0.511230 0.000000
0.127197 0.511230 0.000000
0.166016 0.511230 0.000000
0.205811 0.511230 0.000000
0.245361 0.511230 0.000000
0.285156 0.511230 0.000000
0.325195 0.511230 0.000000
0.364502 0.511230 0.000000
0.403076 0.511230 0.000000
0.441406 0.511230 0.000000
0.479004 0.511230 0.000000
0.515625 0.511230 0.000000
0.551270 0.511230 0.000000
0.586426 0.511230 0.000000
0.620117 0.511230 0.000000
0.653320 0.511230 0.000000
0.685547 0.511230 0.000000
0.716309 0.511230 0.000000
0.746582 0.511230 0.000000
0.776367 0.511230 0.000000
0.805176 0.511230 0.000000
0.833496 0.511230 0.000000
0.860352 0.511230 0.000000
0.887207 0.511230 0.000000
0.912109 0.511230 0.000000
0.936523 0.511230 0.000000
0.959473 0.511230 0.000000
0.981445 0.511230 0.000000
1.000000 0.511230 0.000000
0.000000 0.546875 0.000000
0.022385 0.546875 0.000000
0.054474 0.546875 0.000000
0.089783 0.546875 0.000000
0.127197 0.546875 0.000000
0.166016 0.546875 0.000000
0.205811 0.546875 0.000000
0.245361 0.546875 0.000000
0.285156 0.546875 0.000000
0.325195 0.546875 0.000000
0.364502 0.546875 0.000000
0.403076 0.546875 0.000000
0.441406 0.546875 0.000000
0.479004 0.546875 0.000000
0.515625 0.546875 0.000000
0.551270 0.546875 0.000000
0.586426 0.546875 0.000000
0.620117 0.546875 0.000000
0.653320 0.546875 0.000000
0.685547 0.546875 0.000000
0.716309 0.546875 0.000000
0.746582 0.546875 0.000000
0.776367 0.546875 0.000000
0.805176 0.546875 0.000000
0.833496 0.546875 0.000000
0.860352 0.546875 0.000000
0.887207 0.546875 0.000000
0.912109 0.546875 0.000000
0.936523 0.546875 0.000000
0.959473 0.546875 0.000000
0.981445 0.546875 0.000000
1.000000 0.546875 0.000000
0.000000 0.580566 0.000000
0.022385 0.580566 0.000000
0.054474 0.580566 0.000000
0.089783 0.580566 0.000000
0.127197 0.580566 0.000000
0.166016 0.580566 0.000000
0.205811 0.580566 0.000000
0.245361 0.580566 0.000000
0.285156 0.580566 0.000000
0.325195 0.580566 0.000000
0.364502 0.580566 0.000000
0.403076 0.580566 0.000000
0.441406 0.580566 0.000000
0.479004 0.580566 0.000000
0.515625 0.580566 0.000000
0.551270 0.580566 0.000000
0.586426 0.580566 0.000000
0.620117 0.580566 0.000000
0.653320 0.580566 0.000000
0.685547 0.580566 0.000000
0.716309 0.580566 0.000000
0.746582 0.580566 0.000000
0.776367 0.580566 0.000000
0.805176 0.580566 0.000000
0.833496 0.580566 0.000000
0.860352 0.580566 0.000000
0.887207 0.580566 0.000000
0.912109 0.580566 0.000000
0.936523 0.580566 0.000000
0.959473 0.580566 0.000000
0.981445 0.580566 0.000000
1.000000 0.580566 0.000000
0.000000 0.613281 0.000000
0.022385 0.613281 0.000000
0.054474 0.613281 0.000000
0.089783 0.613281 0.000000
0.127197 0.613281 0.000000
0.166016 0.613281 0.000000
0.205811 0.613281 0.000000
0.245361 0.613281 0.000000
0.285156 0.613281 0.000000
0.325195 0.613281 0.000000
0.364502 0.613281 0.000000
0.403076 0.613281 0.000000
0.441406 0.613281 0.000000
0.479004 0.613281 0.000000
0.515625 0.613281 0.000000
0.551270 0.613770 0.000000
0.586426 0.613770 0.000000
0.620117 0.613770 0.000000
0.653320 0.613770 0.000000
0.685547 0.613770 0.000000
0.716309 0.613770 0.000000
0.746582 0.613770 0.000000
0.776367 0.613770 0.000000
0.805176 0.613770 0.000000
0.833496 0.613770 0.000000
0.860352 0.613770 0.000000
0.887207 0.613770 0.000000
0.912109 0.613770 0.000000
0.936523 0.613770 0.000000
0.959473 0.613770 0.000000
0.981445 0.613770 0.000000
1.000000 0.613770 0.000000
0.000000 0.645020 0.000000
0.022385 0.645020 0.000000
0.054474 0.645020 0.000000
0.089783 0.645020 0.000000
0.127197 0.645020 0.000000
0.166016 0.645020 0.000000
0.205811 0.645020 0.000000
0.245361 0.645020 0.000000
0.285156 0.645020 0.000000
0.325195 0.645020 0.000000
0.364502 0.645020 0.000000
0.403076 0.645020 0.000000
0.441406 0.645020 0.000000
0.479004 0.645020 0.000000
0.515625 0.645020 0.000000
0.551270 0.645020 0.000000
0.586426 0.645020 0.000000
0.620117 0.645020 0.000000
0.653320 0.645020 0.000000
0.685547 0.645020 0.000000
0.716309 0.645020 0.000000
0.746582 0.645020 0.000000
0.776367 0.645020 0.000000
0.805176 0.645020 0.000000
0.833496 0.645020 0.000000
0.860352 0.645020 0.000000
0.887207 0.645020 0.000000
0.912109 0.645020 0.000000
0.936523 0.645020 0.000000
0.959473 0.645020 0.000000
0.981445 0.645020 0.000000
1.000000 0.645020 0.000000
0.000000 0.675781 0.000000
0.022385 0.675781 0.000000
0.054474 0.675781 0.000000
0.089783 0.675781 0.000000
0.127197 0.675781 0.000000
0.166016 0.675781 0.000000
0.205811 0.675781 0.000000
0.245361 0.675781 0.000000
0.285156 0.675781 0.000000
0.325195 0.675781 0.000000
0.364502 0.675781 0.000000
0.403076 0.675781 0.000000
0.441406 0.675781 0.000000
0.479004 0.675781 0.000000
0.515625 0.675781 0.000000
0.551270 0.675781 0.000000
0.586426 0.675781 0.000000
0.620117 0.675781 0.000000
0.653320 0.675781 0.000000
0.685547 0.675781 0.000000
0.716309 0.675781 0.000000
0.746582 0.675781 0.000000
0.776367 0.675781 0.000000
0.805176 0.675781 0.000000
0.833496 0.675781 0.000000
0.860352 0.675781 0.000000
0.887207 0.675781 0.000000
0.912109 0.675781 0.000000
0.936523 0.675781 0.000000
0.959473 0.675781 0.000000
0.981445 0.675781 0.000000
1.000000 0.675781 0.000000
0.000000 0.705566 0.000000
0.022385 0.705566 0.000000
0.054474 0.705566 0.000000
0.089783 0.705566 0.000000
0.127197 0.705566 0.000000
0.166016 0.705566 0.000000
0.205811 0.705566 0.000000
0.245361 0.705566 0.000000
0.285156 0.705566 0.000000
0.325195 0.705566 0.000000
0.364502 0.705566 0.000000
0.403076 0.705566 0.000000
0.441406 0.705566 0.000000
0.479004 0.705566 0.000000
0.515625 0.705566 0.000000
0.551270 0.705566 0.000000
0.586426 0.705566 0.000000
0.620117 0.705566 0.000000
0.653320 0.705566 0.000000
0.685547 0.705566 0.000000
0.716309 0.705566 0.000000
0.746582 0.705566 0.000000
0.776367 0.705566 0.000000
0.805176 0.705566 0.000000
0.833496 0.705566 0.000000
0.860352 0.705566 0.000000
0.887207 0.705566 0.000000
0.912109 0.705566 0.000000
0.936523 0.705566 0.000000
0.959473 0.705566 0.000000
0.981445 0.705566 0.000000
1.000000 0.705566 0.000000
0.000000 0.734375 0.000000
0.022385 0.734375 0.000000
0.054474 0.734375 0.000000
0.089783 0.734375 0.000000
0.127197 0.734375 0.000000
0.166016 0.734375 0.000000
0.205811 0.734375 0.000000
0.245361 0.734375 0.000000
0.285156 0.734375 0.000000
0.325195 0.734375 0.000000
0.364502 0.734375 0.000000
0.403076 0.734375 0.000000
0.441406 0.734375 0.000000
0.479004 0.734375 0.000000
0.515625 0.734375 0.000000
0.551270 0.734375 0.000000
0.586426 0.734375 0.000000
0.620117 0.734375 0.000000
0.653320 0.734375 0.000000
0.685547 0.734375 0.000000
0.716309 0.734375 0.000000
0.746582 0.734375 0.000000
0.776367 0.734375 0.000000
0.805176 0.734375 0.000000
0.833496 0.734375 0.000000
0.860352 0.734375 0.000000
0.887207 0.734375 0.000000
0.912109 0.734375 0.000000
0.936523 0.734375 0.000000
0.959473 0.734375 0.000000
0.981445 0.734375 0.000000
1.000000 0.734375 0.000000
0.000000 0.762695 0.000000
0.022385 0.762695 0.000000
0.054474 0.762695 0.000000
0.089783 0.762695 0.000000
0.127197 0.762695 0.000000
0.166016 0.762695 0.000000
0.205811 0.762695 0.000000
0.245361 0.762695 0.000000
0.285156 0.762695 0.000000
0.325195 0.762695 0.000000
0.364502 0.762695 0.000000
0.403076 0.762695 0.000000
0.441406 0.762695 0.000000
0.479004 0.762695 0.000000
0.515625 0.762695 0.000000
0.551270 0.762695 0.000000
0.586426 0.762695 0.000000
0.620117 0.762695 0.000000
0.653320 0.762695 0.000000
0.685547 0.762695 0.000000
0.716309 0.762695 0.000000
0.746582 0.762695 0.000000
0.776367 0.762695 0.000000
0.805176 0.762695 0.000000
0.833496 0.762695 0.000000
0.860352 0.762695 0.000000
0.887207 0.762695 0.000000
0.912109 0.762695 0.000000
0.936523 0.762695 0.000000
0.959473 0.762695 0.000000
0.981445 0.762695 0.000000
1.000000 0.762695 0.000000
0.000000 0.790039 0.000000
0.022385 0.790039 0.000000
0.054474 0.790039 0.000000
0.089783 0.790039 0.000000
0.127197 0.790039 0.000000
0.166016 0.790039 0.000000
0.205811 0.790039 0.000000
0.245361 0.790039 0.000000
0.285156 0.790039 0.000000
0.325195 0.790039 0.000000
0.364502 0.790039 0.000000
0.403076 0.790039 0.000000
0.441406 0.790039 0.000000
0.479004 0.790039 0.000000
0.515625 0.790039 0.000000
0.551270 0.790039 0.000000
0.586426 0.790039 0.000000
0.620117 0.790039 0.000000
0.653320 0.790039 0.000000
0.685547 0.790039 0.000000
0.716309 0.790039 0.000000
0.746582 0.790039 0.000000
0.776367 0.790039 0.000000
0.805176 0.790039 0.000000
0.833496 0.790039 0.000000
0.860352 0.790039 0.000000
0.887207 0.790039 0.000000
0.912109 0.790039 0.000000
0.936523 0.790039 0.000000
0.959473 0.790039 0.000000
0.981445 0.790039 0.000000
1.000000 0.790039 0.000000
0.000000 0.816406 0.000000
0.022385 0.816406 0.000000
0.054474 0.816406 0.000000
0.089783 0.816406 0.000000
0.127197 0.816406 0.000000
0.166016 0.816406 0.000000
0.205811 0.816406 0.000000
0.245361 0.816406 0.000000
0.285156 0.816406 0.000000
0.325195 0.816406 0.000000
0.364502 0.816406 0.000000
0.403076 0.816406 0.000000
0.441406 0.816406 0.000000
0.479004 0.816406 0.000000
0.515625 0.816406 0.000000
0.551270 0.816406 0.000000
0.586426 0.816406 0.000000
0.620117 0.816406 0.000000
0.653320 0.816406 0.000000
0.685547 0.816406 0.000000
0.716309 0.816406 0.000000
0.746582 0.816406 0.000000
0.776367 0.816406 0.000000
0.805176 0.816406 0.000000
0.833496 0.816406 0.000000
0.860352 0.816406 0.000000
0.887207 0.816406 0.000000
0.912109 0.816406 0.000000
0.936523 0.816406 0.000000
0.959473 0.816406 0.000000
0.981445 0.816406 0.000000
1.000000 0.816406 0.000000
0.000000 0.842773 0.000000
0.022385 0.842773 0.000000
0.054474 0.842773 0.000000
0.089783 0.842773 0.000000
0.127197 0.842773 0.000000
0.166016 0.842773 0.000000
0.205811 0.842773 0.000000
0.245361 0.842773 0.000000
0.285156 0.842773 0.000000
0.325195 0.842773 0.000000
0.364502 0.842773 0.000000
0.403076 0.842773 0.000000
0.441406 0.842773 0.000000
0.479004 0.842773 0.000000
0.515625 0.842773 0.000000
0.551270 0.842773 0.000000
0.586426 0.842773 0.000000
0.620117 0.842773 0.000000
0.653320 0.842773 0.000000
0.685547 0.842773 0.000000
0.716309 0.842773 0.000000
0.746582 0.842773 0.000000
0.776367 0.842773 0.000000
0.805176 0.842773 0.000000
0.833496 0.842773 0.000000
0.860352 0.842773 0.000000
0.887207 0.842773 0.000000
0.912109 0.842773 0.000000
0.936523 0.842773 0.000000
0.959473 0.842773 0.000000
0.981445 0.842773 0.000000
1.000000 0.842773 0.000000
0.000000 0.868164 0.000000
0.022385 0.868164 0.000000
0.054474 0.868164 0.000000
0.089783 0.868164 0.000000
0.127197 0.868164 0.000000
0.166016 0.868164 0.000000
0.205811 0.868164 0.000000
0.245361 0.868164 0.000000
0.285156 0.868164 0.000000
0.325195 0.868164 0.000000
0.364502 0.868164 0.000000
0.403076 0.868164 0.000000
0.441406 0.868164 0.000000
0.479004 0.868164 0.000000
0.515625 0.868164 0.000000
0.551270 0.868164 0.000000
0.586426 0.868164 0.000000
0.620117 0.868164 0.000000
0.653320 0.868164 0.000000
0.685547 0.868164 0.000000
0.716309 0.868164 0.000000
0.746582 0.868164 0.000000
0.776367 0.868164 0.000000
0.805176 0.868164 0.000000
0.833496 0.868164 0.000000
0.860352 0.868164 0.000000
0.887207 0.868164 0.000000
0.912109 0.868164 0.000000
0.936523 0.868164 0.000000
0.959473 0.868164 0.000000
0.981445 0.868164 0.000000
1.000000 0.868164 0.000000
0.000000 0.893066 0.000000
0.022385 0.893066 0.000000
0.054474 0.893066 0.000000
0.089783 0.893066 0.000000
0.127197 0.893066 0.000000
0.166016 0.893066 0.000000
0.205811 0.893066 0.000000
0.245361 0.893066 0.000000
0.285156 0.893066 0.000000
0.325195 0.893066 0.000000
0.364502 0.893066 0.000000
0.403076 0.893066 0.000000
0.441406 0.893066 0.000000
0.479004 0.893066 0.000000
0.515625 0.893066 0.000000
0.551270 0.893066 0.000000
0.586426 0.893066 0.000000
0.620117 0.893066 0.000000
0.653320 0.893066 0.000000
0.685547 0.893066 0.000000
0.716309 0.893066 0.000000
0.746582 0.893066 0.000000
0.776367 0.893066 0.000000
0.805176 0.893066 0.000000
0.833496 0.893066 0.000000
0.860352 0.893066 0.000000
0.887207 0.893066 0.000000
0.912109 0.893066 0.000000
0.936523 0.893066 0.000000
0.959473 0.893066 0.000000
0.981445 0.893066 0.000000
1.000000 0.893066 0.000000
0.000000 0.916504 0.000000
0.022385 0.916504 0.000000
0.054474 0.916504 0.000000
0.089783 0.916504 0.000000
0.127197 0.916504 0.000000
0.166016 0.916504 0.000000
0.205811 0.916504 0.000000
0.245361 0.916504 0.000000
0.285156 0.916504 0.000000
0.325195 0.916504 0.000000
0.364502 0.916504 0.000000
0.403076 0.916504 0.000000
0.441406 0.916504 0.000000
0.479004 0.916504 0.000000
0.515625 0.916504 0.000000
0.551270 0.916504 0.000000
0.586426 0.916504 0.000000
0.620117 0.916504 0.000000
0.653320 0.916504 0.000000
0.685547 0.916504 0.000000
0.716309 0.916504 0.000000
0.746582 0.916504 0.000000
0.776367 0.916504 0.000000
