cubelut/Adanmq_FCI.cube
TITLE "Generated by Foundry::LUT"
LUT_3D_SIZE 5
DOMAIN_MIN 0.000000 0.000000 0.000000
DOMAIN_MAX 0.903226 0.903226 0.903226
0.000000 0.000000 0.000000
0.138428 0.000000 0.000000
0.368164 0.000000 0.000000
0.633301 0.000000 0.000000
0.898438 0.000000 0.000000
0.000000 0.148682 0.000000
0.138428 0.148682 0.000000
0.368164 0.148682 0.000000
0.633301 0.148682 0.000000
0.898438 0.148682 0.000000
0.000000 0.385986 0.000000
0.138428 0.385986 0.000000
0.368164 0.385986 0.000000
0.633301 0.385986 0.000000
0.898438 0.385986 0.000000
0.000000 0.650879 0.000000
0.138428 0.650879 0.000000
0.368164 0.650879 0.000000
0.633301 0.650879 0.000000
0.898438 0.650879 0.000000
0.000000 0.908203 0.000000
0.138428 0.908203 0.000000
0.368164 0.908203 0.000000
0.633301 0.908203 0.000000
0.898438 0.908203 0.000000
0.000000 0.000000 0.109985
0.138428 0.000000 0.109985
0.368408 0.000000 0.109985
0.633301 0.000000 0.109985
0.898438 0.000000 0.109985
0.000000 0.148682 0.109985
0.138428 0.148682 0.109985
0.368408 0.148682 0.109985
0.633301 0.148682 0.109985
0.898438 0.148682 0.109985
0.000000 0.385986 0.109985
0.138428 0.385986 0.109985
0.368408 0.385986 0.109985
0.633301 0.385986 0.109985
0.898438 0.385986 0.109985
0.000000 0.650879 0.109985
0.138428 0.650879 0.109985
0.368408 0.650879 0.109985
0.633301 0.650879 0.109985
0.898438 0.650879 0.109985
0.000000 0.908203 0.109985
0.138428 0.908203 0.109985
0.368408 0.908203 0.109985
0.633301 0.908203 0.109985
0.898438 0.908203 0.109985
0.000000 0.000000 0.316895
0.138428 0.000000 0.316895
0.368408 0.000000 0.316895
0.633301 0.000000 0.316895
0.898438 0.000000 0.316895
0.000000 0.148682 0.316895
0.138428 0.148682 0.316895
0.368408 0.148682 0.316895
0.633301 0.148682 0.316895
0.898438 0.148682 0.316895
0.000000 0.385986 0.316895
0.138428 0.385986 0.316895
0.368408 0.385986 0.316895
0.633301 0.385986 0.316895
0.898438 0.385986 0.316895
0.000000 0.650879 0.316895
0.138428 0.650879 0.316895
0.368408 0.650879 0.316895
0.633301 0.650879 0.316895
0.898438 0.650879 0.316895
0.000000 0.908203 0.316895
0.138428 0.908203 0.316895
0.368408 0.908203 0.316895
0.633301 0.908203 0.316895
0.898438 0.908203 0.316895
0.000000 0.000000 0.581055
0.138428 0.000000 0.581055
0.368408 0.000000 0.581055
0.633301 0.000000 0.581055
0.898438 0.000000 0.581055
0.000000 0.148682 0.581055
0.138428 0.148682 0.581055
0.368408 0.148682 0.581055
0.633301 0.148682 0.581055
0.898438 0.148682 0.581055
0.000000 0.385986 0.581055
0.138428 0.385986 0.581055
0.368408 0.385986 0.581055
0.633301 0.385986 0.581055
0.898438 0.385986 0.581055
0.000000 0.650879 0.581055
0.138428 0.650879 0.581055
0.368408 0.650879 0.581055
0.633301 0.650879 0.581055
0.898438 0.650879 0.581055
0.000000 0.908203 0.581055
0.138428 0.908203 0.581055
0.368408 0.908203 0.581055
0.633301 0.908203 0.581055
0.898438 0.908203 0.581055
0.000000 0.000000 0.879883
0.138550 0.000000 0.879883
0.368408 0.000000 0.879883
0.633301 0.000000 0.879883
0.898438 0.000000 0.879883
0.000000 0.148682 0.879883
0.138550 0.148682 0.879883
0.368408 0.148682 0.879883
0.633301 0.148682 0.879883
0.898438 0.148682 0.879883
0.000000 0.385986 0.879883
0.138550 0.385986 0.879883
0.368408 0.385986 0.879883
0.633301 0.385986 0.879883
0.898438 0.385986 0.879883
0.000000 0.650879 0.879883
0.138550 0.650879 0.879883
0.368408 0.650879 0.879883
0.633301 0.650879 0.879883
0.898438 0.650879 0.879883
0.000000 0.908203 0.879883
0.138550 0.908203 0.879883
0.368408 0.908203 0.879883
0.633301 0.908203 0.879883
0.898438 0.908203 0.879883
