cubelut/Adanmq_AgfaColor Futura 200.cube
TITLE "Generated by Foundry::LUT"
LUT_3D_SIZE 5
DOMAIN_MIN 0.000000 0.000000 0.000000
DOMAIN_MAX 0.903226 0.903226 0.903226
0.000000 0.000000 0.000000
0.345947 0.000000 0.000000
0.592773 0.000000 0.000000
0.782715 0.000000 0.000000
0.942383 0.000000 0.000000
0.000000 0.351807 0.000000
0.345947 0.351807 0.000000
0.592773 0.351807 0.000000
0.782715 0.351807 0.000000
0.942383 0.351807 0.000000
0.000000 0.607910 0.000000
0.345947 0.607910 0.000000
0.592773 0.607910 0.000000
0.782715 0.607910 0.000000
0.942383 0.607910 0.000000
0.000000 0.791992 0.000000
0.345947 0.791992 0.000000
0.592773 0.791992 0.000000
0.782715 0.791992 0.000000
0.942383 0.791992 0.000000
0.000000 0.942871 0.000000
0.345947 0.942871 0.000000
0.592773 0.942871 0.000000
0.782715 0.942871 0.000000
0.942383 0.942871 0.000000
0.000000 0.000000 0.290771
0.345947 0.000000 0.290771
0.592773 0.000000 0.290771
0.782715 0.000000 0.290771
0.942383 0.000000 0.290771
0.000000 0.351807 0.290771
0.345947 0.351807 0.290771
0.592773 0.351807 0.290771
0.782715 0.351807 0.290771
0.942383 0.351807 0.290771
0.000000 0.607910 0.290771
0.345947 0.607910 0.290771
0.592773 0.607910 0.290771
0.782715 0.607910 0.290771
0.942383 0.607910 0.290771
0.000000 0.791992 0.290771
0.345947 0.791992 0.290771
0.592773 0.791992 0.290771
0.782715 0.791992 0.290771
0.942383 0.791992 0.290771
0.000000 0.942871 0.290771
0.345947 0.942871 0.290771
0.592773 0.942871 0.290771
0.782715 0.942871 0.290771
0.942383 0.942871 0.290771
0.000001 0.000000 0.540527
0.346191 0.000000 0.540527
0.592773 0.000000 0.540527
0.782715 0.000000 0.540527
0.942383 0.000000 0.540527
0.000001 0.351807 0.540527
0.346191 0.351807 0.540527
0.592773 0.351807 0.540527
0.782715 0.351807 0.540527
0.942383 0.351807 0.540527
0.000001 0.607910 0.540527
0.346191 0.607910 0.540527
0.592773 0.607910 0.540527
0.782715 0.607910 0.540527
0.942383 0.607910 0.540527
0.000001 0.791992 0.540527
0.346191 0.791992 0.540527
0.592773 0.791992 0.540527
0.782715 0.791992 0.540527
0.942383 0.791992 0.540527
0.000001 0.942871 0.540527
0.346191 0.942871 0.540527
0.592773 0.942871 0.540527
0.782715 0.942871 0.540527
0.942383 0.942871 0.540527
0.000002 0.000000 0.737793
0.346191 0.000000 0.737793
0.592773 0.000000 0.737793
0.782715 0.000000 0.737793
0.942383 0.000000 0.737793
0.000002 0.351807 0.737793
0.346191 0.351807 0.737793
0.592773 0.351807 0.737793
0.782715 0.351807 0.737793
0.942383 0.351807 0.737793
0.000002 0.607910 0.737793
0.346191 0.607910 0.737793
0.592773 0.607910 0.737793
0.782715 0.607910 0.737793
0.942383 0.607910 0.737793
0.000002 0.791992 0.737793
0.346191 0.791992 0.737793
0.592773 0.791992 0.737793
0.782715 0.791992 0.737793
0.942383 0.791992 0.737793
0.000002 0.942871 0.737793
0.346191 0.942871 0.737793
0.592773 0.942871 0.737793
0.782715 0.942871 0.737793
0.942383 0.942871 0.737793
0.000003 0.000000 0.923828
0.346191 0.000000 0.923828
0.592773 0.000000 0.923828
0.783203 0.000000 0.923828
0.942383 0.000000 0.923828
0.000003 0.351807 0.923828
0.346191 0.351807 0.923828
0.592773 0.351807 0.923828
0.783203 0.351807 0.923828
0.942383 0.351807 0.923828
0.000003 0.607910 0.923828
0.346191 0.607910 0.923828
0.592773 0.607910 0.923828
0.783203 0.607910 0.923828
0.942383 0.607910 0.923828
0.000003 0.791992 0.923828
0.346191 0.791992 0.923828
0.592773 0.791992 0.923828
0.783203 0.791992 0.923828
0.942383 0.791992 0.923828
0.000003 0.942871 0.923828
0.346191 0.942871 0.923828
0.592773 0.942871 0.923828
0.783203 0.942871 0.923828
0.942383 0.942871 0.923828
