cubelut/Adanmq_Advantix 200.cube
TITLE "Generated by Foundry::LUT"
LUT_3D_SIZE 8
DOMAIN_MIN 0.000000 0.000000 0.000000
DOMAIN_MAX 0.903226 0.903226 0.903226
0.000000 0.000000 0.000000
0.117065 0.000000 0.000000
0.267578 0.000000 0.000000
0.407715 0.000000 0.000000
0.544434 0.000000 0.000000
0.675293 0.000000 0.000000
0.802246 0.000000 0.000000
0.923340 0.000000 0.000000
0.000000 0.106628 0.000000
0.117065 0.106628 0.000000
0.267578 0.106628 0.000000
0.407715 0.106628 0.000000
0.544434 0.106628 0.000000
0.675293 0.106628 0.000000
0.802246 0.106628 0.000000
0.923340 0.106628 0.000000
0.000000 0.256836 0.000000
0.117065 0.256836 0.000000
0.267578 0.256836 0.000000
0.407715 0.256836 0.000000
0.544434 0.256836 0.000000
0.675293 0.256836 0.000000
0.802246 0.256836 0.000000
0.923340 0.256836 0.000000
0.000000 0.404541 0.000000
0.117065 0.404541 0.000000
0.267578 0.404541 0.000000
0.407715 0.404541 0.000000
0.544434 0.404541 0.000000
0.675293 0.404541 0.000000
0.802246 0.404541 0.000000
0.923340 0.404541 0.000000
0.000000 0.544434 0.000000
0.117065 0.544434 0.000000
0.267578 0.544434 0.000000
0.407715 0.544434 0.000000
0.544434 0.544434 0.000000
0.675293 0.544434 0.000000
0.802246 0.544434 0.000000
0.923340 0.544434 0.000000
0.000000 0.676758 0.000000
0.117065 0.676758 0.000000
0.267578 0.676758 0.000000
0.407715 0.676758 0.000000
0.544434 0.676758 0.000000
0.675293 0.676758 0.000000
0.802246 0.676758 0.000000
0.923340 0.676758 0.000000
0.000000 0.801758 0.000000
0.117065 0.801758 0.000000
0.267578 0.801758 0.000000
0.407715 0.801758 0.000000
0.544434 0.801758 0.000000
0.675293 0.801758 0.000000
0.802246 0.801758 0.000000
0.923340 0.801758 0.000000
0.000000 0.920410 0.000000
0.117065 0.920410 0.000000
0.267578 0.920410 0.000000
0.407715 0.920410 0.000000
0.544434 0.920410 0.000000
0.675293 0.920410 0.000000
0.802246 0.920410 0.000000
0.923340 0.920410 0.000000
0.000000 0.000000 0.094971
0.117065 0.000000 0.094971
0.267822 0.000000 0.094971
0.407715 0.000000 0.094971
0.544434 0.000000 0.094971
0.675293 0.000000 0.094971
0.802246 0.000000 0.094971
0.923340 0.000000 0.094971
0.000000 0.106628 0.094971
0.117065 0.106628 0.094971
0.267822 0.106628 0.094971
0.407715 0.106628 0.094971
0.544434 0.106628 0.094971
0.675293 0.106628 0.094971
0.802246 0.106628 0.094971
0.923340 0.106628 0.094971
0.000000 0.256836 0.094971
0.117065 0.256836 0.094971
0.267822 0.256836 0.094971
0.407715 0.256836 0.094971
0.544434 0.256836 0.094971
0.675293 0.256836 0.094971
0.802246 0.256836 0.094971
0.923340 0.256836 0.094971
0.000000 0.404541 0.094971
0.117065 0.404541 0.094971
0.267822 0.404541 0.094971
0.407715 0.404541 0.094971
0.544434 0.404541 0.094971
0.675293 0.404541 0.094971
0.802246 0.404541 0.094971
0.923340 0.404541 0.094971
0.000000 0.544434 0.094971
0.117065 0.544434 0.094971
0.267822 0.544434 0.094971
0.407715 0.544434 0.094971
0.544434 0.544434 0.094971
0.675293 0.544434 0.094971
0.802246 0.544434 0.094971
0.923340 0.544434 0.094971
0.000000 0.676758 0.094971
0.117065 0.676758 0.094971
0.267822 0.676758 0.094971
0.407715 0.676758 0.094971
0.544434 0.676758 0.094971
0.675293 0.676758 0.094971
0.802246 0.676758 0.094971
0.923340 0.676758 0.094971
0.000000 0.801758 0.095032
0.117065 0.801758 0.095032
0.267822 0.801758 0.095032
0.407715 0.801758 0.095032
0.544434 0.801758 0.095032
0.675293 0.801758 0.095032
0.802246 0.801758 0.095032
0.923340 0.801758 0.095032
0.000000 0.920410 0.095032
0.117065 0.920410 0.095032
0.267822 0.920410 0.095032
0.407715 0.920410 0.095032
0.544434 0.920410 0.095032
0.675293 0.920410 0.095032
0.802246 0.920410 0.095032
0.923340 0.920410 0.095032
0.000000 0.000000 0.232056
0.117126 0.000000 0.232056
0.267822 0.000000 0.232056
0.407715 0.000000 0.232056
0.544434 0.000000 0.232056
0.675293 0.000000 0.232056
0.802246 0.000000 0.232056
0.923340 0.000000 0.232056
0.000000 0.106628 0.232056
0.117126 0.106628 0.232056
0.267822 0.106628 0.232056
0.407715 0.106628 0.232056
0.544434 0.106628 0.232056
0.675293 0.106628 0.232056
0.802246 0.106628 0.232056
0.923340 0.106628 0.232056
0.000000 0.256836 0.232056
0.117126 0.256836 0.232056
0.267822 0.256836 0.232056
0.407715 0.256836 0.232056
0.544434 0.256836 0.232056
0.675293 0.256836 0.232056
0.802246 0.256836 0.232056
0.923340 0.256836 0.232056
0.000000 0.404541 0.232056
0.117126 0.404541 0.232056
0.267822 0.404541 0.232056
0.407715 0.404541 0.232056
0.544434 0.404541 0.232056
0.675293 0.404541 0.232056
0.802246 0.404541 0.232056
0.923340 0.404541 0.232056
0.000000 0.544434 0.232056
0.117126 0.544434 0.232056
0.267822 0.544434 0.232056
0.407715 0.544434 0.232056
0.544434 0.544434 0.232056
0.675293 0.544434 0.232056
0.802246 0.544434 0.232056
0.923340 0.544434 0.232056
0.000000 0.676758 0.232056
0.117126 0.676758 0.232056
0.267822 0.676758 0.232056
0.407715 0.676758 0.232056
0.544434 0.676758 0.232056
0.675293 0.676758 0.232056
0.802246 0.676758 0.232056
0.923340 0.676758 0.232056
0.000000 0.801758 0.232056
0.117126 0.801758 0.232056
0.267822 0.801758 0.232056
0.407715 0.801758 0.232056
0.544434 0.801758 0.232056
0.675293 0.801758 0.232056
0.802246 0.801758 0.232056
0.923340 0.801758 0.232056
0.000000 0.920410 0.232056
0.117126 0.920410 0.232056
0.267822 0.920410 0.232056
0.407715 0.920410 0.232056
0.544434 0.920410 0.232056
0.675293 0.920410 0.232056
0.802246 0.920410 0.232056
0.923340 0.920410 0.232056
0.000000 0.000000 0.368164
0.117126 0.000000 0.368164
0.267822 0.000000 0.368164
0.407715 0.000000 0.368164
0.544434 0.000000 0.368164
0.675781 0.000000 0.368164
0.802246 0.000000 0.368164
0.923340 0.000000 0.368164
0.000000 0.106628 0.368164
0.117126 0.106628 0.368164
0.267822 0.106628 0.368164
0.407715 0.106628 0.368164
0.544434 0.106628 0.368164
0.675781 0.106628 0.368164
0.802246 0.106628 0.368164
0.923340 0.106628 0.368164
0.000000 0.256836 0.368164
0.117126 0.256836 0.368164
0.267822 0.256836 0.368164
0.407715 0.256836 0.368164
0.544434 0.256836 0.368164
0.675781 0.256836 0.368164
0.802246 0.256836 0.368164
0.923340 0.256836 0.368164
0.000000 0.404541 0.368164
0.117126 0.404541 0.368164
0.267822 0.404541 0.368164
0.407715 0.404541 0.368164
0.544434 0.404541 0.368164
0.675781 0.404541 0.368164
0.802246 0.404541 0.368164
0.923340 0.404541 0.368164
0.000000 0.544434 0.368164
0.117126 0.544434 0.368164
0.267822 0.544434 0.368164
0.407715 0.544434 0.368164
0.544434 0.544434 0.368164
0.675781 0.544434 0.368164
0.802246 0.544434 0.368164
0.923340 0.544434 0.368164
0.000000 0.676758 0.368164
0.117126 0.676758 0.368164
0.267822 0.676758 0.368164
0.407715 0.676758 0.368164
0.544434 0.676758 0.368164
0.675781 0.676758 0.368164
0.802246 0.676758 0.368164
0.923340 0.676758 0.368164
0.000000 0.801758 0.368164
0.117126 0.801758 0.368164
0.267822 0.801758 0.368164
0.407715 0.801758 0.368164
0.544434 0.801758 0.368164
0.675781 0.801758 0.368164
0.802246 0.801758 0.368164
0.923340 0.801758 0.368164
0.000000 0.920410 0.368164
0.117126 0.920410 0.368164
0.267822 0.920410 0.368164
0.407715 0.920410 0.368164
0.544434 0.920410 0.368164
0.675781 0.920410 0.368164
0.802246 0.920410 0.368164
0.923340 0.920410 0.368164
0.000000 0.000000 0.506348
0.117188 0.000000 0.506348
0.267822 0.000000 0.506348
0.407959 0.000000 0.506348
0.544434 0.000000 0.506348
0.675781 0.000000 0.506348
0.802246 0.000000 0.506348
0.923340 0.000000 0.506348
0.000000 0.106628 0.506348
0.117188 0.106628 0.506348
0.267822 0.106628 0.506348
0.407959 0.106628 0.506348
0.544434 0.106628 0.506348
0.675781 0.106628 0.506348
0.802246 0.106628 0.506348
0.923340 0.106628 0.506348
0.000000 0.256836 0.506348
0.117188 0.256836 0.506348
0.267822 0.256836 0.506348
0.407959 0.256836 0.506348
0.544434 0.256836 0.506348
0.675781 0.256836 0.506348
0.802246 0.256836 0.506348
0.923340 0.256836 0.506348
0.000000 0.404541 0.506348
0.117188 0.404541 0.506348
0.267822 0.404541 0.506348
0.407959 0.404541 0.506348
0.544434 0.404541 0.506348
0.675781 0.404541 0.506348
0.802246 0.404541 0.506348
0.923340 0.404541 0.506348
0.000000 0.544434 0.506348
0.117188 0.544434 0.506348
0.267822 0.544434 0.506348
0.407959 0.544434 0.506348
0.544434 0.544434 0.506348
0.675781 0.544434 0.506348
0.802246 0.544434 0.506348
0.923340 0.544434 0.506348
0.000000 0.676758 0.506348
0.117188 0.676758 0.506348
0.267822 0.676758 0.506348
0.407959 0.676758 0.506348
0.544434 0.676758 0.506348
0.675781 0.676758 0.506348
0.802246 0.676758 0.506348
0.923340 0.676758 0.506348
0.000000 0.801758 0.506348
0.117188 0.801758 0.506348
0.267822 0.801758 0.506348
0.407959 0.801758 0.506348
0.544434 0.801758 0.506348
0.675781 0.801758 0.506348
0.802246 0.801758 0.506348
0.923340 0.801758 0.506348
0.000000 0.920410 0.506348
0.117188 0.920410 0.506348
0.267822 0.920410 0.506348
0.407959 0.920410 0.506348
0.544434 0.920410 0.506348
0.675781 0.920410 0.506348
0.802246 0.920410 0.506348
0.923340 0.920410 0.506348
0.000000 0.000000 0.643066
0.117188 0.000000 0.643066
0.267822 0.000000 0.643066
0.407959 0.000000 0.643066
0.544434 0.000000 0.643066
0.675781 0.000000 0.643066
0.802246 0.000000 0.643066
0.923340 0.000000 0.643066
0.000000 0.106628 0.643066
0.117188 0.106628 0.643066
0.267822 0.106628 0.643066
0.407959 0.106628 0.643066
0.544434 0.106628 0.643066
0.675781 0.106628 0.643066
0.802246 0.106628 0.643066
0.923340 0.106628 0.643066
0.000000 0.256836 0.643066
0.117188 0.256836 0.643066
0.267822 0.256836 0.643066
0.407959 0.256836 0.643066
0.544434 0.256836 0.643066
0.675781 0.256836 0.643066
0.802246 0.256836 0.643066
0.923340 0.256836 0.643066
0.000000 0.404541 0.643066
0.117188 0.404541 0.643066
0.267822 0.404541 0.643066
0.407959 0.404541 0.643066
0.544434 0.404541 0.643066
0.675781 0.404541 0.643066
0.802246 0.404541 0.643066
0.923340 0.404541 0.643066
0.000000 0.544434 0.643066
0.117188 0.544434 0.643066
0.267822 0.544434 0.643066
0.407959 0.544434 0.643066
0.544434 0.544434 0.643066
0.675781 0.544434 0.643066
0.802246 0.544434 0.643066
0.923340 0.544434 0.643066
0.000000 0.676758 0.643066
0.117188 0.676758 0.643066
0.267822 0.676758 0.643066
0.407959 0.676758 0.643066
0.544434 0.676758 0.643066
0.675781 0.676758 0.643066
0.802246 0.676758 0.643066
0.923340 0.676758 0.643066
0.000000 0.801270 0.643066
0.117188 0.801758 0.643066
0.267822 0.801758 0.643066
0.407959 0.801758 0.643066
0.544434 0.801758 0.643066
0.675781 0.801758 0.643066
0.802246 0.801758 0.643066
0.923340 0.801758 0.643066
0.000000 0.920410 0.643066
0.117188 0.920410 0.643066
0.267822 0.920410 0.643066
0.407959 0.920410 0.643066
0.544434 0.920410 0.643066
0.675781 0.920410 0.643066
0.802246 0.920410 0.643066
0.923340 0.920410 0.643066
0.000001 0.000000 0.776367
0.117188 0.000000 0.776367
0.267822 0.000000 0.776367
0.407959 0.000000 0.776367
0.544434 0.000000 0.776367
0.675781 0.000000 0.776367
0.802246 0.000000 0.776367
0.923340 0.000000 0.776367
0.000001 0.106628 0.776367
0.117188 0.106628 0.776367
0.267822 0.106628 0.776367
0.407959 0.106628 0.776367
0.544434 0.106628 0.776367
0.675781 0.106628 0.776367
0.802246 0.106628 0.776367
0.923340 0.106628 0.776367
0.000001 0.256836 0.776367
0.117188 0.256836 0.776367
0.267822 0.256836 0.776367
0.407959 0.256836 0.776367
0.544434 0.256836 0.776367
0.675781 0.256836 0.776367
0.802246 0.256836 0.776367
0.923340 0.256836 0.776367
0.000001 0.404541 0.776367
0.117188 0.404541 0.776367
0.267822 0.404541 0.776367
0.407959 0.404541 0.776367
0.544434 0.404541 0.776367
0.675781 0.404541 0.776367
0.802246 0.404541 0.776367
0.923340 0.404541 0.776367
0.000001 0.544434 0.776367
0.117188 0.544434 0.776367
0.267822 0.544434 0.776367
0.407959 0.544434 0.776367
0.544434 0.544434 0.776367
0.675781 0.544434 0.776367
0.802246 0.544434 0.776367
0.923340 0.544434 0.776367
0.000001 0.676758 0.776367
0.117188 0.676758 0.776367
0.267822 0.676758 0.776367
0.407959 0.676758 0.776367
0.544434 0.676758 0.776367
0.675781 0.676758 0.776367
0.802246 0.676758 0.776367
0.923340 0.676758 0.776367
0.000001 0.801270 0.776367
0.117188 0.801270 0.776367
0.267822 0.801758 0.776367
0.407959 0.801758 0.776367
0.544434 0.801758 0.776367
0.675781 0.801758 0.776367
0.802246 0.801758 0.776367
0.923340 0.801758 0.776367
0.000001 0.920410 0.776367
0.117188 0.920410 0.776367
0.267822 0.920410 0.776367
0.407959 0.920410 0.776367
0.544434 0.920410 0.776367
0.675781 0.920410 0.776367
0.802246 0.920410 0.776367
0.923340 0.920410 0.776367
0.000001 0.000000 0.908203
0.117249 0.000000 0.908203
0.267822 0.000000 0.908203
0.407959 0.000000 0.908203
0.544434 0.000000 0.908203
0.675781 0.000000 0.908203
0.802246 0.000000 0.908203
0.923340 0.000000 0.908203
0.000001 0.106567 0.908203
0.117249 0.106628 0.908203
0.267822 0.106628 0.908203
0.407959 0.106628 0.908203
0.544434 0.106628 0.908203
0.675781 0.106628 0.908203
0.802246 0.106628 0.908203
0.923340 0.106628 0.908203
0.000001 0.256836 0.908203
0.117249 0.256836 0.908203
0.267822 0.256836 0.908203
0.407959 0.256836 0.908203
0.544434 0.256836 0.908203
0.675781 0.256836 0.908203
0.802246 0.256836 0.908203
0.923340 0.256836 0.908203
0.000001 0.404541 0.908203
0.117249 0.404541 0.908203
0.267822 0.404541 0.908203
0.407959 0.404541 0.908203
0.544434 0.404541 0.908203
0.675781 0.404541 0.908203
0.802246 0.404541 0.908203
0.923340 0.404541 0.908203
0.000001 0.544434 0.908203
0.117249 0.544434 0.908203
0.267822 0.544434 0.908203
0.407959 0.544434 0.908203
0.544434 0.544434 0.908203
0.675781 0.544434 0.908203
0.802246 0.544434 0.908203
0.923340 0.544434 0.908203
0.000001 0.676758 0.908203
0.117249 0.676758 0.908203
0.267822 0.676758 0.908203
0.407959 0.676758 0.908203
0.544434 0.676758 0.908203
0.675781 0.676758 0.908203
0.802246 0.676758 0.908203
0.923340 0.676758 0.908203
0.000001 0.801270 0.908203
0.117249 0.801270 0.908203
0.267822 0.801270 0.908203
0.407959 0.801758 0.908203
0.544434 0.801758 0.908203
0.675781 0.801758 0.908203
0.802246 0.801758 0.908203
0.923340 0.801758 0.908203
0.000001 0.920410 0.908203
0.117249 0.920410 0.908203
0.267822 0.920410 0.908203
0.407959 0.920410 0.908203
0.544434 0.920410 0.908203
0.675781 0.920410 0.908203
0.802246 0.920410 0.908203
0.923340 0.920410 0.908203
