cubelut/Adanmq_Portra 100t.cube
TITLE "Generated by Foundry::LUT"
LUT_3D_SIZE 32
0.000000 0.000000 0.000000
0.010284 0.000000 0.000000
0.027115 0.000000 0.000000
0.046967 0.000000 0.000000
0.069275 0.000000 0.000000
0.093018 0.000000 0.000000
0.118713 0.000000 0.000000
0.145996 0.000000 0.000000
0.173828 0.000000 0.000000
0.202637 0.000000 0.000000
0.232422 0.000000 0.000000
0.263184 0.000000 0.000000
0.295654 0.000000 0.000000
0.328613 0.000000 0.000000
0.362061 0.000000 0.000000
0.396484 0.000000 0.000000
0.431885 0.000000 0.000000
0.467285 0.000000 0.000000
0.502930 0.000000 0.000000
0.538574 0.000000 0.000000
0.575195 0.000000 0.000000
0.612793 0.000000 0.000000
0.650879 0.000000 0.000000
0.690430 0.000000 0.000000
0.730957 0.000000 0.000000
0.771484 0.000000 0.000000
0.812500 0.000000 0.000000
0.854004 0.000000 0.000000
0.893555 0.000000 0.000000
0.932617 0.000000 0.000000
0.968750 0.000000 0.000000
1.000000 0.000000 0.000000
0.000000 0.008797 0.000000
0.010284 0.008797 0.000000
0.027115 0.008797 0.000000
0.046967 0.008797 0.000000
0.069275 0.008797 0.000000
0.093018 0.008797 0.000000
0.118713 0.008797 0.000000
0.145996 0.008797 0.000000
0.173828 0.008797 0.000000
0.202637 0.008797 0.000000
0.232422 0.008797 0.000000
0.263184 0.008797 0.000000
0.295654 0.008797 0.000000
0.328613 0.008797 0.000000
0.362061 0.008797 0.000000
0.396484 0.008797 0.000000
0.431885 0.008797 0.000000
0.467285 0.008797 0.000000
0.502930 0.008797 0.000000
0.538574 0.008797 0.000000
0.575195 0.008797 0.000000
0.612793 0.008797 0.000000
0.650879 0.008797 0.000000
0.690430 0.008797 0.000000
0.730957 0.008804 0.000000
0.771484 0.008804 0.000000
0.812500 0.008804 0.000000
0.854004 0.008804 0.000000
0.893555 0.008804 0.000000
0.932617 0.008804 0.000000
0.968750 0.008804 0.000000
1.000000 0.008804 0.000000
0.000000 0.023758 0.000000
0.010284 0.023758 0.000000
0.027115 0.023758 0.000000
0.046967 0.023758 0.000000
0.069275 0.023758 0.000000
0.093018 0.023758 0.000000
0.118713 0.023758 0.000000
0.145996 0.023758 0.000000
0.173828 0.023758 0.000000
0.202637 0.023758 0.000000
0.232422 0.023758 0.000000
0.263184 0.023773 0.000000
0.295654 0.023773 0.000000
0.328613 0.023773 0.000000
0.362061 0.023773 0.000000
0.396484 0.023773 0.000000
0.431885 0.023773 0.000000
0.467285 0.023773 0.000000
0.502930 0.023773 0.000000
0.538574 0.023773 0.000000
0.575195 0.023773 0.000000
0.612793 0.023773 0.000000
0.650879 0.023773 0.000000
0.690430 0.023773 0.000000
0.730957 0.023773 0.000000
0.771484 0.023773 0.000000
0.812500 0.023773 0.000000
0.854004 0.023773 0.000000
0.893555 0.023773 0.000000
0.932617 0.023773 0.000000
0.968750 0.023773 0.000000
1.000000 0.023773 0.000000
0.000000 0.041931 0.000000
0.010284 0.041931 0.000000
0.027115 0.041931 0.000000
0.046967 0.041931 0.000000
0.069275 0.041931 0.000000
0.093018 0.041931 0.000000
0.118713 0.041931 0.000000
0.145996 0.041931 0.000000
0.173828 0.041931 0.000000
0.202637 0.041931 0.000000
0.232422 0.041931 0.000000
0.263184 0.041931 0.000000
0.295654 0.041931 0.000000
0.328613 0.041931 0.000000
0.362061 0.041931 0.000000
0.396484 0.041931 0.000000
0.431885 0.041931 0.000000
0.467285 0.041931 0.000000
0.502930 0.041931 0.000000
0.538574 0.041931 0.000000
0.575195 0.041931 0.000000
0.612793 0.041931 0.000000
0.650879 0.041931 0.000000
0.690430 0.041931 0.000000
0.730957 0.041931 0.000000
0.771484 0.041931 0.000000
0.812500 0.041931 0.000000
0.854004 0.041931 0.000000
0.893555 0.041931 0.000000
0.932617 0.041931 0.000000
0.968750 0.041931 0.000000
1.000000 0.041931 0.000000
0.000000 0.062622 0.000000
0.010284 0.062622 0.000000
0.027115 0.062622 0.000000
0.046967 0.062622 0.000000
0.069275 0.062622 0.000000
0.093018 0.062622 0.000000
0.118713 0.062622 0.000000
0.145996 0.062622 0.000000
0.173828 0.062622 0.000000
0.202637 0.062622 0.000000
0.232422 0.062622 0.000000
0.263184 0.062622 0.000000
0.295654 0.062622 0.000000
0.328613 0.062622 0.000000
0.362061 0.062622 0.000000
0.396484 0.062622 0.000000
0.431885 0.062622 0.000000
0.467285 0.062622 0.000000
0.502930 0.062622 0.000000
0.538574 0.062622 0.000000
0.575195 0.062622 0.000000
0.612793 0.062622 0.000000
0.650879 0.062622 0.000000
0.690430 0.062622 0.000000
0.730957 0.062622 0.000000
0.771484 0.062622 0.000000
0.812500 0.062622 0.000000
0.854004 0.062622 0.000000
0.893555 0.062622 0.000000
0.932617 0.062622 0.000000
0.968750 0.062622 0.000000
1.000000 0.062622 0.000000
0.000000 0.085388 0.000000
0.010284 0.085388 0.000000
0.027115 0.085388 0.000000
0.046967 0.085388 0.000000
0.069275 0.085388 0.000000
0.093018 0.085388 0.000000
0.118713 0.085388 0.000000
0.145996 0.085388 0.000000
0.173828 0.085388 0.000000
0.202637 0.085388 0.000000
0.232422 0.085388 0.000000
0.263184 0.085388 0.000000
0.295654 0.085388 0.000000
0.328613 0.085388 0.000000
0.362061 0.085388 0.000000
0.396484 0.085388 0.000000
0.431885 0.085388 0.000000
0.467285 0.085388 0.000000
0.502930 0.085388 0.000000
0.538574 0.085388 0.000000
0.575195 0.085388 0.000000
0.612793 0.085388 0.000000
0.650879 0.085388 0.000000
0.690430 0.085388 0.000000
0.730957 0.085388 0.000000
0.771484 0.085388 0.000000
0.812500 0.085388 0.000000
0.854004 0.085388 0.000000
0.893555 0.085388 0.000000
0.932617 0.085388 0.000000
0.968750 0.085388 0.000000
1.000000 0.085388 0.000000
0.000000 0.109924 0.000000
0.010284 0.109924 0.000000
0.027115 0.109924 0.000000
0.046967 0.109924 0.000000
0.069275 0.109924 0.000000
0.093018 0.109924 0.000000
0.118713 0.109924 0.000000
0.145996 0.109924 0.000000
0.173828 0.109924 0.000000
0.202637 0.109924 0.000000
0.232422 0.109924 0.000000
0.263184 0.109924 0.000000
0.295654 0.109924 0.000000
0.328613 0.109924 0.000000
0.362061 0.109924 0.000000
0.396484 0.109924 0.000000
0.431885 0.109924 0.000000
0.467285 0.109924 0.000000
0.502930 0.109924 0.000000
0.538574 0.109924 0.000000
0.575195 0.109924 0.000000
0.612793 0.109924 0.000000
0.650879 0.109924 0.000000
0.690430 0.109924 0.000000
0.730957 0.109924 0.000000
0.771484 0.109924 0.000000
0.812500 0.109924 0.000000
0.854004 0.109924 0.000000
0.893555 0.109924 0.000000
0.932617 0.109924 0.000000
0.968750 0.109924 0.000000
1.000000 0.109924 0.000000
0.000000 0.135620 0.000000
0.010284 0.135620 0.000000
0.027115 0.135620 0.000000
0.046967 0.135620 0.000000
0.069275 0.135620 0.000000
0.093018 0.135620 0.000000
0.118713 0.135620 0.000000
0.145996 0.135620 0.000000
0.173828 0.135620 0.000000
0.202637 0.135620 0.000000
0.232422 0.135620 0.000000
0.263184 0.135620 0.000000
0.295654 0.135620 0.000000
0.328613 0.135620 0.000000
0.362061 0.135620 0.000000
0.396484 0.135620 0.000000
0.431885 0.135620 0.000000
0.467285 0.135620 0.000000
0.502930 0.135620 0.000000
0.538574 0.135620 0.000000
0.575195 0.135620 0.000000
0.612793 0.135620 0.000000
0.650879 0.135620 0.000000
0.690430 0.135620 0.000000
0.730957 0.135620 0.000000
0.771484 0.135620 0.000000
0.812500 0.135620 0.000000
0.854004 0.135620 0.000000
0.893555 0.135620 0.000000
0.932617 0.135620 0.000000
0.968750 0.135620 0.000000
1.000000 0.135620 0.000000
0.000000 0.163086 0.000000
0.010284 0.163086 0.000000
0.027115 0.163086 0.000000
0.046967 0.163086 0.000000
0.069275 0.163086 0.000000
0.093018 0.163086 0.000000
0.118713 0.163086 0.000000
0.145996 0.163086 0.000000
0.173828 0.163086 0.000000
0.202637 0.163086 0.000000
0.232422 0.163086 0.000000
0.263184 0.163086 0.000000
0.295654 0.163086 0.000000
0.328613 0.163086 0.000000
0.362061 0.163086 0.000000
0.396484 0.163086 0.000000
0.431885 0.163086 0.000000
0.467285 0.163086 0.000000
0.502930 0.163086 0.000000
0.538574 0.163086 0.000000
0.575195 0.163086 0.000000
0.612793 0.163086 0.000000
0.650879 0.163086 0.000000
0.690430 0.163086 0.000000
0.730957 0.163086 0.000000
0.771484 0.163086 0.000000
0.812500 0.163086 0.000000
0.854004 0.163086 0.000000
0.893555 0.163086 0.000000
0.932617 0.163086 0.000000
0.968750 0.163086 0.000000
1.000000 0.163086 0.000000
0.000000 0.191895 0.000000
0.010284 0.191895 0.000000
0.027115 0.191895 0.000000
0.046967 0.191895 0.000000
0.069275 0.191895 0.000000
0.093018 0.191895 0.000000
0.118713 0.191895 0.000000
0.145996 0.191895 0.000000
0.173828 0.191895 0.000000
0.202637 0.191895 0.000000
0.232422 0.191895 0.000000
0.263184 0.191895 0.000000
0.295654 0.191895 0.000000
0.328613 0.191895 0.000000
0.362061 0.191895 0.000000
0.396484 0.191895 0.000000
0.431885 0.191895 0.000000
0.467285 0.191895 0.000000
0.502930 0.191895 0.000000
0.538574 0.191895 0.000000
0.575195 0.191895 0.000000
0.612793 0.191895 0.000000
0.650879 0.191895 0.000000
0.690430 0.191895 0.000000
0.730957 0.191895 0.000000
0.771484 0.191895 0.000000
0.812500 0.191895 0.000000
0.854004 0.191895 0.000000
0.893555 0.191895 0.000000
0.932617 0.191895 0.000000
0.968750 0.191895 0.000000
1.000000 0.191895 0.000000
0.000000 0.221680 0.000000
0.010284 0.221680 0.000000
0.027115 0.221680 0.000000
0.046967 0.221680 0.000000
0.069275 0.221680 0.000000
0.093018 0.221680 0.000000
0.118713 0.221680 0.000000
0.145996 0.221680 0.000000
0.173828 0.221680 0.000000
0.202637 0.221680 0.000000
0.232422 0.221680 0.000000
0.263184 0.221680 0.000000
0.295654 0.221680 0.000000
0.328613 0.221680 0.000000
0.362061 0.221680 0.000000
0.396484 0.221680 0.000000
0.431885 0.221680 0.000000
0.467285 0.221680 0.000000
0.502930 0.221680 0.000000
0.538574 0.221680 0.000000
0.575195 0.221680 0.000000
0.612793 0.221680 0.000000
0.650879 0.221680 0.000000
0.690430 0.221680 0.000000
0.730957 0.221680 0.000000
0.771484 0.221680 0.000000
0.812500 0.221680 0.000000
0.854004 0.221680 0.000000
0.893555 0.221680 0.000000
0.932617 0.221680 0.000000
0.968750 0.221680 0.000000
1.000000 0.221680 0.000000
0.000000 0.252441 0.000000
0.010284 0.252441 0.000000
0.027115 0.252441 0.000000
0.046967 0.252441 0.000000
0.069275 0.252441 0.000000
0.093018 0.252441 0.000000
0.118713 0.252441 0.000000
0.145996 0.252441 0.000000
0.173828 0.252441 0.000000
0.202637 0.252441 0.000000
0.232422 0.252441 0.000000
0.263184 0.252441 0.000000
0.295654 0.252441 0.000000
0.328613 0.252441 0.000000
0.362061 0.252441 0.000000
0.396484 0.252441 0.000000
0.431885 0.252441 0.000000
0.467285 0.252441 0.000000
0.502930 0.252441 0.000000
0.538574 0.252441 0.000000
0.575195 0.252441 0.000000
0.612793 0.252441 0.000000
0.650879 0.252441 0.000000
0.690430 0.252441 0.000000
0.730957 0.252441 0.000000
0.771484 0.252441 0.000000
0.812500 0.252441 0.000000
0.854004 0.252441 0.000000
0.893555 0.252441 0.000000
0.932617 0.252441 0.000000
0.968750 0.252441 0.000000
1.000000 0.252441 0.000000
0.000000 0.283936 0.000000
0.010284 0.283936 0.000000
0.027115 0.283936 0.000000
0.046967 0.283936 0.000000
0.069275 0.283936 0.000000
0.093018 0.283936 0.000000
0.118713 0.283936 0.000000
0.145996 0.283936 0.000000
0.173828 0.283936 0.000000
0.202637 0.283936 0.000000
0.232422 0.283936 0.000000
0.263184 0.283936 0.000000
0.295654 0.283936 0.000000
0.328613 0.283936 0.000000
0.362061 0.283936 0.000000
0.396484 0.283936 0.000000
0.431885 0.283936 0.000000
0.467285 0.283936 0.000000
0.502930 0.283936 0.000000
0.538574 0.283936 0.000000
0.575195 0.283936 0.000000
0.612793 0.283936 0.000000
0.650879 0.283936 0.000000
0.690430 0.283936 0.000000
0.730957 0.283936 0.000000
0.771484 0.283936 0.000000
0.812500 0.283936 0.000000
0.854004 0.283936 0.000000
0.893555 0.283936 0.000000
0.932617 0.283936 0.000000
0.968750 0.283936 0.000000
1.000000 0.283936 0.000000
0.000000 0.316406 0.000000
0.010284 0.316406 0.000000
0.027115 0.316406 0.000000
0.046967 0.316406 0.000000
0.069275 0.316406 0.000000
0.093018 0.316406 0.000000
0.118713 0.316406 0.000000
0.145996 0.316406 0.000000
0.173828 0.316406 0.000000
0.202637 0.316406 0.000000
0.232422 0.316406 0.000000
0.263184 0.316406 0.000000
0.295654 0.316406 0.000000
0.328613 0.316406 0.000000
0.362061 0.316406 0.000000
0.396484 0.316406 0.000000
0.431885 0.316406 0.000000
0.467285 0.316406 0.000000
0.502930 0.316406 0.000000
0.538574 0.316406 0.000000
0.575195 0.316406 0.000000
0.612793 0.316406 0.000000
0.650879 0.316406 0.000000
0.690430 0.316406 0.000000
0.730957 0.316406 0.000000
0.771484 0.316406 0.000000
0.812500 0.316406 0.000000
0.854004 0.316406 0.000000
0.893555 0.316406 0.000000
0.932617 0.316406 0.000000
0.968750 0.316406 0.000000
1.000000 0.316406 0.000000
0.000000 0.349609 0.000000
0.010284 0.349609 0.000000
0.027115 0.349609 0.000000
0.046967 0.349609 0.000000
0.069275 0.349609 0.000000
0.093018 0.349609 0.000000
0.118713 0.349609 0.000000
0.145996 0.349609 0.000000
0.173828 0.349609 0.000000
0.202637 0.349609 0.000000
0.232422 0.349609 0.000000
0.263184 0.349609 0.000000
0.295654 0.349609 0.000000
0.328613 0.349609 0.000000
0.362061 0.349609 0.000000
0.396484 0.349609 0.000000
0.431885 0.349609 0.000000
0.467285 0.349609 0.000000
0.502930 0.349609 0.000000
0.538574 0.349609 0.000000
0.575195 0.349609 0.000000
0.612793 0.349609 0.000000
0.650879 0.349609 0.000000
0.690430 0.349609 0.000000
0.730957 0.349609 0.000000
0.771484 0.349609 0.000000
0.812500 0.349609 0.000000
0.854004 0.349609 0.000000
0.893555 0.349609 0.000000
0.932617 0.349609 0.000000
0.968750 0.349609 0.000000
1.000000 0.349609 0.000000
0.000000 0.384033 0.000000
0.010284 0.384033 0.000000
0.027115 0.384033 0.000000
0.046967 0.384033 0.000000
0.069275 0.384033 0.000000
0.093018 0.384033 0.000000
0.118713 0.384033 0.000000
0.145996 0.384033 0.000000
0.173828 0.384033 0.000000
0.202637 0.384033 0.000000
0.232422 0.384033 0.000000
0.263184 0.384033 0.000000
0.295654 0.384033 0.000000
0.328613 0.384033 0.000000
0.362061 0.384033 0.000000
0.396484 0.384033 0.000000
0.431885 0.384033 0.000000
0.467285 0.384033 0.000000
0.502930 0.384033 0.000000
0.538574 0.384033 0.000000
0.575195 0.384033 0.000000
0.612793 0.384033 0.000000
0.650879 0.384033 0.000000
0.690430 0.384033 0.000000
0.730957 0.384033 0.000000
0.771484 0.384033 0.000000
0.812500 0.384033 0.000000
0.854004 0.384033 0.000000
0.893555 0.384033 0.000000
0.932617 0.384033 0.000000
0.968750 0.384033 0.000000
1.000000 0.384033 0.000000
0.000000 0.419434 0.000000
0.010284 0.419434 0.000000
0.027115 0.419434 0.000000
0.046967 0.419434 0.000000
0.069275 0.419434 0.000000
0.093018 0.419434 0.000000
0.118713 0.419434 0.000000
0.145996 0.419434 0.000000
0.173828 0.419434 0.000000
0.202637 0.419434 0.000000
0.232422 0.419434 0.000000
0.263184 0.419434 0.000000
0.295654 0.419434 0.000000
0.328613 0.419434 0.000000
0.362061 0.419434 0.000000
0.396484 0.419434 0.000000
0.431885 0.419434 0.000000
0.467285 0.419434 0.000000
0.502930 0.419434 0.000000
0.538574 0.419434 0.000000
0.575195 0.419434 0.000000
0.612793 0.419434 0.000000
0.650879 0.419434 0.000000
0.690430 0.419434 0.000000
0.730957 0.419434 0.000000
0.771484 0.419434 0.000000
0.812500 0.419434 0.000000
0.854004 0.419434 0.000000
0.893555 0.419434 0.000000
0.932617 0.419434 0.000000
0.968750 0.419434 0.000000
1.000000 0.419434 0.000000
0.000000 0.455566 0.000000
0.010284 0.455566 0.000000
0.027115 0.455566 0.000000
0.046967 0.455566 0.000000
0.069275 0.455566 0.000000
0.093018 0.455566 0.000000
0.118713 0.455566 0.000000
0.145996 0.455566 0.000000
0.173828 0.455566 0.000000
0.202637 0.455566 0.000000
0.232422 0.455566 0.000000
0.263184 0.455566 0.000000
0.295654 0.455566 0.000000
0.328613 0.455566 0.000000
0.362061 0.455566 0.000000
0.396484 0.455566 0.000000
0.431885 0.455566 0.000000
0.467285 0.455566 0.000000
0.502930 0.455566 0.000000
0.538574 0.455566 0.000000
0.575195 0.455566 0.000000
0.612793 0.455566 0.000000
0.650879 0.455566 0.000000
0.690430 0.455566 0.000000
0.730957 0.455566 0.000000
0.771484 0.455566 0.000000
0.812500 0.455566 0.000000
0.854004 0.455566 0.000000
0.893555 0.455566 0.000000
0.932617 0.455566 0.000000
0.968750 0.455566 0.000000
1.000000 0.455566 0.000000
0.000000 0.491699 0.000000
0.010284 0.491699 0.000000
0.027115 0.491699 0.000000
0.046967 0.491699 0.000000
0.069275 0.491699 0.000000
0.093018 0.491699 0.000000
0.118713 0.491699 0.000000
0.145996 0.491699 0.000000
0.173828 0.491699 0.000000
0.202637 0.491699 0.000000
0.232422 0.491699 0.000000
0.263184 0.491699 0.000000
0.295654 0.491699 0.000000
0.328613 0.491699 0.000000
0.362061 0.491699 0.000000
0.396484 0.491699 0.000000
0.431885 0.491699 0.000000
0.467285 0.491699 0.000000
0.502930 0.491699 0.000000
0.538574 0.491699 0.000000
0.575195 0.491699 0.000000
0.612793 0.491699 0.000000
0.650879 0.491699 0.000000
0.690430 0.491699 0.000000
0.730957 0.491699 0.000000
0.771484 0.491699 0.000000
0.812500 0.491699 0.000000
0.854004 0.491699 0.000000
0.893555 0.491699 0.000000
0.932617 0.491699 0.000000
0.968750 0.491699 0.000000
1.000000 0.491699 0.000000
0.000000 0.528809 0.000000
0.010284 0.528809 0.000000
0.027115 0.528809 0.000000
0.046967 0.528809 0.000000
0.069275 0.528809 0.000000
0.093018 0.528809 0.000000
0.118713 0.528809 0.000000
0.145996 0.528809 0.000000
0.173828 0.528809 0.000000
0.202637 0.528809 0.000000
0.232422 0.528809 0.000000
0.263184 0.528809 0.000000
0.295654 0.528809 0.000000
0.328613 0.528809 0.000000
0.362061 0.528809 0.000000
0.396484 0.528809 0.000000
0.431885 0.528809 0.000000
0.467285 0.528809 0.000000
0.502930 0.528809 0.000000
0.538574 0.528809 0.000000
0.575195 0.528809 0.000000
0.612793 0.528809 0.000000
0.650879 0.528809 0.000000
0.690430 0.528809 0.000000
0.730957 0.528809 0.000000
0.771484 0.528809 0.000000
0.812500 0.528809 0.000000
0.854004 0.528809 0.000000
0.893555 0.528809 0.000000
0.932617 0.528809 0.000000
0.968750 0.528809 0.000000
1.000000 0.528809 0.000000
0.000000 0.566895 0.000000
0.010284 0.566895 0.000000
0.027115 0.566895 0.000000
0.046967 0.566895 0.000000
0.069275 0.566895 0.000000
0.093018 0.566895 0.000000
0.118713 0.566895 0.000000
0.145996 0.566895 0.000000
0.173828 0.566895 0.000000
0.202637 0.566895 0.000000
0.232422 0.566895 0.000000
0.263184 0.566895 0.000000
0.295654 0.566895 0.000000
0.328613 0.566895 0.000000
0.362061 0.566895 0.000000
0.396484 0.566895 0.000000
0.431885 0.566895 0.000000
0.467285 0.566895 0.000000
0.502930 0.566895 0.000000
0.538574 0.566895 0.000000
0.575195 0.566895 0.000000
0.612793 0.566895 0.000000
0.650879 0.566895 0.000000
0.690430 0.566895 0.000000
0.730957 0.566895 0.000000
0.771484 0.566895 0.000000
0.812500 0.566895 0.000000
0.854004 0.566895 0.000000
0.893555 0.566895 0.000000
0.932617 0.566895 0.000000
0.968750 0.566895 0.000000
1.000000 0.566895 0.000000
0.000000 0.605469 0.000000
0.010284 0.605469 0.000000
0.027115 0.605469 0.000000
0.046967 0.605469 0.000000
0.069275 0.605469 0.000000
0.093018 0.605469 0.000000
0.118713 0.605469 0.000000
0.145996 0.605469 0.000000
0.173828 0.605469 0.000000
0.202637 0.605469 0.000000
0.232422 0.605469 0.000000
0.263184 0.605469 0.000000
0.295654 0.605469 0.000000
0.328613 0.605469 0.000000
0.362061 0.605469 0.000000
0.396484 0.605469 0.000000
0.431885 0.605469 0.000000
0.467285 0.605469 0.000000
0.502930 0.605469 0.000000
0.538574 0.605469 0.000000
0.575195 0.605469 0.000000
0.612793 0.605469 0.000000
0.650879 0.605469 0.000000
0.690430 0.605469 0.000000
0.730957 0.605469 0.000000
0.771484 0.605469 0.000000
0.812500 0.605469 0.000000
0.854004 0.605469 0.000000
0.893555 0.605469 0.000000
0.932617 0.605469 0.000000
0.968750 0.605469 0.000000
1.000000 0.605469 0.000000
0.000000 0.644043 0.000000
0.010284 0.644043 0.000000
0.027115 0.644043 0.000000
0.046967 0.644043 0.000000
0.069275 0.644043 0.000000
0.093018 0.644043 0.000000
0.118713 0.644043 0.000000
0.145996 0.644043 0.000000
0.173828 0.644043 0.000000
0.202637 0.644043 0.000000
0.232422 0.644043 0.000000
0.263184 0.644043 0.000000
0.295654 0.644043 0.000000
0.328613 0.644043 0.000000
0.362061 0.644043 0.000000
0.396484 0.644043 0.000000
0.431885 0.644043 0.000000
0.467285 0.644043 0.000000
0.502930 0.644043 0.000000
0.538574 0.644043 0.000000
0.575195 0.644043 0.000000
0.612793 0.644043 0.000000
0.650879 0.644043 0.000000
0.690430 0.644043 0.000000
0.730957 0.644043 0.000000
0.771484 0.644043 0.000000
0.812500 0.644043 0.000000
0.854004 0.644043 0.000000
0.893555 0.644043 0.000000
0.932617 0.644043 0.000000
0.968750 0.644043 0.000000
1.000000 0.644043 0.000000
0.000000 0.683594 0.000000
0.010284 0.683594 0.000000
0.027115 0.683594 0.000000
0.046967 0.683594 0.000000
0.069275 0.683594 0.000000
0.093018 0.683594 0.000000
0.118713 0.683594 0.000000
0.145996 0.683594 0.000000
0.173828 0.683594 0.000000
0.202637 0.683594 0.000000
0.232422 0.683594 0.000000
0.263184 0.683594 0.000000
0.295654 0.683594 0.000000
0.328613 0.683594 0.000000
0.362061 0.683594 0.000000
0.396484 0.683594 0.000000
0.431885 0.683594 0.000000
0.467285 0.683594 0.000000
0.502930 0.683594 0.000000
0.538574 0.683594 0.000000
0.575195 0.683594 0.000000
0.612793 0.683594 0.000000
0.650879 0.683594 0.000000
0.690430 0.683594 0.000000
0.730957 0.683594 0.000000
0.771484 0.683594 0.000000
0.812500 0.683594 0.000000
0.854004 0.683594 0.000000
0.893555 0.683594 0.000000
0.932617 0.683594 0.000000
0.968750 0.683594 0.000000
1.000000 0.683594 0.000000
0.000000 0.724609 0.000000
0.010284 0.724609 0.000000
0.027115 0.724609 0.000000
0.046967 0.724609 0.000000
0.069275 0.724609 0.000000
0.093018 0.724609 0.000000
0.118713 0.724609 0.000000
0.145996 0.724609 0.000000
0.173828 0.724609 0.000000
0.202637 0.724609 0.000000
0.232422 0.724609 0.000000
0.263184 0.724609 0.000000
0.295654 0.724609 0.000000
0.328613 0.724609 0.000000
0.362061 0.724609 0.000000
0.396484 0.724609 0.000000
0.431885 0.724609 0.000000
0.467285 0.724609 0.000000
0.502930 0.724609 0.000000
0.538574 0.724609 0.000000
0.575195 0.724609 0.000000
0.612793 0.724609 0.000000
0.650879 0.724609 0.000000
0.690430 0.724609 0.000000
0.730957 0.724609 0.000000
0.771484 0.724609 0.000000
0.812500 0.724609 0.000000
0.854004 0.724609 0.000000
0.893555 0.724609 0.000000
0.932617 0.724609 0.000000
0.968750 0.724609 0.000000
1.000000 0.724609 0.000000
0.000000 0.766113 0.000000
0.010284 0.766113 0.000000
0.027115 0.766113 0.000000
0.046967 0.766113 0.000000
0.069275 0.766113 0.000000
0.093018 0.766113 0.000000
0.118713 0.766113 0.000000
0.145996 0.766113 0.000000
0.173828 0.766113 0.000000
0.202637 0.766113 0.000000
0.232422 0.766113 0.000000
0.263184 0.766113 0.000000
0.295654 0.766113 0.000000
0.328613 0.766113 0.000000
0.362061 0.766113 0.000000
0.396484 0.766113 0.000000
0.431885 0.766113 0.000000
0.467285 0.766113 0.000000
0.502930 0.766113 0.000000
0.538574 0.766113 0.000000
0.575195 0.766113 0.000000
0.612793 0.766113 0.000000
0.650879 0.766113 0.000000
0.690430 0.766113 0.000000
0.730957 0.766113 0.000000
0.771484 0.766113 0.000000
0.812500 0.766113 0.000000
0.854004 0.766113 0.000000
0.893555 0.766113 0.000000
0.932617 0.766113 0.000000
0.968750 0.766113 0.000000
1.000000 0.766113 0.000000
0.000000 0.808105 0.000000
0.010284 0.808105 0.000000
0.027115 0.808105 0.000000
0.046967 0.808105 0.000000
0.069275 0.808105 0.000000
0.093018 0.808105 0.000000
0.118713 0.808105 0.000000
0.145996 0.808105 0.000000
0.173828 0.808105 0.000000
0.202637 0.808105 0.000000
0.232422 0.808105 0.000000
0.263184 0.808105 0.000000
0.295654 0.808105 0.000000
0.328613 0.808105 0.000000
0.362061 0.808105 0.000000
0.396484 0.808105 0.000000
0.431885 0.808105 0.000000
0.467285 0.808105 0.000000
0.502930 0.808105 0.000000
0.538574 0.808105 0.000000
0.575195 0.808105 0.000000
0.612793 0.808105 0.000000
0.650879 0.808105 0.000000
0.690430 0.808105 0.000000
0.730957 0.808105 0.000000
0.771484 0.808105 0.000000
0.812500 0.808105 0.000000
0.854004 0.808105 0.000000
0.893555 0.808105 0.000000
0.932617 0.808105 0.000000
0.968750 0.808105 0.000000
1.000000 0.808105 0.000000
0.000000 0.850586 0.000000
0.010284 0.850586 0.000000
0.027115 0.850586 0.000000
0.046967 0.850586 0.000000
0.069275 0.850586 0.000000
0.093018 0.850586 0.000000
0.118713 0.850586 0.000000
0.145996 0.850586 0.000000
0.173828 0.850586 0.000000
0.202637 0.850586 0.000000
0.232422 0.850586 0.000000
0.263184 0.850586 0.000000
0.295654 0.850586 0.000000
0.328613 0.850586 0.000000
0.362061 0.850586 0.000000
0.396484 0.850586 0.000000
0.431885 0.850586 0.000000
0.467285 0.850586 0.000000
0.502930 0.850586 0.000000
0.538574 0.850586 0.000000
0.575195 0.850586 0.000000
0.612793 0.850586 0.000000
0.650879 0.850586 0.000000
