cubelut/Adanmq_Ektachrome 64.cube
TITLE "Generated by Foundry::LUT"
LUT_3D_SIZE 8
DOMAIN_MIN 0.000000 0.000000 0.000000
DOMAIN_MAX 0.903226 0.903226 0.903226
0.000000 0.000000 0.000000
0.060913 0.000000 0.000000
0.379639 0.000000 0.000000
0.637695 0.000000 0.000000
0.778320 0.000000 0.000000
0.863281 0.000000 0.000000
0.927246 0.000000 0.000000
0.971191 0.000000 0.000000
0.000000 0.031143 0.000000
0.060913 0.031158 0.000000
0.379639 0.031158 0.000000
0.637695 0.031158 0.000000
0.778320 0.031158 0.000000
0.863281 0.031158 0.000000
0.927246 0.031158 0.000000
0.971191 0.031174 0.000000
0.000000 0.278076 0.000000
0.060913 0.278076 0.000000
0.379639 0.278076 0.000000
0.637695 0.278076 0.000000
0.778320 0.278076 0.000000
0.863281 0.278076 0.000000
0.927246 0.278076 0.000000
0.971191 0.278076 0.000000
0.000000 0.550293 0.000000
0.060913 0.550293 0.000000
0.379639 0.550293 0.000000
0.637695 0.550293 0.000000
0.778320 0.550293 0.000000
0.863281 0.550293 0.000000
0.927246 0.550293 0.000000
0.971191 0.550293 0.000000
0.000000 0.731934 0.000000
0.060913 0.731934 0.000000
0.379639 0.731934 0.000000
0.637695 0.731934 0.000000
0.778320 0.731934 0.000000
0.863281 0.731934 0.000000
0.927246 0.731934 0.000000
0.971191 0.731934 0.000000
0.000000 0.845215 0.000000
0.060913 0.845215 0.000000
0.379639 0.845215 0.000000
0.637695 0.845215 0.000000
0.778320 0.845215 0.000000
0.863281 0.845215 0.000000
0.927246 0.845215 0.000000
0.971191 0.845215 0.000000
0.000000 0.919434 0.000000
0.060913 0.919434 0.000000
0.379639 0.919434 0.000000
0.637695 0.919434 0.000000
0.778320 0.919434 0.000000
0.863281 0.919434 0.000000
0.927246 0.919434 0.000000
0.971191 0.919434 0.000000
0.000000 0.968750 0.000000
0.060913 0.968750 0.000000
0.379639 0.968750 0.000000
0.637695 0.968750 0.000000
0.778320 0.968750 0.000000
0.863281 0.968750 0.000000
0.927246 0.968750 0.000000
0.971191 0.968750 0.000000
0.000000 0.000000 0.009132
0.060944 0.000000 0.009132
0.379639 0.000000 0.009132
0.637695 0.000000 0.009132
0.778320 0.000000 0.009132
0.863281 0.000000 0.009132
0.927246 0.000000 0.009132
0.971191 0.000000 0.009132
0.000000 0.031143 0.009132
0.060944 0.031143 0.009132
0.379639 0.031158 0.009132
0.637695 0.031158 0.009132
0.778320 0.031158 0.009132
0.863281 0.031158 0.009132
0.927246 0.031158 0.009132
0.971191 0.031158 0.009132
0.000000 0.278076 0.009132
0.060944 0.278076 0.009132
0.379639 0.278076 0.009132
0.637695 0.278076 0.009132
0.778320 0.278076 0.009132
0.863281 0.278076 0.009132
0.927246 0.278076 0.009132
0.971191 0.278076 0.009132
0.000000 0.550293 0.009132
0.060944 0.550293 0.009132
0.379639 0.550293 0.009132
0.637695 0.550293 0.009132
0.778320 0.550293 0.009132
0.863281 0.550293 0.009132
0.927246 0.550293 0.009132
0.971191 0.550293 0.009132
0.000000 0.731934 0.009132
0.060944 0.731934 0.009132
0.379639 0.731934 0.009132
0.637695 0.731934 0.009132
0.778320 0.731934 0.009132
0.863281 0.731934 0.009132
0.927246 0.731934 0.009132
0.971191 0.731934 0.009132
0.000000 0.845215 0.009132
0.060944 0.845215 0.009132
0.379639 0.845215 0.009132
0.637695 0.845215 0.009132
0.778320 0.845215 0.009132
0.863281 0.845215 0.009132
0.927246 0.845215 0.009132
0.971191 0.845215 0.009132
0.000000 0.919434 0.009132
0.060944 0.919434 0.009132
0.379639 0.919434 0.009132
0.637695 0.919434 0.009132
0.778320 0.919434 0.009132
0.863281 0.919434 0.009132
0.927246 0.919434 0.009132
0.971191 0.919434 0.009132
0.000000 0.968750 0.009132
0.060944 0.968750 0.009132
0.379639 0.968750 0.009132
0.637695 0.968750 0.009132
0.778320 0.968750 0.009132
0.863281 0.968750 0.009132
0.927246 0.968750 0.009140
0.971191 0.968750 0.009140
0.000000 0.000000 0.109680
0.060974 0.000000 0.109680
0.379883 0.000000 0.109680
0.637695 0.000000 0.109680
0.778320 0.000000 0.109680
0.863281 0.000000 0.109680
0.927246 0.000000 0.109680
0.971191 0.000000 0.109680
0.000000 0.031143 0.109680
0.060974 0.031143 0.109680
0.379883 0.031143 0.109680
0.637695 0.031158 0.109680
0.778320 0.031158 0.109680
0.863281 0.031158 0.109680
0.927246 0.031158 0.109680
0.971191 0.031158 0.109680
0.000000 0.278076 0.109680
0.060974 0.278076 0.109680
0.379883 0.278076 0.109680
0.637695 0.278076 0.109680
0.778320 0.278076 0.109680
0.863281 0.278076 0.109680
0.927246 0.278076 0.109680
0.971191 0.278076 0.109680
0.000000 0.550293 0.109680
0.060974 0.550293 0.109680
0.379883 0.550293 0.109680
0.637695 0.550293 0.109680
0.778320 0.550293 0.109680
0.863281 0.550293 0.109680
0.927246 0.550293 0.109680
0.971191 0.550293 0.109680
0.000000 0.731934 0.109680
0.060974 0.731934 0.109680
0.379883 0.731934 0.109680
0.637695 0.731934 0.109680
0.778320 0.731934 0.109680
0.863281 0.731934 0.109680
0.927246 0.731934 0.109680
0.971191 0.731934 0.109680
0.000000 0.845215 0.109680
0.060974 0.845215 0.109680
0.379883 0.845215 0.109680
0.637695 0.845215 0.109680
0.778320 0.845215 0.109680
0.863281 0.845215 0.109680
0.927246 0.845215 0.109680
0.971191 0.845215 0.109680
0.000000 0.919434 0.109680
0.060974 0.919434 0.109680
0.379883 0.919434 0.109680
0.637695 0.919434 0.109680
0.778320 0.919434 0.109680
0.863281 0.919434 0.109680
0.927246 0.919434 0.109680
0.971191 0.919434 0.109680
0.000000 0.968750 0.109680
0.060974 0.968750 0.109680
0.379883 0.968750 0.109680
0.637695 0.968750 0.109680
0.778320 0.968750 0.109680
0.863281 0.968750 0.109680
0.927246 0.968750 0.109680
0.971191 0.968750 0.109680
0.000000 0.000000 0.306641
0.061035 0.000000 0.306641
0.379883 0.000000 0.306641
0.637695 0.000000 0.306641
0.778320 0.000000 0.306641
0.863281 0.000000 0.306641
0.927246 0.000000 0.306641
0.971191 0.000000 0.306641
0.000000 0.031143 0.306641
0.061035 0.031143 0.306641
0.379883 0.031143 0.306641
0.637695 0.031143 0.306641
0.778320 0.031158 0.306641
0.863281 0.031158 0.306641
0.927246 0.031158 0.306641
0.971191 0.031158 0.306641
0.000000 0.277832 0.306641
0.061035 0.278076 0.306641
0.379883 0.278076 0.306641
0.637695 0.278076 0.306641
0.778320 0.278076 0.306641
0.863281 0.278076 0.306641
0.927246 0.278076 0.306641
0.971191 0.278076 0.306641
0.000000 0.550293 0.306641
0.061035 0.550293 0.306641
0.379883 0.550293 0.306641
0.637695 0.550293 0.306641
0.778320 0.550293 0.306641
0.863281 0.550293 0.306641
0.927246 0.550293 0.306641
0.971191 0.550293 0.306641
0.000000 0.731934 0.306641
0.061035 0.731934 0.306641
0.379883 0.731934 0.306641
0.637695 0.731934 0.306641
0.778320 0.731934 0.306641
0.863281 0.731934 0.306641
0.927246 0.731934 0.306641
0.971191 0.731934 0.306641
0.000000 0.845215 0.306641
0.061035 0.845215 0.306641
0.379883 0.845215 0.306641
0.637695 0.845215 0.306641
0.778320 0.845215 0.306641
0.863281 0.845215 0.306641
0.927246 0.845215 0.306641
0.971191 0.845215 0.306641
0.000000 0.919434 0.306641
0.061035 0.919434 0.306641
0.379883 0.919434 0.306641
0.637695 0.919434 0.306641
0.778320 0.919434 0.306641
0.863281 0.919434 0.306641
0.927246 0.919434 0.306641
0.971191 0.919434 0.306641
0.000000 0.968750 0.306641
0.061035 0.968750 0.306641
0.379883 0.968750 0.306641
0.637695 0.968750 0.306641
0.778320 0.968750 0.306641
0.863281 0.968750 0.306641
0.927246 0.968750 0.306641
0.971191 0.968750 0.306641
0.000000 0.000000 0.518066
0.061066 0.000000 0.518066
0.379883 0.000000 0.518066
0.637695 0.000000 0.518066
0.778320 0.000000 0.518066
0.863281 0.000000 0.518066
0.927246 0.000000 0.518066
0.971191 0.000000 0.518066
0.000000 0.031143 0.518066
0.061066 0.031143 0.518066
0.379883 0.031143 0.518066
0.637695 0.031143 0.518066
0.778320 0.031143 0.518066
0.863281 0.031158 0.518066
0.927246 0.031158 0.518066
0.971191 0.031158 0.518066
0.000000 0.277832 0.518066
0.061066 0.277832 0.518066
0.379883 0.278076 0.518066
0.637695 0.278076 0.518066
0.778320 0.278076 0.518066
0.863281 0.278076 0.518066
0.927246 0.278076 0.518066
0.971191 0.278076 0.518066
0.000000 0.550293 0.518066
0.061066 0.550293 0.518066
0.379883 0.550293 0.518066
0.637695 0.550293 0.518066
0.778320 0.550293 0.518066
0.863281 0.550293 0.518066
0.927246 0.550293 0.518066
0.971191 0.550293 0.518066
0.000000 0.731934 0.518066
0.061066 0.731934 0.518066
0.379883 0.731934 0.518066
0.637695 0.731934 0.518066
0.778320 0.731934 0.518066
0.863281 0.731934 0.518066
0.927246 0.731934 0.518066
0.971191 0.731934 0.518066
0.000000 0.845215 0.518066
0.061066 0.845215 0.518066
0.379883 0.845215 0.518066
0.637695 0.845215 0.518066
0.778320 0.845215 0.518066
0.863281 0.845215 0.518066
0.927246 0.845215 0.518066
0.971191 0.845215 0.518066
0.000000 0.919434 0.518066
0.061066 0.919434 0.518066
0.379883 0.919434 0.518066
0.637695 0.919434 0.518066
0.778320 0.919434 0.518066
0.863281 0.919434 0.518066
0.927246 0.919434 0.518066
0.971191 0.919434 0.518066
0.000000 0.968750 0.518066
0.061066 0.968750 0.518066
0.379883 0.968750 0.518066
0.637695 0.968750 0.518066
0.778320 0.968750 0.518066
0.863281 0.968750 0.518066
0.927246 0.968750 0.518066
0.971191 0.968750 0.518066
0.000000 0.000000 0.696289
0.061096 0.000000 0.696289
0.379883 0.000000 0.696289
0.637695 0.000000 0.696289
0.778320 0.000000 0.696289
0.863281 0.000000 0.696289
0.927246 0.000000 0.696289
0.971191 0.000000 0.696289
0.000000 0.031128 0.696289
0.061096 0.031143 0.696289
0.379883 0.031143 0.696289
0.637695 0.031143 0.696289
0.778320 0.031143 0.696289
0.863281 0.031143 0.696289
0.927246 0.031158 0.696289
0.971191 0.031158 0.696289
0.000000 0.277832 0.696289
0.061096 0.277832 0.696289
0.379883 0.277832 0.696289
0.637695 0.278076 0.696289
0.778320 0.278076 0.696289
0.863281 0.278076 0.696289
0.927246 0.278076 0.696289
0.971191 0.278076 0.696289
0.000000 0.550293 0.696289
0.061096 0.550293 0.696289
0.379883 0.550293 0.696289
0.637695 0.550293 0.696289
0.778320 0.550293 0.696289
0.863281 0.550293 0.696289
0.927246 0.550293 0.696289
0.971191 0.550293 0.696289
0.000000 0.731934 0.696289
0.061096 0.731934 0.696289
0.379883 0.731934 0.696289
0.637695 0.731934 0.696289
0.778320 0.731934 0.696289
0.863281 0.731934 0.696289
0.927246 0.731934 0.696289
0.971191 0.731934 0.696289
0.000000 0.845215 0.696289
0.061096 0.845215 0.696289
0.379883 0.845215 0.696289
0.637695 0.845215 0.696289
0.778320 0.845215 0.696289
0.863281 0.845215 0.696289
0.927246 0.845215 0.696289
0.971191 0.845215 0.696289
0.000000 0.919434 0.696289
0.061096 0.919434 0.696289
0.379883 0.919434 0.696289
0.637695 0.919434 0.696289
0.778320 0.919434 0.696289
0.863281 0.919434 0.696289
0.927246 0.919434 0.696289
0.971191 0.919434 0.696289
0.000000 0.968750 0.696289
0.061096 0.968750 0.696289
0.379883 0.968750 0.696289
0.637695 0.968750 0.696289
0.778320 0.968750 0.696289
0.863281 0.968750 0.696289
0.927246 0.968750 0.696289
0.971191 0.968750 0.696289
0.000000 0.000000 0.830078
0.061127 0.000000 0.830078
0.380127 0.000000 0.830078
0.637695 0.000000 0.830078
0.778320 0.000000 0.830078
0.863281 0.000000 0.830078
0.927246 0.000000 0.830078
0.971191 0.000000 0.830078
0.000000 0.031128 0.830078
0.061127 0.031128 0.830078
0.380127 0.031143 0.830078
0.637695 0.031143 0.830078
0.778320 0.031143 0.830078
0.863281 0.031143 0.830078
0.927246 0.031143 0.830078
0.971191 0.031158 0.830078
0.000000 0.277832 0.830078
0.061127 0.277832 0.830078
0.380127 0.277832 0.830078
0.637695 0.277832 0.830078
0.778320 0.278076 0.830078
0.863281 0.278076 0.830078
0.927246 0.278076 0.830078
0.971191 0.278076 0.830078
0.000000 0.550293 0.830078
0.061127 0.550293 0.830078
0.380127 0.550293 0.830078
0.637695 0.550293 0.830078
0.778320 0.550293 0.830078
0.863281 0.550293 0.830078
0.927246 0.550293 0.830078
0.971191 0.550293 0.830078
0.000000 0.731934 0.830078
0.061127 0.731934 0.830078
0.380127 0.731934 0.830078
0.637695 0.731934 0.830078
0.778320 0.731934 0.830078
0.863281 0.731934 0.830078
0.927246 0.731934 0.830078
0.971191 0.731934 0.830078
0.000000 0.844727 0.830078
0.061127 0.845215 0.830078
0.380127 0.845215 0.830078
0.637695 0.845215 0.830078
0.778320 0.845215 0.830078
0.863281 0.845215 0.830078
0.927246 0.845215 0.830078
0.971191 0.845215 0.830078
0.000000 0.919434 0.830078
0.061127 0.919434 0.830078
0.380127 0.919434 0.830078
0.637695 0.919434 0.830078
0.778320 0.919434 0.830078
0.863281 0.919434 0.830078
0.927246 0.919434 0.830078
0.971191 0.919434 0.830078
0.000000 0.968750 0.830078
0.061127 0.968750 0.830078
0.380127 0.968750 0.830078
0.637695 0.968750 0.830078
0.778320 0.968750 0.830078
0.863281 0.968750 0.830078
0.927246 0.968750 0.830078
0.971191 0.968750 0.830078
0.000000 0.000000 0.936035
0.061157 0.000000 0.936035
0.380127 0.000000 0.936035
0.638184 0.000000 0.936035
0.778320 0.000000 0.936035
0.863281 0.000000 0.936035
0.927246 0.000000 0.936035
0.971191 0.000000 0.936035
0.000000 0.031128 0.936035
0.061157 0.031128 0.936035
0.380127 0.031128 0.936035
0.638184 0.031143 0.936035
0.778320 0.031143 0.936035
0.863281 0.031143 0.936035
0.927246 0.031143 0.936035
0.971191 0.031143 0.936035
0.000000 0.277832 0.936035
0.061157 0.277832 0.936035
0.380127 0.277832 0.936035
0.638184 0.277832 0.936035
0.778320 0.277832 0.936035
0.863281 0.278076 0.936035
0.927246 0.278076 0.936035
0.971191 0.278076 0.936035
0.000000 0.550293 0.936035
0.061157 0.550293 0.936035
0.380127 0.550293 0.936035
0.638184 0.550293 0.936035
0.778320 0.550293 0.936035
0.863281 0.550293 0.936035
0.927246 0.550293 0.936035
0.971191 0.550293 0.936035
0.000000 0.731934 0.936035
0.061157 0.731934 0.936035
0.380127 0.731934 0.936035
0.638184 0.731934 0.936035
0.778320 0.731934 0.936035
0.863281 0.731934 0.936035
0.927246 0.731934 0.936035
0.971191 0.731934 0.936035
0.000000 0.844727 0.936035
0.061157 0.844727 0.936035
0.380127 0.845215 0.936035
0.638184 0.845215 0.936035
0.778320 0.845215 0.936035
0.863281 0.845215 0.936035
0.927246 0.845215 0.936035
0.971191 0.845215 0.936035
0.000000 0.919434 0.936035
0.061157 0.919434 0.936035
0.380127 0.919434 0.936035
0.638184 0.919434 0.936035
0.778320 0.919434 0.936035
0.863281 0.919434 0.936035
0.927246 0.919434 0.936035
0.971191 0.919434 0.936035
0.000000 0.968750 0.936035
0.061157 0.968750 0.936035
0.380127 0.968750 0.936035
0.638184 0.968750 0.936035
0.778320 0.968750 0.936035
0.863281 0.968750 0.936035
0.927246 0.968750 0.936035
0.971191 0.968750 0.936035
