cubelut/Adanmq_Kodachrome 64.cube
TITLE "Generated by Foundry::LUT"
LUT_3D_SIZE 5
DOMAIN_MIN 0.000000 0.000000 0.000000
DOMAIN_MAX 0.903226 0.903226 0.903226
0.000000 0.000000 0.000000
0.133179 0.000000 0.000000
0.555664 0.000000 0.000000
0.849609 0.000000 0.000000
0.970215 0.000000 0.000000
0.000000 0.131104 0.000000
0.133179 0.131104 0.000000
0.555664 0.131104 0.000000
0.849609 0.131226 0.000000
0.970215 0.131226 0.000000
0.000000 0.590332 0.000000
0.133179 0.590332 0.000000
0.555664 0.590332 0.000000
0.849609 0.590332 0.000000
0.970215 0.590332 0.000000
0.000000 0.845703 0.000000
0.133179 0.845703 0.000000
0.555664 0.845703 0.000000
0.849609 0.845703 0.000000
0.970215 0.845703 0.000000
0.000000 0.960938 0.000000
0.133179 0.960938 0.000000
0.555664 0.960938 0.000000
0.849609 0.960938 0.000000
0.970215 0.960938 0.000000
0.000000 0.000000 0.133057
0.133179 0.000000 0.133057
0.555664 0.000000 0.133057
0.849609 0.000000 0.133057
0.970215 0.000000 0.133057
0.000000 0.131104 0.133057
0.133179 0.131104 0.133057
0.555664 0.131104 0.133057
0.849609 0.131104 0.133057
0.970215 0.131226 0.133057
0.000000 0.590332 0.133057
0.133179 0.590332 0.133057
0.555664 0.590332 0.133057
0.849609 0.590332 0.133057
0.970215 0.590332 0.133057
0.000000 0.845703 0.133057
0.133179 0.845703 0.133057
0.555664 0.845703 0.133057
0.849609 0.845703 0.133057
0.970215 0.845703 0.133057
0.000000 0.960938 0.133057
0.133179 0.960938 0.133057
0.555664 0.960938 0.133057
0.849609 0.960938 0.133057
0.970215 0.960938 0.133057
0.000000 0.000000 0.555176
0.133301 0.000000 0.555176
0.555664 0.000000 0.555176
0.849609 0.000000 0.555176
0.970215 0.000000 0.555176
0.000000 0.131104 0.555176
0.133301 0.131104 0.555176
0.555664 0.131104 0.555176
0.849609 0.131104 0.555176
0.970215 0.131104 0.555176
0.000000 0.590332 0.555176
0.133301 0.590332 0.555176
0.555664 0.590332 0.555176
0.849609 0.590332 0.555176
0.970215 0.590332 0.555176
0.000000 0.845703 0.555176
0.133301 0.845703 0.555176
0.555664 0.845703 0.555176
0.849609 0.845703 0.555176
0.970215 0.845703 0.555176
0.000000 0.960938 0.555176
0.133301 0.960938 0.555176
0.555664 0.960938 0.555176
0.849609 0.960938 0.555176
0.970215 0.960938 0.555176
0.000000 0.000000 0.849121
0.133301 0.000000 0.849121
0.555664 0.000000 0.849121
0.849609 0.000000 0.849121
0.970215 0.000000 0.849121
0.000000 0.131104 0.849121
0.133301 0.131104 0.849121
0.555664 0.131104 0.849121
0.849609 0.131104 0.849121
0.970215 0.131104 0.849121
0.000000 0.590332 0.849121
0.133301 0.590332 0.849121
0.555664 0.590332 0.849121
0.849609 0.590332 0.849121
0.970215 0.590332 0.849121
0.000000 0.845703 0.849121
0.133301 0.845703 0.849121
0.555664 0.845703 0.849121
0.849609 0.845703 0.849121
0.970215 0.845703 0.849121
0.000000 0.960938 0.849121
0.133301 0.960938 0.849121
0.555664 0.960938 0.849121
0.849609 0.960938 0.849121
0.970215 0.960938 0.849121
0.000000 0.000000 0.970215
0.133423 0.000000 0.970215
0.555664 0.000000 0.970215
0.849609 0.000000 0.970215
0.970703 0.000000 0.970215
0.000000 0.131104 0.970215
0.133423 0.131104 0.970215
0.555664 0.131104 0.970215
0.849609 0.131104 0.970215
0.970703 0.131104 0.970215
0.000000 0.590332 0.970215
0.133423 0.590332 0.970215
0.555664 0.590332 0.970215
0.849609 0.590332 0.970215
0.970703 0.590332 0.970215
0.000000 0.845703 0.970215
0.133423 0.845703 0.970215
0.555664 0.845703 0.970215
0.849609 0.845703 0.970215
0.970703 0.845703 0.970215
0.000000 0.960938 0.970215
0.133423 0.960938 0.970215
0.555664 0.960938 0.970215
0.849609 0.960938 0.970215
0.970703 0.960938 0.970215
