cubelut/Adanmq_F250.cube
TITLE "Generated by Foundry::LUT"
LUT_3D_SIZE 5
DOMAIN_MIN 0.000000 0.000000 0.000000
DOMAIN_MAX 0.903226 0.903226 0.903226
0.000000 0.000000 0.000000
0.385986 0.000000 0.000000
0.617188 0.000000 0.000000
0.803711 0.000000 0.000000
0.952637 0.000000 0.000000
0.000000 0.234497 0.000000
0.385986 0.234497 0.000000
0.617188 0.234497 0.000000
0.803711 0.234497 0.000000
0.952637 0.234497 0.000000
0.000000 0.471191 0.000000
0.385986 0.471191 0.000000
0.617188 0.471191 0.000000
0.803711 0.471191 0.000000
0.952637 0.471191 0.000000
0.000000 0.721680 0.000000
0.385986 0.721680 0.000000
0.617188 0.721680 0.000000
0.803711 0.721680 0.000000
0.952637 0.721680 0.000000
0.000000 0.927246 0.000000
0.385986 0.927246 0.000000
0.617188 0.927246 0.000000
0.803711 0.927246 0.000000
0.952637 0.927246 0.000000
0.000000 0.000000 0.227539
0.385986 0.000000 0.227539
0.617188 0.000000 0.227539
0.803711 0.000000 0.227539
0.952637 0.000000 0.227539
0.000000 0.234497 0.227539
0.385986 0.234497 0.227539
0.617188 0.234497 0.227539
0.803711 0.234497 0.227539
0.952637 0.234497 0.227539
0.000000 0.471191 0.227539
0.385986 0.471191 0.227539
0.617188 0.471191 0.227539
0.803711 0.471191 0.227539
0.952637 0.471191 0.227539
0.000000 0.721680 0.227539
0.385986 0.721680 0.227539
0.617188 0.721680 0.227539
0.803711 0.721680 0.227539
0.952637 0.721680 0.227539
0.000000 0.927246 0.227539
0.385986 0.927246 0.227539
0.617188 0.927246 0.227539
0.803711 0.927246 0.227539
0.952637 0.927246 0.227539
0.000002 0.000000 0.488525
0.386230 0.000000 0.488525
0.617188 0.000000 0.488525
0.803711 0.000000 0.488525
0.952637 0.000000 0.488525
0.000002 0.234375 0.488525
0.386230 0.234497 0.488525
0.617188 0.234497 0.488525
0.803711 0.234497 0.488525
0.952637 0.234497 0.488525
0.000002 0.471191 0.488525
0.386230 0.471191 0.488525
0.617188 0.471191 0.488525
0.803711 0.471191 0.488525
0.952637 0.471191 0.488525
0.000002 0.721680 0.488525
0.386230 0.721680 0.488525
0.617188 0.721680 0.488525
0.803711 0.721680 0.488525
0.952637 0.721680 0.488525
0.000002 0.927246 0.488525
0.386230 0.927246 0.488525
0.617188 0.927246 0.488525
0.803711 0.927246 0.488525
0.952637 0.927246 0.488525
0.000006 0.000000 0.688477
0.386230 0.000000 0.688477
0.617188 0.000000 0.688477
0.803711 0.000000 0.688477
0.952637 0.000000 0.688477
0.000006 0.234375 0.688477
0.386230 0.234375 0.688477
0.617188 0.234497 0.688477
0.803711 0.234497 0.688477
0.952637 0.234497 0.688477
0.000006 0.471191 0.688477
0.386230 0.471191 0.688477
0.617188 0.471191 0.688477
0.803711 0.471191 0.688477
0.952637 0.471191 0.688477
0.000006 0.721680 0.688477
0.386230 0.721680 0.688477
0.617188 0.721680 0.688477
0.803711 0.721680 0.688477
0.952637 0.721680 0.688477
0.000006 0.927246 0.688477
0.386230 0.927246 0.688477
0.617188 0.927246 0.688477
0.803711 0.927246 0.688477
0.952637 0.927246 0.688477
0.000010 0.000000 0.897949
0.386230 0.000000 0.897949
0.617188 0.000000 0.897949
0.803711 0.000000 0.897949
0.952637 0.000000 0.897949
0.000010 0.234375 0.897949
0.386230 0.234375 0.897949
0.617188 0.234375 0.897949
0.803711 0.234497 0.897949
0.952637 0.234497 0.897949
0.000010 0.471191 0.897949
0.386230 0.471191 0.897949
0.617188 0.471191 0.897949
0.803711 0.471191 0.897949
0.952637 0.471191 0.897949
0.000010 0.721680 0.897949
0.386230 0.721680 0.897949
0.617188 0.721680 0.897949
0.803711 0.721680 0.897949
0.952637 0.721680 0.897949
0.000010 0.927246 0.897949
0.386230 0.927246 0.897949
0.617188 0.927246 0.897949
0.803711 0.927246 0.897949
0.952637 0.927246 0.897949
