cubelut/Adanmq_Ektachrome 64t.cube
TITLE "Generated by Foundry::LUT"
LUT_3D_SIZE 32
0.000000 0.000000 0.000000
0.003233 0.000000 0.000000
0.046051 0.000000 0.000000
0.168823 0.000000 0.000000
0.328613 0.000000 0.000000
0.466064 0.000000 0.000000
0.572754 0.000000 0.000000
0.655273 0.000000 0.000000
0.719238 0.000000 0.000000
0.770508 0.000000 0.000000
0.812500 0.000000 0.000000
0.847168 0.000000 0.000000
0.874023 0.000000 0.000000
0.895508 0.000000 0.000000
0.913574 0.000000 0.000000
0.929688 0.000000 0.000000
0.942871 0.000000 0.000000
0.954102 0.000000 0.000000
0.961426 0.000000 0.000000
0.967285 0.000000 0.000000
0.973633 0.000000 0.000000
0.979980 0.000000 0.000000
0.985840 0.000000 0.000000
0.989258 0.000000 0.000000
0.990234 0.000000 0.000000
0.990234 0.000000 0.000000
0.990234 0.000000 0.000000
0.990723 0.000000 0.000000
0.992188 0.000000 0.000000
0.994141 0.000000 0.000000
0.997070 0.000000 0.000000
1.000000 0.000000 0.000000
0.000000 0.001615 0.000000
0.003233 0.001615 0.000000
0.046051 0.001615 0.000000
0.168823 0.001615 0.000000
0.328613 0.001616 0.000000
0.466064 0.001616 0.000000
0.572754 0.001616 0.000000
0.655273 0.001616 0.000000
0.719238 0.001616 0.000000
0.770508 0.001616 0.000000
0.812500 0.001616 0.000000
0.847168 0.001616 0.000000
0.874023 0.001616 0.000000
0.895508 0.001616 0.000000
0.913574 0.001616 0.000000
0.929688 0.001616 0.000000
0.942871 0.001616 0.000000
0.954102 0.001617 0.000000
0.961426 0.001617 0.000000
0.967285 0.001617 0.000000
0.973633 0.001617 0.000000
0.979980 0.001617 0.000000
0.985840 0.001617 0.000000
0.989258 0.001617 0.000000
0.990234 0.001617 0.000000
0.990234 0.001618 0.000000
0.990234 0.001618 0.000000
0.990723 0.001618 0.000000
0.992188 0.001618 0.000000
0.994141 0.001618 0.000000
0.997070 0.001618 0.000000
1.000000 0.001619 0.000000
0.000000 0.026016 0.000000
0.003233 0.026016 0.000000
0.046051 0.026016 0.000000
0.168823 0.026016 0.000000
0.328613 0.026016 0.000000
0.466064 0.026016 0.000000
0.572754 0.026016 0.000000
0.655273 0.026031 0.000000
0.719238 0.026031 0.000000
0.770508 0.026031 0.000000
0.812500 0.026031 0.000000
0.847168 0.026031 0.000000
0.874023 0.026031 0.000000
0.895508 0.026031 0.000000
0.913574 0.026031 0.000000
0.929688 0.026031 0.000000
0.942871 0.026031 0.000000
0.954102 0.026031 0.000000
0.961426 0.026031 0.000000
0.967285 0.026031 0.000000
0.973633 0.026031 0.000000
0.979980 0.026047 0.000000
0.985840 0.026047 0.000000
0.989258 0.026047 0.000000
0.990234 0.026047 0.000000
0.990234 0.026047 0.000000
0.990234 0.026047 0.000000
0.990723 0.026047 0.000000
0.992188 0.026047 0.000000
0.994141 0.026047 0.000000
0.997070 0.026047 0.000000
1.000000 0.026047 0.000000
0.000000 0.109497 0.000000
0.003233 0.109497 0.000000
0.046051 0.109497 0.000000
0.168823 0.109497 0.000000
0.328613 0.109497 0.000000
0.466064 0.109497 0.000000
0.572754 0.109497 0.000000
0.655273 0.109497 0.000000
0.719238 0.109497 0.000000
0.770508 0.109497 0.000000
0.812500 0.109497 0.000000
0.847168 0.109497 0.000000
0.874023 0.109497 0.000000
0.895508 0.109497 0.000000
0.913574 0.109497 0.000000
0.929688 0.109497 0.000000
0.942871 0.109497 0.000000
0.954102 0.109558 0.000000
0.961426 0.109558 0.000000
0.967285 0.109558 0.000000
0.973633 0.109558 0.000000
0.979980 0.109558 0.000000
0.985840 0.109558 0.000000
0.989258 0.109558 0.000000
0.990234 0.109558 0.000000
0.990234 0.109558 0.000000
0.990234 0.109558 0.000000
0.990723 0.109558 0.000000
0.992188 0.109558 0.000000
0.994141 0.109558 0.000000
0.997070 0.109558 0.000000
1.000000 0.109558 0.000000
0.000000 0.239380 0.000000
0.003233 0.239380 0.000000
0.046051 0.239380 0.000000
0.168823 0.239380 0.000000
0.328613 0.239380 0.000000
0.466064 0.239380 0.000000
0.572754 0.239380 0.000000
0.655273 0.239380 0.000000
0.719238 0.239380 0.000000
0.770508 0.239380 0.000000
0.812500 0.239380 0.000000
0.847168 0.239380 0.000000
0.874023 0.239380 0.000000
0.895508 0.239380 0.000000
0.913574 0.239380 0.000000
0.929688 0.239380 0.000000
0.942871 0.239380 0.000000
0.954102 0.239380 0.000000
0.961426 0.239380 0.000000
0.967285 0.239380 0.000000
0.973633 0.239380 0.000000
0.979980 0.239380 0.000000
0.985840 0.239380 0.000000
0.989258 0.239380 0.000000
0.990234 0.239380 0.000000
0.990234 0.239380 0.000000
0.990234 0.239380 0.000000
0.990723 0.239380 0.000000
0.992188 0.239380 0.000000
0.994141 0.239380 0.000000
0.997070 0.239380 0.000000
1.000000 0.239380 0.000000
0.000000 0.373291 0.000000
0.003233 0.373291 0.000000
0.046051 0.373291 0.000000
0.168823 0.373291 0.000000
0.328613 0.373291 0.000000
0.466064 0.373291 0.000000
0.572754 0.373291 0.000000
0.655273 0.373291 0.000000
0.719238 0.373291 0.000000
0.770508 0.373291 0.000000
0.812500 0.373291 0.000000
0.847168 0.373291 0.000000
0.874023 0.373291 0.000000
0.895508 0.373291 0.000000
0.913574 0.373291 0.000000
0.929688 0.373291 0.000000
0.942871 0.373291 0.000000
0.954102 0.373291 0.000000
0.961426 0.373291 0.000000
0.967285 0.373291 0.000000
0.973633 0.373291 0.000000
0.979980 0.373291 0.000000
0.985840 0.373291 0.000000
0.989258 0.373291 0.000000
0.990234 0.373291 0.000000
0.990234 0.373291 0.000000
0.990234 0.373291 0.000000
0.990723 0.373291 0.000000
0.992188 0.373291 0.000000
0.994141 0.373291 0.000000
0.997070 0.373291 0.000000
1.000000 0.373291 0.000000
0.000000 0.490967 0.000000
0.003233 0.490967 0.000000
0.046051 0.490967 0.000000
0.168823 0.490967 0.000000
0.328613 0.490967 0.000000
0.466064 0.490967 0.000000
0.572754 0.490967 0.000000
0.655273 0.490967 0.000000
0.719238 0.490967 0.000000
0.770508 0.490967 0.000000
0.812500 0.490967 0.000000
0.847168 0.490967 0.000000
0.874023 0.490967 0.000000
0.895508 0.490967 0.000000
0.913574 0.490967 0.000000
0.929688 0.490967 0.000000
0.942871 0.490967 0.000000
0.954102 0.490967 0.000000
0.961426 0.490967 0.000000
0.967285 0.490967 0.000000
0.973633 0.490967 0.000000
0.979980 0.490967 0.000000
0.985840 0.490967 0.000000
0.989258 0.490967 0.000000
0.990234 0.490967 0.000000
0.990234 0.490967 0.000000
0.990234 0.490967 0.000000
0.990723 0.490967 0.000000
0.992188 0.490967 0.000000
0.994141 0.490967 0.000000
0.997070 0.490967 0.000000
1.000000 0.490967 0.000000
0.000000 0.586914 0.000000
0.003233 0.586914 0.000000
0.046051 0.586914 0.000000
0.168823 0.586914 0.000000
0.328613 0.586914 0.000000
0.466064 0.586914 0.000000
0.572754 0.586914 0.000000
0.655273 0.586914 0.000000
0.719238 0.586914 0.000000
0.770508 0.586914 0.000000
0.812500 0.586914 0.000000
0.847168 0.586914 0.000000
0.874023 0.586914 0.000000
0.895508 0.586914 0.000000
0.913574 0.586914 0.000000
0.929688 0.586914 0.000000
0.942871 0.586914 0.000000
0.954102 0.586914 0.000000
0.961426 0.586914 0.000000
0.967285 0.586914 0.000000
0.973633 0.586914 0.000000
0.979980 0.586914 0.000000
0.985840 0.586914 0.000000
0.989258 0.586914 0.000000
0.990234 0.586914 0.000000
0.990234 0.586914 0.000000
0.990234 0.586914 0.000000
0.990723 0.586914 0.000000
0.992188 0.586914 0.000000
0.994141 0.586914 0.000000
0.997070 0.586914 0.000000
1.000000 0.586914 0.000000
0.000000 0.663086 0.000000
0.003233 0.663086 0.000000
0.046051 0.663086 0.000000
0.168823 0.663086 0.000000
0.328613 0.663086 0.000000
0.466064 0.663086 0.000000
0.572754 0.663086 0.000000
0.655273 0.663086 0.000000
0.719238 0.663086 0.000000
0.770508 0.663086 0.000000
0.812500 0.663086 0.000000
0.847168 0.663086 0.000000
0.874023 0.663086 0.000000
0.895508 0.663086 0.000000
0.913574 0.663086 0.000000
0.929688 0.663086 0.000000
0.942871 0.663086 0.000000
0.954102 0.663086 0.000000
0.961426 0.663086 0.000000
0.967285 0.663086 0.000000
0.973633 0.663086 0.000000
0.979980 0.663086 0.000000
0.985840 0.663086 0.000000
0.989258 0.663086 0.000000
0.990234 0.663086 0.000000
0.990234 0.663086 0.000000
0.990234 0.663086 0.000000
0.990723 0.663086 0.000000
0.992188 0.663086 0.000000
0.994141 0.663086 0.000000
0.997070 0.663086 0.000000
1.000000 0.663086 0.000000
0.000000 0.721680 0.000000
0.003233 0.721680 0.000000
0.046051 0.721680 0.000000
0.168823 0.721680 0.000000
0.328613 0.721680 0.000000
0.466064 0.721680 0.000000
0.572754 0.721680 0.000000
0.655273 0.721680 0.000000
0.719238 0.721680 0.000000
0.770508 0.721680 0.000000
0.812500 0.721680 0.000000
0.847168 0.721680 0.000000
0.874023 0.721680 0.000000
0.895508 0.721680 0.000000
0.913574 0.721680 0.000000
0.929688 0.721680 0.000000
0.942871 0.721680 0.000000
0.954102 0.721680 0.000000
0.961426 0.721680 0.000000
0.967285 0.721680 0.000000
0.973633 0.721680 0.000000
0.979980 0.721680 0.000000
0.985840 0.721680 0.000000
0.989258 0.721680 0.000000
0.990234 0.721680 0.000000
0.990234 0.721680 0.000000
0.990234 0.721680 0.000000
0.990723 0.721680 0.000000
0.992188 0.721680 0.000000
0.994141 0.721680 0.000000
0.997070 0.721680 0.000000
1.000000 0.721680 0.000000
0.000000 0.768555 0.000000
0.003233 0.768555 0.000000
0.046051 0.768555 0.000000
0.168823 0.768555 0.000000
0.328613 0.768555 0.000000
0.466064 0.768555 0.000000
0.572754 0.768555 0.000000
0.655273 0.768555 0.000000
0.719238 0.768555 0.000000
0.770508 0.768555 0.000000
0.812500 0.768555 0.000000
0.847168 0.768555 0.000000
0.874023 0.768555 0.000000
0.895508 0.768555 0.000000
0.913574 0.768555 0.000000
0.929688 0.768555 0.000000
0.942871 0.768555 0.000000
0.954102 0.768555 0.000000
0.961426 0.768555 0.000000
0.967285 0.768555 0.000000
0.973633 0.768555 0.000000
0.979980 0.768555 0.000000
0.985840 0.768555 0.000000
0.989258 0.768555 0.000000
0.990234 0.768555 0.000000
0.990234 0.768555 0.000000
0.990234 0.768555 0.000000
0.990723 0.768555 0.000000
0.992188 0.768555 0.000000
0.994141 0.768555 0.000000
0.997070 0.768555 0.000000
1.000000 0.768555 0.000000
0.000000 0.804688 0.000000
0.003233 0.804688 0.000000
0.046051 0.804688 0.000000
0.168823 0.804688 0.000000
0.328613 0.804688 0.000000
0.466064 0.804688 0.000000
0.572754 0.804688 0.000000
0.655273 0.804688 0.000000
0.719238 0.804688 0.000000
0.770508 0.804688 0.000000
0.812500 0.804688 0.000000
0.847168 0.804688 0.000000
0.874023 0.804688 0.000000
0.895508 0.804688 0.000000
0.913574 0.804688 0.000000
0.929688 0.804688 0.000000
0.942871 0.804688 0.000000
0.954102 0.804688 0.000000
0.961426 0.804688 0.000000
0.967285 0.804688 0.000000
0.973633 0.804688 0.000000
0.979980 0.804688 0.000000
0.985840 0.804688 0.000000
0.989258 0.804688 0.000000
0.990234 0.804688 0.000000
0.990234 0.804688 0.000000
0.990234 0.804688 0.000000
0.990723 0.804688 0.000000
0.992188 0.804688 0.000000
0.994141 0.804688 0.000000
0.997070 0.804688 0.000000
1.000000 0.804688 0.000000
0.000000 0.833496 0.000000
0.003233 0.833496 0.000000
0.046051 0.833496 0.000000
0.168823 0.833496 0.000000
0.328613 0.833496 0.000000
0.466064 0.833496 0.000000
0.572754 0.833496 0.000000
0.655273 0.833496 0.000000
0.719238 0.833496 0.000000
0.770508 0.833496 0.000000
0.812500 0.833496 0.000000
0.847168 0.833496 0.000000
0.874023 0.833496 0.000000
0.895508 0.833496 0.000000
0.913574 0.833496 0.000000
0.929688 0.833496 0.000000
0.942871 0.833496 0.000000
0.954102 0.833496 0.000000
0.961426 0.833496 0.000000
0.967285 0.833496 0.000000
0.973633 0.833496 0.000000
0.979980 0.833496 0.000000
0.985840 0.833496 0.000000
0.989258 0.833496 0.000000
0.990234 0.833496 0.000000
0.990234 0.833496 0.000000
0.990234 0.833496 0.000000
0.990723 0.833496 0.000000
0.992188 0.833496 0.000000
0.994141 0.833496 0.000000
0.997070 0.833496 0.000000
1.000000 0.833496 0.000000
0.000000 0.858398 0.000000
0.003233 0.858398 0.000000
0.046051 0.858398 0.000000
0.168823 0.858398 0.000000
0.328613 0.858398 0.000000
0.466064 0.858398 0.000000
0.572754 0.858398 0.000000
0.655273 0.858398 0.000000
0.719238 0.858398 0.000000
0.770508 0.858398 0.000000
0.812500 0.858398 0.000000
0.847168 0.858398 0.000000
0.874023 0.858398 0.000000
0.895508 0.858398 0.000000
0.913574 0.858398 0.000000
0.929688 0.858398 0.000000
0.942871 0.858398 0.000000
0.954102 0.858398 0.000000
0.961426 0.858398 0.000000
0.967285 0.858398 0.000000
0.973633 0.858398 0.000000
0.979980 0.858398 0.000000
0.985840 0.858398 0.000000
0.989258 0.858398 0.000000
0.990234 0.858398 0.000000
0.990234 0.858398 0.000000
0.990234 0.858398 0.000000
0.990723 0.858398 0.000000
0.992188 0.858398 0.000000
0.994141 0.858398 0.000000
0.997070 0.858398 0.000000
1.000000 0.858398 0.000000
0.000000 0.878906 0.000000
0.003233 0.878906 0.000000
0.046051 0.878906 0.000000
0.168823 0.878906 0.000000
0.328613 0.878906 0.000000
0.466064 0.878906 0.000000
0.572754 0.878906 0.000000
0.655273 0.878906 0.000000
0.719238 0.878906 0.000000
0.770508 0.878906 0.000000
0.812500 0.878906 0.000000
0.847168 0.878906 0.000000
0.874023 0.878906 0.000000
0.895508 0.878906 0.000000
0.913574 0.878906 0.000000
0.929688 0.878906 0.000000
0.942871 0.878906 0.000000
0.954102 0.878906 0.000000
0.961426 0.878906 0.000000
0.967285 0.878906 0.000000
0.973633 0.878906 0.000000
0.979980 0.878906 0.000000
0.985840 0.878906 0.000000
0.989258 0.878906 0.000000
0.990234 0.878906 0.000000
0.990234 0.878906 0.000000
0.990234 0.878906 0.000000
0.990723 0.878906 0.000000
0.992188 0.878906 0.000000
0.994141 0.878906 0.000000
0.997070 0.878906 0.000000
1.000000 0.878906 0.000000
0.000000 0.895996 0.000000
0.003233 0.895996 0.000000
0.046051 0.895996 0.000000
0.168823 0.895996 0.000000
0.328613 0.895996 0.000000
0.466064 0.895996 0.000000
0.572754 0.895996 0.000000
0.655273 0.895996 0.000000
0.719238 0.895996 0.000000
0.770508 0.895996 0.000000
0.812500 0.895996 0.000000
0.847168 0.895996 0.000000
0.874023 0.895996 0.000000
0.895508 0.895996 0.000000
0.913574 0.895996 0.000000
0.929688 0.895996 0.000000
0.942871 0.895996 0.000000
0.954102 0.895996 0.000000
0.961426 0.895996 0.000000
0.967285 0.895996 0.000000
0.973633 0.895996 0.000000
0.979980 0.895996 0.000000
0.985840 0.895996 0.000000
0.989258 0.895996 0.000000
0.990234 0.895996 0.000000
0.990234 0.895996 0.000000
0.990234 0.895996 0.000000
0.990723 0.895996 0.000000
0.992188 0.895996 0.000000
0.994141 0.895996 0.000000
0.997070 0.895996 0.000000
1.000000 0.895996 0.000000
0.000000 0.911133 0.000000
0.003233 0.911133 0.000000
0.046051 0.911133 0.000000
0.168823 0.911133 0.000000
0.328613 0.911133 0.000000
0.466064 0.911133 0.000000
0.572754 0.911133 0.000000
0.655273 0.911133 0.000000
0.719238 0.911133 0.000000
0.770508 0.911133 0.000000
0.812500 0.911133 0.000000
0.847168 0.911133 0.000000
0.874023 0.911133 0.000000
0.895508 0.911133 0.000000
0.913574 0.911133 0.000000
0.929688 0.911133 0.000000
0.942871 0.911133 0.000000
0.954102 0.911133 0.000000
0.961426 0.911133 0.000000
0.967285 0.911133 0.000000
0.973633 0.911133 0.000000
0.979980 0.911133 0.000000
0.985840 0.911133 0.000000
0.989258 0.911133 0.000000
0.990234 0.911133 0.000000
0.990234 0.911133 0.000000
0.990234 0.911133 0.000000
0.990723 0.911133 0.000000
0.992188 0.911133 0.000000
0.994141 0.911133 0.000000
0.997070 0.911133 0.000000
1.000000 0.911133 0.000000
0.000000 0.923828 0.000000
0.003233 0.923828 0.000000
0.046051 0.923828 0.000000
0.168823 0.923828 0.000000
0.328613 0.923828 0.000000
0.466064 0.923828 0.000000
0.572754 0.923828 0.000000
0.655273 0.923828 0.000000
0.719238 0.923828 0.000000
0.770508 0.923828 0.000000
0.812500 0.923828 0.000000
0.847168 0.923828 0.000000
0.874023 0.923828 0.000000
0.895508 0.923828 0.000000
0.913574 0.923828 0.000000
0.929688 0.923828 0.000000
0.942871 0.923828 0.000000
0.954102 0.923828 0.000000
0.961426 0.923828 0.000000
0.967285 0.923828 0.000000
0.973633 0.923828 0.000000
0.979980 0.923828 0.000000
0.985840 0.923828 0.000000
0.989258 0.923828 0.000000
0.990234 0.923828 0.000000
0.990234 0.923828 0.000000
0.990234 0.923828 0.000000
0.990723 0.923828 0.000000
0.992188 0.923828 0.000000
0.994141 0.923828 0.000000
0.997070 0.923828 0.000000
1.000000 0.923828 0.000000
0.000000 0.935059 0.000000
0.003233 0.935059 0.000000
0.046051 0.935059 0.000000
0.168823 0.935059 0.000000
0.328613 0.935059 0.000000
0.466064 0.935059 0.000000
0.572754 0.935059 0.000000
0.655273 0.935059 0.000000
0.719238 0.935059 0.000000
0.770508 0.935059 0.000000
0.812500 0.935059 0.000000
0.847168 0.935059 0.000000
0.874023 0.935059 0.000000
0.895508 0.935059 0.000000
0.913574 0.935059 0.000000
0.929688 0.935059 0.000000
0.942871 0.935059 0.000000
0.954102 0.935059 0.000000
0.961426 0.935059 0.000000
0.967285 0.935059 0.000000
0.973633 0.935059 0.000000
0.979980 0.935059 0.000000
0.985840 0.935059 0.000000
0.989258 0.935059 0.000000
0.990234 0.935059 0.000000
0.990234 0.935059 0.000000
0.990234 0.935059 0.000000
0.990723 0.935059 0.000000
0.992188 0.935059 0.000000
0.994141 0.935059 0.000000
0.997070 0.935059 0.000000
1.000000 0.935059 0.000000
0.000000 0.945313 0.000000
0.003233 0.945313 0.000000
0.046051 0.945313 0.000000
0.168823 0.945313 0.000000
0.328613 0.945313 0.000000
0.466064 0.945313 0.000000
0.572754 0.945313 0.000000
0.655273 0.945313 0.000000
0.719238 0.945313 0.000000
0.770508 0.945313 0.000000
0.812500 0.945313 0.000000
0.847168 0.945313 0.000000
0.874023 0.945313 0.000000
0.895508 0.945313 0.000000
0.913574 0.945313 0.000000
0.929688 0.945313 0.000000
0.942871 0.945313 0.000000
0.954102 0.945313 0.000000
0.961426 0.945313 0.000000
0.967285 0.945313 0.000000
0.973633 0.945313 0.000000
0.979980 0.945313 0.000000
0.985840 0.945313 0.000000
0.989258 0.945313 0.000000
0.990234 0.945313 0.000000
0.990234 0.945313 0.000000
0.990234 0.945313 0.000000
0.990723 0.945313 0.000000
0.992188 0.945313 0.000000
0.994141 0.945313 0.000000
0.997070 0.945313 0.000000
1.000000 0.945313 0.000000
0.000000 0.956055 0.000000
0.003233 0.956055 0.000000
0.046051 0.956055 0.000000
0.168823 0.956055 0.000000
0.328613 0.956055 0.000000
0.466064 0.956055 0.000000
0.572754 0.956055 0.000000
0.655273 0.956055 0.000000
0.719238 0.956055 0.000000
0.770508 0.956055 0.000000
0.812500 0.956055 0.000000
0.847168 0.956055 0.000000
0.874023 0.956055 0.000000
0.895508 0.956055 0.000000
0.913574 0.956055 0.000000
0.929688 0.956055 0.000000
0.942871 0.956055 0.000000
0.954102 0.956055 0.000000
0.961426 0.956055 0.000000
0.967285 0.956055 0.000000
0.973633 0.956055 0.000000
0.979980 0.956055 0.000000
0.985840 0.956055 0.000000
0.989258 0.956055 0.000000
0.990234 0.956055 0.000000
0.990234 0.956055 0.000000
0.990234 0.956055 0.000000
0.990723 0.956055 0.000000
0.992188 0.956055 0.000000
0.994141 0.956055 0.000000
0.997070 0.956055 0.000000
1.000000 0.956055 0.000000
0.000000 0.965820 0.000000
0.003233 0.965820 0.000000
0.046051 0.965820 0.000000
0.168823 0.965820 0.000000
0.328613 0.965820 0.000000
0.466064 0.965820 0.000000
0.572754 0.965820 0.000000
0.655273 0.965820 0.000000
0.719238 0.965820 0.000000
0.770508 0.965820 0.000000
0.812500 0.965820 0.000000
0.847168 0.965820 0.000000
0.874023 0.965820 0.000000
0.895508 0.965820 0.000000
0.913574 0.965820 0.000000
0.929688 0.965820 0.000000
0.942871 0.965820 0.000000
0.954102 0.965820 0.000000
0.961426 0.965820 0.000000
0.967285 0.965820 0.000000
0.973633 0.965820 0.000000
0.979980 0.965820 0.000000
0.985840 0.965820 0.000000
0.989258 0.965820 0.000000
0.990234 0.965820 0.000000
0.990234 0.965820 0.000000
0.990234 0.965820 0.000000
0.990723 0.965820 0.000000
0.992188 0.965820 0.000000
0.994141 0.965820 0.000000
0.997070 0.965820 0.000000
1.000000 0.965820 0.000000
0.000000 0.972656 0.000000
0.003233 0.972656 0.000000
0.046051 0.972656 0.000000
0.168823 0.972656 0.000000
0.328613 0.972656 0.000000
0.466064 0.972656 0.000000
0.572754 0.972656 0.000000
0.655273 0.972656 0.000000
0.719238 0.972656 0.000000
0.770508 0.972656 0.000000
0.812500 0.972656 0.000000
0.847168 0.972656 0.000000
0.874023 0.972656 0.000000
0.895508 0.972656 0.000000
0.913574 0.972656 0.000000
0.929688 0.972656 0.000000
0.942871 0.972656 0.000000
0.954102 0.972656 0.000000
0.961426 0.972656 0.000000
0.967285 0.972656 0.000000
0.973633 0.972656 0.000000
0.979980 0.972656 0.000000
0.985840 0.972656 0.000000
0.989258 0.972656 0.000000
0.990234 0.972656 0.000000
0.990234 0.972656 0.000000
0.990234 0.972656 0.000000
0.990723 0.972656 0.000000
0.992188 0.972656 0.000000
0.994141 0.972656 0.000000
0.997070 0.972656 0.000000
1.000000 0.972656 0.000000
0.000000 0.977539 0.000000
0.003233 0.977539 0.000000
0.046051 0.977539 0.000000
0.168823 0.977539 0.000000
0.328613 0.977539 0.000000
0.466064 0.977539 0.000000
0.572754 0.977539 0.000000
0.655273 0.977539 0.000000
0.719238 0.977539 0.000000
0.770508 0.977539 0.000000
0.812500 0.977539 0.000000
0.847168 0.977539 0.000000
0.874023 0.977539 0.000000
0.895508 0.977539 0.000000
0.913574 0.977539 0.000000
0.929688 0.977539 0.000000
0.942871 0.977539 0.000000
0.954102 0.977539 0.000000
0.961426 0.977539 0.000000
0.967285 0.977539 0.000000
0.973633 0.977539 0.000000
0.979980 0.977539 0.000000
0.985840 0.977539 0.000000
0.989258 0.977539 0.000000
0.990234 0.977539 0.000000
0.990234 0.977539 0.000000
0.990234 0.977539 0.000000
0.990723 0.977539 0.000000
0.992188 0.977539 0.000000
0.994141 0.977539 0.000000
0.997070 0.977539 0.000000
1.000000 0.977539 0.000000
0.000000 0.979980 0.000000
0.003233 0.979980 0.000000
0.046051 0.979980 0.000000
0.168823 0.979980 0.000000
0.328613 0.979980 0.000000
0.466064 0.979980 0.000000
0.572754 0.979980 0.000000
0.655273 0.979980 0.000000
0.719238 0.979980 0.000000
0.770508 0.979980 0.000000
0.812500 0.979980 0.000000
0.847168 0.979980 0.000000
0.874023 0.979980 0.000000
0.895508 0.979980 0.000000
0.913574 0.979980 0.000000
0.929688 0.979980 0.000000
0.942871 0.979980 0.000000
0.954102 0.979980 0.000000
0.961426 0.979980 0.000000
0.967285 0.979980 0.000000
0.973633 0.979980 0.000000
0.979980 0.979980 0.000000
0.985840 0.979980 0.000000
0.989258 0.979980 0.000000
0.990234 0.979980 0.000000
0.990234 0.979980 0.000000
0.990234 0.979980 0.000000
0.990723 0.979980 0.000000
0.992188 0.979980 0.000000
0.994141 0.979980 0.000000
0.997070 0.979980 0.000000
1.000000 0.979980 0.000000
0.000000 0.980469 0.000000
0.003233 0.980469 0.000000
0.046051 0.980469 0.000000
0.168823 0.980469 0.000000
0.328613 0.980469 0.000000
0.466064 0.980469 0.000000
0.572754 0.980469 0.000000
0.655273 0.980469 0.000000
0.719238 0.980469 0.000000
0.770508 0.980469 0.000000
0.812500 0.980469 0.000000
0.847168 0.980469 0.000000
0.874023 0.980469 0.000000
0.895508 0.980469 0.000000
0.913574 0.980469 0.000000
0.929688 0.980469 0.000000
0.942871 0.980469 0.000000
0.954102 0.980469 0.000000
0.961426 0.980469 0.000000
0.967285 0.980469 0.000000
0.973633 0.980469 0.000000
0.979980 0.980469 0.000000
0.985840 0.980469 0.000000
0.989258 0.980469 0.000000
0.990234 0.980469 0.000000
0.990234 0.980469 0.000000
0.990234 0.980469 0.000000
0.990723 0.980469 0.000000
0.992188 0.980469 0.000000
0.994141 0.980469 0.000000
0.997070 0.980469 0.000000
1.000000 0.980469 0.000000
0.000000 0.980957 0.000000
0.003233 0.980957 0.000000
0.046051 0.980957 0.000000
0.168823 0.980957 0.000000
0.328613 0.980957 0.000000
0.466064 0.980957 0.000000
0.572754 0.980957 0.000000
0.655273 0.980957 0.000000
0.719238 0.980957 0.000000
0.770508 0.980957 0.000000
0.812500 0.980957 0.000000
0.847168 0.980957 0.000000
0.874023 0.980957 0.000000
0.895508 0.980957 0.000000
0.913574 0.980957 0.000000
0.929688 0.980957 0.000000
0.942871 0.980957 0.000000
0.954102 0.980957 0.000000
0.961426 0.980957 0.000000
0.967285 0.980957 0.000000
0.973633 0.980957 0.000000
0.979980 0.980957 0.000000
0.985840 0.980957 0.000000
0.989258 0.980957 0.000000
0.990234 0.980957 0.000000
0.990234 0.980957 0.000000
0.990234 0.980957 0.000000
0.990723 0.980957 0.000000
0.992188 0.980957 0.000000
0.994141 0.980957 0.000000
0.997070 0.980957 0.000000
1.000000 0.980957 0.000000
0.000000 0.982910 0.000000
0.003233 0.982910 0.000000
0.046051 0.982910 0.000000
0.168823 0.982910 0.000000
0.328613 0.982910 0.000000
0.466064 0.982910 0.000000
0.572754 0.982910 0.000000
0.655273 0.982910 0.000000
0.719238 0.982910 0.000000
0.770508 0.982910 0.000000
0.812500 0.982910 0.000000
0.847168 0.982910 0.000000
0.874023 0.982910 0.000000
0.895508 0.982910 0.000000
0.913574 0.982910 0.000000
0.929688 0.982910 0.000000
0.942871 0.982910 0.000000
0.954102 0.982910 0.000000
0.961426 0.982910 0.000000
0.967285 0.982910 0.000000
0.973633 0.982910 0.000000
0.979980 0.982910 0.000000
0.985840 0.982910 0.000000
