cubelut/Adanmq_Gold 100.cube
TITLE "Generated by Foundry::LUT"
LUT_3D_SIZE 5
DOMAIN_MIN 0.000000 0.000000 0.000000
DOMAIN_MAX 0.903226 0.903226 0.903226
0.000000 0.000000 0.000000
0.232178 0.000000 0.000000
0.532227 0.000000 0.000000
0.764648 0.000000 0.000000
0.941406 0.000000 0.000000
0.000000 0.232178 0.000000
0.232178 0.232178 0.000000
0.532227 0.232178 0.000000
0.764648 0.232178 0.000000
0.941406 0.232300 0.000000
0.000000 0.532227 0.000000
0.232178 0.532227 0.000000
0.532227 0.532227 0.000000
0.764648 0.532227 0.000000
0.941406 0.532227 0.000000
0.000000 0.764648 0.000000
0.232178 0.764648 0.000000
0.532227 0.764648 0.000000
0.764648 0.764648 0.000000
0.941406 0.764648 0.000000
0.000000 0.941406 0.000000
0.232178 0.941406 0.000000
0.532227 0.941406 0.000000
0.764648 0.941406 0.000000
0.941406 0.941406 0.000000
0.000000 0.000000 0.151001
0.232300 0.000000 0.151001
0.532227 0.000000 0.151001
0.764648 0.000000 0.151001
0.941406 0.000000 0.151001
0.000000 0.232178 0.151001
0.232300 0.232178 0.151001
0.532227 0.232178 0.151001
0.764648 0.232178 0.151001
0.941406 0.232178 0.151001
0.000000 0.532227 0.151001
0.232300 0.532227 0.151001
0.532227 0.532227 0.151001
0.764648 0.532227 0.151001
0.941406 0.532227 0.151001
0.000000 0.764648 0.151001
0.232300 0.764648 0.151001
0.532227 0.764648 0.151001
0.764648 0.764648 0.151001
0.941406 0.764648 0.151001
0.000000 0.941406 0.151001
0.232300 0.941406 0.151001
0.532227 0.941406 0.151001
0.764648 0.941406 0.151001
0.941406 0.941406 0.151001
0.000000 0.000000 0.424072
0.232300 0.000000 0.424072
0.532227 0.000000 0.424072
0.764648 0.000000 0.424072
0.941406 0.000000 0.424072
0.000000 0.232178 0.424072
0.232300 0.232178 0.424072
0.532227 0.232178 0.424072
0.764648 0.232178 0.424072
0.941406 0.232178 0.424072
0.000000 0.532227 0.424072
0.232300 0.532227 0.424072
0.532227 0.532227 0.424072
0.764648 0.532227 0.424072
0.941406 0.532227 0.424072
0.000000 0.764648 0.424072
0.232300 0.764648 0.424072
0.532227 0.764648 0.424072
0.764648 0.764648 0.424072
0.941406 0.764648 0.424072
0.000000 0.941406 0.424072
0.232300 0.941406 0.424072
0.532227 0.941406 0.424072
0.764648 0.941406 0.424072
0.941406 0.941406 0.424072
0.000000 0.000000 0.686523
0.232300 0.000000 0.686523
0.532227 0.000000 0.686523
0.764648 0.000000 0.686523
0.941406 0.000000 0.686523
0.000000 0.232178 0.686523
0.232300 0.232178 0.686523
0.532227 0.232178 0.686523
0.764648 0.232178 0.686523
0.941406 0.232178 0.686523
0.000000 0.532227 0.686523
0.232300 0.532227 0.686523
0.532227 0.532227 0.686523
0.764648 0.532227 0.686523
0.941406 0.532227 0.686523
0.000000 0.764648 0.686523
0.232300 0.764648 0.686523
0.532227 0.764648 0.686523
0.764648 0.764648 0.686523
0.941406 0.764648 0.686523
0.000000 0.941406 0.686523
0.232300 0.941406 0.686523
0.532227 0.941406 0.686523
0.764648 0.941406 0.686523
0.941406 0.941406 0.686523
0.000000 0.000000 0.917969
0.232422 0.000000 0.917969
0.532227 0.000000 0.917969
0.764648 0.000000 0.917969
0.941406 0.000000 0.917969
0.000000 0.232178 0.917969
0.232422 0.232178 0.917969
0.532227 0.232178 0.917969
0.764648 0.232178 0.917969
0.941406 0.232178 0.917969
0.000000 0.532227 0.917969
0.232422 0.532227 0.917969
0.532227 0.532227 0.917969
0.764648 0.532227 0.917969
0.941406 0.532227 0.917969
0.000000 0.764648 0.917969
0.232422 0.764648 0.917969
0.532227 0.764648 0.917969
0.764648 0.764648 0.917969
0.941406 0.764648 0.917969
0.000000 0.941406 0.917969
0.232422 0.941406 0.917969
0.532227 0.941406 0.917969
0.764648 0.941406 0.917969
0.941406 0.941406 0.917969
