cubelut/Adanmq_Canon DSC S315 n1.cube
TITLE "Generated by Foundry::LUT"
LUT_3D_SIZE 8
DOMAIN_MIN 0.000000 0.000000 0.000000
DOMAIN_MAX 0.903226 0.903226 0.903226
0.000000 0.000000 0.000000
0.133057 0.000000 0.000000
0.378418 0.000000 0.000000
0.575684 0.000000 0.000000
0.707031 0.000000 0.000000
0.805664 0.000000 0.000000
0.886230 0.000000 0.000000
0.954590 0.000000 0.000000
0.000000 0.144287 0.000000
0.133057 0.144287 0.000000
0.378418 0.144287 0.000000
0.575684 0.144287 0.000000
0.707031 0.144287 0.000000
0.805664 0.144287 0.000000
0.886230 0.144287 0.000000
0.954590 0.144287 0.000000
0.000000 0.400391 0.000000
0.133057 0.400391 0.000000
0.378418 0.400391 0.000000
0.575684 0.400391 0.000000
0.707031 0.400391 0.000000
0.805664 0.400391 0.000000
0.886230 0.400391 0.000000
0.954590 0.400391 0.000000
0.000000 0.604004 0.000000
0.133057 0.604004 0.000000
0.378418 0.604004 0.000000
0.575684 0.604004 0.000000
0.707031 0.604004 0.000000
0.805664 0.604004 0.000000
0.886230 0.604004 0.000000
0.954590 0.604004 0.000000
0.000000 0.729980 0.000000
0.133057 0.729980 0.000000
0.378418 0.729980 0.000000
0.575684 0.729980 0.000000
0.707031 0.729980 0.000000
0.805664 0.729980 0.000000
0.886230 0.729980 0.000000
0.954590 0.729980 0.000000
0.000000 0.822266 0.000000
0.133057 0.822266 0.000000
0.378418 0.822266 0.000000
0.575684 0.822266 0.000000
0.707031 0.822266 0.000000
0.805664 0.822266 0.000000
0.886230 0.822266 0.000000
0.954590 0.822266 0.000000
0.000000 0.895996 0.000000
0.133057 0.895996 0.000000
0.378418 0.895996 0.000000
0.575684 0.895996 0.000000
0.707031 0.895996 0.000000
0.805664 0.895996 0.000000
0.886230 0.895996 0.000000
0.954590 0.895996 0.000000
0.000000 0.958496 0.000000
0.133057 0.958496 0.000000
0.378418 0.958496 0.000000
0.575684 0.958496 0.000000
0.707031 0.958496 0.000000
0.805664 0.958496 0.000000
0.886230 0.958496 0.000000
0.954590 0.958496 0.000000
0.000000 0.000000 0.136230
0.133179 0.000000 0.136230
0.378418 0.000000 0.136230
0.575684 0.000000 0.136230
0.707031 0.000000 0.136230
0.805664 0.000000 0.136230
0.886230 0.000000 0.136230
0.954590 0.000000 0.136230
0.000000 0.144287 0.136230
0.133179 0.144287 0.136230
0.378418 0.144287 0.136230
0.575684 0.144287 0.136230
0.707031 0.144287 0.136230
0.805664 0.144287 0.136230
0.886230 0.144287 0.136230
0.954590 0.144287 0.136230
0.000000 0.400391 0.136230
0.133179 0.400391 0.136230
0.378418 0.400391 0.136230
0.575684 0.400391 0.136230
0.707031 0.400391 0.136230
0.805664 0.400391 0.136230
0.886230 0.400391 0.136230
0.954590 0.400391 0.136230
0.000000 0.604004 0.136230
0.133179 0.604004 0.136230
0.378418 0.604004 0.136230
0.575684 0.604004 0.136230
0.707031 0.604004 0.136230
0.805664 0.604004 0.136230
0.886230 0.604004 0.136230
0.954590 0.604004 0.136230
0.000000 0.729980 0.136230
0.133179 0.729980 0.136230
0.378418 0.729980 0.136230
0.575684 0.729980 0.136230
0.707031 0.729980 0.136230
0.805664 0.729980 0.136230
0.886230 0.729980 0.136230
0.954590 0.729980 0.136230
0.000000 0.822266 0.136230
0.133179 0.822266 0.136230
0.378418 0.822266 0.136230
0.575684 0.822266 0.136230
0.707031 0.822266 0.136230
0.805664 0.822266 0.136230
0.886230 0.822266 0.136230
0.954590 0.822266 0.136230
0.000000 0.895996 0.136230
0.133179 0.895996 0.136230
0.378418 0.895996 0.136230
0.575684 0.895996 0.136230
0.707031 0.895996 0.136230
0.805664 0.895996 0.136230
0.886230 0.895996 0.136230
0.954590 0.895996 0.136230
0.000000 0.958496 0.136230
0.133179 0.958496 0.136230
0.378418 0.958496 0.136230
0.575684 0.958496 0.136230
0.707031 0.958496 0.136230
0.805664 0.958496 0.136230
0.886230 0.958496 0.136230
0.954590 0.958496 0.136230
0.000000 0.000000 0.386963
0.133179 0.000000 0.386963
0.378418 0.000000 0.386963
0.575684 0.000000 0.386963
0.707031 0.000000 0.386963
0.805664 0.000000 0.386963
0.886230 0.000000 0.386963
0.954590 0.000000 0.386963
0.000000 0.144287 0.386963
0.133179 0.144287 0.386963
0.378418 0.144287 0.386963
0.575684 0.144287 0.386963
0.707031 0.144287 0.386963
0.805664 0.144287 0.386963
0.886230 0.144287 0.386963
0.954590 0.144287 0.386963
0.000000 0.400391 0.386963
0.133179 0.400391 0.386963
0.378418 0.400391 0.386963
0.575684 0.400391 0.386963
0.707031 0.400391 0.386963
0.805664 0.400391 0.386963
0.886230 0.400391 0.386963
0.954590 0.400391 0.386963
0.000000 0.604004 0.386963
0.133179 0.604004 0.386963
0.378418 0.604004 0.386963
0.575684 0.604004 0.386963
0.707031 0.604004 0.386963
0.805664 0.604004 0.386963
0.886230 0.604004 0.386963
0.954590 0.604004 0.386963
0.000000 0.729980 0.386963
0.133179 0.729980 0.386963
0.378418 0.729980 0.386963
0.575684 0.729980 0.386963
0.707031 0.729980 0.386963
0.805664 0.729980 0.386963
0.886230 0.729980 0.386963
0.954590 0.729980 0.386963
0.000000 0.822266 0.386963
0.133179 0.822266 0.386963
0.378418 0.822266 0.386963
0.575684 0.822266 0.386963
0.707031 0.822266 0.386963
0.805664 0.822266 0.386963
0.886230 0.822266 0.386963
0.954590 0.822266 0.386963
0.000000 0.895996 0.386963
0.133179 0.895996 0.386963
0.378418 0.895996 0.386963
0.575684 0.895996 0.386963
0.707031 0.895996 0.386963
0.805664 0.895996 0.386963
0.886230 0.895996 0.386963
0.954590 0.895996 0.386963
0.000000 0.958496 0.386963
0.133179 0.958496 0.386963
0.378418 0.958496 0.386963
0.575684 0.958496 0.386963
0.707031 0.958496 0.386963
0.805664 0.958496 0.386963
0.886230 0.958496 0.386963
0.954590 0.958496 0.386963
0.000000 0.000000 0.591797
0.133179 0.000000 0.591797
0.378418 0.000000 0.591797
0.575684 0.000000 0.591797
0.707031 0.000000 0.591797
0.805664 0.000000 0.591797
0.886230 0.000000 0.591797
0.954590 0.000000 0.591797
0.000000 0.144287 0.591797
0.133179 0.144287 0.591797
0.378418 0.144287 0.591797
0.575684 0.144287 0.591797
0.707031 0.144287 0.591797
0.805664 0.144287 0.591797
0.886230 0.144287 0.591797
0.954590 0.144287 0.591797
0.000000 0.400391 0.591797
0.133179 0.400391 0.591797
0.378418 0.400391 0.591797
0.575684 0.400391 0.591797
0.707031 0.400391 0.591797
0.805664 0.400391 0.591797
0.886230 0.400391 0.591797
0.954590 0.400391 0.591797
0.000000 0.604004 0.591797
0.133179 0.604004 0.591797
0.378418 0.604004 0.591797
0.575684 0.604004 0.591797
0.707031 0.604004 0.591797
0.805664 0.604004 0.591797
0.886230 0.604004 0.591797
0.954590 0.604004 0.591797
0.000000 0.729980 0.591797
0.133179 0.729980 0.591797
0.378418 0.729980 0.591797
0.575684 0.729980 0.591797
0.707031 0.729980 0.591797
0.805664 0.729980 0.591797
0.886230 0.729980 0.591797
0.954590 0.729980 0.591797
0.000000 0.822266 0.591797
0.133179 0.822266 0.591797
0.378418 0.822266 0.591797
0.575684 0.822266 0.591797
0.707031 0.822266 0.591797
0.805664 0.822266 0.591797
0.886230 0.822266 0.591797
0.954590 0.822266 0.591797
0.000000 0.895996 0.591797
0.133179 0.895996 0.591797
0.378418 0.895996 0.591797
0.575684 0.895996 0.591797
0.707031 0.895996 0.591797
0.805664 0.895996 0.591797
0.886230 0.895996 0.591797
0.954590 0.895996 0.591797
0.000000 0.958496 0.591797
0.133179 0.958496 0.591797
0.378418 0.958496 0.591797
0.575684 0.958496 0.591797
0.707031 0.958496 0.591797
0.805664 0.958496 0.591797
0.886230 0.958496 0.591797
0.954590 0.958496 0.591797
0.000000 0.000000 0.721191
0.133179 0.000000 0.721191
0.378418 0.000000 0.721191
0.575684 0.000000 0.721191
0.707031 0.000000 0.721191
0.805664 0.000000 0.721191
0.886230 0.000000 0.721191
0.954590 0.000000 0.721191
0.000000 0.144287 0.721191
0.133179 0.144287 0.721191
0.378418 0.144287 0.721191
0.575684 0.144287 0.721191
0.707031 0.144287 0.721191
0.805664 0.144287 0.721191
0.886230 0.144287 0.721191
0.954590 0.144287 0.721191
0.000000 0.400391 0.721191
0.133179 0.400391 0.721191
0.378418 0.400391 0.721191
0.575684 0.400391 0.721191
0.707031 0.400391 0.721191
0.805664 0.400391 0.721191
0.886230 0.400391 0.721191
0.954590 0.400391 0.721191
0.000000 0.604004 0.721191
0.133179 0.604004 0.721191
0.378418 0.604004 0.721191
0.575684 0.604004 0.721191
0.707031 0.604004 0.721191
0.805664 0.604004 0.721191
0.886230 0.604004 0.721191
0.954590 0.604004 0.721191
0.000000 0.729980 0.721191
0.133179 0.729980 0.721191
0.378418 0.729980 0.721191
0.575684 0.729980 0.721191
0.707031 0.729980 0.721191
0.805664 0.729980 0.721191
0.886230 0.729980 0.721191
0.954590 0.729980 0.721191
0.000000 0.822266 0.721191
0.133179 0.822266 0.721191
0.378418 0.822266 0.721191
0.575684 0.822266 0.721191
0.707031 0.822266 0.721191
0.805664 0.822266 0.721191
0.886230 0.822266 0.721191
0.954590 0.822266 0.721191
0.000000 0.895996 0.721191
0.133179 0.895996 0.721191
0.378418 0.895996 0.721191
0.575684 0.895996 0.721191
0.707031 0.895996 0.721191
0.805664 0.895996 0.721191
0.886230 0.895996 0.721191
0.954590 0.895996 0.721191
0.000000 0.958496 0.721191
0.133179 0.958496 0.721191
0.378418 0.958496 0.721191
0.575684 0.958496 0.721191
0.707031 0.958496 0.721191
0.805664 0.958496 0.721191
0.886230 0.958496 0.721191
0.954590 0.958496 0.721191
0.000000 0.000000 0.815918
0.133301 0.000000 0.815918
0.378662 0.000000 0.815918
0.575684 0.000000 0.815918
0.707031 0.000000 0.815918
0.805664 0.000000 0.815918
0.886230 0.000000 0.815918
0.954590 0.000000 0.815918
0.000000 0.144287 0.815918
0.133301 0.144287 0.815918
0.378662 0.144287 0.815918
0.575684 0.144287 0.815918
0.707031 0.144287 0.815918
0.805664 0.144287 0.815918
0.886230 0.144287 0.815918
0.954590 0.144287 0.815918
0.000000 0.400391 0.815918
0.133301 0.400391 0.815918
0.378418 0.400391 0.815918
0.575684 0.400391 0.815918
0.707031 0.400391 0.815918
0.805664 0.400391 0.815918
0.886230 0.400391 0.815918
0.954590 0.400391 0.815918
0.000000 0.604004 0.815918
0.133301 0.604004 0.815918
0.378662 0.604004 0.815918
0.575684 0.604004 0.815918
0.707031 0.604004 0.815918
0.805664 0.604004 0.815918
0.886230 0.604004 0.815918
0.954590 0.604004 0.815918
0.000000 0.729980 0.815918
0.133301 0.729980 0.815918
0.378662 0.729980 0.815918
0.575684 0.729980 0.815918
0.707031 0.729980 0.815918
0.805664 0.729980 0.815918
0.886230 0.729980 0.815918
0.954590 0.729980 0.815918
0.000000 0.822266 0.815918
0.133301 0.822266 0.815918
0.378662 0.822266 0.815918
0.575684 0.822266 0.815918
0.707031 0.822266 0.815918
0.805664 0.822266 0.815918
0.886230 0.822266 0.815918
0.954590 0.822266 0.815918
0.000000 0.895996 0.815918
0.133301 0.895996 0.815918
0.378662 0.895996 0.815918
0.575684 0.895996 0.815918
0.707031 0.895996 0.815918
0.805664 0.895996 0.815918
0.886230 0.895996 0.815918
0.954590 0.895996 0.815918
0.000000 0.958496 0.815918
0.133301 0.958496 0.815918
0.378418 0.958496 0.815918
0.575684 0.958496 0.815918
0.707031 0.958496 0.815918
0.805664 0.958496 0.815918
0.886230 0.958496 0.815918
0.954590 0.958496 0.815918
0.000000 0.000000 0.892578
0.133301 0.000000 0.892578
0.378662 0.000000 0.892578
0.575684 0.000000 0.892578
0.707031 0.000000 0.892578
0.805664 0.000000 0.892578
0.886230 0.000000 0.892578
0.954590 0.000000 0.892578
0.000000 0.144287 0.892578
0.133301 0.144287 0.892578
0.378662 0.144287 0.892578
0.575684 0.144287 0.892578
0.707031 0.144287 0.892578
0.805664 0.144287 0.892578
0.886230 0.144287 0.892578
0.954590 0.144287 0.892578
0.000000 0.400391 0.892578
0.133301 0.400391 0.892578
0.378662 0.400391 0.892578
0.575684 0.400391 0.892578
0.707031 0.400391 0.892578
0.805664 0.400391 0.892578
0.886230 0.400391 0.892578
0.954590 0.400391 0.892578
0.000000 0.604004 0.892578
0.133301 0.604004 0.892578
0.378662 0.604004 0.892578
0.575684 0.604004 0.892578
0.707031 0.604004 0.892578
0.805664 0.604004 0.892578
0.886230 0.604004 0.892578
0.954590 0.604004 0.892578
0.000000 0.729980 0.892578
0.133301 0.729980 0.892578
0.378662 0.729980 0.892578
0.575684 0.729980 0.892578
0.707031 0.729980 0.892578
0.805664 0.729980 0.892578
0.886230 0.729980 0.892578
0.954590 0.729980 0.892578
0.000000 0.822266 0.892578
0.133301 0.822266 0.892578
0.378662 0.822266 0.892578
0.575684 0.822266 0.892578
0.707031 0.822266 0.892578
0.805664 0.822266 0.892578
0.886230 0.822266 0.892578
0.954590 0.822266 0.892578
0.000000 0.895996 0.892578
0.133301 0.895996 0.892578
0.378662 0.895996 0.892578
0.575684 0.895996 0.892578
0.707031 0.895996 0.892578
0.805664 0.895996 0.892578
0.886230 0.895996 0.892578
0.954590 0.895996 0.892578
0.000000 0.958496 0.892578
0.133301 0.958496 0.892578
0.378662 0.958496 0.892578
0.575684 0.958496 0.892578
0.707031 0.958496 0.892578
0.805664 0.958496 0.892578
0.886230 0.958496 0.892578
0.954590 0.958496 0.892578
0.000000 0.000000 0.957031
0.133301 0.000000 0.957031
0.378662 0.000000 0.957031
0.575684 0.000000 0.957031
0.707031 0.000000 0.957031
0.805664 0.000000 0.957031
0.886230 0.000000 0.957031
0.954590 0.000000 0.957031
0.000000 0.144287 0.957031
0.133301 0.144287 0.957031
0.378662 0.144287 0.957031
0.575684 0.144287 0.957031
0.707031 0.144287 0.957031
0.805664 0.144287 0.957031
0.886230 0.144287 0.957031
0.954590 0.144287 0.957031
0.000000 0.400391 0.957031
0.133301 0.400391 0.957031
0.378662 0.400391 0.957031
0.575684 0.400391 0.957031
0.707031 0.400391 0.957031
0.805664 0.400391 0.957031
0.886230 0.400391 0.957031
0.954590 0.400391 0.957031
0.000000 0.604004 0.957031
0.133301 0.604004 0.957031
0.378662 0.604004 0.957031
0.575684 0.604004 0.957031
0.707031 0.604004 0.957031
0.805664 0.604004 0.957031
0.886230 0.604004 0.957031
0.954590 0.604004 0.957031
0.000000 0.729980 0.957031
0.133301 0.729980 0.957031
0.378662 0.729980 0.957031
0.575684 0.729980 0.957031
0.707031 0.729980 0.957031
0.805664 0.729980 0.957031
0.886230 0.729980 0.957031
0.954590 0.729980 0.957031
0.000000 0.822266 0.957031
0.133301 0.822266 0.957031
0.378662 0.822266 0.957031
0.575684 0.822266 0.957031
0.707031 0.822266 0.957031
0.805664 0.822266 0.957031
0.886230 0.822266 0.957031
0.954590 0.822266 0.957031
0.000000 0.895996 0.957031
0.133301 0.895996 0.957031
0.378662 0.895996 0.957031
0.575684 0.895996 0.957031
0.707031 0.895996 0.957031
0.805664 0.895996 0.957031
0.886230 0.895996 0.957031
0.954590 0.895996 0.957031
0.000000 0.958496 0.957031
0.133301 0.958496 0.957031
0.378662 0.958496 0.957031
0.575684 0.958496 0.957031
0.707031 0.958496 0.957031
0.805664 0.958496 0.957031
0.886230 0.958496 0.957031
0.954590 0.958496 0.957031
