cubelut/Adanmq_Portra 800.cube
TITLE "Generated by Foundry::LUT"
LUT_3D_SIZE 8
DOMAIN_MIN 0.000000 0.000000 0.000000
DOMAIN_MAX 0.903226 0.903226 0.903226
0.000000 0.000000 0.000000
0.096863 0.000000 0.000000
0.226929 0.000000 0.000000
0.362793 0.000000 0.000000
0.499756 0.000000 0.000000
0.634766 0.000000 0.000000
0.771484 0.000000 0.000000
0.907715 0.000000 0.000000
0.000000 0.088135 0.000000
0.096863 0.088135 0.000000
0.226929 0.088135 0.000000
0.362793 0.088135 0.000000
0.499756 0.088135 0.000000
0.634766 0.088135 0.000000
0.771484 0.088135 0.000000
0.907715 0.088135 0.000000
0.000000 0.213989 0.000000
0.096863 0.213989 0.000000
0.226929 0.213989 0.000000
0.362793 0.213989 0.000000
0.499756 0.213989 0.000000
0.634766 0.213989 0.000000
0.771484 0.213989 0.000000
0.907715 0.213989 0.000000
0.000000 0.348877 0.000000
0.096863 0.348877 0.000000
0.226929 0.348877 0.000000
0.362793 0.348877 0.000000
0.499756 0.348877 0.000000
0.634766 0.348877 0.000000
0.771484 0.348877 0.000000
0.907715 0.348877 0.000000
0.000000 0.488037 0.000000
0.096863 0.488037 0.000000
0.226929 0.488037 0.000000
0.362793 0.488037 0.000000
0.499756 0.488037 0.000000
0.634766 0.488037 0.000000
0.771484 0.488037 0.000000
0.907715 0.488037 0.000000
0.000000 0.627930 0.000000
0.096863 0.627930 0.000000
0.226929 0.627930 0.000000
0.362793 0.627930 0.000000
0.499756 0.627930 0.000000
0.634766 0.627930 0.000000
0.771484 0.627930 0.000000
0.907715 0.627930 0.000000
0.000000 0.769531 0.000000
0.096863 0.769531 0.000000
0.226929 0.769531 0.000000
0.362793 0.769531 0.000000
0.499756 0.769531 0.000000
0.634766 0.769531 0.000000
0.771484 0.769531 0.000000
0.907715 0.769531 0.000000
0.000000 0.910156 0.000000
0.096863 0.910156 0.000000
0.226929 0.910156 0.000000
0.362793 0.910156 0.000000
0.499756 0.910156 0.000000
0.634766 0.910156 0.000000
0.771484 0.910156 0.000000
0.907715 0.910156 0.000000
0.000000 0.000000 0.088074
0.096863 0.000000 0.088074
0.226929 0.000000 0.088074
0.363037 0.000000 0.088074
0.499756 0.000000 0.088074
0.634766 0.000000 0.088074
0.771484 0.000000 0.088074
0.907715 0.000000 0.088074
0.000000 0.088135 0.088074
0.096863 0.088135 0.088074
0.226929 0.088135 0.088074
0.363037 0.088135 0.088074
0.499756 0.088135 0.088074
0.634766 0.088135 0.088074
0.771484 0.088135 0.088074
0.907715 0.088135 0.088074
0.000000 0.213989 0.088074
0.096863 0.213989 0.088074
0.226929 0.213989 0.088074
0.363037 0.213989 0.088074
0.499756 0.213989 0.088074
0.634766 0.213989 0.088074
0.771484 0.213989 0.088074
0.907715 0.213989 0.088074
0.000000 0.348877 0.088074
0.096863 0.348877 0.088074
0.226929 0.348877 0.088074
0.363037 0.348877 0.088074
0.499756 0.348877 0.088074
0.634766 0.348877 0.088074
0.771484 0.348877 0.088074
0.907715 0.348877 0.088074
0.000000 0.488037 0.088074
0.096863 0.488037 0.088074
0.226929 0.488037 0.088074
0.363037 0.488037 0.088074
0.499756 0.488037 0.088074
0.634766 0.488037 0.088074
0.771484 0.488037 0.088074
0.907715 0.488037 0.088074
0.000000 0.627930 0.088074
0.096863 0.627930 0.088074
0.226929 0.627930 0.088074
0.363037 0.627930 0.088074
0.499756 0.627930 0.088074
0.634766 0.627930 0.088074
0.771484 0.627930 0.088074
0.907715 0.627930 0.088074
0.000000 0.769531 0.088074
0.096863 0.769531 0.088074
0.226929 0.769531 0.088074
0.363037 0.769531 0.088074
0.499756 0.769531 0.088074
0.634766 0.769531 0.088074
0.771484 0.769531 0.088074
0.907715 0.769531 0.088074
0.000000 0.910156 0.088074
0.096863 0.910156 0.088074
0.226929 0.910156 0.088074
0.363037 0.910156 0.088074
0.499756 0.910156 0.088074
0.634766 0.910156 0.088074
0.771484 0.910156 0.088074
0.907715 0.910156 0.088074
0.000000 0.000000 0.213867
0.096924 0.000000 0.213867
0.227051 0.000000 0.213867
0.363037 0.000000 0.213867
0.499756 0.000000 0.213867
0.634766 0.000000 0.213867
0.771484 0.000000 0.213867
0.907715 0.000000 0.213867
0.000000 0.088135 0.213867
0.096924 0.088135 0.213867
0.227051 0.088135 0.213867
0.363037 0.088135 0.213867
0.499756 0.088135 0.213867
0.634766 0.088135 0.213867
0.771484 0.088135 0.213867
0.907715 0.088135 0.213867
0.000000 0.213989 0.213867
0.096924 0.213989 0.213867
0.227051 0.213989 0.213867
0.363037 0.213989 0.213867
0.499756 0.213989 0.213867
0.634766 0.213989 0.213867
0.771484 0.213989 0.213867
0.907715 0.213989 0.213867
0.000000 0.348877 0.213867
0.096924 0.348877 0.213867
0.227051 0.348877 0.213867
0.363037 0.348877 0.213867
0.499756 0.348877 0.213867
0.634766 0.348877 0.213867
0.771484 0.348877 0.213867
0.907715 0.348877 0.213867
0.000000 0.488037 0.213867
0.096924 0.488037 0.213867
0.227051 0.488037 0.213867
0.363037 0.488037 0.213867
0.499756 0.488037 0.213867
0.634766 0.488037 0.213867
0.771484 0.488037 0.213867
0.907715 0.488037 0.213867
0.000000 0.627930 0.213867
0.096924 0.627930 0.213867
0.227051 0.627930 0.213867
0.363037 0.627930 0.213867
0.499756 0.627930 0.213867
0.634766 0.627930 0.213867
0.771484 0.627930 0.213867
0.907715 0.627930 0.213867
0.000000 0.769531 0.213867
0.096924 0.769531 0.213867
0.227051 0.769531 0.213867
0.363037 0.769531 0.213867
0.499756 0.769531 0.213867
0.634766 0.769531 0.213867
0.771484 0.769531 0.213867
0.907715 0.769531 0.213867
0.000000 0.910156 0.213867
0.096924 0.910156 0.213867
0.227051 0.910156 0.213867
0.363037 0.910156 0.213867
0.499756 0.910156 0.213867
0.634766 0.910156 0.213867
0.771484 0.910156 0.213867
0.907715 0.910156 0.213867
0.000000 0.000000 0.348633
0.096924 0.000000 0.348633
0.227051 0.000000 0.348633
0.363037 0.000000 0.348633
0.499756 0.000000 0.348633
0.634766 0.000000 0.348633
0.771484 0.000000 0.348633
0.907715 0.000000 0.348633
0.000000 0.088135 0.348633
0.096924 0.088135 0.348633
0.227051 0.088135 0.348633
0.363037 0.088135 0.348633
0.499756 0.088135 0.348633
0.634766 0.088135 0.348633
0.771484 0.088135 0.348633
0.907715 0.088135 0.348633
0.000000 0.213867 0.348633
0.096924 0.213989 0.348633
0.227051 0.213989 0.348633
0.363037 0.213989 0.348633
0.499756 0.213989 0.348633
0.634766 0.213989 0.348633
0.771484 0.213989 0.348633
0.907715 0.213989 0.348633
0.000000 0.348877 0.348633
0.096924 0.348877 0.348633
0.227051 0.348877 0.348633
0.363037 0.348877 0.348633
0.499756 0.348877 0.348633
0.634766 0.348877 0.348633
0.771484 0.348877 0.348633
0.907715 0.348877 0.348633
0.000000 0.488037 0.348633
0.096924 0.488037 0.348633
0.227051 0.488037 0.348633
0.363037 0.488037 0.348633
0.499756 0.488037 0.348633
0.634766 0.488037 0.348633
0.771484 0.488037 0.348633
0.907715 0.488037 0.348633
0.000000 0.627930 0.348633
0.096924 0.627930 0.348633
0.227051 0.627930 0.348633
0.363037 0.627930 0.348633
0.499756 0.627930 0.348633
0.634766 0.627930 0.348633
0.771484 0.627930 0.348633
0.907715 0.627930 0.348633
0.000000 0.769531 0.348633
0.096924 0.769531 0.348633
0.227051 0.769531 0.348633
0.363037 0.769531 0.348633
0.499756 0.769531 0.348633
0.634766 0.769531 0.348633
0.771484 0.769531 0.348633
0.907715 0.769531 0.348633
0.000000 0.910156 0.348633
0.096924 0.910156 0.348633
0.227051 0.910156 0.348633
0.363037 0.910156 0.348633
0.499756 0.910156 0.348633
0.634766 0.910156 0.348633
0.771484 0.910156 0.348633
0.907715 0.910156 0.348633
0.000000 0.000000 0.487793
0.096924 0.000000 0.487793
0.227051 0.000000 0.487793
0.363037 0.000000 0.487793
0.499756 0.000000 0.487793
0.634766 0.000000 0.487793
0.771484 0.000000 0.487793
0.907715 0.000000 0.487793
0.000000 0.088135 0.487793
0.096924 0.088135 0.487793
0.227051 0.088135 0.487793
0.363037 0.088135 0.487793
0.499756 0.088135 0.487793
0.634766 0.088135 0.487793
0.771484 0.088135 0.487793
0.907715 0.088135 0.487793
0.000000 0.213867 0.487793
0.096924 0.213867 0.487793
0.227051 0.213989 0.487793
0.363037 0.213989 0.487793
0.499756 0.213989 0.487793
0.634766 0.213989 0.487793
0.771484 0.213989 0.487793
0.907715 0.213989 0.487793
0.000000 0.348877 0.487793
0.096924 0.348877 0.487793
0.227051 0.348877 0.487793
0.363037 0.348877 0.487793
0.499756 0.348877 0.487793
0.634766 0.348877 0.487793
0.771484 0.348877 0.487793
0.907715 0.348877 0.487793
0.000000 0.488037 0.487793
0.096924 0.488037 0.487793
0.227051 0.488037 0.487793
0.363037 0.488037 0.487793
0.499756 0.488037 0.487793
0.634766 0.488037 0.487793
0.771484 0.488037 0.487793
0.907715 0.488037 0.487793
0.000000 0.627930 0.487793
0.096924 0.627930 0.487793
0.227051 0.627930 0.487793
0.363037 0.627930 0.487793
0.499756 0.627930 0.487793
0.634766 0.627930 0.487793
0.771484 0.627930 0.487793
0.907715 0.627930 0.487793
0.000000 0.769531 0.487793
0.096924 0.769531 0.487793
0.227051 0.769531 0.487793
0.363037 0.769531 0.487793
0.499756 0.769531 0.487793
0.634766 0.769531 0.487793
0.771484 0.769531 0.487793
0.907715 0.769531 0.487793
0.000000 0.910156 0.487793
0.096924 0.910156 0.487793
0.227051 0.910156 0.487793
0.363037 0.910156 0.487793
0.499756 0.910156 0.487793
0.634766 0.910156 0.487793
0.771484 0.910156 0.487793
0.907715 0.910156 0.487793
0.000000 0.000000 0.627930
0.096985 0.000000 0.627930
0.227051 0.000000 0.627930
0.363037 0.000000 0.627930
0.499756 0.000000 0.627930
0.634766 0.000000 0.627930
0.771484 0.000000 0.627930
0.907715 0.000000 0.627930
0.000000 0.088135 0.627930
0.096985 0.088135 0.627930
0.227051 0.088135 0.627930
0.363037 0.088135 0.627930
0.499756 0.088135 0.627930
0.634766 0.088135 0.627930
0.771484 0.088135 0.627930
0.907715 0.088135 0.627930
0.000000 0.213867 0.627930
0.096985 0.213867 0.627930
0.227051 0.213867 0.627930
0.363037 0.213989 0.627930
0.499756 0.213989 0.627930
0.634766 0.213989 0.627930
0.771484 0.213989 0.627930
0.907715 0.213989 0.627930
0.000000 0.348877 0.627930
0.096985 0.348877 0.627930
0.227051 0.348877 0.627930
0.363037 0.348877 0.627930
0.499756 0.348877 0.627930
0.634766 0.348877 0.627930
0.771484 0.348877 0.627930
0.907715 0.348877 0.627930
0.000000 0.488037 0.627930
0.096985 0.488037 0.627930
0.227051 0.488037 0.627930
0.363037 0.488037 0.627930
0.499756 0.488037 0.627930
0.634766 0.488037 0.627930
0.771484 0.488037 0.627930
0.907715 0.488037 0.627930
0.000000 0.627930 0.627930
0.096985 0.627930 0.627930
0.227051 0.627930 0.627930
0.363037 0.627930 0.627930
0.499756 0.627930 0.627930
0.634766 0.627930 0.627930
0.771484 0.627930 0.627930
0.907715 0.627930 0.627930
0.000000 0.769531 0.627930
0.096985 0.769531 0.627930
0.227051 0.769531 0.627930
0.363037 0.769531 0.627930
0.499756 0.769531 0.627930
0.634766 0.769531 0.627930
0.771484 0.769531 0.627930
0.907715 0.769531 0.627930
0.000000 0.910156 0.627930
0.096985 0.910156 0.627930
0.227051 0.910156 0.627930
0.363037 0.910156 0.627930
0.499756 0.910156 0.627930
0.634766 0.910156 0.627930
0.771484 0.910156 0.627930
0.907715 0.910156 0.627930
0.000000 0.000000 0.769043
0.096985 0.000000 0.769043
0.227051 0.000000 0.769043
0.363037 0.000000 0.769043
0.499756 0.000000 0.769043
0.634766 0.000000 0.769043
0.771484 0.000000 0.769043
0.908203 0.000000 0.769043
0.000000 0.088135 0.769043
0.096985 0.088135 0.769043
0.227051 0.088135 0.769043
0.363037 0.088135 0.769043
0.499756 0.088135 0.769043
0.634766 0.088135 0.769043
0.771484 0.088135 0.769043
0.908203 0.088135 0.769043
0.000000 0.213867 0.769043
0.096985 0.213867 0.769043
0.227051 0.213867 0.769043
0.363037 0.213867 0.769043
0.499756 0.213989 0.769043
0.634766 0.213989 0.769043
0.771484 0.213989 0.769043
0.908203 0.213989 0.769043
0.000000 0.348877 0.769043
0.096985 0.348877 0.769043
0.227051 0.348877 0.769043
0.363037 0.348877 0.769043
0.499756 0.348877 0.769043
0.634766 0.348877 0.769043
0.771484 0.348877 0.769043
0.908203 0.348877 0.769043
0.000000 0.488037 0.769043
0.096985 0.488037 0.769043
0.227051 0.488037 0.769043
0.363037 0.488037 0.769043
0.499756 0.488037 0.769043
0.634766 0.488037 0.769043
0.771484 0.488037 0.769043
0.908203 0.488037 0.769043
0.000000 0.627930 0.769043
0.096985 0.627930 0.769043
0.227051 0.627930 0.769043
0.363037 0.627930 0.769043
0.499756 0.627930 0.769043
0.634766 0.627930 0.769043
0.771484 0.627930 0.769043
0.908203 0.627930 0.769043
0.000000 0.769531 0.769043
0.096985 0.769531 0.769043
0.227051 0.769531 0.769043
0.363037 0.769531 0.769043
0.499756 0.769531 0.769043
0.634766 0.769531 0.769043
0.771484 0.769531 0.769043
0.908203 0.769531 0.769043
0.000000 0.910156 0.769043
0.096985 0.910156 0.769043
0.227051 0.910156 0.769043
0.363037 0.910156 0.769043
0.499756 0.910156 0.769043
0.634766 0.910156 0.769043
0.771484 0.910156 0.769043
0.908203 0.910156 0.769043
0.000001 0.000000 0.909668
0.096985 0.000000 0.909668
0.227051 0.000000 0.909668
0.363037 0.000000 0.909668
0.499756 0.000000 0.909668
0.634766 0.000000 0.909668
0.771484 0.000000 0.909668
0.908203 0.000000 0.909668
0.000001 0.088135 0.909668
0.096985 0.088135 0.909668
0.227051 0.088135 0.909668
0.363037 0.088135 0.909668
0.499756 0.088135 0.909668
0.634766 0.088135 0.909668
0.771484 0.088135 0.909668
0.908203 0.088135 0.909668
0.000001 0.213867 0.910156
0.096985 0.213867 0.910156
0.227051 0.213867 0.910156
0.363037 0.213867 0.910156
0.499756 0.213867 0.910156
0.634766 0.213989 0.910156
0.771484 0.213989 0.910156
0.908203 0.213989 0.910156
0.000001 0.348877 0.910156
0.096985 0.348877 0.910156
0.227051 0.348877 0.910156
0.363037 0.348877 0.910156
0.499756 0.348877 0.910156
0.634766 0.348877 0.910156
0.771484 0.348877 0.910156
0.908203 0.348877 0.910156
0.000001 0.488037 0.910156
0.096985 0.488037 0.910156
0.227173 0.488037 0.910156
0.363037 0.488037 0.910156
0.499756 0.488037 0.910156
0.634766 0.488037 0.910156
0.771484 0.488037 0.910156
0.908203 0.488037 0.910156
0.000001 0.627930 0.910156
0.096985 0.627930 0.910156
0.227051 0.627930 0.910156
0.363037 0.627930 0.910156
0.499756 0.627930 0.910156
0.634766 0.627930 0.910156
0.771484 0.627930 0.910156
0.908203 0.627930 0.910156
0.000001 0.769531 0.910156
0.096985 0.769531 0.910156
0.227051 0.769531 0.910156
0.363037 0.769531 0.910156
0.499756 0.769531 0.910156
0.634766 0.769531 0.910156
0.771484 0.769531 0.910156
0.908203 0.769531 0.910156
0.000001 0.910156 0.910156
0.096985 0.910156 0.910156
0.227173 0.910156 0.910156
0.363037 0.910156 0.910156
0.499756 0.910156 0.910156
0.634766 0.910156 0.910156
0.771484 0.910156 0.910156
0.908203 0.910156 0.910156
