cubelut/Adanmq_Ektachrome 100.cube
TITLE "Generated by Foundry::LUT"
LUT_3D_SIZE 8
DOMAIN_MIN 0.000000 0.000000 0.000000
DOMAIN_MAX 0.903226 0.903226 0.903226
0.000000 0.000000 0.000000
0.235352 0.000000 0.000000
0.789551 0.000000 0.000000
0.919922 0.000000 0.000000
0.949219 0.000000 0.000000
0.957520 0.000000 0.000000
0.979004 0.000000 0.000000
0.983398 0.000000 0.000000
0.000000 0.120422 0.000000
0.235352 0.120483 0.000000
0.789551 0.120483 0.000000
0.919922 0.120483 0.000000
0.949219 0.120483 0.000000
0.957520 0.120483 0.000000
0.979004 0.120483 0.000000
0.983398 0.120483 0.000000
0.000000 0.566895 0.000000
0.235352 0.566895 0.000000
0.789551 0.566895 0.000000
0.919922 0.566895 0.000000
0.949219 0.566895 0.000000
0.957520 0.566895 0.000000
0.979004 0.566895 0.000000
0.983398 0.566895 0.000000
0.000000 0.814941 0.000000
0.235352 0.814941 0.000000
0.789551 0.814941 0.000000
0.919922 0.814941 0.000000
0.949219 0.814941 0.000000
0.957520 0.814941 0.000000
0.979004 0.814941 0.000000
0.983398 0.814941 0.000000
0.000000 0.915039 0.000000
0.235352 0.915039 0.000000
0.789551 0.915039 0.000000
0.919922 0.915039 0.000000
0.949219 0.915039 0.000000
0.957520 0.915039 0.000000
0.979004 0.915039 0.000000
0.983398 0.915039 0.000000
0.000000 0.958984 0.000000
0.235352 0.958984 0.000000
0.789551 0.958984 0.000000
0.919922 0.958984 0.000000
0.949219 0.958984 0.000000
0.957520 0.958984 0.000000
0.979004 0.958984 0.000000
0.983398 0.958984 0.000000
0.000000 0.978027 0.000000
0.235352 0.978027 0.000000
0.789551 0.978027 0.000000
0.919922 0.978027 0.000000
0.949219 0.978027 0.000000
0.957520 0.978027 0.000000
0.979004 0.978027 0.000000
0.983398 0.978027 0.000000
0.000000 0.980957 0.000000
0.235352 0.980957 0.000000
0.789551 0.980957 0.000000
0.919922 0.980957 0.000000
0.949219 0.980957 0.000000
0.957520 0.980957 0.000000
0.979004 0.980957 0.000000
0.983398 0.980957 0.000000
0.000000 0.000000 0.021393
0.235474 0.000000 0.021393
0.789551 0.000000 0.021393
0.919922 0.000000 0.021393
0.949219 0.000000 0.021393
0.957520 0.000000 0.021393
0.979004 0.000000 0.021393
0.983398 0.000000 0.021393
0.000000 0.120422 0.021393
0.235474 0.120422 0.021393
0.789551 0.120483 0.021393
0.919922 0.120483 0.021393
0.949219 0.120483 0.021393
0.957520 0.120483 0.021393
0.979004 0.120483 0.021393
0.983398 0.120483 0.021393
0.000000 0.566895 0.021393
0.235474 0.566895 0.021393
0.789551 0.566895 0.021393
0.919922 0.566895 0.021393
0.949219 0.566895 0.021393
0.957520 0.566895 0.021393
0.979004 0.566895 0.021393
0.983398 0.566895 0.021393
0.000000 0.814941 0.021393
0.235474 0.814941 0.021393
0.789551 0.814941 0.021393
0.919922 0.814941 0.021393
0.949219 0.814941 0.021393
0.957520 0.814941 0.021393
0.979004 0.814941 0.021393
0.983398 0.814941 0.021393
0.000000 0.915039 0.021393
0.235474 0.915039 0.021393
0.789551 0.915039 0.021393
0.919922 0.915039 0.021393
0.949219 0.915039 0.021393
0.957520 0.915039 0.021393
0.979004 0.915039 0.021393
0.983398 0.915039 0.021393
0.000000 0.958984 0.021408
0.235474 0.958984 0.021408
0.789551 0.958984 0.021408
0.919922 0.958984 0.021408
0.949219 0.958984 0.021408
0.957520 0.958984 0.021408
0.979004 0.958984 0.021408
0.983398 0.958984 0.021408
0.000000 0.978027 0.021408
0.235474 0.978027 0.021408
0.789551 0.978027 0.021408
0.919922 0.978027 0.021408
0.949219 0.978027 0.021408
0.957520 0.978027 0.021408
0.979004 0.978027 0.021408
0.983398 0.978027 0.021408
0.000000 0.980957 0.021408
0.235474 0.980957 0.021408
0.789551 0.980957 0.021408
0.919922 0.980957 0.021408
0.949219 0.980957 0.021408
0.957520 0.980957 0.021408
0.979004 0.980957 0.021408
0.983398 0.980957 0.021408
0.000000 0.000000 0.198608
0.235596 0.000000 0.198608
0.789551 0.000000 0.198608
0.919922 0.000000 0.198608
0.949219 0.000000 0.198608
0.957520 0.000000 0.198608
0.979004 0.000000 0.198608
0.983398 0.000000 0.198608
0.000000 0.120422 0.198608
0.235596 0.120422 0.198608
0.789551 0.120422 0.198608
0.919922 0.120483 0.198608
0.949219 0.120483 0.198608
0.957520 0.120483 0.198608
0.979004 0.120483 0.198608
0.983398 0.120483 0.198608
0.000000 0.566895 0.198608
0.235596 0.566895 0.198608
0.789551 0.566895 0.198608
0.919922 0.566895 0.198608
0.949219 0.566895 0.198608
0.957520 0.566895 0.198608
0.979004 0.566895 0.198608
0.983398 0.566895 0.198608
0.000000 0.814941 0.198608
0.235596 0.814941 0.198608
0.789551 0.814941 0.198608
0.919922 0.814941 0.198608
0.949219 0.814941 0.198608
0.957520 0.814941 0.198608
0.979004 0.814941 0.198608
0.983398 0.814941 0.198608
0.000000 0.915039 0.198608
0.235596 0.915039 0.198608
0.789551 0.915039 0.198608
0.919922 0.915039 0.198608
0.949219 0.915039 0.198608
0.957520 0.915039 0.198608
0.979004 0.915039 0.198608
0.983398 0.915039 0.198608
0.000000 0.958984 0.198608
0.235596 0.958984 0.198608
0.789551 0.958984 0.198608
0.919922 0.958984 0.198608
0.949219 0.958984 0.198608
0.957520 0.958984 0.198608
0.979004 0.958984 0.198608
0.983398 0.958984 0.198608
0.000000 0.978027 0.198608
0.235596 0.978027 0.198608
0.789551 0.978027 0.198608
0.919922 0.978027 0.198608
0.949219 0.978027 0.198608
0.957520 0.978027 0.198608
0.979004 0.978027 0.198608
0.983398 0.978027 0.198608
0.000000 0.980957 0.198608
0.235596 0.980957 0.198608
0.789551 0.980957 0.198608
0.919922 0.980957 0.198608
0.949219 0.980957 0.198608
0.957520 0.980957 0.198608
0.979004 0.980957 0.198608
0.983398 0.980957 0.198608
0.000000 0.000000 0.441406
0.235718 0.000000 0.441406
0.789551 0.000000 0.441406
0.920410 0.000000 0.441406
0.949219 0.000000 0.441406
0.957520 0.000000 0.441406
0.979004 0.000000 0.441406
0.983398 0.000000 0.441406
0.000000 0.120422 0.441406
0.235718 0.120422 0.441406
0.789551 0.120422 0.441406
0.920410 0.120422 0.441406
0.949219 0.120483 0.441406
0.957520 0.120483 0.441406
0.979004 0.120483 0.441406
0.983398 0.120483 0.441406
0.000000 0.566895 0.441406
0.235718 0.566895 0.441406
0.789551 0.566895 0.441406
0.920410 0.566895 0.441406
0.949219 0.566895 0.441406
0.957520 0.566895 0.441406
0.979004 0.566895 0.441406
0.983398 0.566895 0.441406
0.000000 0.814941 0.441406
0.235718 0.814941 0.441406
0.789551 0.814941 0.441406
0.920410 0.814941 0.441406
0.949219 0.814941 0.441406
0.957520 0.814941 0.441406
0.979004 0.814941 0.441406
0.983398 0.814941 0.441406
0.000000 0.915039 0.441406
0.235718 0.915039 0.441406
0.789551 0.915039 0.441406
0.920410 0.915039 0.441406
0.949219 0.915039 0.441406
0.957520 0.915039 0.441406
0.979004 0.915039 0.441406
0.983398 0.915039 0.441406
0.000000 0.958984 0.441406
0.235718 0.958984 0.441406
0.789551 0.958984 0.441406
0.920410 0.958984 0.441406
0.949219 0.958984 0.441406
0.957520 0.958984 0.441406
0.979004 0.958984 0.441406
0.983398 0.958984 0.441406
0.000000 0.978027 0.441406
0.235718 0.978027 0.441406
0.789551 0.978027 0.441406
0.920410 0.978027 0.441406
0.949219 0.978027 0.441406
0.957520 0.978027 0.441406
0.979004 0.978027 0.441406
0.983398 0.978027 0.441406
0.000000 0.980957 0.441406
0.235718 0.980957 0.441406
0.789551 0.980957 0.441406
0.920410 0.980957 0.441406
0.949219 0.980957 0.441406
0.957520 0.980957 0.441406
0.979004 0.980957 0.441406
0.983398 0.980957 0.441406
0.000000 0.000000 0.647949
0.235840 0.000000 0.647949
0.789551 0.000000 0.647949
0.920410 0.000000 0.647949
0.949219 0.000000 0.647949
0.957520 0.000000 0.647949
0.979004 0.000000 0.647949
0.983398 0.000000 0.647949
0.000000 0.120422 0.647949
0.235840 0.120422 0.647949
0.789551 0.120422 0.647949
0.920410 0.120422 0.647949
0.949219 0.120422 0.647949
0.957520 0.120483 0.647949
0.979004 0.120483 0.647949
0.983398 0.120483 0.647949
0.000000 0.566895 0.647949
0.235840 0.566895 0.647949
0.789551 0.566895 0.647949
0.920410 0.566895 0.647949
0.949219 0.566895 0.647949
0.957520 0.566895 0.647949
0.979004 0.566895 0.647949
0.983398 0.566895 0.647949
0.000000 0.814941 0.647949
0.235840 0.814941 0.647949
0.789551 0.814941 0.647949
0.920410 0.814941 0.647949
0.949219 0.814941 0.647949
0.957520 0.814941 0.647949
0.979004 0.814941 0.647949
0.983398 0.814941 0.647949
0.000000 0.915039 0.647949
0.235840 0.915039 0.647949
0.789551 0.915039 0.647949
0.920410 0.915039 0.647949
0.949219 0.915039 0.647949
0.957520 0.915039 0.647949
0.979004 0.915039 0.647949
0.983398 0.915039 0.647949
0.000000 0.958984 0.647949
0.235840 0.958984 0.647949
0.789551 0.958984 0.647949
0.920410 0.958984 0.647949
0.949219 0.958984 0.647949
0.957520 0.958984 0.647949
0.979004 0.958984 0.647949
0.983398 0.958984 0.647949
0.000000 0.978027 0.647949
0.235840 0.978027 0.647949
0.789551 0.978027 0.647949
0.920410 0.978027 0.647949
0.949219 0.978027 0.647949
0.957520 0.978027 0.647949
0.979004 0.978027 0.647949
0.983398 0.978027 0.647949
0.000000 0.980957 0.647949
0.235840 0.980957 0.647949
0.789551 0.980957 0.647949
0.920410 0.980957 0.647949
0.949219 0.980957 0.647949
0.957520 0.980957 0.647949
0.979004 0.980957 0.647949
0.983398 0.980957 0.647949
0.000000 0.000000 0.803223
0.235962 0.000000 0.803223
0.789551 0.000000 0.803223
0.920410 0.000000 0.803223
0.949219 0.000000 0.803223
0.957520 0.000000 0.803223
0.979004 0.000000 0.803223
0.983398 0.000000 0.803223
0.000000 0.120422 0.803223
0.235962 0.120422 0.803223
0.789551 0.120422 0.803223
0.920410 0.120422 0.803223
0.949219 0.120422 0.803223
0.957520 0.120422 0.803223
0.979004 0.120483 0.803223
0.983398 0.120483 0.803223
0.000000 0.566895 0.803223
0.235962 0.566895 0.803223
0.789551 0.566895 0.803223
0.920410 0.566895 0.803223
0.949219 0.566895 0.803223
0.957520 0.566895 0.803223
0.979004 0.566895 0.803223
0.983398 0.566895 0.803223
0.000000 0.814941 0.803223
0.235962 0.814941 0.803223
0.789551 0.814941 0.803223
0.920410 0.814941 0.803223
0.949219 0.814941 0.803223
0.957520 0.814941 0.803223
0.979004 0.814941 0.803223
0.983398 0.814941 0.803223
0.000000 0.915039 0.803223
0.235962 0.915039 0.803223
0.789551 0.915039 0.803223
0.920410 0.915039 0.803223
0.949219 0.915039 0.803223
0.957520 0.915039 0.803223
0.979004 0.915039 0.803223
0.983398 0.915039 0.803223
0.000000 0.958984 0.803223
0.235962 0.958984 0.803223
0.789551 0.958984 0.803223
0.920410 0.958984 0.803223
0.949219 0.958984 0.803223
0.957520 0.958984 0.803223
0.979004 0.958984 0.803223
0.983398 0.958984 0.803223
0.000000 0.978027 0.803223
0.235962 0.978027 0.803223
0.789551 0.978027 0.803223
0.920410 0.978027 0.803223
0.949219 0.978027 0.803223
0.957520 0.978027 0.803223
0.979004 0.978027 0.803223
0.983398 0.978027 0.803223
0.000000 0.980957 0.803223
0.235962 0.980957 0.803223
0.789551 0.980957 0.803223
0.920410 0.980957 0.803223
0.949219 0.980957 0.803223
0.957520 0.980957 0.803223
0.979004 0.980957 0.803223
0.983398 0.980957 0.803223
0.000000 0.000000 0.902832
0.236084 0.000000 0.902832
0.789551 0.000000 0.902832
0.920410 0.000000 0.902832
0.949219 0.000000 0.902832
0.957520 0.000000 0.902832
0.979004 0.000000 0.902832
0.983398 0.000000 0.902832
0.000000 0.120422 0.902832
0.236084 0.120422 0.902832
0.789551 0.120422 0.902832
0.920410 0.120422 0.902832
0.949219 0.120422 0.902832
0.957520 0.120422 0.902832
0.979004 0.120422 0.902832
0.983398 0.120483 0.902832
0.000000 0.566895 0.902832
0.236084 0.566895 0.902832
0.789551 0.566895 0.902832
0.920410 0.566895 0.902832
0.949219 0.566895 0.902832
0.957520 0.566895 0.902832
0.979004 0.566895 0.902832
0.983398 0.566895 0.902832
0.000000 0.814941 0.902832
0.236084 0.814941 0.902832
0.789551 0.814941 0.902832
0.920410 0.814941 0.902832
0.949219 0.814941 0.902832
0.957520 0.814941 0.902832
0.979004 0.814941 0.902832
0.983398 0.814941 0.902832
0.000000 0.915039 0.902832
0.236084 0.915039 0.902832
0.789551 0.915039 0.902832
0.920410 0.915039 0.902832
0.949219 0.915039 0.902832
0.957520 0.915039 0.902832
0.979004 0.915039 0.902832
0.983398 0.915039 0.902832
0.000000 0.958984 0.902832
0.236084 0.958984 0.902832
0.789551 0.958984 0.902832
0.920410 0.958984 0.902832
0.949219 0.958984 0.902832
0.957520 0.958984 0.902832
0.979004 0.958984 0.902832
0.983398 0.958984 0.902832
0.000000 0.978027 0.902832
0.236084 0.978027 0.902832
0.789551 0.978027 0.902832
0.920410 0.978027 0.902832
0.949219 0.978027 0.902832
0.957520 0.978027 0.902832
0.979004 0.978027 0.902832
0.983398 0.978027 0.902832
0.000000 0.980957 0.902832
0.236084 0.980957 0.902832
0.789551 0.980957 0.902832
0.920410 0.980957 0.902832
0.949219 0.980957 0.902832
0.957520 0.980957 0.902832
0.979004 0.980957 0.902832
0.983398 0.980957 0.902832
0.000000 0.000000 0.968750
0.236206 0.000000 0.968750
0.789551 0.000000 0.968750
0.920410 0.000000 0.968750
0.949219 0.000000 0.968750
0.957520 0.000000 0.968750
0.979004 0.000000 0.968750
0.983398 0.000000 0.968750
0.000000 0.120361 0.968750
0.236206 0.120422 0.968750
0.789551 0.120422 0.968750
0.920410 0.120422 0.968750
0.949219 0.120422 0.968750
0.957520 0.120422 0.968750
0.979004 0.120422 0.968750
0.983398 0.120422 0.968750
0.000000 0.566895 0.968750
0.236206 0.566895 0.968750
0.789551 0.566895 0.968750
0.920410 0.566895 0.968750
0.949219 0.566895 0.968750
0.957520 0.566895 0.968750
0.979004 0.566895 0.968750
0.983398 0.566895 0.968750
0.000000 0.814941 0.968750
0.236206 0.814941 0.968750
0.789551 0.814941 0.968750
0.920410 0.814941 0.968750
0.949219 0.814941 0.968750
0.957520 0.814941 0.968750
0.979004 0.814941 0.968750
0.983398 0.814941 0.968750
0.000000 0.915039 0.968750
0.236206 0.915039 0.968750
0.789551 0.915039 0.968750
0.920410 0.915039 0.968750
0.949219 0.915039 0.968750
0.957520 0.915039 0.968750
0.979004 0.915039 0.968750
0.983398 0.915039 0.968750
0.000000 0.958984 0.968750
0.236206 0.958984 0.968750
0.789551 0.958984 0.968750
0.920410 0.958984 0.968750
0.949219 0.958984 0.968750
0.957520 0.958984 0.968750
0.979004 0.958984 0.968750
0.983398 0.958984 0.968750
0.000000 0.978027 0.968750
0.236206 0.978027 0.968750
0.789551 0.978027 0.968750
0.920410 0.978027 0.968750
0.949219 0.978027 0.968750
0.957520 0.978027 0.968750
0.979004 0.978027 0.968750
0.983398 0.978027 0.968750
0.000000 0.980957 0.968750
0.236206 0.980957 0.968750
0.789551 0.980957 0.968750
0.920410 0.980957 0.968750
0.949219 0.980957 0.968750
0.957520 0.980957 0.968750
0.979004 0.980957 0.968750
0.983398 0.980957 0.968750
