cubelut/Adanmq_AgfaColor Vista 100.cube
TITLE "Generated by Foundry::LUT"
LUT_3D_SIZE 8
DOMAIN_MIN 0.000000 0.000000 0.000000
DOMAIN_MAX 0.903226 0.903226 0.903226
0.000000 0.000000 0.000000
0.115723 0.000000 0.000000
0.267090 0.000000 0.000000
0.421143 0.000000 0.000000
0.574707 0.000000 0.000000
0.715332 0.000000 0.000000
0.837891 0.000000 0.000000
0.939941 0.000000 0.000000
0.000000 0.110718 0.000000
0.115723 0.110718 0.000000
0.267090 0.110718 0.000000
0.421143 0.110718 0.000000
0.574707 0.110718 0.000000
0.715332 0.110718 0.000000
0.837891 0.110718 0.000000
0.939941 0.110718 0.000000
0.000000 0.260986 0.000000
0.115723 0.260986 0.000000
0.267090 0.260986 0.000000
0.421143 0.260986 0.000000
0.574707 0.260986 0.000000
0.715332 0.260986 0.000000
0.837891 0.260986 0.000000
0.939941 0.260986 0.000000
0.000000 0.411621 0.000000
0.115723 0.411621 0.000000
0.267090 0.411621 0.000000
0.421143 0.411621 0.000000
0.574707 0.411621 0.000000
0.715332 0.411621 0.000000
0.837891 0.411621 0.000000
0.939941 0.411621 0.000000
0.000000 0.556152 0.000000
0.115723 0.556152 0.000000
0.267090 0.556152 0.000000
0.421143 0.556152 0.000000
0.574707 0.556152 0.000000
0.715332 0.556152 0.000000
0.837891 0.556152 0.000000
0.939941 0.556152 0.000000
0.000000 0.690918 0.000000
0.115723 0.690918 0.000000
0.267090 0.690918 0.000000
0.421143 0.690918 0.000000
0.574707 0.690918 0.000000
0.715332 0.690918 0.000000
0.837891 0.690918 0.000000
0.939941 0.690918 0.000000
0.000000 0.814941 0.000000
0.115723 0.814941 0.000000
0.267090 0.814941 0.000000
0.421143 0.814941 0.000000
0.574707 0.814941 0.000000
0.715332 0.814941 0.000000
0.837891 0.814941 0.000000
0.939941 0.814941 0.000000
0.000000 0.927246 0.000000
0.115723 0.927246 0.000000
0.267090 0.927246 0.000000
0.421143 0.927246 0.000000
0.574707 0.927246 0.000000
0.715332 0.927246 0.000000
0.837891 0.927246 0.000000
0.939941 0.927246 0.000000
0.000000 0.000000 0.086792
0.115723 0.000000 0.086792
0.267090 0.000000 0.086792
0.421143 0.000000 0.086792
0.574707 0.000000 0.086792
0.715332 0.000000 0.086792
0.837891 0.000000 0.086792
0.939941 0.000000 0.086792
0.000000 0.110718 0.086792
0.115723 0.110718 0.086792
0.267090 0.110718 0.086792
0.421143 0.110718 0.086792
0.574707 0.110718 0.086792
0.715332 0.110718 0.086792
0.837891 0.110718 0.086792
0.939941 0.110718 0.086792
0.000000 0.260986 0.086792
0.115723 0.260986 0.086792
0.267090 0.260986 0.086792
0.421143 0.260986 0.086792
0.574707 0.260986 0.086792
0.715332 0.260986 0.086792
0.837891 0.260986 0.086792
0.939941 0.260986 0.086792
0.000000 0.411621 0.086792
0.115723 0.411621 0.086792
0.267090 0.411621 0.086792
0.421143 0.411621 0.086792
0.574707 0.411621 0.086792
0.715332 0.411621 0.086792
0.837891 0.411621 0.086792
0.939941 0.411621 0.086792
0.000000 0.556152 0.086792
0.115723 0.556152 0.086792
0.267090 0.556152 0.086792
0.421143 0.556152 0.086792
0.574707 0.556152 0.086792
0.715332 0.556152 0.086792
0.837891 0.556152 0.086792
0.939941 0.556152 0.086792
0.000000 0.690918 0.086792
0.115723 0.690918 0.086792
0.267090 0.690918 0.086792
0.421143 0.690918 0.086792
0.574707 0.690918 0.086792
0.715332 0.690918 0.086792
0.837891 0.690918 0.086792
0.939941 0.690918 0.086792
0.000000 0.814941 0.086853
0.115723 0.814941 0.086853
0.267090 0.814941 0.086853
0.421143 0.814941 0.086853
0.574707 0.814941 0.086853
0.715332 0.814941 0.086853
0.837891 0.814941 0.086853
0.939941 0.814941 0.086853
0.000000 0.927246 0.086853
0.115723 0.927246 0.086853
0.267090 0.927246 0.086853
0.421143 0.927246 0.086853
0.574707 0.927246 0.086853
0.715332 0.927246 0.086853
0.837891 0.927246 0.086853
0.939941 0.927246 0.086853
0.000000 0.000000 0.231812
0.115784 0.000000 0.231812
0.267090 0.000000 0.231812
0.421143 0.000000 0.231812
0.574707 0.000000 0.231812
0.715332 0.000000 0.231812
0.837891 0.000000 0.231812
0.939941 0.000000 0.231812
0.000000 0.110718 0.231812
0.115784 0.110718 0.231812
0.267090 0.110718 0.231812
0.421143 0.110718 0.231812
0.574707 0.110718 0.231812
0.715332 0.110718 0.231812
0.837891 0.110718 0.231812
0.939941 0.110718 0.231812
0.000000 0.260986 0.231812
0.115784 0.260986 0.231812
0.267090 0.260986 0.231812
0.421143 0.260986 0.231812
0.574707 0.260986 0.231812
0.715332 0.260986 0.231812
0.837891 0.260986 0.231812
0.939941 0.260986 0.231812
0.000000 0.411621 0.231812
0.115784 0.411621 0.231812
0.267090 0.411621 0.231812
0.421143 0.411621 0.231812
0.574707 0.411621 0.231812
0.715332 0.411621 0.231812
0.837891 0.411621 0.231812
0.939941 0.411621 0.231812
0.000000 0.556152 0.231812
0.115784 0.556152 0.231812
0.267090 0.556152 0.231812
0.421143 0.556152 0.231812
0.574707 0.556152 0.231812
0.715332 0.556152 0.231812
0.837891 0.556152 0.231812
0.939941 0.556152 0.231812
0.000000 0.690918 0.231812
0.115784 0.690918 0.231812
0.267090 0.690918 0.231812
0.421143 0.690918 0.231812
0.574707 0.690918 0.231812
0.715332 0.690918 0.231812
0.837891 0.690918 0.231812
0.939941 0.690918 0.231812
0.000000 0.814941 0.231812
0.115784 0.814941 0.231812
0.267090 0.814941 0.231812
0.421143 0.814941 0.231812
0.574707 0.814941 0.231812
0.715332 0.814941 0.231812
0.837891 0.814941 0.231812
0.939941 0.814941 0.231812
0.000000 0.927246 0.231812
0.115784 0.927246 0.231812
0.267090 0.927246 0.231812
0.421143 0.927246 0.231812
0.574707 0.927246 0.231812
0.715332 0.927246 0.231812
0.837891 0.927246 0.231812
0.939941 0.927246 0.231812
0.000000 0.000000 0.380615
0.115784 0.000000 0.380615
0.267334 0.000000 0.380615
0.421143 0.000000 0.380615
0.574707 0.000000 0.380615
0.715332 0.000000 0.380615
0.837891 0.000000 0.380615
0.939941 0.000000 0.380615
0.000000 0.110718 0.380615
0.115784 0.110718 0.380615
0.267334 0.110718 0.380615
0.421143 0.110718 0.380615
0.574707 0.110718 0.380615
0.715332 0.110718 0.380615
0.837891 0.110718 0.380615
0.939941 0.110718 0.380615
0.000000 0.260986 0.380615
0.115784 0.260986 0.380615
0.267334 0.260986 0.380615
0.421143 0.260986 0.380615
0.574707 0.260986 0.380615
0.715332 0.260986 0.380615
0.837891 0.260986 0.380615
0.939941 0.260986 0.380615
0.000000 0.411621 0.380615
0.115784 0.411621 0.380615
0.267334 0.411621 0.380615
0.421143 0.411621 0.380615
0.574707 0.411621 0.380615
0.715332 0.411621 0.380615
0.837891 0.411621 0.380615
0.939941 0.411621 0.380615
0.000000 0.556152 0.380615
0.115784 0.556152 0.380615
0.267334 0.556152 0.380615
0.421143 0.556152 0.380615
0.574707 0.556152 0.380615
0.715332 0.556152 0.380615
0.837891 0.556152 0.380615
0.939941 0.556152 0.380615
0.000000 0.690918 0.380615
0.115784 0.690918 0.380615
0.267334 0.690918 0.380615
0.421143 0.690918 0.380615
0.574707 0.690918 0.380615
0.715332 0.690918 0.380615
0.837891 0.690918 0.380615
0.939941 0.690918 0.380615
0.000000 0.814941 0.380615
0.115784 0.814941 0.380615
0.267334 0.814941 0.380615
0.421143 0.814941 0.380615
0.574707 0.814941 0.380615
0.715332 0.814941 0.380615
0.837891 0.814941 0.380615
0.939941 0.814941 0.380615
0.000000 0.927246 0.380615
0.115784 0.927246 0.380615
0.267334 0.927246 0.380615
0.421143 0.927246 0.380615
0.574707 0.927246 0.380615
0.715332 0.927246 0.380615
0.837891 0.927246 0.380615
0.939941 0.927246 0.380615
0.000000 0.000000 0.521973
0.115845 0.000000 0.521973
0.267334 0.000000 0.521973
0.421143 0.000000 0.521973
0.574707 0.000000 0.521973
0.715332 0.000000 0.521973
0.837891 0.000000 0.521973
0.939941 0.000000 0.521973
0.000000 0.110718 0.521973
0.115845 0.110718 0.521973
0.267334 0.110718 0.521973
0.421143 0.110718 0.521973
0.574707 0.110718 0.521973
0.715332 0.110718 0.521973
0.837891 0.110718 0.521973
0.939941 0.110718 0.521973
0.000000 0.260986 0.521973
0.115845 0.260986 0.521973
0.267334 0.260986 0.521973
0.421143 0.260986 0.521973
0.574707 0.260986 0.521973
0.715332 0.260986 0.521973
0.837891 0.260986 0.521973
0.939941 0.260986 0.521973
0.000000 0.411621 0.521973
0.115845 0.411621 0.521973
0.267334 0.411621 0.521973
0.421143 0.411621 0.521973
0.574707 0.411621 0.521973
0.715332 0.411621 0.521973
0.837891 0.411621 0.521973
0.939941 0.411621 0.521973
0.000000 0.556152 0.521973
0.115845 0.556152 0.521973
0.267334 0.556152 0.521973
0.421143 0.556152 0.521973
0.574707 0.556152 0.521973
0.715332 0.556152 0.521973
0.837891 0.556152 0.521973
0.939941 0.556152 0.521973
0.000000 0.690918 0.521973
0.115845 0.690918 0.521973
0.267334 0.690918 0.521973
0.421143 0.690918 0.521973
0.574707 0.690918 0.521973
0.715332 0.690918 0.521973
0.837891 0.690918 0.521973
0.939941 0.690918 0.521973
0.000000 0.814941 0.521973
0.115845 0.814941 0.521973
0.267334 0.814941 0.521973
0.421143 0.814941 0.521973
0.574707 0.814941 0.521973
0.715332 0.814941 0.521973
0.837891 0.814941 0.521973
0.939941 0.814941 0.521973
0.000000 0.927246 0.521973
0.115845 0.927246 0.521973
0.267334 0.927246 0.521973
0.421143 0.927246 0.521973
0.574707 0.927246 0.521973
0.715332 0.927246 0.521973
0.837891 0.927246 0.521973
0.939941 0.927246 0.521973
0.000000 0.000000 0.672852
0.115845 0.000000 0.672852
0.267334 0.000000 0.672852
0.421143 0.000000 0.672852
0.574707 0.000000 0.672852
0.715332 0.000000 0.672852
0.837891 0.000000 0.672852
0.939941 0.000000 0.672852
0.000000 0.110718 0.672852
0.115845 0.110718 0.672852
0.267334 0.110718 0.672852
0.421143 0.110718 0.672852
0.574707 0.110718 0.672852
0.715332 0.110718 0.672852
0.837891 0.110718 0.672852
0.939941 0.110718 0.672852
0.000000 0.260986 0.672852
0.115845 0.260986 0.672852
0.267334 0.260986 0.672852
0.421143 0.260986 0.672852
0.574707 0.260986 0.672852
0.715332 0.260986 0.672852
0.837891 0.260986 0.672852
0.939941 0.260986 0.672852
0.000000 0.411621 0.672852
0.115845 0.411621 0.672852
0.267334 0.411621 0.672852
0.421143 0.411621 0.672852
0.574707 0.411621 0.672852
0.715332 0.411621 0.672852
0.837891 0.411621 0.672852
0.939941 0.411621 0.672852
0.000000 0.556152 0.672852
0.115845 0.556152 0.672852
0.267334 0.556152 0.672852
0.421143 0.556152 0.672852
0.574707 0.556152 0.672852
0.715332 0.556152 0.672852
0.837891 0.556152 0.672852
0.939941 0.556152 0.672852
0.000000 0.690918 0.672852
0.115845 0.690918 0.672852
0.267334 0.690918 0.672852
0.421143 0.690918 0.672852
0.574707 0.690918 0.672852
0.715332 0.690918 0.672852
0.837891 0.690918 0.672852
0.939941 0.690918 0.672852
0.000000 0.814941 0.672852
0.115845 0.814941 0.672852
0.267334 0.814941 0.672852
0.421143 0.814941 0.672852
0.574707 0.814941 0.672852
0.715332 0.814941 0.672852
0.837891 0.814941 0.672852
0.939941 0.814941 0.672852
0.000000 0.927246 0.672852
0.115845 0.927246 0.672852
0.267334 0.927246 0.672852
0.421143 0.927246 0.672852
0.574707 0.927246 0.672852
0.715332 0.927246 0.672852
0.837891 0.927246 0.672852
0.939941 0.927246 0.672852
0.000000 0.000000 0.815430
0.115906 0.000000 0.815430
0.267334 0.000000 0.815430
0.421143 0.000000 0.815430
0.575195 0.000000 0.815430
0.715332 0.000000 0.815430
0.837891 0.000000 0.815430
0.939941 0.000000 0.815430
0.000000 0.110718 0.815430
0.115906 0.110718 0.815430
0.267334 0.110718 0.815430
0.421143 0.110718 0.815430
0.575195 0.110718 0.815430
0.715332 0.110718 0.815430
0.837891 0.110718 0.815430
0.939941 0.110718 0.815430
0.000000 0.260986 0.815430
0.115906 0.260986 0.815430
0.267334 0.260986 0.815430
0.421143 0.260986 0.815430
0.575195 0.260986 0.815430
0.715332 0.260986 0.815430
0.837891 0.260986 0.815430
0.939941 0.260986 0.815430
0.000000 0.411621 0.815430
0.115906 0.411621 0.815430
0.267334 0.411621 0.815430
0.421143 0.411621 0.815430
0.575195 0.411621 0.815430
0.715332 0.411621 0.815430
0.837891 0.411621 0.815430
0.939941 0.411621 0.815430
0.000000 0.556152 0.815430
0.115906 0.556152 0.815430
0.267334 0.556152 0.815430
0.421143 0.556152 0.815430
0.575195 0.556152 0.815430
0.715332 0.556152 0.815430
0.837891 0.556152 0.815430
0.939941 0.556152 0.815430
0.000000 0.690918 0.815430
0.115906 0.690918 0.815430
0.267334 0.690918 0.815430
0.421143 0.690918 0.815430
0.575195 0.690918 0.815430
0.715332 0.690918 0.815430
0.837891 0.690918 0.815430
0.939941 0.690918 0.815430
0.000000 0.814941 0.815430
0.115906 0.814941 0.815430
0.267334 0.814941 0.815430
0.421143 0.814941 0.815430
0.575195 0.814941 0.815430
0.715332 0.814941 0.815430
0.837891 0.814941 0.815430
0.939941 0.814941 0.815430
0.000000 0.927246 0.815430
0.115906 0.927246 0.815430
0.267334 0.927246 0.815430
0.421143 0.927246 0.815430
0.575195 0.927246 0.815430
0.715332 0.927246 0.815430
0.837891 0.927246 0.815430
0.939941 0.927246 0.815430
0.000001 0.000000 0.933594
0.115906 0.000000 0.933594
0.267334 0.000000 0.933594
0.421143 0.000000 0.933594
0.575195 0.000000 0.933594
0.715332 0.000000 0.933594
0.837891 0.000000 0.933594
0.939941 0.000000 0.933594
0.000001 0.110718 0.933594
0.115906 0.110718 0.933594
0.267334 0.110718 0.933594
0.421143 0.110718 0.933594
0.575195 0.110718 0.933594
0.715332 0.110718 0.933594
0.837891 0.110718 0.933594
0.939941 0.110718 0.933594
0.000001 0.260986 0.933594
0.115906 0.260986 0.933594
0.267334 0.260986 0.933594
0.421143 0.260986 0.933594
0.575195 0.260986 0.933594
0.715332 0.260986 0.933594
0.837891 0.260986 0.933594
0.939941 0.260986 0.933594
0.000001 0.411621 0.933594
0.115906 0.411621 0.933594
0.267334 0.411621 0.933594
0.421143 0.411621 0.933594
0.575195 0.411621 0.933594
0.715332 0.411621 0.933594
0.837891 0.411621 0.933594
0.939941 0.411621 0.933594
0.000001 0.556152 0.933594
0.115906 0.556152 0.933594
0.267334 0.556152 0.933594
0.421143 0.556152 0.933594
0.575195 0.556152 0.933594
0.715332 0.556152 0.933594
0.837891 0.556152 0.933594
0.939941 0.556152 0.933594
0.000001 0.690918 0.933594
0.115906 0.690918 0.933594
0.267334 0.690918 0.933594
0.421143 0.690918 0.933594
0.575195 0.690918 0.933594
0.715332 0.690918 0.933594
0.837891 0.690918 0.933594
0.939941 0.690918 0.933594
0.000001 0.814941 0.933594
0.115906 0.814941 0.933594
0.267334 0.814941 0.933594
0.421143 0.814941 0.933594
0.575195 0.814941 0.933594
0.715332 0.814941 0.933594
0.837891 0.814941 0.933594
0.939941 0.814941 0.933594
0.000001 0.927246 0.933594
0.115906 0.927246 0.933594
0.267334 0.927246 0.933594
0.421143 0.927246 0.933594
0.575195 0.927246 0.933594
0.715332 0.927246 0.933594
0.837891 0.927246 0.933594
0.939941 0.927246 0.933594
