cubelut/Adanmq_AgfaColor HDC 100+.cube
TITLE "Generated by Foundry::LUT"
LUT_3D_SIZE 8
DOMAIN_MIN 0.000000 0.000000 0.000000
DOMAIN_MAX 0.903226 0.903226 0.903226
0.000000 0.000000 0.000000
0.104492 0.000000 0.000000
0.249146 0.000000 0.000000
0.398926 0.000000 0.000000
0.542480 0.000000 0.000000
0.679199 0.000000 0.000000
0.808594 0.000000 0.000000
0.927734 0.000000 0.000000
0.000000 0.115295 0.000000
0.104492 0.115295 0.000000
0.249146 0.115356 0.000000
0.398926 0.115356 0.000000
0.542480 0.115356 0.000000
0.679199 0.115356 0.000000
0.808594 0.115356 0.000000
0.927734 0.115356 0.000000
0.000000 0.268799 0.000000
0.104492 0.268799 0.000000
0.249146 0.268799 0.000000
0.398926 0.268799 0.000000
0.542480 0.268799 0.000000
0.679199 0.268799 0.000000
0.808594 0.268799 0.000000
0.927734 0.268799 0.000000
0.000000 0.427246 0.000000
0.104492 0.427246 0.000000
0.249146 0.427246 0.000000
0.398926 0.427246 0.000000
0.542480 0.427246 0.000000
0.679199 0.427246 0.000000
0.808594 0.427246 0.000000
0.927734 0.427246 0.000000
0.000000 0.575684 0.000000
0.104492 0.575684 0.000000
0.249146 0.575684 0.000000
0.398926 0.575684 0.000000
0.542480 0.575684 0.000000
0.679199 0.575684 0.000000
0.808594 0.575684 0.000000
0.927734 0.575684 0.000000
0.000000 0.709961 0.000000
0.104492 0.709961 0.000000
0.249146 0.709961 0.000000
0.398926 0.709961 0.000000
0.542480 0.709961 0.000000
0.679199 0.709961 0.000000
0.808594 0.709961 0.000000
0.927734 0.709961 0.000000
0.000000 0.829102 0.000000
0.104492 0.829102 0.000000
0.249146 0.829102 0.000000
0.398926 0.829102 0.000000
0.542480 0.829102 0.000000
0.679199 0.829102 0.000000
0.808594 0.829102 0.000000
0.927734 0.829102 0.000000
0.000000 0.933594 0.000000
0.104492 0.933594 0.000000
0.249146 0.933594 0.000000
0.398926 0.933594 0.000000
0.542480 0.933594 0.000000
0.679199 0.933594 0.000000
0.808594 0.933594 0.000000
0.927734 0.933594 0.000000
0.000000 0.000000 0.104431
0.104492 0.000000 0.104431
0.249146 0.000000 0.104431
0.398926 0.000000 0.104431
0.542480 0.000000 0.104431
0.679199 0.000000 0.104431
0.808594 0.000000 0.104431
0.927734 0.000000 0.104431
0.000000 0.115295 0.104431
0.104492 0.115295 0.104431
0.249146 0.115295 0.104431
0.398926 0.115356 0.104431
0.542480 0.115356 0.104431
0.679199 0.115356 0.104431
0.808594 0.115356 0.104431
0.927734 0.115356 0.104431
0.000000 0.268799 0.104431
0.104492 0.268799 0.104431
0.249146 0.268799 0.104431
0.398926 0.268799 0.104431
0.542480 0.268799 0.104431
0.679199 0.268799 0.104431
0.808594 0.268799 0.104431
0.927734 0.268799 0.104431
0.000000 0.427246 0.104431
0.104492 0.427246 0.104431
0.249146 0.427246 0.104431
0.398926 0.427246 0.104431
0.542480 0.427246 0.104431
0.679199 0.427246 0.104431
0.808594 0.427246 0.104431
0.927734 0.427246 0.104431
0.000000 0.575684 0.104431
0.104492 0.575684 0.104431
0.249146 0.575684 0.104431
0.398926 0.575684 0.104431
0.542480 0.575684 0.104431
0.679199 0.575684 0.104431
0.808594 0.575684 0.104431
0.927734 0.575684 0.104431
0.000000 0.709961 0.104431
0.104492 0.709961 0.104431
0.249146 0.709961 0.104431
0.398926 0.709961 0.104431
0.542480 0.709961 0.104431
0.679199 0.709961 0.104431
0.808594 0.709961 0.104431
0.927734 0.709961 0.104431
0.000000 0.829102 0.104431
0.104492 0.829102 0.104431
0.249146 0.829102 0.104431
0.398926 0.829102 0.104431
0.542480 0.829102 0.104431
0.679199 0.829102 0.104431
0.808594 0.829102 0.104431
0.927734 0.829102 0.104431
0.000000 0.933594 0.104431
0.104492 0.933594 0.104431
0.249146 0.933594 0.104431
0.398926 0.933594 0.104431
0.542480 0.933594 0.104431
0.679199 0.933594 0.104431
0.808594 0.933594 0.104431
0.927734 0.933594 0.104431
0.000000 0.000000 0.249023
0.104492 0.000000 0.249023
0.249268 0.000000 0.249023
0.398926 0.000000 0.249023
0.542480 0.000000 0.249023
0.679199 0.000000 0.249023
0.808594 0.000000 0.249023
0.927734 0.000000 0.249023
0.000000 0.115295 0.249023
0.104492 0.115295 0.249023
0.249268 0.115295 0.249023
0.398926 0.115295 0.249023
0.542480 0.115356 0.249023
0.679199 0.115356 0.249023
0.808594 0.115356 0.249023
0.927734 0.115356 0.249023
0.000000 0.268799 0.249023
0.104492 0.268799 0.249023
0.249268 0.268799 0.249023
0.398926 0.268799 0.249023
0.542480 0.268799 0.249023
0.679199 0.268799 0.249023
0.808594 0.268799 0.249023
0.927734 0.268799 0.249023
0.000000 0.427246 0.249023
0.104492 0.427246 0.249023
0.249268 0.427246 0.249023
0.398926 0.427246 0.249023
0.542480 0.427246 0.249023
0.679199 0.427246 0.249023
0.808594 0.427246 0.249023
0.927734 0.427246 0.249023
0.000000 0.575684 0.249023
0.104492 0.575684 0.249023
0.249268 0.575684 0.249023
0.398926 0.575684 0.249023
0.542480 0.575684 0.249023
0.679199 0.575684 0.249023
0.808594 0.575684 0.249023
0.927734 0.575684 0.249023
0.000000 0.709961 0.249023
0.104492 0.709961 0.249023
0.249268 0.709961 0.249023
0.398926 0.709961 0.249023
0.542480 0.709961 0.249023
0.679199 0.709961 0.249023
0.808594 0.709961 0.249023
0.927734 0.709961 0.249023
0.000000 0.829102 0.249023
0.104492 0.829102 0.249023
0.249268 0.829102 0.249023
0.398926 0.829102 0.249023
0.542480 0.829102 0.249023
0.679199 0.829102 0.249023
0.808594 0.829102 0.249023
0.927734 0.829102 0.249023
0.000000 0.933594 0.249146
0.104492 0.933594 0.249146
0.249268 0.933594 0.249146
0.398926 0.933594 0.249146
0.542480 0.933594 0.249146
0.679199 0.933594 0.249146
0.808594 0.933594 0.249146
0.927734 0.933594 0.249146
0.000000 0.000000 0.398682
0.104553 0.000000 0.398682
0.249268 0.000000 0.398682
0.398926 0.000000 0.398682
0.542480 0.000000 0.398682
0.679688 0.000000 0.398682
0.808594 0.000000 0.398682
0.927734 0.000000 0.398682
0.000000 0.115295 0.398682
0.104553 0.115295 0.398682
0.249268 0.115295 0.398682
0.398926 0.115295 0.398682
0.542480 0.115295 0.398682
0.679688 0.115356 0.398682
0.808594 0.115356 0.398682
0.927734 0.115356 0.398682
0.000000 0.268799 0.398682
0.104553 0.268799 0.398682
0.249268 0.268799 0.398682
0.398926 0.268799 0.398682
0.542480 0.268799 0.398682
0.679688 0.268799 0.398682
0.808594 0.268799 0.398682
0.927734 0.268799 0.398682
0.000000 0.427246 0.398682
0.104553 0.427246 0.398682
0.249268 0.427246 0.398682
0.398926 0.427246 0.398682
0.542480 0.427246 0.398682
0.679688 0.427246 0.398682
0.808594 0.427246 0.398682
0.927734 0.427246 0.398682
0.000000 0.575684 0.398682
0.104553 0.575684 0.398682
0.249268 0.575684 0.398682
0.398926 0.575684 0.398682
0.542480 0.575684 0.398682
0.679688 0.575684 0.398682
0.808594 0.575684 0.398682
0.927734 0.575684 0.398682
0.000000 0.709961 0.398682
0.104553 0.709961 0.398682
0.249268 0.709961 0.398682
0.398926 0.709961 0.398682
0.542480 0.709961 0.398682
0.679688 0.709961 0.398682
0.808594 0.709961 0.398682
0.927734 0.709961 0.398682
0.000000 0.829102 0.398682
0.104553 0.829102 0.398682
0.249268 0.829102 0.398682
0.398926 0.829102 0.398682
0.542480 0.829102 0.398682
0.679688 0.829102 0.398682
0.808594 0.829102 0.398682
0.927734 0.829102 0.398682
0.000000 0.933594 0.398682
0.104553 0.933594 0.398682
0.249268 0.933594 0.398682
0.398926 0.933594 0.398682
0.542480 0.933594 0.398682
0.679688 0.933594 0.398682
0.808594 0.933594 0.398682
0.927734 0.933594 0.398682
0.000000 0.000000 0.542480
0.104553 0.000000 0.542480
0.249268 0.000000 0.542480
0.398926 0.000000 0.542480
0.542969 0.000000 0.542480
0.679688 0.000000 0.542480
0.808594 0.000000 0.542480
0.927734 0.000000 0.542480
0.000000 0.115295 0.542480
0.104553 0.115295 0.542480
0.249268 0.115295 0.542480
0.398926 0.115295 0.542480
0.542969 0.115295 0.542480
0.679688 0.115295 0.542480
0.808594 0.115356 0.542480
0.927734 0.115356 0.542480
0.000000 0.268799 0.542480
0.104553 0.268799 0.542480
0.249268 0.268799 0.542480
0.398926 0.268799 0.542480
0.542969 0.268799 0.542480
0.679688 0.268799 0.542480
0.808594 0.268799 0.542480
0.927734 0.268799 0.542480
0.000000 0.427246 0.542480
0.104553 0.427246 0.542480
0.249268 0.427246 0.542480
0.398926 0.427246 0.542480
0.542969 0.427246 0.542480
0.679688 0.427246 0.542480
0.808594 0.427246 0.542480
0.927734 0.427246 0.542480
0.000000 0.575684 0.542480
0.104553 0.575684 0.542480
0.249268 0.575684 0.542480
0.398926 0.575684 0.542480
0.542969 0.575684 0.542480
0.679688 0.575684 0.542480
0.808594 0.575684 0.542480
0.927734 0.575684 0.542480
0.000000 0.709961 0.542480
0.104553 0.709961 0.542480
0.249268 0.709961 0.542480
0.398926 0.709961 0.542480
0.542969 0.709961 0.542480
0.679688 0.709961 0.542480
0.808594 0.709961 0.542480
0.927734 0.709961 0.542480
0.000000 0.829102 0.542480
0.104553 0.829102 0.542480
0.249268 0.829102 0.542480
0.398926 0.829102 0.542480
0.542969 0.829102 0.542480
0.679688 0.829102 0.542480
0.808594 0.829102 0.542480
0.927734 0.829102 0.542480
0.000000 0.933594 0.542480
0.104553 0.933594 0.542480
0.249268 0.933594 0.542480
0.398926 0.933594 0.542480
0.542969 0.933594 0.542480
0.679688 0.933594 0.542480
0.808594 0.933594 0.542480
0.927734 0.933594 0.542480
0.000000 0.000000 0.679199
0.104614 0.000000 0.679199
0.249268 0.000000 0.679199
0.398926 0.000000 0.679199
0.542969 0.000000 0.679199
0.679688 0.000000 0.679199
0.808594 0.000000 0.679199
0.927734 0.000000 0.679199
0.000000 0.115295 0.679199
0.104614 0.115295 0.679199
0.249268 0.115295 0.679199
0.398926 0.115295 0.679199
0.542969 0.115295 0.679199
0.679688 0.115295 0.679199
0.808594 0.115295 0.679199
0.927734 0.115356 0.679199
0.000000 0.268799 0.679199
0.104614 0.268799 0.679199
0.249268 0.268799 0.679199
0.398926 0.268799 0.679199
0.542969 0.268799 0.679199
0.679688 0.268799 0.679199
0.808594 0.268799 0.679199
0.927734 0.268799 0.679199
0.000000 0.427246 0.679199
0.104614 0.427246 0.679199
0.249268 0.427246 0.679199
0.398926 0.427246 0.679199
0.542969 0.427246 0.679199
0.679688 0.427246 0.679199
0.808594 0.427246 0.679199
0.927734 0.427246 0.679199
0.000000 0.575684 0.679199
0.104614 0.575684 0.679199
0.249268 0.575684 0.679199
0.398926 0.575684 0.679199
0.542969 0.575684 0.679199
0.679688 0.575684 0.679199
0.808594 0.575684 0.679199
0.927734 0.575684 0.679199
0.000000 0.709961 0.679199
0.104614 0.709961 0.679199
0.249268 0.709961 0.679199
0.398926 0.709961 0.679199
0.542969 0.709961 0.679199
0.679688 0.709961 0.679199
0.808594 0.709961 0.679199
0.927734 0.709961 0.679199
0.000000 0.829102 0.679199
0.104614 0.829102 0.679199
0.249268 0.829102 0.679199
0.398926 0.829102 0.679199
0.542969 0.829102 0.679199
0.679688 0.829102 0.679199
0.808594 0.829102 0.679199
0.927734 0.829102 0.679199
0.000000 0.933594 0.679199
0.104614 0.933594 0.679199
0.249268 0.933594 0.679199
0.398926 0.933594 0.679199
0.542969 0.933594 0.679199
0.679688 0.933594 0.679199
0.808594 0.933594 0.679199
0.927734 0.933594 0.679199
0.000000 0.000000 0.808105
0.104614 0.000000 0.808105
0.249268 0.000000 0.808105
0.399170 0.000000 0.808105
0.542969 0.000000 0.808105
0.679688 0.000000 0.808105
0.808594 0.000000 0.808105
0.927734 0.000000 0.808105
0.000000 0.115295 0.808105
0.104614 0.115295 0.808105
0.249268 0.115295 0.808105
0.399170 0.115295 0.808105
0.542969 0.115295 0.808105
0.679688 0.115295 0.808105
0.808594 0.115295 0.808105
0.927734 0.115295 0.808105
0.000000 0.268799 0.808105
0.104614 0.268799 0.808105
0.249268 0.268799 0.808105
0.399170 0.268799 0.808105
0.542969 0.268799 0.808105
0.679688 0.268799 0.808105
0.808594 0.268799 0.808105
0.927734 0.268799 0.808105
0.000000 0.427246 0.808105
0.104614 0.427246 0.808105
0.249268 0.427246 0.808105
0.399170 0.427246 0.808105
0.542969 0.427246 0.808105
0.679688 0.427246 0.808105
0.808594 0.427246 0.808105
0.927734 0.427246 0.808105
0.000000 0.575684 0.808105
0.104614 0.575684 0.808105
0.249268 0.575684 0.808105
0.399170 0.575684 0.808105
0.542969 0.575684 0.808105
0.679688 0.575684 0.808105
0.808594 0.575684 0.808105
0.927734 0.575684 0.808105
0.000000 0.709961 0.808105
0.104614 0.709961 0.808105
0.249268 0.709961 0.808105
0.399170 0.709961 0.808105
0.542969 0.709961 0.808105
0.679688 0.709961 0.808105
0.808594 0.709961 0.808105
0.927734 0.709961 0.808105
0.000000 0.829102 0.808105
0.104614 0.829102 0.808105
0.249268 0.829102 0.808105
0.399170 0.829102 0.808105
0.542969 0.829102 0.808105
0.679688 0.829102 0.808105
0.808594 0.829102 0.808105
0.927734 0.829102 0.808105
0.000000 0.933594 0.808105
0.104614 0.933594 0.808105
0.249268 0.933594 0.808105
0.399170 0.933594 0.808105
0.542969 0.933594 0.808105
0.679688 0.933594 0.808105
0.808594 0.933594 0.808105
0.927734 0.933594 0.808105
0.000000 0.000000 0.927734
0.104614 0.000000 0.927734
0.249390 0.000000 0.927734
0.399170 0.000000 0.927734
0.542969 0.000000 0.927734
0.679688 0.000000 0.927734
0.808594 0.000000 0.927734
0.927734 0.000000 0.927734
0.000000 0.115295 0.927734
0.104614 0.115295 0.927734
0.249390 0.115295 0.927734
0.399170 0.115295 0.927734
0.542969 0.115295 0.927734
0.679688 0.115295 0.927734
0.808594 0.115295 0.927734
0.927734 0.115295 0.927734
0.000000 0.268799 0.927734
0.104614 0.268799 0.927734
0.249390 0.268799 0.927734
0.399170 0.268799 0.927734
0.542969 0.268799 0.927734
0.679688 0.268799 0.927734
0.808594 0.268799 0.927734
0.927734 0.268799 0.927734
0.000000 0.427246 0.927734
0.104614 0.427246 0.927734
0.249390 0.427246 0.927734
0.399170 0.427246 0.927734
0.542969 0.427246 0.927734
0.679688 0.427246 0.927734
0.808594 0.427246 0.927734
0.927734 0.427246 0.927734
0.000000 0.575684 0.927734
0.104614 0.575684 0.927734
0.249390 0.575684 0.927734
0.399170 0.575684 0.927734
0.542969 0.575684 0.927734
0.679688 0.575684 0.927734
0.808594 0.575684 0.927734
0.927734 0.575684 0.927734
0.000000 0.709961 0.927734
0.104614 0.709961 0.927734
0.249390 0.709961 0.927734
0.399170 0.709961 0.927734
0.542969 0.709961 0.927734
0.679688 0.709961 0.927734
0.808594 0.709961 0.927734
0.927734 0.709961 0.927734
0.000000 0.829102 0.927734
0.104614 0.829102 0.927734
0.249390 0.829102 0.927734
0.399170 0.829102 0.927734
0.542969 0.829102 0.927734
0.679688 0.829102 0.927734
0.808594 0.829102 0.927734
0.927734 0.829102 0.927734
0.000000 0.933594 0.927734
0.104614 0.933594 0.927734
0.249390 0.933594 0.927734
0.399170 0.933594 0.927734
0.542969 0.933594 0.927734
0.679688 0.933594 0.927734
0.808594 0.933594 0.927734
0.927734 0.933594 0.927734
