cubelut/Adanmq_Canon DSC S315 n1.cube
TITLE "Generated by Foundry::LUT"
LUT_3D_SIZE 5
DOMAIN_MIN 0.000000 0.000000 0.000000
DOMAIN_MAX 0.903226 0.903226 0.903226
0.000000 0.000000 0.000000
0.315430 0.000000 0.000000
0.646973 0.000000 0.000000
0.827148 0.000000 0.000000
0.954590 0.000000 0.000000
0.000000 0.332520 0.000000
0.315430 0.332520 0.000000
0.646973 0.332520 0.000000
0.827148 0.332520 0.000000
0.954590 0.332520 0.000000
0.000000 0.672852 0.000000
0.315430 0.672852 0.000000
0.646973 0.672852 0.000000
0.827148 0.672852 0.000000
0.954590 0.672852 0.000000
0.000000 0.841797 0.000000
0.315430 0.841797 0.000000
0.646973 0.841797 0.000000
0.827148 0.841797 0.000000
0.954590 0.841797 0.000000
0.000000 0.958496 0.000000
0.315430 0.958496 0.000000
0.646973 0.958496 0.000000
0.827148 0.958496 0.000000
0.954590 0.958496 0.000000
0.000000 0.000000 0.320313
0.315674 0.000000 0.320313
0.646973 0.000000 0.320313
0.827148 0.000000 0.320313
0.954590 0.000000 0.320313
0.000000 0.332520 0.320313
0.315674 0.332520 0.320313
0.646973 0.332520 0.320313
0.827148 0.332520 0.320313
0.954590 0.332520 0.320313
0.000000 0.672852 0.320313
0.315674 0.672852 0.320313
0.646973 0.672852 0.320313
0.827148 0.672852 0.320313
0.954590 0.672852 0.320313
0.000000 0.841797 0.320313
0.315674 0.841797 0.320313
0.646973 0.841797 0.320313
0.827148 0.841797 0.320313
0.954590 0.841797 0.320313
0.000000 0.958496 0.320313
0.315674 0.958496 0.320313
0.646973 0.958496 0.320313
0.827148 0.958496 0.320313
0.954590 0.958496 0.320313
0.000000 0.000000 0.662598
0.315674 0.000000 0.662598
0.646973 0.000000 0.662598
0.827148 0.000000 0.662598
0.954590 0.000000 0.662598
0.000000 0.332520 0.662598
0.315674 0.332520 0.662598
0.646973 0.332520 0.662598
0.827148 0.332520 0.662598
0.954590 0.332520 0.662598
0.000000 0.672852 0.662598
0.315674 0.672852 0.662598
0.646973 0.672852 0.662598
0.827148 0.672852 0.662598
0.954590 0.672852 0.662598
0.000000 0.841797 0.662598
0.315674 0.841797 0.662598
0.646973 0.841797 0.662598
0.827148 0.841797 0.662598
0.954590 0.841797 0.662598
0.000000 0.958496 0.662598
0.315674 0.958496 0.662598
0.646973 0.958496 0.662598
0.827148 0.958496 0.662598
0.954590 0.958496 0.662598
0.000000 0.000000 0.836426
0.315674 0.000000 0.836426
0.646973 0.000000 0.836426
0.827148 0.000000 0.836426
0.954590 0.000000 0.836426
0.000000 0.332520 0.836426
0.315674 0.332520 0.836426
0.646973 0.332520 0.836426
0.827148 0.332520 0.836426
0.954590 0.332520 0.836426
0.000000 0.672852 0.836426
0.315674 0.672852 0.836426
0.646973 0.672852 0.836426
0.827148 0.672852 0.836426
0.954590 0.672852 0.836426
0.000000 0.841797 0.836426
0.315674 0.841797 0.836426
0.646973 0.841797 0.836426
0.827148 0.841797 0.836426
0.954590 0.841797 0.836426
0.000000 0.958496 0.836426
0.315674 0.958496 0.836426
0.646973 0.958496 0.836426
0.827148 0.958496 0.836426
0.954590 0.958496 0.836426
0.000000 0.000000 0.957031
0.315918 0.000000 0.957031
0.646973 0.000000 0.957031
0.827148 0.000000 0.957031
0.954590 0.000000 0.957031
0.000000 0.332520 0.957031
0.315918 0.332520 0.957031
0.646973 0.332520 0.957031
0.827148 0.332520 0.957031
0.954590 0.332520 0.957031
0.000000 0.672852 0.957031
0.315918 0.672852 0.957031
0.646973 0.672852 0.957031
0.827148 0.672852 0.957031
0.954590 0.672852 0.957031
0.000000 0.841797 0.957031
0.315918 0.841797 0.957031
0.646973 0.841797 0.957031
0.827148 0.841797 0.957031
0.954590 0.841797 0.957031
0.000000 0.958496 0.957031
0.315918 0.958496 0.957031
0.646973 0.958496 0.957031
0.827148 0.958496 0.957031
0.954590 0.958496 0.957031
