cubelut/Adanmq_Ektachrome 100+.cube
TITLE "Generated by Foundry::LUT"
LUT_3D_SIZE 32
0.000000 0.000000 0.000000
0.000406 0.000000 0.000000
0.006332 0.000000 0.000000
0.035431 0.000000 0.000000
0.108032 0.000000 0.000000
0.211914 0.000000 0.000000
0.325439 0.000000 0.000000
0.434570 0.000000 0.000000
0.533691 0.000000 0.000000
0.617676 0.000000 0.000000
0.689941 0.000000 0.000000
0.748047 0.000000 0.000000
0.794434 0.000000 0.000000
0.833496 0.000000 0.000000
0.863770 0.000000 0.000000
0.886230 0.000000 0.000000
0.906250 0.000000 0.000000
0.923828 0.000000 0.000000
0.937500 0.000000 0.000000
0.947754 0.000000 0.000000
0.956055 0.000000 0.000000
0.965332 0.000000 0.000000
0.973145 0.000000 0.000000
0.979004 0.000000 0.000000
0.980469 0.000000 0.000000
0.983398 0.000000 0.000000
0.986328 0.000000 0.000000
0.989746 0.000000 0.000000
0.992188 0.000000 0.000000
0.994141 0.000000 0.000000
0.997070 0.000000 0.000000
1.000000 0.000000 0.000000
0.000000 0.000068 0.000000
0.000406 0.000068 0.000000
0.006332 0.000068 0.000000
0.035431 0.000068 0.000000
0.108032 0.000068 0.000000
0.211914 0.000068 0.000000
0.325439 0.000068 0.000000
0.434570 0.000068 0.000000
0.533691 0.000068 0.000000
0.617676 0.000068 0.000000
0.689941 0.000068 0.000000
0.748047 0.000068 0.000000
0.794434 0.000068 0.000000
0.833496 0.000068 0.000000
0.863770 0.000068 0.000000
0.886230 0.000068 0.000000
0.906250 0.000068 0.000000
0.923828 0.000068 0.000000
0.937500 0.000068 0.000000
0.947754 0.000068 0.000000
0.956055 0.000068 0.000000
0.965332 0.000068 0.000000
0.973145 0.000068 0.000000
0.979004 0.000068 0.000000
0.980469 0.000068 0.000000
0.983398 0.000068 0.000000
0.986328 0.000068 0.000000
0.989746 0.000068 0.000000
0.992188 0.000068 0.000000
0.994141 0.000068 0.000000
0.997070 0.000068 0.000000
1.000000 0.000068 0.000000
0.000000 0.001145 0.000000
0.000406 0.001145 0.000000
0.006332 0.001145 0.000000
0.035431 0.001145 0.000000
0.108032 0.001145 0.000000
0.211914 0.001145 0.000000
0.325439 0.001145 0.000000
0.434570 0.001145 0.000000
0.533691 0.001145 0.000000
0.617676 0.001145 0.000000
0.689941 0.001145 0.000000
0.748047 0.001145 0.000000
0.794434 0.001145 0.000000
0.833496 0.001145 0.000000
0.863770 0.001146 0.000000
0.886230 0.001146 0.000000
0.906250 0.001146 0.000000
0.923828 0.001146 0.000000
0.937500 0.001146 0.000000
0.947754 0.001146 0.000000
0.956055 0.001146 0.000000
0.965332 0.001146 0.000000
0.973145 0.001146 0.000000
0.979004 0.001146 0.000000
0.980469 0.001146 0.000000
0.983398 0.001146 0.000000
0.986328 0.001146 0.000000
0.989746 0.001146 0.000000
0.992188 0.001146 0.000000
0.994141 0.001146 0.000000
0.997070 0.001146 0.000000
1.000000 0.001146 0.000000
0.000000 0.007793 0.000000
0.000406 0.007797 0.000000
0.006332 0.007797 0.000000
0.035431 0.007797 0.000000
0.108032 0.007797 0.000000
0.211914 0.007797 0.000000
0.325439 0.007797 0.000000
0.434570 0.007797 0.000000
0.533691 0.007797 0.000000
0.617676 0.007797 0.000000
0.689941 0.007797 0.000000
0.748047 0.007797 0.000000
0.794434 0.007797 0.000000
0.833496 0.007797 0.000000
0.863770 0.007797 0.000000
0.886230 0.007797 0.000000
0.906250 0.007801 0.000000
0.923828 0.007801 0.000000
0.937500 0.007801 0.000000
0.947754 0.007801 0.000000
0.956055 0.007801 0.000000
0.965332 0.007801 0.000000
0.973145 0.007801 0.000000
0.979004 0.007801 0.000000
0.980469 0.007801 0.000000
0.983398 0.007801 0.000000
0.986328 0.007801 0.000000
0.989746 0.007801 0.000000
0.992188 0.007801 0.000000
0.994141 0.007805 0.000000
0.997070 0.007805 0.000000
1.000000 0.007805 0.000000
0.000000 0.029617 0.000000
0.000406 0.029617 0.000000
0.006332 0.029617 0.000000
0.035431 0.029617 0.000000
0.108032 0.029617 0.000000
0.211914 0.029617 0.000000
0.325439 0.029617 0.000000
0.434570 0.029617 0.000000
0.533691 0.029617 0.000000
0.617676 0.029617 0.000000
0.689941 0.029617 0.000000
0.748047 0.029617 0.000000
0.794434 0.029617 0.000000
0.833496 0.029617 0.000000
0.863770 0.029617 0.000000
0.886230 0.029633 0.000000
0.906250 0.029633 0.000000
0.923828 0.029633 0.000000
0.937500 0.029633 0.000000
0.947754 0.029633 0.000000
0.956055 0.029633 0.000000
0.965332 0.029633 0.000000
0.973145 0.029633 0.000000
0.979004 0.029633 0.000000
0.980469 0.029633 0.000000
0.983398 0.029633 0.000000
0.986328 0.029633 0.000000
0.989746 0.029633 0.000000
0.992188 0.029633 0.000000
0.994141 0.029633 0.000000
0.997070 0.029633 0.000000
1.000000 0.029633 0.000000
0.000000 0.074097 0.000000
0.000406 0.074097 0.000000
0.006332 0.074097 0.000000
0.035431 0.074097 0.000000
0.108032 0.074097 0.000000
0.211914 0.074097 0.000000
0.325439 0.074097 0.000000
0.434570 0.074097 0.000000
0.533691 0.074097 0.000000
0.617676 0.074097 0.000000
0.689941 0.074097 0.000000
0.748047 0.074158 0.000000
0.794434 0.074158 0.000000
0.833496 0.074158 0.000000
0.863770 0.074158 0.000000
0.886230 0.074158 0.000000
0.906250 0.074158 0.000000
0.923828 0.074158 0.000000
0.937500 0.074158 0.000000
0.947754 0.074158 0.000000
0.956055 0.074158 0.000000
0.965332 0.074158 0.000000
0.973145 0.074158 0.000000
0.979004 0.074158 0.000000
0.980469 0.074158 0.000000
0.983398 0.074158 0.000000
0.986328 0.074158 0.000000
0.989746 0.074158 0.000000
0.992188 0.074158 0.000000
0.994141 0.074158 0.000000
0.997070 0.074158 0.000000
1.000000 0.074158 0.000000
0.000000 0.141113 0.000000
0.000406 0.141113 0.000000
0.006332 0.141113 0.000000
0.035431 0.141113 0.000000
0.108032 0.141113 0.000000
0.211914 0.141113 0.000000
0.325439 0.141113 0.000000
0.434570 0.141113 0.000000
0.533691 0.141113 0.000000
0.617676 0.141113 0.000000
0.689941 0.141235 0.000000
0.748047 0.141235 0.000000
0.794434 0.141235 0.000000
0.833496 0.141235 0.000000
0.863770 0.141235 0.000000
0.886230 0.141235 0.000000
0.906250 0.141235 0.000000
0.923828 0.141235 0.000000
0.937500 0.141235 0.000000
0.947754 0.141235 0.000000
0.956055 0.141235 0.000000
0.965332 0.141235 0.000000
0.973145 0.141235 0.000000
0.979004 0.141235 0.000000
0.980469 0.141235 0.000000
0.983398 0.141235 0.000000
0.986328 0.141235 0.000000
0.989746 0.141235 0.000000
0.992188 0.141235 0.000000
0.994141 0.141235 0.000000
0.997070 0.141235 0.000000
1.000000 0.141235 0.000000
0.000000 0.223022 0.000000
0.000406 0.223022 0.000000
0.006332 0.223022 0.000000
0.035431 0.223022 0.000000
0.108032 0.223022 0.000000
0.211914 0.223022 0.000000
0.325439 0.223022 0.000000
0.434570 0.223022 0.000000
0.533691 0.223022 0.000000
0.617676 0.223022 0.000000
0.689941 0.223022 0.000000
0.748047 0.223022 0.000000
0.794434 0.223022 0.000000
0.833496 0.223022 0.000000
0.863770 0.223022 0.000000
0.886230 0.223022 0.000000
0.906250 0.223022 0.000000
0.923828 0.223022 0.000000
0.937500 0.223022 0.000000
0.947754 0.223022 0.000000
0.956055 0.223022 0.000000
0.965332 0.223022 0.000000
0.973145 0.223022 0.000000
0.979004 0.223022 0.000000
0.980469 0.223022 0.000000
0.983398 0.223022 0.000000
0.986328 0.223022 0.000000
0.989746 0.223022 0.000000
0.992188 0.223022 0.000000
0.994141 0.223022 0.000000
0.997070 0.223022 0.000000
1.000000 0.223022 0.000000
0.000000 0.311523 0.000000
0.000406 0.311523 0.000000
0.006332 0.311523 0.000000
0.035431 0.311523 0.000000
0.108032 0.311523 0.000000
0.211914 0.311523 0.000000
0.325439 0.311523 0.000000
0.434570 0.311523 0.000000
0.533691 0.311523 0.000000
0.617676 0.311523 0.000000
0.689941 0.311523 0.000000
0.748047 0.311523 0.000000
0.794434 0.311523 0.000000
0.833496 0.311523 0.000000
0.863770 0.311523 0.000000
0.886230 0.311523 0.000000
0.906250 0.311523 0.000000
0.923828 0.311523 0.000000
0.937500 0.311523 0.000000
0.947754 0.311523 0.000000
0.956055 0.311523 0.000000
0.965332 0.311523 0.000000
0.973145 0.311523 0.000000
0.979004 0.311523 0.000000
0.980469 0.311523 0.000000
0.983398 0.311523 0.000000
0.986328 0.311523 0.000000
0.989746 0.311523 0.000000
0.992188 0.311523 0.000000
0.994141 0.311523 0.000000
0.997070 0.311523 0.000000
1.000000 0.311523 0.000000
0.000000 0.399414 0.000000
0.000406 0.399414 0.000000
0.006332 0.399414 0.000000
0.035431 0.399414 0.000000
0.108032 0.399658 0.000000
0.211914 0.399658 0.000000
0.325439 0.399658 0.000000
0.434570 0.399658 0.000000
0.533691 0.399658 0.000000
0.617676 0.399658 0.000000
0.689941 0.399658 0.000000
0.748047 0.399658 0.000000
0.794434 0.399658 0.000000
0.833496 0.399658 0.000000
0.863770 0.399658 0.000000
0.886230 0.399658 0.000000
0.906250 0.399658 0.000000
0.923828 0.399658 0.000000
0.937500 0.399658 0.000000
0.947754 0.399658 0.000000
0.956055 0.399658 0.000000
0.965332 0.399658 0.000000
0.973145 0.399658 0.000000
0.979004 0.399658 0.000000
0.980469 0.399658 0.000000
0.983398 0.399658 0.000000
0.986328 0.399658 0.000000
0.989746 0.399658 0.000000
0.992188 0.399658 0.000000
0.994141 0.399658 0.000000
0.997070 0.399658 0.000000
1.000000 0.399658 0.000000
0.000000 0.482178 0.000000
0.000406 0.482178 0.000000
0.006332 0.482178 0.000000
0.035431 0.482178 0.000000
0.108032 0.482178 0.000000
0.211914 0.482178 0.000000
0.325439 0.482178 0.000000
0.434570 0.482178 0.000000
0.533691 0.482178 0.000000
0.617676 0.482178 0.000000
0.689941 0.482178 0.000000
0.748047 0.482178 0.000000
0.794434 0.482178 0.000000
0.833496 0.482178 0.000000
0.863770 0.482178 0.000000
0.886230 0.482178 0.000000
0.906250 0.482178 0.000000
0.923828 0.482178 0.000000
0.937500 0.482178 0.000000
0.947754 0.482178 0.000000
0.956055 0.482178 0.000000
0.965332 0.482178 0.000000
0.973145 0.482178 0.000000
0.979004 0.482178 0.000000
0.980469 0.482178 0.000000
0.983398 0.482178 0.000000
0.986328 0.482178 0.000000
0.989746 0.482178 0.000000
0.992188 0.482178 0.000000
0.994141 0.482178 0.000000
0.997070 0.482178 0.000000
1.000000 0.482178 0.000000
0.000000 0.559082 0.000000
0.000406 0.559082 0.000000
0.006332 0.559082 0.000000
0.035431 0.559082 0.000000
0.108032 0.559570 0.000000
0.211914 0.559570 0.000000
0.325439 0.559570 0.000000
0.434570 0.559570 0.000000
0.533691 0.559570 0.000000
0.617676 0.559570 0.000000
0.689941 0.559570 0.000000
0.748047 0.559570 0.000000
0.794434 0.559570 0.000000
0.833496 0.559570 0.000000
0.863770 0.559570 0.000000
0.886230 0.559570 0.000000
0.906250 0.559570 0.000000
0.923828 0.559570 0.000000
0.937500 0.559570 0.000000
0.947754 0.559570 0.000000
0.956055 0.559570 0.000000
0.965332 0.559570 0.000000
0.973145 0.559570 0.000000
0.979004 0.559570 0.000000
0.980469 0.559570 0.000000
0.983398 0.559570 0.000000
0.986328 0.559570 0.000000
0.989746 0.559570 0.000000
0.992188 0.559570 0.000000
0.994141 0.559570 0.000000
0.997070 0.559570 0.000000
1.000000 0.559570 0.000000
0.000000 0.629395 0.000000
0.000406 0.629395 0.000000
0.006332 0.629395 0.000000
0.035431 0.629395 0.000000
0.108032 0.629395 0.000000
0.211914 0.629395 0.000000
0.325439 0.629395 0.000000
0.434570 0.629395 0.000000
0.533691 0.629395 0.000000
0.617676 0.629395 0.000000
0.689941 0.629395 0.000000
0.748047 0.629395 0.000000
0.794434 0.629395 0.000000
0.833496 0.629395 0.000000
0.863770 0.629395 0.000000
0.886230 0.629395 0.000000
0.906250 0.629395 0.000000
0.923828 0.629395 0.000000
0.937500 0.629395 0.000000
0.947754 0.629395 0.000000
0.956055 0.629395 0.000000
0.965332 0.629395 0.000000
0.973145 0.629395 0.000000
0.979004 0.629395 0.000000
0.980469 0.629395 0.000000
0.983398 0.629395 0.000000
0.986328 0.629395 0.000000
0.989746 0.629395 0.000000
0.992188 0.629395 0.000000
0.994141 0.629395 0.000000
0.997070 0.629395 0.000000
1.000000 0.629395 0.000000
0.000000 0.689453 0.000000
0.000406 0.689453 0.000000
0.006332 0.689453 0.000000
0.035431 0.689453 0.000000
0.108032 0.689453 0.000000
0.211914 0.689453 0.000000
0.325439 0.689453 0.000000
0.434570 0.689453 0.000000
0.533691 0.689453 0.000000
0.617676 0.689453 0.000000
0.689941 0.689453 0.000000
0.748047 0.689453 0.000000
0.794434 0.689453 0.000000
0.833496 0.689453 0.000000
0.863770 0.689453 0.000000
0.886230 0.689453 0.000000
0.906250 0.689453 0.000000
0.923828 0.689453 0.000000
0.937500 0.689453 0.000000
0.947754 0.689453 0.000000
0.956055 0.689453 0.000000
0.965332 0.689453 0.000000
0.973145 0.689453 0.000000
0.979004 0.689453 0.000000
0.980469 0.689453 0.000000
0.983398 0.689453 0.000000
0.986328 0.689453 0.000000
0.989746 0.689453 0.000000
0.992188 0.689453 0.000000
0.994141 0.689453 0.000000
0.997070 0.689453 0.000000
1.000000 0.689453 0.000000
0.000000 0.740234 0.000000
0.000406 0.740234 0.000000
0.006332 0.740234 0.000000
0.035431 0.740234 0.000000
0.108032 0.740234 0.000000
0.211914 0.740234 0.000000
0.325439 0.740234 0.000000
0.434570 0.740234 0.000000
0.533691 0.740234 0.000000
0.617676 0.740234 0.000000
0.689941 0.740234 0.000000
0.748047 0.740234 0.000000
0.794434 0.740234 0.000000
0.833496 0.740234 0.000000
0.863770 0.740234 0.000000
0.886230 0.740234 0.000000
0.906250 0.740234 0.000000
0.923828 0.740234 0.000000
0.937500 0.740234 0.000000
0.947754 0.740234 0.000000
0.956055 0.740234 0.000000
0.965332 0.740234 0.000000
0.973145 0.740234 0.000000
0.979004 0.740234 0.000000
0.980469 0.740234 0.000000
0.983398 0.740234 0.000000
0.986328 0.740234 0.000000
0.989746 0.740234 0.000000
0.992188 0.740234 0.000000
0.994141 0.740234 0.000000
0.997070 0.740234 0.000000
1.000000 0.740234 0.000000
0.000000 0.784668 0.000000
0.000406 0.784668 0.000000
0.006332 0.784668 0.000000
0.035431 0.784668 0.000000
0.108032 0.784668 0.000000
0.211914 0.784668 0.000000
0.325439 0.784668 0.000000
0.434570 0.784668 0.000000
0.533691 0.784668 0.000000
0.617676 0.784668 0.000000
0.689941 0.784668 0.000000
0.748047 0.784668 0.000000
0.794434 0.784668 0.000000
0.833496 0.784668 0.000000
0.863770 0.784668 0.000000
0.886230 0.784668 0.000000
0.906250 0.784668 0.000000
0.923828 0.784668 0.000000
0.937500 0.784668 0.000000
0.947754 0.784668 0.000000
0.956055 0.784668 0.000000
0.965332 0.784668 0.000000
0.973145 0.784668 0.000000
0.979004 0.784668 0.000000
0.980469 0.784668 0.000000
0.983398 0.784668 0.000000
0.986328 0.784668 0.000000
0.989746 0.784668 0.000000
0.992188 0.784668 0.000000
0.994141 0.784668 0.000000
0.997070 0.784668 0.000000
1.000000 0.784668 0.000000
0.000000 0.822266 0.000000
0.000406 0.822266 0.000000
0.006332 0.822266 0.000000
0.035431 0.822266 0.000000
0.108032 0.822266 0.000000
0.211914 0.822266 0.000000
0.325439 0.822266 0.000000
0.434570 0.822266 0.000000
0.533691 0.822266 0.000000
0.617676 0.822266 0.000000
0.689941 0.822266 0.000000
0.748047 0.822266 0.000000
0.794434 0.822266 0.000000
0.833496 0.822266 0.000000
0.863770 0.822266 0.000000
0.886230 0.822266 0.000000
0.906250 0.822266 0.000000
0.923828 0.822266 0.000000
0.937500 0.822266 0.000000
0.947754 0.822266 0.000000
0.956055 0.822266 0.000000
0.965332 0.822266 0.000000
0.973145 0.822266 0.000000
0.979004 0.822266 0.000000
0.980469 0.822266 0.000000
0.983398 0.822266 0.000000
0.986328 0.822266 0.000000
0.989746 0.822266 0.000000
0.992188 0.822266 0.000000
0.994141 0.822266 0.000000
0.997070 0.822266 0.000000
1.000000 0.822266 0.000000
0.000000 0.852539 0.000000
0.000406 0.852539 0.000000
0.006332 0.852539 0.000000
0.035431 0.852539 0.000000
0.108032 0.852539 0.000000
0.211914 0.852539 0.000000
0.325439 0.852539 0.000000
0.434570 0.852539 0.000000
0.533691 0.852539 0.000000
0.617676 0.852539 0.000000
0.689941 0.852539 0.000000
0.748047 0.852539 0.000000
0.794434 0.852539 0.000000
0.833496 0.852539 0.000000
0.863770 0.852539 0.000000
0.886230 0.852539 0.000000
0.906250 0.852539 0.000000
0.923828 0.852539 0.000000
0.937500 0.852539 0.000000
0.947754 0.852539 0.000000
0.956055 0.852539 0.000000
0.965332 0.852539 0.000000
0.973145 0.852539 0.000000
0.979004 0.852539 0.000000
0.980469 0.852539 0.000000
0.983398 0.852539 0.000000
0.986328 0.852539 0.000000
0.989746 0.852539 0.000000
0.992188 0.852539 0.000000
0.994141 0.852539 0.000000
0.997070 0.852539 0.000000
1.000000 0.852539 0.000000
0.000000 0.876953 0.000000
0.000406 0.876953 0.000000
0.006332 0.876953 0.000000
0.035431 0.876953 0.000000
0.108032 0.876953 0.000000
0.211914 0.876953 0.000000
0.325439 0.876953 0.000000
0.434570 0.876953 0.000000
0.533691 0.876953 0.000000
0.617676 0.876953 0.000000
0.689941 0.876953 0.000000
0.748047 0.876953 0.000000
0.794434 0.876953 0.000000
0.833496 0.876953 0.000000
0.863770 0.876953 0.000000
0.886230 0.876953 0.000000
0.906250 0.876953 0.000000
0.923828 0.876953 0.000000
0.937500 0.876953 0.000000
0.947754 0.876953 0.000000
0.956055 0.876953 0.000000
0.965332 0.876953 0.000000
0.973145 0.876953 0.000000
0.979004 0.876953 0.000000
0.980469 0.876953 0.000000
0.983398 0.876953 0.000000
0.986328 0.876953 0.000000
0.989746 0.876953 0.000000
0.992188 0.876953 0.000000
0.994141 0.876953 0.000000
0.997070 0.876953 0.000000
1.000000 0.876953 0.000000
0.000000 0.897949 0.000000
0.000406 0.897949 0.000000
0.006332 0.897949 0.000000
0.035431 0.897949 0.000000
0.108032 0.897949 0.000000
0.211914 0.897949 0.000000
0.325439 0.897949 0.000000
0.434570 0.897949 0.000000
0.533691 0.897949 0.000000
0.617676 0.897949 0.000000
0.689941 0.897949 0.000000
0.748047 0.897949 0.000000
0.794434 0.897949 0.000000
0.833496 0.897949 0.000000
0.863770 0.897949 0.000000
0.886230 0.897949 0.000000
0.906250 0.897949 0.000000
0.923828 0.897949 0.000000
0.937500 0.897949 0.000000
0.947754 0.897949 0.000000
0.956055 0.897949 0.000000
0.965332 0.897949 0.000000
0.973145 0.897949 0.000000
0.979004 0.897949 0.000000
0.980469 0.897949 0.000000
0.983398 0.897949 0.000000
0.986328 0.897949 0.000000
0.989746 0.897949 0.000000
0.992188 0.897949 0.000000
0.994141 0.897949 0.000000
0.997070 0.897949 0.000000
1.000000 0.897949 0.000000
0.000000 0.916992 0.000000
0.000406 0.916992 0.000000
0.006332 0.916992 0.000000
0.035431 0.916992 0.000000
0.108032 0.916992 0.000000
0.211914 0.916992 0.000000
0.325439 0.916992 0.000000
0.434570 0.916992 0.000000
0.533691 0.916992 0.000000
0.617676 0.916992 0.000000
0.689941 0.916992 0.000000
0.748047 0.916992 0.000000
0.794434 0.916992 0.000000
0.833496 0.916992 0.000000
0.863770 0.916992 0.000000
0.886230 0.916992 0.000000
0.906250 0.916992 0.000000
0.923828 0.916992 0.000000
0.937500 0.916992 0.000000
0.947754 0.916992 0.000000
0.956055 0.916992 0.000000
0.965332 0.916992 0.000000
0.973145 0.916992 0.000000
0.979004 0.916992 0.000000
0.980469 0.916992 0.000000
0.983398 0.916992 0.000000
0.986328 0.916992 0.000000
0.989746 0.916992 0.000000
0.992188 0.916992 0.000000
0.994141 0.916992 0.000000
0.997070 0.916992 0.000000
1.000000 0.916992 0.000000
0.000000 0.932617 0.000000
0.000406 0.932617 0.000000
0.006332 0.932617 0.000000
0.035431 0.932617 0.000000
0.108032 0.932617 0.000000
0.211914 0.932617 0.000000
0.325439 0.932617 0.000000
0.434570 0.932617 0.000000
0.533691 0.932617 0.000000
0.617676 0.932617 0.000000
0.689941 0.932617 0.000000
0.748047 0.932617 0.000000
0.794434 0.932617 0.000000
0.833496 0.932617 0.000000
0.863770 0.932617 0.000000
0.886230 0.932617 0.000000
0.906250 0.932617 0.000000
0.923828 0.932617 0.000000
0.937500 0.932617 0.000000
0.947754 0.932617 0.000000
0.956055 0.932617 0.000000
0.965332 0.932617 0.000000
0.973145 0.932617 0.000000
0.979004 0.932617 0.000000
0.980469 0.932617 0.000000
0.983398 0.932617 0.000000
0.986328 0.932617 0.000000
0.989746 0.932617 0.000000
0.992188 0.932617 0.000000
0.994141 0.932617 0.000000
0.997070 0.932617 0.000000
1.000000 0.932617 0.000000
0.000000 0.944824 0.000000
0.000406 0.944824 0.000000
0.006332 0.944824 0.000000
0.035431 0.944824 0.000000
0.108032 0.944824 0.000000
0.211914 0.944824 0.000000
0.325439 0.944824 0.000000
0.434570 0.944824 0.000000
0.533691 0.944824 0.000000
0.617676 0.944824 0.000000
0.689941 0.944824 0.000000
0.748047 0.944824 0.000000
0.794434 0.944824 0.000000
0.833496 0.944824 0.000000
0.863770 0.944824 0.000000
0.886230 0.944824 0.000000
0.906250 0.944824 0.000000
0.923828 0.944824 0.000000
0.937500 0.944824 0.000000
0.947754 0.944824 0.000000
0.956055 0.944824 0.000000
0.965332 0.944824 0.000000
0.973145 0.944824 0.000000
0.979004 0.944824 0.000000
0.980469 0.944824 0.000000
0.983398 0.944824 0.000000
0.986328 0.944824 0.000000
0.989746 0.944824 0.000000
0.992188 0.944824 0.000000
0.994141 0.944824 0.000000
0.997070 0.944824 0.000000
1.000000 0.944824 0.000000
0.000000 0.953613 0.000000
0.000406 0.953613 0.000000
0.006332 0.953613 0.000000
0.035431 0.953613 0.000000
0.108032 0.953613 0.000000
0.211914 0.953613 0.000000
0.325439 0.953613 0.000000
0.434570 0.953613 0.000000
0.533691 0.953613 0.000000
0.617676 0.953613 0.000000
0.689941 0.953613 0.000000
0.748047 0.953613 0.000000
0.794434 0.953613 0.000000
0.833496 0.953613 0.000000
0.863770 0.953613 0.000000
0.886230 0.953613 0.000000
0.906250 0.953613 0.000000
0.923828 0.953613 0.000000
0.937500 0.953613 0.000000
0.947754 0.953613 0.000000
0.956055 0.953613 0.000000
0.965332 0.953613 0.000000
0.973145 0.953613 0.000000
0.979004 0.953613 0.000000
0.980469 0.953613 0.000000
0.983398 0.953613 0.000000
0.986328 0.953613 0.000000
0.989746 0.953613 0.000000
0.992188 0.953613 0.000000
0.994141 0.953613 0.000000
0.997070 0.953613 0.000000
1.000000 0.953613 0.000000
0.000000 0.962891 0.000000
0.000406 0.962891 0.000000
0.006332 0.962891 0.000000
0.035431 0.962891 0.000000
0.108032 0.962891 0.000000
0.211914 0.962891 0.000000
0.325439 0.962891 0.000000
0.434570 0.962891 0.000000
0.533691 0.962891 0.000000
0.617676 0.962891 0.000000
0.689941 0.962891 0.000000
0.748047 0.962891 0.000000
0.794434 0.962891 0.000000
0.833496 0.962891 0.000000
0.863770 0.962891 0.000000
0.886230 0.962891 0.000000
0.906250 0.962891 0.000000
0.923828 0.962891 0.000000
0.937500 0.962891 0.000000
0.947754 0.962891 0.000000
0.956055 0.962891 0.000000
0.965332 0.962891 0.000000
0.973145 0.962891 0.000000
0.979004 0.962891 0.000000
0.980469 0.962891 0.000000
0.983398 0.962891 0.000000
0.986328 0.962891 0.000000
0.989746 0.962891 0.000000
0.992188 0.962891 0.000000
0.994141 0.962891 0.000000
0.997070 0.962891 0.000000
1.000000 0.962891 0.000000
0.000000 0.970215 0.000000
0.000406 0.970215 0.000000
0.006332 0.970215 0.000000
0.035431 0.970215 0.000000
0.108032 0.970215 0.000000
0.211914 0.970215 0.000000
0.325439 0.970215 0.000000
0.434570 0.970215 0.000000
0.533691 0.970215 0.000000
0.617676 0.970215 0.000000
0.689941 0.970215 0.000000
0.748047 0.970215 0.000000
0.794434 0.970215 0.000000
0.833496 0.970215 0.000000
0.863770 0.970215 0.000000
0.886230 0.970215 0.000000
0.906250 0.970215 0.000000
0.923828 0.970215 0.000000
0.937500 0.970215 0.000000
0.947754 0.970215 0.000000
0.956055 0.970215 0.000000
0.965332 0.970215 0.000000
0.973145 0.970215 0.000000
0.979004 0.970215 0.000000
0.980469 0.970215 0.000000
0.983398 0.970215 0.000000
0.986328 0.970215 0.000000
0.989746 0.970215 0.000000
0.992188 0.970215 0.000000
0.994141 0.970215 0.000000
0.997070 0.970215 0.000000
1.000000 0.970215 0.000000
0.000000 0.976563 0.000000
0.000406 0.976563 0.000000
0.006332 0.976563 0.000000
0.035431 0.976563 0.000000
0.108032 0.976563 0.000000
0.211914 0.976563 0.000000
0.325439 0.976563 0.000000
0.434570 0.976563 0.000000
0.533691 0.976563 0.000000
0.617676 0.976563 0.000000
0.689941 0.976563 0.000000
0.748047 0.976563 0.000000
0.794434 0.976563 0.000000
0.833496 0.976563 0.000000
0.863770 0.976563 0.000000
0.886230 0.976563 0.000000
0.906250 0.976563 0.000000
0.923828 0.976563 0.000000
0.937500 0.976563 0.000000
0.947754 0.976563 0.000000
0.956055 0.976563 0.000000
0.965332 0.976563 0.000000
0.973145 0.976563 0.000000
0.979004 0.976563 0.000000
0.980469 0.976563 0.000000
0.983398 0.976563 0.000000
0.986328 0.976563 0.000000
0.989746 0.976563 0.000000
0.992188 0.976563 0.000000
0.994141 0.976563 0.000000
0.997070 0.976563 0.000000
1.000000 0.976563 0.000000
0.000000 0.981934 0.000000
0.000406 0.981934 0.000000
0.006332 0.981934 0.000000
0.035431 0.981934 0.000000
0.108032 0.981934 0.000000
0.211914 0.981934 0.000000
0.325439 0.981934 0.000000
0.434570 0.981934 0.000000
0.533691 0.981934 0.000000
0.617676 0.981934 0.000000
0.689941 0.981934 0.000000
0.748047 0.981934 0.000000
0.794434 0.981934 0.000000
0.833496 0.981934 0.000000
0.863770 0.981934 0.000000
0.886230 0.981934 0.000000
0.906250 0.981934 0.000000
0.923828 0.981934 0.000000
0.937500 0.981934 0.000000
0.947754 0.981934 0.000000
0.956055 0.981934 0.000000
0.965332 0.981934 0.000000
0.973145 0.981934 0.000000
