cubelut/Adanmq_F400.cube
TITLE "Generated by Foundry::LUT"
LUT_3D_SIZE 8
DOMAIN_MIN 0.000000 0.000000 0.000000
DOMAIN_MAX 0.903226 0.903226 0.903226
0.000000 0.000000 0.000000
0.294678 0.000000 0.000000
0.480713 0.000000 0.000000
0.625488 0.000000 0.000000
0.744141 0.000000 0.000000
0.839355 0.000000 0.000000
0.917969 0.000000 0.000000
0.974609 0.000000 0.000000
0.000000 0.183105 0.000000
0.294678 0.183105 0.000000
0.480713 0.183105 0.000000
0.625488 0.183105 0.000000
0.744141 0.183105 0.000000
0.839355 0.183105 0.000000
0.917969 0.183105 0.000000
0.974609 0.183105 0.000000
0.000000 0.334961 0.000000
0.294678 0.334961 0.000000
0.480713 0.334961 0.000000
0.625488 0.334961 0.000000
0.744141 0.334961 0.000000
0.839355 0.334961 0.000000
0.917969 0.334961 0.000000
0.974609 0.334961 0.000000
0.000000 0.471436 0.000000
0.294678 0.471436 0.000000
0.480713 0.471436 0.000000
0.625488 0.471436 0.000000
0.744141 0.471680 0.000000
0.839355 0.471680 0.000000
0.917969 0.471680 0.000000
0.974609 0.471680 0.000000
0.000000 0.597168 0.000000
0.294678 0.597168 0.000000
0.480713 0.597168 0.000000
0.625488 0.597168 0.000000
0.744141 0.597168 0.000000
0.839355 0.597168 0.000000
0.917969 0.597168 0.000000
0.974609 0.597168 0.000000
0.000000 0.714844 0.000000
0.294678 0.714844 0.000000
0.480713 0.714844 0.000000
0.625488 0.714844 0.000000
0.744141 0.714844 0.000000
0.839355 0.714844 0.000000
0.917969 0.714844 0.000000
0.974609 0.714844 0.000000
0.000000 0.826660 0.000000
0.294678 0.826660 0.000000
0.480713 0.826660 0.000000
0.625488 0.826660 0.000000
0.744141 0.826660 0.000000
0.839355 0.826660 0.000000
0.917969 0.826660 0.000000
0.974609 0.826660 0.000000
0.000000 0.930664 0.000000
0.294678 0.930664 0.000000
0.480713 0.930664 0.000000
0.625488 0.930664 0.000000
0.744141 0.930664 0.000000
0.839355 0.930664 0.000000
0.917969 0.930664 0.000000
0.974609 0.930664 0.000000
0.000001 0.000000 0.197998
0.294678 0.000000 0.197998
0.480713 0.000000 0.197998
0.625488 0.000000 0.197998
0.744141 0.000000 0.197998
0.839355 0.000000 0.197998
0.917969 0.000000 0.197998
0.974609 0.000000 0.197998
0.000001 0.183105 0.197998
0.294678 0.183105 0.197998
0.480713 0.183105 0.197998
0.625488 0.183105 0.197998
0.744141 0.183105 0.197998
0.839355 0.183105 0.197998
0.917969 0.183105 0.197998
0.974609 0.183105 0.197998
0.000001 0.334961 0.197998
0.294678 0.334961 0.197998
0.480713 0.334961 0.197998
0.625488 0.334961 0.197998
0.744141 0.334961 0.197998
0.839355 0.334961 0.197998
0.917969 0.334961 0.197998
0.974609 0.334961 0.197998
0.000001 0.471436 0.197998
0.294678 0.471436 0.197998
0.480713 0.471436 0.197998
0.625488 0.471436 0.197998
0.744141 0.471436 0.197998
0.839355 0.471680 0.197998
0.917969 0.471680 0.197998
0.974609 0.471680 0.197998
0.000001 0.597168 0.197998
0.294678 0.597168 0.197998
0.480713 0.597168 0.197998
0.625488 0.597168 0.197998
0.744141 0.597168 0.197998
0.839355 0.597168 0.197998
0.917969 0.597168 0.197998
0.974609 0.597168 0.197998
0.000001 0.714844 0.197998
0.294678 0.714844 0.197998
0.480713 0.714844 0.197998
0.625488 0.714844 0.197998
0.744141 0.714844 0.197998
0.839355 0.714844 0.197998
0.917969 0.714844 0.197998
0.974609 0.714844 0.197998
0.000001 0.826660 0.197998
0.294678 0.826660 0.197998
0.480713 0.826660 0.197998
0.625488 0.826660 0.197998
0.744141 0.826660 0.197998
0.839355 0.826660 0.197998
0.917969 0.826660 0.197998
0.974609 0.826660 0.197998
0.000001 0.930664 0.197998
0.294678 0.930664 0.197998
0.480713 0.930664 0.197998
0.625488 0.930664 0.197998
0.744141 0.930664 0.197998
0.839355 0.930664 0.197998
0.917969 0.930664 0.197998
0.974609 0.930664 0.197998
0.000002 0.000000 0.386475
0.294678 0.000000 0.386475
0.480713 0.000000 0.386475
0.625488 0.000000 0.386475
0.744141 0.000000 0.386475
0.839355 0.000000 0.386475
0.917969 0.000000 0.386475
0.974609 0.000000 0.386475
0.000002 0.183105 0.386475
0.294678 0.183105 0.386475
0.480713 0.183105 0.386475
0.625488 0.183105 0.386475
0.744141 0.183105 0.386475
0.839355 0.183105 0.386475
0.917969 0.183105 0.386475
0.974609 0.183105 0.386475
0.000002 0.334717 0.386475
0.294678 0.334961 0.386475
0.480713 0.334961 0.386475
0.625488 0.334961 0.386475
0.744141 0.334961 0.386475
0.839355 0.334961 0.386475
0.917969 0.334961 0.386475
0.974609 0.334961 0.386475
0.000002 0.471436 0.386475
0.294678 0.471436 0.386475
0.480713 0.471436 0.386475
0.625488 0.471436 0.386475
0.744141 0.471436 0.386475
0.839355 0.471436 0.386475
0.917969 0.471680 0.386475
0.974609 0.471680 0.386475
0.000002 0.597168 0.386475
0.294678 0.597168 0.386475
0.480713 0.597168 0.386475
0.625488 0.597168 0.386475
0.744141 0.597168 0.386475
0.839355 0.597168 0.386475
0.917969 0.597168 0.386475
0.974609 0.597168 0.386475
0.000002 0.714844 0.386475
0.294678 0.714844 0.386475
0.480713 0.714844 0.386475
0.625488 0.714844 0.386475
0.744141 0.714844 0.386475
0.839355 0.714844 0.386475
0.917969 0.714844 0.386475
0.974609 0.714844 0.386475
0.000002 0.826660 0.386475
0.294678 0.826660 0.386475
0.480713 0.826660 0.386475
0.625488 0.826660 0.386475
0.744141 0.826660 0.386475
0.839355 0.826660 0.386475
0.917969 0.826660 0.386475
0.974609 0.826660 0.386475
0.000002 0.930664 0.386475
0.294678 0.930664 0.386475
0.480713 0.930664 0.386475
0.625488 0.930664 0.386475
0.744141 0.930664 0.386475
0.839355 0.930664 0.386475
0.917969 0.930664 0.386475
0.974609 0.930664 0.386475
0.000006 0.000000 0.544434
0.294678 0.000000 0.544434
0.480957 0.000000 0.544434
0.625488 0.000000 0.544434
0.744141 0.000000 0.544434
0.839355 0.000000 0.544434
0.917969 0.000000 0.544434
0.974609 0.000000 0.544434
0.000006 0.183105 0.544434
0.294678 0.183105 0.544434
0.480957 0.183105 0.544434
0.625488 0.183105 0.544434
0.744141 0.183105 0.544434
0.839355 0.183105 0.544434
0.917969 0.183105 0.544434
0.974609 0.183105 0.544434
0.000006 0.334717 0.544434
0.294678 0.334717 0.544434
0.480957 0.334961 0.544434
0.625488 0.334961 0.544434
0.744141 0.334961 0.544434
0.839355 0.334961 0.544434
0.917969 0.334961 0.544434
0.974609 0.334961 0.544434
0.000006 0.471436 0.544434
0.294678 0.471436 0.544434
0.480957 0.471436 0.544434
0.625488 0.471436 0.544434
0.744141 0.471436 0.544434
0.839355 0.471436 0.544434
0.917969 0.471436 0.544434
0.974609 0.471680 0.544434
0.000006 0.597168 0.544434
0.294678 0.597168 0.544434
0.480957 0.597168 0.544434
0.625488 0.597168 0.544434
0.744141 0.597168 0.544434
0.839355 0.597168 0.544434
0.917969 0.597168 0.544434
0.974609 0.597168 0.544434
0.000006 0.714844 0.544434
0.294678 0.714844 0.544434
0.480957 0.714844 0.544434
0.625488 0.714844 0.544434
0.744141 0.714844 0.544434
0.839355 0.714844 0.544434
0.917969 0.714844 0.544434
0.974609 0.714844 0.544434
0.000006 0.826660 0.544434
0.294678 0.826660 0.544434
0.480957 0.826660 0.544434
0.625488 0.826660 0.544434
0.744141 0.826660 0.544434
0.839355 0.826660 0.544434
0.917969 0.826660 0.544434
0.974609 0.826660 0.544434
0.000006 0.930664 0.544434
0.294678 0.930664 0.544434
0.480957 0.930664 0.544434
0.625488 0.930664 0.544434
0.744141 0.930664 0.544434
0.839355 0.930664 0.544434
0.917969 0.930664 0.544434
0.974609 0.930664 0.544434
0.000011 0.000000 0.679688
0.294922 0.000000 0.679688
0.480957 0.000000 0.679688
0.625488 0.000000 0.679688
0.744141 0.000000 0.679688
0.839355 0.000000 0.679688
0.917969 0.000000 0.679688
0.974609 0.000000 0.679688
0.000011 0.183105 0.679688
0.294922 0.183105 0.679688
0.480957 0.183105 0.679688
0.625488 0.183105 0.679688
0.744141 0.183105 0.679688
0.839355 0.183105 0.679688
0.917969 0.183105 0.679688
0.974609 0.183105 0.679688
0.000011 0.334717 0.679688
0.294922 0.334717 0.679688
0.480957 0.334961 0.679688
0.625488 0.334961 0.679688
0.744141 0.334961 0.679688
0.839355 0.334961 0.679688
0.917969 0.334961 0.679688
0.974609 0.334961 0.679688
0.000011 0.471436 0.679688
0.294922 0.471436 0.679688
0.480957 0.471436 0.679688
0.625488 0.471436 0.679688
0.744141 0.471436 0.679688
0.839355 0.471436 0.679688
0.917969 0.471436 0.679688
0.974609 0.471436 0.679688
0.000011 0.597168 0.679688
0.294922 0.597168 0.679688
0.480957 0.597168 0.679688
0.625488 0.597168 0.679688
0.744141 0.597168 0.679688
0.839355 0.597168 0.679688
0.917969 0.597168 0.679688
0.974609 0.597168 0.679688
0.000011 0.714844 0.679688
0.294922 0.714844 0.679688
0.480957 0.714844 0.679688
0.625488 0.714844 0.679688
0.744141 0.714844 0.679688
0.839355 0.714844 0.679688
0.917969 0.714844 0.679688
0.974609 0.714844 0.679688
0.000011 0.826660 0.679688
0.294922 0.826660 0.679688
0.480957 0.826660 0.679688
0.625488 0.826660 0.679688
0.744141 0.826660 0.679688
0.839355 0.826660 0.679688
0.917969 0.826660 0.679688
0.974609 0.826660 0.679688
0.000011 0.930664 0.679688
0.294922 0.930664 0.679688
0.480957 0.930664 0.679688
0.625488 0.930664 0.679688
0.744141 0.930664 0.679688
0.839355 0.930664 0.679688
0.917969 0.930664 0.679688
0.974609 0.930664 0.679688
0.000017 0.000000 0.795410
0.294922 0.000000 0.795410
0.480957 0.000000 0.795410
0.625488 0.000000 0.795410
0.744141 0.000000 0.795410
0.839355 0.000000 0.795410
0.917969 0.000000 0.795410
0.975098 0.000000 0.795410
0.000018 0.183105 0.795410
0.294922 0.183105 0.795410
0.480957 0.183105 0.795410
0.625488 0.183105 0.795410
0.744141 0.183105 0.795410
0.839355 0.183105 0.795410
0.917969 0.183105 0.795410
0.975098 0.183105 0.795410
0.000018 0.334717 0.795410
0.294922 0.334717 0.795410
0.480957 0.334717 0.795410
0.625488 0.334961 0.795410
0.744141 0.334961 0.795410
0.839355 0.334961 0.795410
0.917969 0.334961 0.795410
0.975098 0.334961 0.795410
0.000018 0.471436 0.795410
0.294922 0.471436 0.795410
0.480957 0.471436 0.795410
0.625488 0.471436 0.795410
0.744141 0.471436 0.795410
0.839355 0.471436 0.795410
0.917969 0.471436 0.795410
0.975098 0.471436 0.795410
0.000017 0.597168 0.795410
0.294922 0.597168 0.795410
0.480957 0.597168 0.795410
0.625488 0.597168 0.795410
0.744141 0.597168 0.795410
0.839355 0.597168 0.795410
0.917969 0.597168 0.795410
0.975098 0.597168 0.795410
0.000017 0.714844 0.795410
0.294922 0.714844 0.795410
0.480957 0.714844 0.795410
0.625488 0.714844 0.795410
0.744141 0.714844 0.795410
0.839355 0.714844 0.795410
0.917969 0.714844 0.795410
0.975098 0.714844 0.795410
0.000017 0.826660 0.795410
0.294922 0.826660 0.795410
0.480957 0.826660 0.795410
0.625488 0.826660 0.795410
0.744141 0.826660 0.795410
0.839355 0.826660 0.795410
0.917969 0.826660 0.795410
0.975098 0.826660 0.795410
0.000017 0.930664 0.795410
0.294922 0.930664 0.795410
0.480957 0.930664 0.795410
0.625488 0.930664 0.795410
0.744141 0.930664 0.795410
0.839355 0.930664 0.795410
0.917969 0.930664 0.795410
0.975098 0.930664 0.795410
0.000026 0.000000 0.890137
0.294922 0.000000 0.890137
0.480957 0.000000 0.890137
0.625488 0.000000 0.890137
0.744141 0.000000 0.890137
0.839355 0.000000 0.890137
0.917969 0.000000 0.890137
0.975098 0.000000 0.890137
0.000026 0.183105 0.890137
0.294922 0.183105 0.890137
0.480957 0.183105 0.890137
0.625488 0.183105 0.890137
0.744141 0.183105 0.890137
0.839355 0.183105 0.890137
0.917969 0.183105 0.890137
0.975098 0.183105 0.890137
0.000026 0.334717 0.890137
0.294922 0.334717 0.890137
0.480957 0.334717 0.890137
0.625488 0.334717 0.890137
0.744141 0.334961 0.890137
0.839355 0.334961 0.890137
0.917969 0.334961 0.890137
0.975098 0.334961 0.890137
0.000026 0.471436 0.890137
0.294922 0.471436 0.890137
0.480957 0.471436 0.890137
0.625488 0.471436 0.890137
0.744141 0.471436 0.890137
0.839355 0.471436 0.890137
0.917969 0.471436 0.890137
0.975098 0.471436 0.890137
0.000026 0.597168 0.890137
0.294922 0.597168 0.890137
0.480957 0.597168 0.890137
0.625488 0.597168 0.890137
0.744141 0.597168 0.890137
0.839355 0.597168 0.890137
0.917969 0.597168 0.890137
0.975098 0.597168 0.890137
0.000026 0.714844 0.890137
0.294922 0.714844 0.890137
0.480957 0.714844 0.890137
0.625488 0.714844 0.890137
0.744141 0.714844 0.890137
0.839355 0.714844 0.890137
0.917969 0.714844 0.890137
0.975098 0.714844 0.890137
0.000026 0.826660 0.890137
0.294922 0.826660 0.890137
0.480957 0.826660 0.890137
0.625488 0.826660 0.890137
0.744141 0.826660 0.890137
0.839355 0.826660 0.890137
0.917969 0.826660 0.890137
0.975098 0.826660 0.890137
0.000026 0.930664 0.890137
0.294922 0.930664 0.890137
0.480957 0.930664 0.890137
0.625488 0.930664 0.890137
0.744141 0.930664 0.890137
0.839355 0.930664 0.890137
0.917969 0.930664 0.890137
0.975098 0.930664 0.890137
0.000037 0.000000 0.961426
0.294922 0.000000 0.961426
0.480957 0.000000 0.961426
0.625488 0.000000 0.961426
0.744141 0.000000 0.961426
0.839355 0.000000 0.961426
0.917969 0.000000 0.961426
0.975098 0.000000 0.961426
0.000037 0.183105 0.961426
0.294922 0.183105 0.961426
0.480957 0.183105 0.961426
0.625488 0.183105 0.961426
0.744141 0.183105 0.961426
0.839355 0.183105 0.961426
0.917969 0.183105 0.961426
0.975098 0.183105 0.961426
0.000037 0.334717 0.961426
0.294922 0.334717 0.961426
0.480957 0.334717 0.961426
0.625488 0.334717 0.961426
0.744141 0.334717 0.961426
0.839355 0.334961 0.961426
0.917969 0.334961 0.961426
0.975098 0.334961 0.961426
0.000037 0.471436 0.961426
0.294922 0.471436 0.961426
0.480957 0.471436 0.961426
0.625488 0.471436 0.961426
0.744141 0.471436 0.961426
0.839355 0.471436 0.961426
0.917969 0.471436 0.961426
0.975098 0.471436 0.961426
0.000037 0.597168 0.961426
0.294922 0.597168 0.961426
0.480957 0.597168 0.961426
0.625488 0.597168 0.961426
0.744141 0.597168 0.961426
0.839355 0.597168 0.961426
0.917969 0.597168 0.961426
0.975098 0.597168 0.961426
0.000037 0.714844 0.961426
0.294922 0.714844 0.961426
0.480957 0.714844 0.961426
0.625488 0.714844 0.961426
0.744141 0.714844 0.961426
0.839355 0.714844 0.961426
0.917969 0.714844 0.961426
0.975098 0.714844 0.961426
0.000037 0.826660 0.961426
0.294922 0.826660 0.961426
0.480957 0.826660 0.961426
0.625488 0.826660 0.961426
0.744141 0.826660 0.961426
0.839355 0.826660 0.961426
0.917969 0.826660 0.961426
0.975098 0.826660 0.961426
0.000037 0.930664 0.961426
0.294922 0.930664 0.961426
0.480957 0.930664 0.961426
0.625488 0.930664 0.961426
0.744141 0.930664 0.961426
0.839355 0.930664 0.961426
0.917969 0.930664 0.961426
0.975098 0.930664 0.961426
