cubelut/Adanmq_Advantix 100.cube
TITLE "Generated by Foundry::LUT"
LUT_3D_SIZE 5
DOMAIN_MIN 0.000000 0.000000 0.000000
DOMAIN_MAX 0.903226 0.903226 0.903226
0.000000 0.000000 0.000000
0.225830 0.000000 0.000000
0.479492 0.000000 0.000000
0.707031 0.000000 0.000000
0.920898 0.000000 0.000000
0.000000 0.204102 0.000000
0.225830 0.204102 0.000000
0.479492 0.204102 0.000000
0.707031 0.204102 0.000000
0.920898 0.204102 0.000000
0.000000 0.456543 0.000000
0.225830 0.456543 0.000000
0.479492 0.456543 0.000000
0.707031 0.456543 0.000000
0.920898 0.456543 0.000000
0.000000 0.688477 0.000000
0.225830 0.688477 0.000000
0.479492 0.688477 0.000000
0.707031 0.688477 0.000000
0.920898 0.688477 0.000000
0.000000 0.912598 0.000000
0.225830 0.912598 0.000000
0.479492 0.912598 0.000000
0.707031 0.912598 0.000000
0.920898 0.912598 0.000000
0.000000 0.000000 0.174438
0.225952 0.000000 0.174438
0.479492 0.000000 0.174438
0.707031 0.000000 0.174438
0.920898 0.000000 0.174438
0.000000 0.204102 0.174438
0.225952 0.204102 0.174438
0.479492 0.204102 0.174438
0.707031 0.204102 0.174438
0.920898 0.204102 0.174438
0.000000 0.456543 0.174438
0.225952 0.456543 0.174438
0.479492 0.456543 0.174438
0.707031 0.456543 0.174438
0.920898 0.456543 0.174438
0.000000 0.688477 0.174438
0.225952 0.688477 0.174438
0.479492 0.688477 0.174438
0.707031 0.688477 0.174438
0.920898 0.688477 0.174438
0.000000 0.912598 0.174438
0.225952 0.912598 0.174438
0.479492 0.912598 0.174438
0.707031 0.912598 0.174438
0.920898 0.912598 0.174438
0.000000 0.000000 0.419678
0.225952 0.000000 0.419678
0.479492 0.000000 0.419678
0.707031 0.000000 0.419678
0.920898 0.000000 0.419678
0.000000 0.204102 0.419678
0.225952 0.204102 0.419678
0.479492 0.204102 0.419678
0.707031 0.204102 0.419678
0.920898 0.204102 0.419678
0.000000 0.456543 0.419922
0.225952 0.456543 0.419922
0.479492 0.456543 0.419922
0.707031 0.456543 0.419922
0.920898 0.456543 0.419922
0.000000 0.688477 0.419922
0.225952 0.688477 0.419922
0.479492 0.688477 0.419922
0.707031 0.688477 0.419922
0.920898 0.688477 0.419922
0.000000 0.912598 0.419922
0.225952 0.912598 0.419922
0.479492 0.912598 0.419922
0.707031 0.912598 0.419922
0.920898 0.912598 0.419922
0.000000 0.000000 0.662109
0.225952 0.000000 0.662109
0.479736 0.000000 0.662109
0.707520 0.000000 0.662109
0.920898 0.000000 0.662109
0.000000 0.204102 0.662109
0.225952 0.204102 0.662109
0.479736 0.204102 0.662109
0.707520 0.204102 0.662109
0.920898 0.204102 0.662109
0.000000 0.456543 0.662109
0.225952 0.456543 0.662109
0.479736 0.456543 0.662109
0.707520 0.456543 0.662109
0.920898 0.456543 0.662109
0.000000 0.688477 0.662109
0.225952 0.688477 0.662109
0.479736 0.688477 0.662109
0.707520 0.688477 0.662109
0.920898 0.688477 0.662109
0.000000 0.912598 0.662109
0.225952 0.912598 0.662109
0.479736 0.912598 0.662109
0.707520 0.912598 0.662109
0.920898 0.912598 0.662109
0.000001 0.000000 0.904785
0.226074 0.000000 0.904785
0.479736 0.000000 0.904785
0.707520 0.000000 0.904785
0.920898 0.000000 0.904785
0.000001 0.204102 0.904785
0.226074 0.204102 0.904785
0.479736 0.204102 0.904785
0.707520 0.204102 0.904785
0.920898 0.204102 0.904785
0.000001 0.456543 0.904785
0.226074 0.456543 0.904785
0.479736 0.456543 0.904785
0.707520 0.456543 0.904785
0.920898 0.456543 0.904785
0.000001 0.688477 0.904785
0.226074 0.688477 0.904785
0.479736 0.688477 0.904785
0.707520 0.688477 0.904785
0.920898 0.688477 0.904785
0.000001 0.912598 0.904785
0.226074 0.912598 0.904785
0.479736 0.912598 0.904785
0.707520 0.912598 0.904785
0.920898 0.912598 0.904785
