cubelut/Adanmq_AgfaColor HDC 200+.cube
TITLE "Generated by Foundry::LUT"
LUT_3D_SIZE 5
DOMAIN_MIN 0.000000 0.000000 0.000000
DOMAIN_MAX 0.903226 0.903226 0.903226
0.000000 0.000000 0.000000
0.249512 0.000000 0.000000
0.516602 0.000000 0.000000
0.745117 0.000000 0.000000
0.936523 0.000000 0.000000
0.000000 0.275635 0.000000
0.249512 0.275635 0.000000
0.516602 0.275635 0.000000
0.745117 0.275635 0.000000
0.936523 0.275635 0.000000
0.000000 0.547852 0.000000
0.249512 0.547852 0.000000
0.516602 0.547852 0.000000
0.745117 0.547852 0.000000
0.936523 0.547852 0.000000
0.000000 0.762695 0.000000
0.249512 0.762695 0.000000
0.516602 0.762695 0.000000
0.745117 0.762695 0.000000
0.936523 0.762695 0.000000
0.000000 0.938477 0.000000
0.249512 0.938477 0.000000
0.516602 0.938477 0.000000
0.745117 0.938477 0.000000
0.936523 0.938477 0.000000
0.000000 0.000000 0.212036
0.249512 0.000000 0.212036
0.516602 0.000000 0.212036
0.745117 0.000000 0.212036
0.936523 0.000000 0.212036
0.000000 0.275391 0.212036
0.249512 0.275635 0.212036
0.516602 0.275635 0.212036
0.745117 0.275635 0.212036
0.936523 0.275635 0.212036
0.000000 0.547852 0.212036
0.249512 0.547852 0.212036
0.516602 0.547852 0.212036
0.745117 0.547852 0.212036
0.936523 0.547852 0.212036
0.000000 0.762695 0.212036
0.249512 0.762695 0.212036
0.516602 0.762695 0.212036
0.745117 0.762695 0.212036
0.936523 0.762695 0.212036
0.000000 0.938477 0.212036
0.249512 0.938477 0.212036
0.516602 0.938477 0.212036
0.745117 0.938477 0.212036
0.936523 0.938477 0.212036
0.000000 0.000000 0.469727
0.249512 0.000000 0.469727
0.516602 0.000000 0.469727
0.745605 0.000000 0.469727
0.936523 0.000000 0.469727
0.000000 0.275391 0.469727
0.249512 0.275391 0.469727
0.516602 0.275635 0.469727
0.745605 0.275635 0.469727
0.936523 0.275635 0.469727
0.000000 0.547852 0.469727
0.249512 0.547852 0.469727
0.516602 0.547852 0.469727
0.745605 0.547852 0.469727
0.936523 0.547852 0.469727
0.000000 0.762695 0.469727
0.249512 0.762695 0.469727
0.516602 0.762695 0.469727
0.745605 0.762695 0.469727
0.936523 0.762695 0.469727
0.000000 0.938477 0.469727
0.249512 0.938477 0.469727
0.516602 0.938477 0.469727
0.745605 0.938477 0.469727
0.936523 0.938477 0.469727
0.000001 0.000000 0.705078
0.249634 0.000000 0.705078
0.516602 0.000000 0.705078
0.745605 0.000000 0.705078
0.936523 0.000000 0.705078
0.000001 0.275391 0.705078
0.249634 0.275391 0.705078
0.516602 0.275391 0.705078
0.745605 0.275635 0.705078
0.936523 0.275635 0.705078
0.000001 0.547852 0.705078
0.249634 0.547852 0.705078
0.516602 0.547852 0.705078
0.745605 0.547852 0.705078
0.936523 0.547852 0.705078
0.000001 0.762695 0.705078
0.249634 0.762695 0.705078
0.516602 0.762695 0.705078
0.745605 0.762695 0.705078
0.936523 0.762695 0.705078
0.000001 0.938477 0.705078
0.249634 0.938477 0.705078
0.516602 0.938477 0.705078
0.745605 0.938477 0.705078
0.936523 0.938477 0.705078
0.000001 0.000000 0.922363
0.249634 0.000000 0.922363
0.516602 0.000000 0.922363
0.745605 0.000000 0.922363
0.936523 0.000000 0.922363
0.000001 0.275391 0.922363
0.249634 0.275391 0.922363
0.516602 0.275391 0.922363
0.745605 0.275391 0.922363
0.936523 0.275635 0.922363
0.000001 0.547852 0.922363
0.249634 0.547852 0.922363
0.516602 0.547852 0.922363
0.745605 0.547852 0.922363
0.936523 0.547852 0.922363
0.000001 0.762695 0.922363
0.249634 0.762695 0.922363
0.516602 0.762695 0.922363
0.745605 0.762695 0.922363
0.936523 0.762695 0.922363
0.000001 0.938477 0.922363
0.249634 0.938477 0.922363
0.516602 0.938477 0.922363
0.745605 0.938477 0.922363
0.936523 0.938477 0.922363
