cubelut/Adanmq_Canon DSC S315 n2.cube
TITLE "Generated by Foundry::LUT"
LUT_3D_SIZE 5
DOMAIN_MIN 0.000000 0.000000 0.000000
DOMAIN_MAX 0.903226 0.903226 0.903226
0.000000 0.000000 0.000000
0.345947 0.000000 0.000000
0.679688 0.000000 0.000000
0.844727 0.000000 0.000000
0.958984 0.000000 0.000000
0.000000 0.354980 0.000000
0.345947 0.354980 0.000000
0.679688 0.354980 0.000000
0.844727 0.354980 0.000000
0.958984 0.354980 0.000000
0.000000 0.671875 0.000000
0.345947 0.671875 0.000000
0.679688 0.671875 0.000000
0.844727 0.671875 0.000000
0.958984 0.671875 0.000000
0.000000 0.839355 0.000000
0.345947 0.839355 0.000000
0.679688 0.839355 0.000000
0.844727 0.839355 0.000000
0.958984 0.839355 0.000000
0.000000 0.957520 0.000000
0.345947 0.957520 0.000000
0.679688 0.957520 0.000000
0.844727 0.957520 0.000000
0.958984 0.957520 0.000000
0.000000 0.000000 0.357666
0.346191 0.000000 0.357666
0.679688 0.000000 0.357666
0.844727 0.000000 0.357666
0.959473 0.000000 0.357666
0.000000 0.354980 0.357666
0.346191 0.354980 0.357666
0.679688 0.354980 0.357666
0.844727 0.354980 0.357666
0.959473 0.354980 0.357666
0.000000 0.671875 0.357666
0.346191 0.671875 0.357666
0.679688 0.671875 0.357666
0.844727 0.671875 0.357666
0.959473 0.671875 0.357666
0.000000 0.839355 0.357666
0.346191 0.839355 0.357666
0.679688 0.839355 0.357666
0.844727 0.839355 0.357666
0.959473 0.839355 0.357666
0.000000 0.957520 0.357666
0.346191 0.957520 0.357666
0.679688 0.957520 0.357666
0.844727 0.957520 0.357666
0.959473 0.957520 0.357666
0.000000 0.000000 0.670410
0.346191 0.000000 0.670410
0.679688 0.000000 0.670410
0.844727 0.000000 0.670410
0.959473 0.000000 0.670410
0.000000 0.354980 0.670410
0.346191 0.354980 0.670410
0.679688 0.354980 0.670410
0.844727 0.354980 0.670410
0.959473 0.354980 0.670410
0.000000 0.671875 0.670410
0.346191 0.671875 0.670410
0.679688 0.671875 0.670410
0.844727 0.671875 0.670410
0.959473 0.671875 0.670410
0.000000 0.839355 0.670410
0.346191 0.839355 0.670410
0.679688 0.839355 0.670410
0.844727 0.839355 0.670410
0.959473 0.839355 0.670410
0.000000 0.957520 0.670410
0.346191 0.957520 0.670410
0.679688 0.957520 0.670410
0.844727 0.957520 0.670410
0.959473 0.957520 0.670410
0.000000 0.000000 0.837891
0.346436 0.000000 0.837891
0.679688 0.000000 0.837891
0.844727 0.000000 0.837891
0.959473 0.000000 0.837891
0.000000 0.354980 0.837891
0.346436 0.354980 0.837891
0.679688 0.354980 0.837891
0.844727 0.354980 0.837891
0.959473 0.354980 0.837891
0.000000 0.671875 0.837891
0.346436 0.671875 0.837891
0.679688 0.671875 0.837891
0.844727 0.671875 0.837891
0.959473 0.671875 0.837891
0.000000 0.839355 0.837891
0.346436 0.839355 0.837891
0.679688 0.839355 0.837891
0.844727 0.839355 0.837891
0.959473 0.839355 0.837891
0.000000 0.957520 0.837891
0.346436 0.957520 0.837891
0.679688 0.957520 0.837891
0.844727 0.957520 0.837891
0.959473 0.957520 0.837891
0.000000 0.000000 0.957031
0.346436 0.000000 0.957031
0.679688 0.000000 0.957031
0.844727 0.000000 0.957031
0.959473 0.000000 0.957031
0.000000 0.354980 0.957031
0.346436 0.354980 0.957031
0.679688 0.354980 0.957031
0.844727 0.354980 0.957031
0.959473 0.354980 0.957031
0.000000 0.671875 0.957031
0.346436 0.671875 0.957031
0.679688 0.671875 0.957031
0.844727 0.671875 0.957031
0.959473 0.671875 0.957031
0.000000 0.839355 0.957031
0.346436 0.839355 0.957031
0.679688 0.839355 0.957031
0.844727 0.839355 0.957031
0.959473 0.839355 0.957031
0.000000 0.957520 0.957031
0.346436 0.957520 0.957031
0.679688 0.957520 0.957031
0.844727 0.957520 0.957031
0.959473 0.957520 0.957031
