cubelut/Adanmq_F400.cube
TITLE "Generated by Foundry::LUT"
LUT_3D_SIZE 32
0.000000 0.000000 0.000000
0.096375 0.000000 0.000000
0.173340 0.000000 0.000000
0.237915 0.000000 0.000000
0.294678 0.000000 0.000000
0.346436 0.000000 0.000000
0.394043 0.000000 0.000000
0.438721 0.000000 0.000000
0.480713 0.000000 0.000000
0.520020 0.000000 0.000000
0.557129 0.000000 0.000000
0.591797 0.000000 0.000000
0.625488 0.000000 0.000000
0.657715 0.000000 0.000000
0.687988 0.000000 0.000000
0.716797 0.000000 0.000000
0.744141 0.000000 0.000000
0.770020 0.000000 0.000000
0.794434 0.000000 0.000000
0.817383 0.000000 0.000000
0.839355 0.000000 0.000000
0.860840 0.000000 0.000000
0.881348 0.000000 0.000000
0.899902 0.000000 0.000000
0.917969 0.000000 0.000000
0.934570 0.000000 0.000000
0.949707 0.000000 0.000000
0.962891 0.000000 0.000000
0.974609 0.000000 0.000000
0.985352 0.000000 0.000000
0.993652 0.000000 0.000000
1.000000 0.000000 0.000000
0.000000 0.051392 0.000000
0.096375 0.051392 0.000000
0.173340 0.051392 0.000000
0.237915 0.051392 0.000000
0.294678 0.051392 0.000000
0.346436 0.051392 0.000000
0.394043 0.051392 0.000000
0.438721 0.051392 0.000000
0.480713 0.051392 0.000000
0.520020 0.051392 0.000000
0.557129 0.051392 0.000000
0.591797 0.051392 0.000000
0.625488 0.051392 0.000000
0.657715 0.051392 0.000000
0.687988 0.051392 0.000000
0.716797 0.051392 0.000000
0.744141 0.051392 0.000000
0.770020 0.051392 0.000000
0.794434 0.051392 0.000000
0.817383 0.051392 0.000000
0.839355 0.051392 0.000000
0.860840 0.051392 0.000000
0.881348 0.051392 0.000000
0.899902 0.051392 0.000000
0.917969 0.051392 0.000000
0.934570 0.051392 0.000000
0.949707 0.051392 0.000000
0.962891 0.051392 0.000000
0.974609 0.051422 0.000000
0.985352 0.051422 0.000000
0.993652 0.051422 0.000000
1.000000 0.051422 0.000000
0.000000 0.098267 0.000000
0.096375 0.098267 0.000000
0.173340 0.098267 0.000000
0.237915 0.098267 0.000000
0.294678 0.098267 0.000000
0.346436 0.098267 0.000000
0.394043 0.098267 0.000000
0.438721 0.098267 0.000000
0.480713 0.098267 0.000000
0.520020 0.098267 0.000000
0.557129 0.098267 0.000000
0.591797 0.098267 0.000000
0.625488 0.098267 0.000000
0.657715 0.098267 0.000000
0.687988 0.098267 0.000000
0.716797 0.098267 0.000000
0.744141 0.098267 0.000000
0.770020 0.098267 0.000000
0.794434 0.098267 0.000000
0.817383 0.098267 0.000000
0.839355 0.098267 0.000000
0.860840 0.098267 0.000000
0.881348 0.098267 0.000000
0.899902 0.098267 0.000000
0.917969 0.098267 0.000000
0.934570 0.098267 0.000000
0.949707 0.098267 0.000000
0.962891 0.098267 0.000000
0.974609 0.098267 0.000000
0.985352 0.098267 0.000000
0.993652 0.098267 0.000000
1.000000 0.098267 0.000000
0.000000 0.141846 0.000000
0.096375 0.141846 0.000000
0.173340 0.141846 0.000000
0.237915 0.141846 0.000000
0.294678 0.141846 0.000000
0.346436 0.141846 0.000000
0.394043 0.141846 0.000000
0.438721 0.141846 0.000000
0.480713 0.141846 0.000000
0.520020 0.141846 0.000000
0.557129 0.141846 0.000000
0.591797 0.141846 0.000000
0.625488 0.141846 0.000000
0.657715 0.141846 0.000000
0.687988 0.141846 0.000000
0.716797 0.141846 0.000000
0.744141 0.141846 0.000000
0.770020 0.141846 0.000000
0.794434 0.141846 0.000000
0.817383 0.141846 0.000000
0.839355 0.141846 0.000000
0.860840 0.141846 0.000000
0.881348 0.141846 0.000000
0.899902 0.141846 0.000000
0.917969 0.141846 0.000000
0.934570 0.141846 0.000000
0.949707 0.141846 0.000000
0.962891 0.141846 0.000000
0.974609 0.141846 0.000000
0.985352 0.141846 0.000000
0.993652 0.141846 0.000000
1.000000 0.141846 0.000000
0.000000 0.183105 0.000000
0.096375 0.183105 0.000000
0.173340 0.183105 0.000000
0.237915 0.183105 0.000000
0.294678 0.183105 0.000000
0.346436 0.183105 0.000000
0.394043 0.183105 0.000000
0.438721 0.183105 0.000000
0.480713 0.183105 0.000000
0.520020 0.183105 0.000000
0.557129 0.183105 0.000000
0.591797 0.183105 0.000000
0.625488 0.183105 0.000000
0.657715 0.183105 0.000000
0.687988 0.183105 0.000000
0.716797 0.183105 0.000000
0.744141 0.183105 0.000000
0.770020 0.183105 0.000000
0.794434 0.183105 0.000000
0.817383 0.183105 0.000000
0.839355 0.183105 0.000000
0.860840 0.183105 0.000000
0.881348 0.183105 0.000000
0.899902 0.183105 0.000000
0.917969 0.183105 0.000000
0.934570 0.183105 0.000000
0.949707 0.183105 0.000000
0.962891 0.183105 0.000000
0.974609 0.183105 0.000000
0.985352 0.183105 0.000000
0.993652 0.183105 0.000000
1.000000 0.183105 0.000000
0.000000 0.222778 0.000000
0.096375 0.222778 0.000000
0.173340 0.222778 0.000000
0.237915 0.222778 0.000000
0.294678 0.222778 0.000000
0.346436 0.222778 0.000000
0.394043 0.222778 0.000000
0.438721 0.222778 0.000000
0.480713 0.222778 0.000000
0.520020 0.222778 0.000000
0.557129 0.222778 0.000000
0.591797 0.222778 0.000000
0.625488 0.222778 0.000000
0.657715 0.222778 0.000000
0.687988 0.222778 0.000000
0.716797 0.222778 0.000000
0.744141 0.222778 0.000000
0.770020 0.222778 0.000000
0.794434 0.222778 0.000000
0.817383 0.222778 0.000000
0.839355 0.222778 0.000000
0.860840 0.222778 0.000000
0.881348 0.222778 0.000000
0.899902 0.222778 0.000000
0.917969 0.222778 0.000000
0.934570 0.222778 0.000000
0.949707 0.222778 0.000000
0.962891 0.222778 0.000000
0.974609 0.222778 0.000000
0.985352 0.222778 0.000000
0.993652 0.222778 0.000000
1.000000 0.222778 0.000000
0.000000 0.261475 0.000000
0.096375 0.261475 0.000000
0.173340 0.261475 0.000000
0.237915 0.261475 0.000000
0.294678 0.261475 0.000000
0.346436 0.261475 0.000000
0.394043 0.261475 0.000000
0.438721 0.261475 0.000000
0.480713 0.261475 0.000000
0.520020 0.261475 0.000000
0.557129 0.261475 0.000000
0.591797 0.261475 0.000000
0.625488 0.261475 0.000000
0.657715 0.261475 0.000000
0.687988 0.261475 0.000000
0.716797 0.261475 0.000000
0.744141 0.261475 0.000000
0.770020 0.261475 0.000000
0.794434 0.261475 0.000000
0.817383 0.261475 0.000000
0.839355 0.261475 0.000000
0.860840 0.261475 0.000000
0.881348 0.261475 0.000000
0.899902 0.261475 0.000000
0.917969 0.261475 0.000000
0.934570 0.261475 0.000000
0.949707 0.261475 0.000000
0.962891 0.261475 0.000000
0.974609 0.261475 0.000000
0.985352 0.261475 0.000000
0.993652 0.261475 0.000000
1.000000 0.261475 0.000000
0.000000 0.298828 0.000000
0.096375 0.298828 0.000000
0.173340 0.298828 0.000000
0.237915 0.298828 0.000000
0.294678 0.298828 0.000000
0.346436 0.298828 0.000000
0.394043 0.298828 0.000000
0.438721 0.298828 0.000000
0.480713 0.298828 0.000000
0.520020 0.298828 0.000000
0.557129 0.298828 0.000000
0.591797 0.298828 0.000000
0.625488 0.298828 0.000000
0.657715 0.298828 0.000000
0.687988 0.298828 0.000000
0.716797 0.298828 0.000000
0.744141 0.298828 0.000000
0.770020 0.298828 0.000000
0.794434 0.298828 0.000000
0.817383 0.298828 0.000000
0.839355 0.298828 0.000000
0.860840 0.299072 0.000000
0.881348 0.299072 0.000000
0.899902 0.299072 0.000000
0.917969 0.299072 0.000000
0.934570 0.299072 0.000000
0.949707 0.299072 0.000000
0.962891 0.299072 0.000000
0.974609 0.299072 0.000000
0.985352 0.299072 0.000000
0.993652 0.299072 0.000000
1.000000 0.299072 0.000000
0.000000 0.334961 0.000000
0.096375 0.334961 0.000000
0.173340 0.334961 0.000000
0.237915 0.334961 0.000000
0.294678 0.334961 0.000000
0.346436 0.334961 0.000000
0.394043 0.334961 0.000000
0.438721 0.334961 0.000000
0.480713 0.334961 0.000000
0.520020 0.334961 0.000000
0.557129 0.334961 0.000000
0.591797 0.334961 0.000000
0.625488 0.334961 0.000000
0.657715 0.334961 0.000000
0.687988 0.334961 0.000000
0.716797 0.334961 0.000000
0.744141 0.334961 0.000000
0.770020 0.334961 0.000000
0.794434 0.334961 0.000000
0.817383 0.334961 0.000000
0.839355 0.334961 0.000000
0.860840 0.334961 0.000000
0.881348 0.334961 0.000000
0.899902 0.334961 0.000000
0.917969 0.334961 0.000000
0.934570 0.334961 0.000000
0.949707 0.334961 0.000000
0.962891 0.334961 0.000000
0.974609 0.334961 0.000000
0.985352 0.334961 0.000000
0.993652 0.334961 0.000000
1.000000 0.334961 0.000000
0.000000 0.370117 0.000000
0.096375 0.370117 0.000000
0.173340 0.370117 0.000000
0.237915 0.370117 0.000000
0.294678 0.370117 0.000000
0.346436 0.370117 0.000000
0.394043 0.370117 0.000000
0.438721 0.370117 0.000000
0.480713 0.370117 0.000000
0.520020 0.370117 0.000000
0.557129 0.370117 0.000000
0.591797 0.370117 0.000000
0.625488 0.370117 0.000000
0.657715 0.370117 0.000000
0.687988 0.370117 0.000000
0.716797 0.370117 0.000000
0.744141 0.370117 0.000000
0.770020 0.370117 0.000000
0.794434 0.370117 0.000000
0.817383 0.370117 0.000000
0.839355 0.370117 0.000000
0.860840 0.370117 0.000000
0.881348 0.370117 0.000000
0.899902 0.370117 0.000000
0.917969 0.370117 0.000000
0.934570 0.370117 0.000000
0.949707 0.370117 0.000000
0.962891 0.370117 0.000000
0.974609 0.370117 0.000000
0.985352 0.370117 0.000000
0.993652 0.370117 0.000000
1.000000 0.370117 0.000000
0.000000 0.404785 0.000000
0.096375 0.404785 0.000000
0.173340 0.404785 0.000000
0.237915 0.404785 0.000000
0.294678 0.404785 0.000000
0.346436 0.404785 0.000000
0.394043 0.404785 0.000000
0.438721 0.404785 0.000000
0.480713 0.404785 0.000000
0.520020 0.404785 0.000000
0.557129 0.404785 0.000000
0.591797 0.404785 0.000000
0.625488 0.404785 0.000000
0.657715 0.404785 0.000000
0.687988 0.404785 0.000000
0.716797 0.404785 0.000000
0.744141 0.404785 0.000000
0.770020 0.404785 0.000000
0.794434 0.404785 0.000000
0.817383 0.404785 0.000000
0.839355 0.404785 0.000000
0.860840 0.404785 0.000000
0.881348 0.404785 0.000000
0.899902 0.404785 0.000000
0.917969 0.404785 0.000000
0.934570 0.404785 0.000000
0.949707 0.404785 0.000000
0.962891 0.404785 0.000000
0.974609 0.404785 0.000000
0.985352 0.404785 0.000000
0.993652 0.404785 0.000000
1.000000 0.404785 0.000000
0.000000 0.438477 0.000000
0.096375 0.438477 0.000000
0.173340 0.438477 0.000000
0.237915 0.438477 0.000000
0.294678 0.438477 0.000000
0.346436 0.438477 0.000000
0.394043 0.438477 0.000000
0.438721 0.438477 0.000000
0.480713 0.438477 0.000000
0.520020 0.438477 0.000000
0.557129 0.438477 0.000000
0.591797 0.438477 0.000000
0.625488 0.438477 0.000000
0.657715 0.438477 0.000000
0.687988 0.438477 0.000000
0.716797 0.438477 0.000000
0.744141 0.438477 0.000000
0.770020 0.438477 0.000000
0.794434 0.438477 0.000000
0.817383 0.438477 0.000000
0.839355 0.438477 0.000000
0.860840 0.438477 0.000000
0.881348 0.438477 0.000000
0.899902 0.438477 0.000000
0.917969 0.438477 0.000000
0.934570 0.438477 0.000000
0.949707 0.438477 0.000000
0.962891 0.438477 0.000000
0.974609 0.438477 0.000000
0.985352 0.438477 0.000000
0.993652 0.438477 0.000000
1.000000 0.438477 0.000000
0.000000 0.471436 0.000000
0.096375 0.471436 0.000000
0.173340 0.471436 0.000000
0.237915 0.471436 0.000000
0.294678 0.471436 0.000000
0.346436 0.471436 0.000000
0.394043 0.471436 0.000000
0.438721 0.471436 0.000000
0.480713 0.471436 0.000000
0.520020 0.471436 0.000000
0.557129 0.471436 0.000000
0.591797 0.471436 0.000000
0.625488 0.471436 0.000000
0.657715 0.471436 0.000000
0.687988 0.471436 0.000000
0.716797 0.471680 0.000000
0.744141 0.471680 0.000000
0.770020 0.471680 0.000000
0.794434 0.471680 0.000000
0.817383 0.471680 0.000000
0.839355 0.471680 0.000000
0.860840 0.471680 0.000000
0.881348 0.471680 0.000000
0.899902 0.471680 0.000000
0.917969 0.471680 0.000000
0.934570 0.471680 0.000000
0.949707 0.471680 0.000000
0.962891 0.471680 0.000000
0.974609 0.471680 0.000000
0.985352 0.471680 0.000000
0.993652 0.471680 0.000000
1.000000 0.471680 0.000000
0.000000 0.503418 0.000000
0.096375 0.503418 0.000000
0.173340 0.503418 0.000000
0.237915 0.503418 0.000000
0.294678 0.503418 0.000000
0.346436 0.503418 0.000000
0.394043 0.503418 0.000000
0.438721 0.503418 0.000000
0.480713 0.503418 0.000000
0.520020 0.503418 0.000000
0.557129 0.503418 0.000000
0.591797 0.503418 0.000000
0.625488 0.503418 0.000000
0.657715 0.503418 0.000000
0.687988 0.503418 0.000000
0.716797 0.503418 0.000000
0.744141 0.503418 0.000000
0.770020 0.503418 0.000000
0.794434 0.503418 0.000000
0.817383 0.503418 0.000000
0.839355 0.503418 0.000000
0.860840 0.503418 0.000000
0.881348 0.503418 0.000000
0.899902 0.503418 0.000000
0.917969 0.503418 0.000000
0.934570 0.503418 0.000000
0.949707 0.503418 0.000000
0.962891 0.503418 0.000000
0.974609 0.503418 0.000000
0.985352 0.503418 0.000000
0.993652 0.503418 0.000000
1.000000 0.503418 0.000000
0.000000 0.535645 0.000000
0.096375 0.535645 0.000000
0.173340 0.535645 0.000000
0.237915 0.535645 0.000000
0.294678 0.535645 0.000000
0.346436 0.535645 0.000000
0.394043 0.535645 0.000000
0.438721 0.535645 0.000000
0.480713 0.535645 0.000000
0.520020 0.535645 0.000000
0.557129 0.535645 0.000000
0.591797 0.535645 0.000000
0.625488 0.535645 0.000000
0.657715 0.535645 0.000000
0.687988 0.535645 0.000000
0.716797 0.535645 0.000000
0.744141 0.535645 0.000000
0.770020 0.535645 0.000000
0.794434 0.535645 0.000000
0.817383 0.535645 0.000000
0.839355 0.535645 0.000000
0.860840 0.535645 0.000000
0.881348 0.535645 0.000000
0.899902 0.535645 0.000000
0.917969 0.535645 0.000000
0.934570 0.535645 0.000000
0.949707 0.535645 0.000000
0.962891 0.535645 0.000000
0.974609 0.535645 0.000000
0.985352 0.535645 0.000000
0.993652 0.535645 0.000000
1.000000 0.535645 0.000000
0.000000 0.566406 0.000000
0.096375 0.566406 0.000000
0.173340 0.566406 0.000000
0.237915 0.566406 0.000000
0.294678 0.566406 0.000000
0.346436 0.566406 0.000000
0.394043 0.566406 0.000000
0.438721 0.566406 0.000000
0.480713 0.566406 0.000000
0.520020 0.566406 0.000000
0.557129 0.566406 0.000000
0.591797 0.566406 0.000000
0.625488 0.566406 0.000000
0.657715 0.566406 0.000000
0.687988 0.566406 0.000000
0.716797 0.566406 0.000000
0.744141 0.566406 0.000000
0.770020 0.566406 0.000000
0.794434 0.566406 0.000000
0.817383 0.566406 0.000000
0.839355 0.566406 0.000000
0.860840 0.566406 0.000000
0.881348 0.566406 0.000000
0.899902 0.566406 0.000000
0.917969 0.566406 0.000000
0.934570 0.566406 0.000000
0.949707 0.566406 0.000000
0.962891 0.566406 0.000000
0.974609 0.566406 0.000000
0.985352 0.566406 0.000000
0.993652 0.566406 0.000000
1.000000 0.566406 0.000000
0.000000 0.597168 0.000000
0.096375 0.597168 0.000000
0.173340 0.597168 0.000000
0.237915 0.597168 0.000000
0.294678 0.597168 0.000000
0.346436 0.597168 0.000000
0.394043 0.597168 0.000000
0.438721 0.597168 0.000000
0.480713 0.597168 0.000000
0.520020 0.597168 0.000000
0.557129 0.597168 0.000000
0.591797 0.597168 0.000000
0.625488 0.597168 0.000000
0.657715 0.597168 0.000000
0.687988 0.597168 0.000000
0.716797 0.597168 0.000000
0.744141 0.597168 0.000000
0.770020 0.597168 0.000000
0.794434 0.597168 0.000000
0.817383 0.597168 0.000000
0.839355 0.597168 0.000000
0.860840 0.597168 0.000000
0.881348 0.597168 0.000000
0.899902 0.597168 0.000000
0.917969 0.597168 0.000000
0.934570 0.597168 0.000000
0.949707 0.597168 0.000000
0.962891 0.597168 0.000000
0.974609 0.597168 0.000000
0.985352 0.597168 0.000000
0.993652 0.597168 0.000000
1.000000 0.597168 0.000000
0.000000 0.627441 0.000000
0.096375 0.627441 0.000000
0.173340 0.627441 0.000000
0.237915 0.627441 0.000000
0.294678 0.627441 0.000000
0.346436 0.627441 0.000000
0.394043 0.627441 0.000000
0.438721 0.627441 0.000000
0.480713 0.627441 0.000000
0.520020 0.627441 0.000000
0.557129 0.627441 0.000000
0.591797 0.627441 0.000000
0.625488 0.627441 0.000000
0.657715 0.627441 0.000000
0.687988 0.627441 0.000000
0.716797 0.627441 0.000000
0.744141 0.627441 0.000000
0.770020 0.627441 0.000000
0.794434 0.627441 0.000000
0.817383 0.627441 0.000000
0.839355 0.627441 0.000000
0.860840 0.627441 0.000000
0.881348 0.627441 0.000000
0.899902 0.627441 0.000000
0.917969 0.627441 0.000000
0.934570 0.627441 0.000000
0.949707 0.627441 0.000000
0.962891 0.627441 0.000000
0.974609 0.627441 0.000000
0.985352 0.627441 0.000000
0.993652 0.627441 0.000000
1.000000 0.627441 0.000000
0.000000 0.656738 0.000000
0.096375 0.656738 0.000000
0.173340 0.656738 0.000000
0.237915 0.656738 0.000000
0.294678 0.656738 0.000000
0.346436 0.656738 0.000000
0.394043 0.656738 0.000000
0.438721 0.656738 0.000000
0.480713 0.656738 0.000000
0.520020 0.656738 0.000000
0.557129 0.656738 0.000000
0.591797 0.656738 0.000000
0.625488 0.656738 0.000000
0.657715 0.656738 0.000000
0.687988 0.656738 0.000000
0.716797 0.656738 0.000000
0.744141 0.656738 0.000000
0.770020 0.656738 0.000000
0.794434 0.656738 0.000000
0.817383 0.656738 0.000000
0.839355 0.656738 0.000000
0.860840 0.656738 0.000000
0.881348 0.656738 0.000000
0.899902 0.656738 0.000000
0.917969 0.656738 0.000000
0.934570 0.656738 0.000000
0.949707 0.656738 0.000000
0.962891 0.656738 0.000000
0.974609 0.656738 0.000000
0.985352 0.656738 0.000000
0.993652 0.656738 0.000000
1.000000 0.656738 0.000000
0.000000 0.686035 0.000000
0.096375 0.686035 0.000000
0.173340 0.686035 0.000000
0.237915 0.686035 0.000000
0.294678 0.686035 0.000000
0.346436 0.686035 0.000000
0.394043 0.686035 0.000000
0.438721 0.686035 0.000000
0.480713 0.686035 0.000000
0.520020 0.686035 0.000000
0.557129 0.686035 0.000000
0.591797 0.686035 0.000000
0.625488 0.686035 0.000000
0.657715 0.686035 0.000000
0.687988 0.686035 0.000000
0.716797 0.686035 0.000000
0.744141 0.686035 0.000000
0.770020 0.686035 0.000000
0.794434 0.686035 0.000000
0.817383 0.686035 0.000000
0.839355 0.686035 0.000000
0.860840 0.686035 0.000000
0.881348 0.686035 0.000000
0.899902 0.686035 0.000000
0.917969 0.686035 0.000000
0.934570 0.686035 0.000000
0.949707 0.686035 0.000000
0.962891 0.686035 0.000000
0.974609 0.686035 0.000000
0.985352 0.686035 0.000000
0.993652 0.686035 0.000000
1.000000 0.686035 0.000000
0.000000 0.714844 0.000000
0.096375 0.714844 0.000000
0.173340 0.714844 0.000000
0.237915 0.714844 0.000000
0.294678 0.714844 0.000000
0.346436 0.714844 0.000000
0.394043 0.714844 0.000000
0.438721 0.714844 0.000000
0.480713 0.714844 0.000000
0.520020 0.714844 0.000000
0.557129 0.714844 0.000000
0.591797 0.714844 0.000000
0.625488 0.714844 0.000000
0.657715 0.714844 0.000000
0.687988 0.714844 0.000000
0.716797 0.714844 0.000000
0.744141 0.714844 0.000000
0.770020 0.714844 0.000000
0.794434 0.714844 0.000000
0.817383 0.714844 0.000000
0.839355 0.714844 0.000000
0.860840 0.714844 0.000000
0.881348 0.714844 0.000000
0.899902 0.714844 0.000000
0.917969 0.714844 0.000000
0.934570 0.714844 0.000000
0.949707 0.714844 0.000000
0.962891 0.714844 0.000000
0.974609 0.714844 0.000000
0.985352 0.714844 0.000000
0.993652 0.714844 0.000000
1.000000 0.714844 0.000000
0.000000 0.743164 0.000000
0.096375 0.743164 0.000000
0.173340 0.743164 0.000000
0.237915 0.743164 0.000000
0.294678 0.743164 0.000000
0.346436 0.743164 0.000000
0.394043 0.743164 0.000000
0.438721 0.743164 0.000000
0.480713 0.743164 0.000000
0.520020 0.743164 0.000000
0.557129 0.743164 0.000000
0.591797 0.743164 0.000000
0.625488 0.743164 0.000000
0.657715 0.743164 0.000000
0.687988 0.743164 0.000000
0.716797 0.743164 0.000000
0.744141 0.743164 0.000000
0.770020 0.743164 0.000000
0.794434 0.743164 0.000000
0.817383 0.743164 0.000000
0.839355 0.743164 0.000000
0.860840 0.743164 0.000000
0.881348 0.743164 0.000000
0.899902 0.743164 0.000000
0.917969 0.743164 0.000000
0.934570 0.743164 0.000000
0.949707 0.743164 0.000000
0.962891 0.743164 0.000000
0.974609 0.743164 0.000000
0.985352 0.743164 0.000000
0.993652 0.743164 0.000000
1.000000 0.743164 0.000000
0.000000 0.770996 0.000000
0.096375 0.770996 0.000000
0.173340 0.770996 0.000000
0.237915 0.770996 0.000000
0.294678 0.770996 0.000000
0.346436 0.770996 0.000000
0.394043 0.770996 0.000000
0.438721 0.770996 0.000000
0.480713 0.770996 0.000000
0.520020 0.770996 0.000000
0.557129 0.770996 0.000000
0.591797 0.770996 0.000000
0.625488 0.770996 0.000000
0.657715 0.770996 0.000000
0.687988 0.770996 0.000000
0.716797 0.770996 0.000000
0.744141 0.770996 0.000000
0.770020 0.770996 0.000000
0.794434 0.770996 0.000000
0.817383 0.770996 0.000000
0.839355 0.770996 0.000000
0.860840 0.770996 0.000000
0.881348 0.770996 0.000000
0.899902 0.770996 0.000000
0.917969 0.770996 0.000000
0.934570 0.770996 0.000000
0.949707 0.770996 0.000000
0.962891 0.770996 0.000000
0.974609 0.770996 0.000000
0.985352 0.770996 0.000000
0.993652 0.770996 0.000000
1.000000 0.770996 0.000000
0.000000 0.798828 0.000000
0.096375 0.798828 0.000000
0.173340 0.798828 0.000000
0.237915 0.798828 0.000000
0.294678 0.798828 0.000000
0.346436 0.798828 0.000000
0.394043 0.798828 0.000000
0.438721 0.798828 0.000000
0.480713 0.798828 0.000000
0.520020 0.798828 0.000000
0.557129 0.798828 0.000000
0.591797 0.798828 0.000000
0.625488 0.798828 0.000000
0.657715 0.798828 0.000000
0.687988 0.798828 0.000000
0.716797 0.798828 0.000000
0.744141 0.798828 0.000000
0.770020 0.798828 0.000000
0.794434 0.798828 0.000000
0.817383 0.798828 0.000000
0.839355 0.798828 0.000000
0.860840 0.798828 0.000000
0.881348 0.798828 0.000000
0.899902 0.798828 0.000000
0.917969 0.798828 0.000000
0.934570 0.798828 0.000000
0.949707 0.798828 0.000000
0.962891 0.798828 0.000000
0.974609 0.798828 0.000000
0.985352 0.798828 0.000000
0.993652 0.798828 0.000000
1.000000 0.798828 0.000000
0.000000 0.826660 0.000000
0.096375 0.826660 0.000000
0.173340 0.826660 0.000000
0.237915 0.826660 0.000000
0.294678 0.826660 0.000000
0.346436 0.826660 0.000000
0.394043 0.826660 0.000000
0.438721 0.826660 0.000000
0.480713 0.826660 0.000000
0.520020 0.826660 0.000000
0.557129 0.826660 0.000000
0.591797 0.826660 0.000000
0.625488 0.826660 0.000000
0.657715 0.826660 0.000000
0.687988 0.826660 0.000000
0.716797 0.826660 0.000000
0.744141 0.826660 0.000000
0.770020 0.826660 0.000000
0.794434 0.826660 0.000000
0.817383 0.826660 0.000000
0.839355 0.826660 0.000000
0.860840 0.826660 0.000000
0.881348 0.826660 0.000000
0.899902 0.826660 0.000000
0.917969 0.826660 0.000000
0.934570 0.826660 0.000000
0.949707 0.826660 0.000000
0.962891 0.826660 0.000000
0.974609 0.826660 0.000000
0.985352 0.826660 0.000000
0.993652 0.826660 0.000000
1.000000 0.826660 0.000000
0.000000 0.853027 0.000000
0.096375 0.853027 0.000000
0.173340 0.853027 0.000000
0.237915 0.853027 0.000000
0.294678 0.853027 0.000000
0.346436 0.853027 0.000000
0.394043 0.853027 0.000000
0.438721 0.853027 0.000000
0.480713 0.853027 0.000000
0.520020 0.853027 0.000000
0.557129 0.853027 0.000000
0.591797 0.853027 0.000000
0.625488 0.853027 0.000000
0.657715 0.853027 0.000000
0.687988 0.853027 0.000000
0.716797 0.853027 0.000000
0.744141 0.853027 0.000000
0.770020 0.853027 0.000000
0.794434 0.853027 0.000000
0.817383 0.853027 0.000000
0.839355 0.853027 0.000000
0.860840 0.853027 0.000000
0.881348 0.853027 0.000000
0.899902 0.853027 0.000000
0.917969 0.853027 0.000000
0.934570 0.853027 0.000000
0.949707 0.853027 0.000000
0.962891 0.853027 0.000000
0.974609 0.853027 0.000000
0.985352 0.853027 0.000000
0.993652 0.853027 0.000000
1.000000 0.853027 0.000000
0.000000 0.879883 0.000000
0.096375 0.879883 0.000000
0.173340 0.879883 0.000000
0.237915 0.879883 0.000000
0.294678 0.879883 0.000000
0.346436 0.879883 0.000000
0.394043 0.879883 0.000000
0.438721 0.879883 0.000000
0.480713 0.879883 0.000000
0.520020 0.879883 0.000000
0.557129 0.879883 0.000000
0.591797 0.879883 0.000000
0.625488 0.879883 0.000000
0.657715 0.879883 0.000000
0.687988 0.879883 0.000000
0.716797 0.879883 0.000000
0.744141 0.879883 0.000000
0.770020 0.879883 0.000000
0.794434 0.879883 0.000000
0.817383 0.879883 0.000000
0.839355 0.879883 0.000000
0.860840 0.879883 0.000000
0.881348 0.879883 0.000000
0.899902 0.879883 0.000000
0.917969 0.879883 0.000000
0.934570 0.879883 0.000000
0.949707 0.879883 0.000000
0.962891 0.879883 0.000000
0.974609 0.879883 0.000000
0.985352 0.879883 0.000000
0.993652 0.879883 0.000000
1.000000 0.879883 0.000000
0.000000 0.905762 0.000000
0.096375 0.905762 0.000000
0.173340 0.905762 0.000000
0.237915 0.905762 0.000000
0.294678 0.905762 0.000000
0.346436 0.905762 0.000000
0.394043 0.905762 0.000000
0.438721 0.905762 0.000000
0.480713 0.905762 0.000000
0.520020 0.905762 0.000000
0.557129 0.905762 0.000000
0.591797 0.905762 0.000000
0.625488 0.905762 0.000000
0.657715 0.905762 0.000000
0.687988 0.905762 0.000000
0.716797 0.905762 0.000000
0.744141 0.905762 0.000000
0.770020 0.905762 0.000000
0.794434 0.905762 0.000000
0.817383 0.905762 0.000000
0.839355 0.905762 0.000000
0.860840 0.905762 0.000000
0.881348 0.905762 0.000000
