cubelut/Adanmq_AgfaColor Vista 200.cube
TITLE "Generated by Foundry::LUT"
LUT_3D_SIZE 8
DOMAIN_MIN 0.000000 0.000000 0.000000
DOMAIN_MAX 0.903226 0.903226 0.903226
0.000000 0.000000 0.000000
0.196533 0.000000 0.000000
0.367920 0.000000 0.000000
0.517090 0.000000 0.000000
0.646484 0.000000 0.000000
0.756836 0.000000 0.000000
0.854980 0.000000 0.000000
0.943359 0.000000 0.000000
0.000000 0.183716 0.000000
0.196533 0.183716 0.000000
0.367920 0.183716 0.000000
0.517090 0.183716 0.000000
0.646484 0.183716 0.000000
0.756836 0.183716 0.000000
0.854980 0.183716 0.000000
0.943359 0.183716 0.000000
0.000000 0.349854 0.000000
0.196533 0.349854 0.000000
0.367920 0.349854 0.000000
0.517090 0.349854 0.000000
0.646484 0.349854 0.000000
0.756836 0.349854 0.000000
0.854980 0.349854 0.000000
0.943359 0.349854 0.000000
0.000000 0.488770 0.000000
0.196533 0.488770 0.000000
0.367920 0.488770 0.000000
0.517090 0.488770 0.000000
0.646484 0.488770 0.000000
0.756836 0.488770 0.000000
0.854980 0.488770 0.000000
0.943359 0.488770 0.000000
0.000000 0.611328 0.000000
0.196533 0.611328 0.000000
0.367920 0.611328 0.000000
0.517090 0.611328 0.000000
0.646484 0.611328 0.000000
0.756836 0.611328 0.000000
0.854980 0.611328 0.000000
0.943359 0.611328 0.000000
0.000000 0.725586 0.000000
0.196533 0.725586 0.000000
0.367920 0.725586 0.000000
0.517090 0.725586 0.000000
0.646484 0.725586 0.000000
0.756836 0.725586 0.000000
0.854980 0.725586 0.000000
0.943359 0.725586 0.000000
0.000000 0.831543 0.000000
0.196533 0.831543 0.000000
0.367920 0.831543 0.000000
0.517090 0.831543 0.000000
0.646484 0.831543 0.000000
0.756836 0.831543 0.000000
0.854980 0.831543 0.000000
0.943359 0.831543 0.000000
0.000000 0.934082 0.000000
0.196533 0.934082 0.000000
0.367920 0.934082 0.000000
0.517090 0.934082 0.000000
0.646484 0.934082 0.000000
0.756836 0.934082 0.000000
0.854980 0.934082 0.000000
0.943359 0.934082 0.000000
0.000000 0.000000 0.145386
0.196655 0.000000 0.145386
0.367920 0.000000 0.145386
0.517090 0.000000 0.145386
0.646484 0.000000 0.145386
0.756836 0.000000 0.145386
0.854980 0.000000 0.145386
0.943359 0.000000 0.145386
0.000000 0.183716 0.145386
0.196655 0.183716 0.145386
0.367920 0.183716 0.145386
0.517090 0.183716 0.145386
0.646484 0.183716 0.145386
0.756836 0.183716 0.145386
0.854980 0.183716 0.145386
0.943359 0.183716 0.145386
0.000000 0.349854 0.145386
0.196655 0.349854 0.145386
0.367920 0.349854 0.145386
0.517090 0.349854 0.145386
0.646484 0.349854 0.145386
0.756836 0.349854 0.145386
0.854980 0.349854 0.145386
0.943359 0.349854 0.145386
0.000000 0.488770 0.145386
0.196655 0.488770 0.145386
0.367920 0.488770 0.145386
0.517090 0.488770 0.145386
0.646484 0.488770 0.145386
0.756836 0.488770 0.145386
0.854980 0.488770 0.145386
0.943359 0.488770 0.145386
0.000000 0.611328 0.145386
0.196655 0.611328 0.145386
0.367920 0.611328 0.145386
0.517090 0.611328 0.145386
0.646484 0.611328 0.145386
0.756836 0.611328 0.145386
0.854980 0.611328 0.145386
0.943359 0.611328 0.145386
0.000000 0.725586 0.145386
0.196655 0.725586 0.145386
0.367920 0.725586 0.145386
0.517090 0.725586 0.145386
0.646484 0.725586 0.145386
0.756836 0.725586 0.145386
0.854980 0.725586 0.145386
0.943359 0.725586 0.145386
0.000000 0.831543 0.145386
0.196655 0.831543 0.145386
0.367920 0.831543 0.145386
0.517090 0.831543 0.145386
0.646484 0.831543 0.145386
0.756836 0.831543 0.145386
0.854980 0.831543 0.145386
0.943359 0.831543 0.145386
0.000000 0.934082 0.145386
0.196655 0.934082 0.145386
0.367920 0.934082 0.145386
0.517090 0.934082 0.145386
0.646484 0.934082 0.145386
0.756836 0.934082 0.145386
0.854980 0.934082 0.145386
0.943359 0.934082 0.145386
0.000000 0.000000 0.320313
0.196655 0.000000 0.320313
0.367920 0.000000 0.320313
0.517090 0.000000 0.320313
0.646484 0.000000 0.320313
0.756836 0.000000 0.320313
0.854980 0.000000 0.320313
0.943848 0.000000 0.320313
0.000000 0.183716 0.320313
0.196655 0.183716 0.320313
0.367920 0.183716 0.320313
0.517090 0.183716 0.320313
0.646484 0.183716 0.320313
0.756836 0.183716 0.320313
0.854980 0.183716 0.320313
0.943848 0.183716 0.320313
0.000000 0.349854 0.320313
0.196655 0.349854 0.320313
0.367920 0.349854 0.320313
0.517090 0.349854 0.320313
0.646484 0.349854 0.320313
0.756836 0.349854 0.320313
0.854980 0.349854 0.320313
0.943848 0.349854 0.320313
0.000000 0.488770 0.320313
0.196655 0.488770 0.320313
0.367920 0.488770 0.320313
0.517090 0.488770 0.320313
0.646484 0.488770 0.320313
0.756836 0.488770 0.320313
0.854980 0.488770 0.320313
0.943848 0.488770 0.320313
0.000000 0.610840 0.320313
0.196655 0.611328 0.320313
0.367920 0.611328 0.320313
0.517090 0.611328 0.320313
0.646484 0.611328 0.320313
0.756836 0.611328 0.320313
0.854980 0.611328 0.320313
0.943848 0.611328 0.320313
0.000000 0.725586 0.320313
0.196655 0.725586 0.320313
0.367920 0.725586 0.320313
0.517090 0.725586 0.320313
0.646484 0.725586 0.320313
0.756836 0.725586 0.320313
0.854980 0.725586 0.320313
0.943848 0.725586 0.320313
0.000000 0.831543 0.320313
0.196655 0.831543 0.320313
0.367920 0.831543 0.320313
0.517090 0.831543 0.320313
0.646484 0.831543 0.320313
0.756836 0.831543 0.320313
0.854980 0.831543 0.320313
0.943848 0.831543 0.320313
0.000000 0.934082 0.320313
0.196655 0.934082 0.320313
0.367920 0.934082 0.320313
0.517090 0.934082 0.320313
0.646484 0.934082 0.320313
0.756836 0.934082 0.320313
0.854980 0.934082 0.320313
0.943848 0.934082 0.320313
0.000000 0.000000 0.481445
0.196655 0.000000 0.481445
0.367920 0.000000 0.481445
0.517090 0.000000 0.481445
0.646484 0.000000 0.481445
0.756836 0.000000 0.481445
0.854980 0.000000 0.481445
0.943848 0.000000 0.481445
0.000000 0.183716 0.481445
0.196655 0.183716 0.481445
0.367920 0.183716 0.481445
0.517090 0.183716 0.481445
0.646484 0.183716 0.481445
0.756836 0.183716 0.481445
0.854980 0.183716 0.481445
0.943848 0.183716 0.481445
0.000000 0.349854 0.481445
0.196655 0.349854 0.481445
0.367920 0.349854 0.481445
0.517090 0.349854 0.481445
0.646484 0.349854 0.481445
0.756836 0.349854 0.481445
0.854980 0.349854 0.481445
0.943848 0.349854 0.481445
0.000000 0.488770 0.481445
0.196655 0.488770 0.481445
0.367920 0.488770 0.481445
0.517090 0.488770 0.481445
0.646484 0.488770 0.481445
0.756836 0.488770 0.481445
0.854980 0.488770 0.481445
0.943848 0.488770 0.481445
0.000000 0.610840 0.481445
0.196655 0.610840 0.481445
0.367920 0.611328 0.481445
0.517090 0.611328 0.481445
0.646484 0.611328 0.481445
0.756836 0.611328 0.481445
0.854980 0.611328 0.481445
0.943848 0.611328 0.481445
0.000000 0.725586 0.481445
0.196655 0.725586 0.481445
0.367920 0.725586 0.481445
0.517090 0.725586 0.481445
0.646484 0.725586 0.481445
0.756836 0.725586 0.481445
0.854980 0.725586 0.481445
0.943848 0.725586 0.481445
0.000000 0.831543 0.481445
0.196655 0.831543 0.481445
0.367920 0.831543 0.481445
0.517090 0.831543 0.481445
0.646484 0.831543 0.481445
0.756836 0.831543 0.481445
0.854980 0.831543 0.481445
0.943848 0.831543 0.481445
0.000000 0.934082 0.481445
0.196655 0.934082 0.481445
0.367920 0.934082 0.481445
0.517090 0.934082 0.481445
0.646484 0.934082 0.481445
0.756836 0.934082 0.481445
0.854980 0.934082 0.481445
0.943848 0.934082 0.481445
0.000001 0.000000 0.624023
0.196655 0.000000 0.624023
0.367920 0.000000 0.624023
0.517090 0.000000 0.624023
0.646484 0.000000 0.624023
0.756836 0.000000 0.624023
0.854980 0.000000 0.624023
0.943848 0.000000 0.624023
0.000001 0.183716 0.624023
0.196655 0.183716 0.624023
0.367920 0.183716 0.624023
0.517090 0.183716 0.624023
0.646484 0.183716 0.624023
0.756836 0.183716 0.624023
0.854980 0.183716 0.624023
0.943848 0.183716 0.624023
0.000001 0.349854 0.624023
0.196655 0.349854 0.624023
0.367920 0.349854 0.624023
0.517090 0.349854 0.624023
0.646484 0.349854 0.624023
0.756836 0.349854 0.624023
0.854980 0.349854 0.624023
0.943848 0.349854 0.624023
0.000001 0.488770 0.624023
0.196655 0.488770 0.624023
0.367920 0.488770 0.624023
0.517090 0.488770 0.624023
0.646484 0.488770 0.624023
0.756836 0.488770 0.624023
0.854980 0.488770 0.624023
0.943848 0.488770 0.624023
0.000001 0.610840 0.624023
0.196655 0.610840 0.624023
0.367920 0.610840 0.624023
0.517090 0.611328 0.624023
0.646484 0.611328 0.624023
0.756836 0.611328 0.624023
0.854980 0.611328 0.624023
0.943848 0.611328 0.624023
0.000001 0.725586 0.624023
0.196655 0.725586 0.624023
0.367920 0.725586 0.624023
0.517090 0.725586 0.624023
0.646484 0.725586 0.624023
0.756836 0.725586 0.624023
0.854980 0.725586 0.624023
0.943848 0.725586 0.624023
0.000001 0.831543 0.624023
0.196655 0.831543 0.624023
0.367920 0.831543 0.624023
0.517090 0.831543 0.624023
0.646484 0.831543 0.624023
0.756836 0.831543 0.624023
0.854980 0.831543 0.624023
0.943848 0.831543 0.624023
0.000001 0.934082 0.624023
0.196655 0.934082 0.624023
0.367920 0.934082 0.624023
0.517090 0.934082 0.624023
0.646484 0.934082 0.624023
0.756836 0.934082 0.624023
0.854980 0.934082 0.624023
0.943848 0.934082 0.624023
0.000001 0.000000 0.747559
0.196777 0.000000 0.747559
0.367920 0.000000 0.747559
0.517090 0.000000 0.747559
0.646484 0.000000 0.747559
0.756836 0.000000 0.747559
0.854980 0.000000 0.747559
0.943848 0.000000 0.747559
0.000001 0.183716 0.747559
0.196777 0.183716 0.747559
0.367920 0.183716 0.747559
0.517090 0.183716 0.747559
0.646484 0.183716 0.747559
0.756836 0.183716 0.747559
0.854980 0.183716 0.747559
0.943848 0.183716 0.747559
0.000001 0.349854 0.747559
0.196777 0.349854 0.747559
0.367920 0.349854 0.747559
0.517090 0.349854 0.747559
0.646484 0.349854 0.747559
0.756836 0.349854 0.747559
0.854980 0.349854 0.747559
0.943848 0.349854 0.747559
0.000001 0.488770 0.747559
0.196777 0.488770 0.747559
0.367920 0.488770 0.747559
0.517090 0.488770 0.747559
0.646484 0.488770 0.747559
0.756836 0.488770 0.747559
0.854980 0.488770 0.747559
0.943848 0.488770 0.747559
0.000001 0.610840 0.747559
0.196777 0.610840 0.747559
0.367920 0.610840 0.747559
0.517090 0.610840 0.747559
0.646484 0.611328 0.747559
0.756836 0.611328 0.747559
0.854980 0.611328 0.747559
0.943848 0.611328 0.747559
0.000001 0.725586 0.747559
0.196777 0.725586 0.747559
0.367920 0.725586 0.747559
0.517090 0.725586 0.747559
0.646484 0.725586 0.747559
0.756836 0.725586 0.747559
0.854980 0.725586 0.747559
0.943848 0.725586 0.747559
0.000001 0.831543 0.747559
0.196777 0.831543 0.747559
0.367920 0.831543 0.747559
0.517090 0.831543 0.747559
0.646484 0.831543 0.747559
0.756836 0.831543 0.747559
0.854980 0.831543 0.747559
0.943848 0.831543 0.747559
0.000001 0.934082 0.747559
0.196777 0.934082 0.747559
0.367920 0.934082 0.747559
0.517090 0.934082 0.747559
0.646484 0.934082 0.747559
0.756836 0.934082 0.747559
0.854980 0.934082 0.747559
0.943848 0.934082 0.747559
0.000002 0.000000 0.853516
0.196777 0.000000 0.853516
0.368164 0.000000 0.853516
0.517090 0.000000 0.853516
0.646484 0.000000 0.853516
0.756836 0.000000 0.853516
0.854980 0.000000 0.853516
0.943848 0.000000 0.853516
0.000002 0.183716 0.853516
0.196777 0.183716 0.853516
0.368164 0.183716 0.853516
0.517090 0.183716 0.853516
0.646484 0.183716 0.853516
0.756836 0.183716 0.853516
0.854980 0.183716 0.853516
0.943848 0.183716 0.853516
0.000002 0.349854 0.853516
0.196777 0.349854 0.853516
0.368164 0.349854 0.853516
0.517090 0.349854 0.853516
0.646484 0.349854 0.853516
0.756836 0.349854 0.853516
0.854980 0.349854 0.853516
0.943848 0.349854 0.853516
0.000002 0.488770 0.853516
0.196777 0.488770 0.853516
0.368164 0.488770 0.853516
0.517090 0.488770 0.853516
0.646484 0.488770 0.853516
0.756836 0.488770 0.853516
0.854980 0.488770 0.853516
0.943848 0.488770 0.853516
0.000002 0.610840 0.853516
0.196777 0.610840 0.853516
0.368164 0.610840 0.853516
0.517090 0.610840 0.853516
0.646484 0.610840 0.853516
0.756836 0.611328 0.853516
0.854980 0.611328 0.853516
0.943848 0.611328 0.853516
0.000002 0.725586 0.853516
0.196777 0.725586 0.853516
0.368164 0.725586 0.853516
0.517090 0.725586 0.853516
0.646484 0.725586 0.853516
0.756836 0.725586 0.853516
0.854980 0.725586 0.853516
0.943848 0.725586 0.853516
0.000002 0.831543 0.853516
0.196777 0.831543 0.853516
0.368164 0.831543 0.853516
0.517090 0.831543 0.853516
0.646484 0.831543 0.853516
0.756836 0.831543 0.853516
0.854980 0.831543 0.853516
0.943848 0.831543 0.853516
0.000002 0.934082 0.853516
0.196777 0.934082 0.853516
0.368164 0.934082 0.853516
0.517090 0.934082 0.853516
0.646484 0.934082 0.853516
0.756836 0.934082 0.853516
0.854980 0.934082 0.853516
0.943848 0.934082 0.853516
0.000003 0.000000 0.944336
0.196777 0.000000 0.944336
0.368164 0.000000 0.944336
0.517090 0.000000 0.944336
0.646484 0.000000 0.944336
0.756836 0.000000 0.944336
0.854980 0.000000 0.944336
0.943848 0.000000 0.944336
0.000003 0.183716 0.944336
0.196777 0.183716 0.944336
0.368164 0.183716 0.944336
0.517090 0.183716 0.944336
0.646484 0.183716 0.944336
0.756836 0.183716 0.944336
0.854980 0.183716 0.944336
0.943848 0.183716 0.944336
0.000003 0.349854 0.944336
0.196777 0.349854 0.944336
0.368164 0.349854 0.944336
0.517090 0.349854 0.944336
0.646484 0.349854 0.944336
0.756836 0.349854 0.944336
0.854980 0.349854 0.944336
0.943848 0.349854 0.944336
0.000003 0.488770 0.944336
0.196777 0.488770 0.944336
0.368164 0.488770 0.944336
0.517090 0.488770 0.944336
0.646484 0.488770 0.944336
0.756836 0.488770 0.944336
0.854980 0.488770 0.944336
0.943848 0.488770 0.944336
0.000003 0.610840 0.944336
0.196777 0.610840 0.944336
0.368164 0.610840 0.944336
0.517090 0.610840 0.944336
0.646484 0.610840 0.944336
0.756836 0.610840 0.944336
0.854980 0.611328 0.944336
0.943848 0.611328 0.944336
0.000003 0.725586 0.944336
0.196777 0.725586 0.944336
0.368164 0.725586 0.944336
0.517090 0.725586 0.944336
0.646484 0.725586 0.944336
0.756836 0.725586 0.944336
0.854980 0.725586 0.944336
0.943848 0.725586 0.944336
0.000003 0.831543 0.944336
0.196777 0.831543 0.944336
0.368164 0.831543 0.944336
0.517090 0.831543 0.944336
0.646484 0.831543 0.944336
0.756836 0.831543 0.944336
0.854980 0.831543 0.944336
0.943848 0.831543 0.944336
0.000003 0.934082 0.944336
0.196777 0.934082 0.944336
0.368164 0.934082 0.944336
0.517090 0.934082 0.944336
0.646484 0.934082 0.944336
0.756836 0.934082 0.944336
0.854980 0.934082 0.944336
0.943848 0.934082 0.944336
