cubelut/Adanmq_Ektachrome e100s.cube
TITLE "Generated by Foundry::LUT"
LUT_3D_SIZE 32
0.000000 0.000000 0.000000
0.000370 0.000000 0.000000
0.006588 0.000000 0.000000
0.038300 0.000000 0.000000
0.112000 0.000000 0.000000
0.213745 0.000000 0.000000
0.323242 0.000000 0.000000
0.424316 0.000000 0.000000
0.513184 0.000000 0.000000
0.586914 0.000000 0.000000
0.650391 0.000000 0.000000
0.700195 0.000000 0.000000
0.741699 0.000000 0.000000
0.772949 0.000000 0.000000
0.800781 0.000000 0.000000
0.825684 0.000000 0.000000
0.845703 0.000000 0.000000
0.863281 0.000000 0.000000
0.878906 0.000000 0.000000
0.893066 0.000000 0.000000
0.907715 0.000000 0.000000
0.920898 0.000000 0.000000
0.929688 0.000000 0.000000
0.937988 0.000000 0.000000
0.946289 0.000000 0.000000
0.957520 0.000000 0.000000
0.966797 0.000000 0.000000
0.974121 0.000000 0.000000
0.980957 0.000000 0.000000
0.986816 0.000000 0.000000
0.993652 0.000000 0.000000
1.000000 0.000000 0.000000
0.000000 0.000137 0.000000
0.000370 0.000137 0.000000
0.006588 0.000137 0.000000
0.038300 0.000137 0.000000
0.112000 0.000137 0.000000
0.213745 0.000137 0.000000
0.323242 0.000137 0.000000
0.424316 0.000137 0.000000
0.513184 0.000137 0.000000
0.586914 0.000137 0.000000
0.650391 0.000137 0.000000
0.700195 0.000137 0.000000
0.741699 0.000137 0.000000
0.772949 0.000137 0.000000
0.800781 0.000137 0.000000
0.825684 0.000137 0.000000
0.845703 0.000137 0.000000
0.863281 0.000137 0.000000
0.878906 0.000137 0.000000
0.893066 0.000137 0.000000
0.907715 0.000137 0.000000
0.920898 0.000137 0.000000
0.929688 0.000137 0.000000
0.937988 0.000137 0.000000
0.946289 0.000137 0.000000
0.957520 0.000137 0.000000
0.966797 0.000137 0.000000
0.974121 0.000137 0.000000
0.980957 0.000137 0.000000
0.986816 0.000137 0.000000
0.993652 0.000137 0.000000
1.000000 0.000137 0.000000
0.000000 0.002642 0.000000
0.000370 0.002644 0.000000
0.006588 0.002644 0.000000
0.038300 0.002644 0.000000
0.112000 0.002644 0.000000
0.213745 0.002644 0.000000
0.323242 0.002644 0.000000
0.424316 0.002644 0.000000
0.513184 0.002644 0.000000
0.586914 0.002644 0.000000
0.650391 0.002644 0.000000
0.700195 0.002644 0.000000
0.741699 0.002644 0.000000
0.772949 0.002644 0.000000
0.800781 0.002644 0.000000
0.825684 0.002644 0.000000
0.845703 0.002645 0.000000
0.863281 0.002645 0.000000
0.878906 0.002645 0.000000
0.893066 0.002645 0.000000
0.907715 0.002645 0.000000
0.920898 0.002645 0.000000
0.929688 0.002645 0.000000
0.937988 0.002645 0.000000
0.946289 0.002645 0.000000
0.957520 0.002645 0.000000
0.966797 0.002645 0.000000
0.974121 0.002645 0.000000
0.980957 0.002645 0.000000
0.986816 0.002645 0.000000
0.993652 0.002647 0.000000
1.000000 0.002647 0.000000
0.000000 0.016220 0.000000
0.000370 0.016220 0.000000
0.006588 0.016220 0.000000
0.038300 0.016220 0.000000
0.112000 0.016220 0.000000
0.213745 0.016220 0.000000
0.323242 0.016235 0.000000
0.424316 0.016235 0.000000
0.513184 0.016235 0.000000
0.586914 0.016235 0.000000
0.650391 0.016235 0.000000
0.700195 0.016235 0.000000
0.741699 0.016235 0.000000
0.772949 0.016235 0.000000
0.800781 0.016235 0.000000
0.825684 0.016235 0.000000
0.845703 0.016235 0.000000
0.863281 0.016235 0.000000
0.878906 0.016235 0.000000
0.893066 0.016235 0.000000
0.907715 0.016235 0.000000
0.920898 0.016235 0.000000
0.929688 0.016235 0.000000
0.937988 0.016235 0.000000
0.946289 0.016235 0.000000
0.957520 0.016235 0.000000
0.966797 0.016235 0.000000
0.974121 0.016235 0.000000
0.980957 0.016235 0.000000
0.986816 0.016235 0.000000
0.993652 0.016235 0.000000
1.000000 0.016235 0.000000
0.000000 0.051788 0.000000
0.000370 0.051788 0.000000
0.006588 0.051788 0.000000
0.038300 0.051788 0.000000
0.112000 0.051788 0.000000
0.213745 0.051788 0.000000
0.323242 0.051788 0.000000
0.424316 0.051788 0.000000
0.513184 0.051788 0.000000
0.586914 0.051788 0.000000
0.650391 0.051819 0.000000
0.700195 0.051819 0.000000
0.741699 0.051819 0.000000
0.772949 0.051819 0.000000
0.800781 0.051819 0.000000
0.825684 0.051819 0.000000
0.845703 0.051819 0.000000
0.863281 0.051819 0.000000
0.878906 0.051819 0.000000
0.893066 0.051819 0.000000
0.907715 0.051819 0.000000
0.920898 0.051819 0.000000
0.929688 0.051819 0.000000
0.937988 0.051819 0.000000
0.946289 0.051819 0.000000
0.957520 0.051819 0.000000
0.966797 0.051819 0.000000
0.974121 0.051819 0.000000
0.980957 0.051819 0.000000
0.986816 0.051819 0.000000
0.993652 0.051819 0.000000
1.000000 0.051819 0.000000
0.000000 0.113647 0.000000
0.000370 0.113647 0.000000
0.006588 0.113647 0.000000
0.038300 0.113647 0.000000
0.112000 0.113647 0.000000
0.213745 0.113647 0.000000
0.323242 0.113647 0.000000
0.424316 0.113647 0.000000
0.513184 0.113647 0.000000
0.586914 0.113647 0.000000
0.650391 0.113647 0.000000
0.700195 0.113647 0.000000
0.741699 0.113647 0.000000
0.772949 0.113647 0.000000
0.800781 0.113647 0.000000
0.825684 0.113647 0.000000
0.845703 0.113647 0.000000
0.863281 0.113647 0.000000
0.878906 0.113647 0.000000
0.893066 0.113647 0.000000
0.907715 0.113647 0.000000
0.920898 0.113647 0.000000
0.929688 0.113647 0.000000
0.937988 0.113647 0.000000
0.946289 0.113708 0.000000
0.957520 0.113708 0.000000
0.966797 0.113708 0.000000
0.974121 0.113708 0.000000
0.980957 0.113708 0.000000
0.986816 0.113708 0.000000
0.993652 0.113708 0.000000
1.000000 0.113708 0.000000
0.000000 0.191528 0.000000
0.000370 0.191650 0.000000
0.006588 0.191650 0.000000
0.038300 0.191650 0.000000
0.112000 0.191650 0.000000
0.213745 0.191650 0.000000
0.323242 0.191650 0.000000
0.424316 0.191650 0.000000
0.513184 0.191650 0.000000
0.586914 0.191650 0.000000
0.650391 0.191650 0.000000
0.700195 0.191650 0.000000
0.741699 0.191650 0.000000
0.772949 0.191650 0.000000
0.800781 0.191650 0.000000
0.825684 0.191650 0.000000
0.845703 0.191650 0.000000
0.863281 0.191650 0.000000
0.878906 0.191650 0.000000
0.893066 0.191650 0.000000
0.907715 0.191650 0.000000
0.920898 0.191650 0.000000
0.929688 0.191650 0.000000
0.937988 0.191650 0.000000
0.946289 0.191650 0.000000
0.957520 0.191650 0.000000
0.966797 0.191650 0.000000
0.974121 0.191650 0.000000
0.980957 0.191650 0.000000
0.986816 0.191650 0.000000
0.993652 0.191650 0.000000
1.000000 0.191650 0.000000
0.000000 0.274170 0.000000
0.000370 0.274170 0.000000
0.006588 0.274170 0.000000
0.038300 0.274170 0.000000
0.112000 0.274170 0.000000
0.213745 0.274170 0.000000
0.323242 0.274170 0.000000
0.424316 0.274170 0.000000
0.513184 0.274170 0.000000
0.586914 0.274170 0.000000
0.650391 0.274170 0.000000
0.700195 0.274170 0.000000
0.741699 0.274170 0.000000
0.772949 0.274170 0.000000
0.800781 0.274170 0.000000
0.825684 0.274170 0.000000
0.845703 0.274170 0.000000
0.863281 0.274170 0.000000
0.878906 0.274170 0.000000
0.893066 0.274170 0.000000
0.907715 0.274170 0.000000
0.920898 0.274170 0.000000
0.929688 0.274170 0.000000
0.937988 0.274170 0.000000
0.946289 0.274170 0.000000
0.957520 0.274170 0.000000
0.966797 0.274170 0.000000
0.974121 0.274170 0.000000
0.980957 0.274170 0.000000
0.986816 0.274170 0.000000
0.993652 0.274170 0.000000
1.000000 0.274170 0.000000
0.000000 0.354980 0.000000
0.000370 0.354980 0.000000
0.006588 0.354980 0.000000
0.038300 0.354980 0.000000
0.112000 0.354980 0.000000
0.213745 0.354980 0.000000
0.323242 0.354980 0.000000
0.424316 0.354980 0.000000
0.513184 0.354980 0.000000
0.586914 0.354980 0.000000
0.650391 0.354980 0.000000
0.700195 0.354980 0.000000
0.741699 0.354980 0.000000
0.772949 0.354980 0.000000
0.800781 0.354980 0.000000
0.825684 0.354980 0.000000
0.845703 0.354980 0.000000
0.863281 0.354980 0.000000
0.878906 0.354980 0.000000
0.893066 0.354980 0.000000
0.907715 0.354980 0.000000
0.920898 0.354980 0.000000
0.929688 0.354980 0.000000
0.937988 0.354980 0.000000
0.946289 0.354980 0.000000
0.957520 0.354980 0.000000
0.966797 0.354980 0.000000
0.974121 0.354980 0.000000
0.980957 0.354980 0.000000
0.986816 0.354980 0.000000
0.993652 0.354980 0.000000
1.000000 0.354980 0.000000
0.000000 0.430176 0.000000
0.000370 0.430176 0.000000
0.006588 0.430176 0.000000
0.038300 0.430176 0.000000
0.112000 0.430176 0.000000
0.213745 0.430176 0.000000
0.323242 0.430176 0.000000
0.424316 0.430176 0.000000
0.513184 0.430176 0.000000
0.586914 0.430176 0.000000
0.650391 0.430176 0.000000
0.700195 0.430176 0.000000
0.741699 0.430176 0.000000
0.772949 0.430176 0.000000
0.800781 0.430176 0.000000
0.825684 0.430176 0.000000
0.845703 0.430176 0.000000
0.863281 0.430176 0.000000
0.878906 0.430176 0.000000
0.893066 0.430176 0.000000
0.907715 0.430176 0.000000
0.920898 0.430176 0.000000
0.929688 0.430176 0.000000
0.937988 0.430176 0.000000
0.946289 0.430176 0.000000
0.957520 0.430176 0.000000
0.966797 0.430176 0.000000
0.974121 0.430176 0.000000
0.980957 0.430176 0.000000
0.986816 0.430176 0.000000
0.993652 0.430176 0.000000
1.000000 0.430176 0.000000
0.000000 0.497070 0.000000
0.000370 0.497070 0.000000
0.006588 0.497070 0.000000
0.038300 0.497314 0.000000
0.112000 0.497314 0.000000
0.213745 0.497314 0.000000
0.323242 0.497314 0.000000
0.424316 0.497314 0.000000
0.513184 0.497314 0.000000
0.586914 0.497314 0.000000
0.650391 0.497314 0.000000
0.700195 0.497314 0.000000
0.741699 0.497314 0.000000
0.772949 0.497314 0.000000
0.800781 0.497314 0.000000
0.825684 0.497314 0.000000
0.845703 0.497314 0.000000
0.863281 0.497314 0.000000
0.878906 0.497314 0.000000
0.893066 0.497314 0.000000
0.907715 0.497314 0.000000
0.920898 0.497314 0.000000
0.929688 0.497314 0.000000
0.937988 0.497314 0.000000
0.946289 0.497314 0.000000
0.957520 0.497314 0.000000
0.966797 0.497314 0.000000
0.974121 0.497314 0.000000
0.980957 0.497314 0.000000
0.986816 0.497314 0.000000
0.993652 0.497314 0.000000
1.000000 0.497314 0.000000
0.000000 0.554688 0.000000
0.000370 0.554688 0.000000
0.006588 0.554688 0.000000
0.038300 0.554688 0.000000
0.112000 0.554688 0.000000
0.213745 0.554688 0.000000
0.323242 0.554688 0.000000
0.424316 0.554688 0.000000
0.513184 0.554688 0.000000
0.586914 0.554688 0.000000
0.650391 0.554688 0.000000
0.700195 0.554688 0.000000
0.741699 0.554688 0.000000
0.772949 0.554688 0.000000
0.800781 0.554688 0.000000
0.825684 0.554688 0.000000
0.845703 0.554688 0.000000
0.863281 0.554688 0.000000
0.878906 0.554688 0.000000
0.893066 0.554688 0.000000
0.907715 0.554688 0.000000
0.920898 0.554688 0.000000
0.929688 0.554688 0.000000
0.937988 0.554688 0.000000
0.946289 0.554688 0.000000
0.957520 0.554688 0.000000
0.966797 0.554688 0.000000
0.974121 0.554688 0.000000
0.980957 0.554688 0.000000
0.986816 0.554688 0.000000
0.993652 0.554688 0.000000
1.000000 0.554688 0.000000
0.000000 0.603516 0.000000
0.000370 0.603516 0.000000
0.006588 0.603516 0.000000
0.038300 0.603516 0.000000
0.112000 0.603516 0.000000
0.213745 0.603516 0.000000
0.323242 0.603516 0.000000
0.424316 0.603516 0.000000
0.513184 0.604004 0.000000
0.586914 0.604004 0.000000
0.650391 0.604004 0.000000
0.700195 0.604004 0.000000
0.741699 0.604004 0.000000
0.772949 0.604004 0.000000
0.800781 0.604004 0.000000
0.825684 0.604004 0.000000
0.845703 0.604004 0.000000
0.863281 0.604004 0.000000
0.878906 0.604004 0.000000
0.893066 0.604004 0.000000
0.907715 0.604004 0.000000
0.920898 0.604004 0.000000
0.929688 0.604004 0.000000
0.937988 0.604004 0.000000
0.946289 0.604004 0.000000
0.957520 0.604004 0.000000
0.966797 0.604004 0.000000
0.974121 0.604004 0.000000
0.980957 0.604004 0.000000
0.986816 0.604004 0.000000
0.993652 0.604004 0.000000
1.000000 0.604004 0.000000
0.000000 0.645508 0.000000
0.000370 0.645508 0.000000
0.006588 0.645508 0.000000
0.038300 0.645508 0.000000
0.112000 0.645508 0.000000
0.213745 0.645508 0.000000
0.323242 0.645508 0.000000
0.424316 0.645508 0.000000
0.513184 0.645508 0.000000
0.586914 0.645508 0.000000
0.650391 0.645508 0.000000
0.700195 0.645508 0.000000
0.741699 0.645508 0.000000
0.772949 0.645508 0.000000
0.800781 0.645508 0.000000
0.825684 0.645508 0.000000
0.845703 0.645508 0.000000
0.863281 0.645508 0.000000
0.878906 0.645508 0.000000
0.893066 0.645508 0.000000
0.907715 0.645508 0.000000
0.920898 0.645508 0.000000
0.929688 0.645508 0.000000
0.937988 0.645508 0.000000
0.946289 0.645508 0.000000
0.957520 0.645508 0.000000
0.966797 0.645508 0.000000
0.974121 0.645508 0.000000
0.980957 0.645508 0.000000
0.986816 0.645508 0.000000
0.993652 0.645508 0.000000
1.000000 0.645508 0.000000
0.000000 0.681641 0.000000
0.000370 0.681641 0.000000
0.006588 0.681641 0.000000
0.038300 0.681641 0.000000
0.112000 0.681641 0.000000
0.213745 0.681641 0.000000
0.323242 0.681641 0.000000
0.424316 0.681641 0.000000
0.513184 0.681641 0.000000
0.586914 0.681641 0.000000
0.650391 0.681641 0.000000
0.700195 0.681641 0.000000
0.741699 0.681641 0.000000
0.772949 0.681641 0.000000
0.800781 0.681641 0.000000
0.825684 0.681641 0.000000
0.845703 0.681641 0.000000
0.863281 0.681641 0.000000
0.878906 0.681641 0.000000
0.893066 0.681641 0.000000
0.907715 0.681641 0.000000
0.920898 0.681641 0.000000
0.929688 0.681641 0.000000
0.937988 0.681641 0.000000
0.946289 0.681641 0.000000
0.957520 0.681641 0.000000
0.966797 0.681641 0.000000
0.974121 0.681641 0.000000
0.980957 0.681641 0.000000
0.986816 0.681641 0.000000
0.993652 0.681641 0.000000
1.000000 0.681641 0.000000
0.000000 0.713379 0.000000
0.000370 0.713379 0.000000
0.006588 0.713379 0.000000
0.038300 0.713379 0.000000
0.112000 0.713379 0.000000
0.213745 0.713379 0.000000
0.323242 0.713379 0.000000
0.424316 0.713379 0.000000
0.513184 0.713379 0.000000
0.586914 0.713379 0.000000
0.650391 0.713379 0.000000
0.700195 0.713379 0.000000
0.741699 0.713379 0.000000
0.772949 0.713379 0.000000
0.800781 0.713379 0.000000
0.825684 0.713379 0.000000
0.845703 0.713379 0.000000
0.863281 0.713379 0.000000
0.878906 0.713379 0.000000
0.893066 0.713379 0.000000
0.907715 0.713379 0.000000
0.920898 0.713379 0.000000
0.929688 0.713379 0.000000
0.937988 0.713379 0.000000
0.946289 0.713379 0.000000
0.957520 0.713379 0.000000
0.966797 0.713379 0.000000
0.974121 0.713379 0.000000
0.980957 0.713379 0.000000
0.986816 0.713379 0.000000
0.993652 0.713379 0.000000
1.000000 0.713379 0.000000
0.000000 0.741699 0.000000
0.000370 0.741699 0.000000
0.006588 0.741699 0.000000
0.038300 0.741699 0.000000
0.112000 0.741699 0.000000
0.213745 0.741699 0.000000
0.323242 0.741699 0.000000
0.424316 0.741699 0.000000
0.513184 0.741699 0.000000
0.586914 0.741699 0.000000
0.650391 0.741699 0.000000
0.700195 0.741699 0.000000
0.741699 0.741699 0.000000
0.772949 0.741699 0.000000
0.800781 0.741699 0.000000
0.825684 0.741699 0.000000
0.845703 0.741699 0.000000
0.863281 0.741699 0.000000
0.878906 0.741699 0.000000
0.893066 0.741699 0.000000
0.907715 0.741699 0.000000
0.920898 0.741699 0.000000
0.929688 0.741699 0.000000
0.937988 0.741699 0.000000
0.946289 0.741699 0.000000
0.957520 0.741699 0.000000
0.966797 0.741699 0.000000
0.974121 0.741699 0.000000
0.980957 0.741699 0.000000
0.986816 0.741699 0.000000
0.993652 0.741699 0.000000
1.000000 0.741699 0.000000
0.000000 0.768555 0.000000
0.000370 0.768555 0.000000
0.006588 0.768555 0.000000
0.038300 0.768555 0.000000
0.112000 0.768555 0.000000
0.213745 0.768555 0.000000
0.323242 0.768555 0.000000
0.424316 0.768555 0.000000
0.513184 0.768555 0.000000
0.586914 0.768555 0.000000
0.650391 0.768555 0.000000
0.700195 0.768555 0.000000
0.741699 0.768555 0.000000
0.772949 0.768555 0.000000
0.800781 0.768555 0.000000
0.825684 0.768555 0.000000
0.845703 0.768555 0.000000
0.863281 0.768555 0.000000
0.878906 0.768555 0.000000
0.893066 0.768555 0.000000
0.907715 0.768555 0.000000
0.920898 0.768555 0.000000
0.929688 0.768555 0.000000
0.937988 0.768555 0.000000
0.946289 0.768555 0.000000
0.957520 0.768555 0.000000
0.966797 0.768555 0.000000
0.974121 0.768555 0.000000
0.980957 0.768555 0.000000
0.986816 0.768555 0.000000
0.993652 0.768555 0.000000
1.000000 0.768555 0.000000
0.000000 0.792480 0.000000
0.000370 0.792480 0.000000
0.006588 0.792480 0.000000
0.038300 0.792480 0.000000
0.112000 0.792480 0.000000
0.213745 0.792480 0.000000
0.323242 0.792480 0.000000
0.424316 0.792480 0.000000
0.513184 0.792480 0.000000
0.586914 0.792480 0.000000
0.650391 0.792480 0.000000
0.700195 0.792480 0.000000
0.741699 0.792480 0.000000
0.772949 0.792480 0.000000
0.800781 0.792480 0.000000
0.825684 0.792480 0.000000
0.845703 0.792480 0.000000
0.863281 0.792480 0.000000
0.878906 0.792480 0.000000
0.893066 0.792480 0.000000
0.907715 0.792480 0.000000
0.920898 0.792480 0.000000
0.929688 0.792480 0.000000
0.937988 0.792480 0.000000
0.946289 0.792480 0.000000
0.957520 0.792480 0.000000
0.966797 0.792480 0.000000
0.974121 0.792480 0.000000
0.980957 0.792480 0.000000
0.986816 0.792480 0.000000
0.993652 0.792480 0.000000
1.000000 0.792480 0.000000
0.000000 0.813965 0.000000
0.000370 0.813965 0.000000
0.006588 0.813965 0.000000
0.038300 0.813965 0.000000
0.112000 0.813965 0.000000
0.213745 0.813965 0.000000
0.323242 0.813965 0.000000
0.424316 0.813965 0.000000
0.513184 0.813965 0.000000
0.586914 0.813965 0.000000
0.650391 0.813965 0.000000
0.700195 0.813965 0.000000
0.741699 0.813965 0.000000
0.772949 0.813965 0.000000
0.800781 0.813965 0.000000
0.825684 0.813965 0.000000
0.845703 0.813965 0.000000
0.863281 0.813965 0.000000
0.878906 0.813965 0.000000
0.893066 0.813965 0.000000
0.907715 0.813965 0.000000
0.920898 0.813965 0.000000
0.929688 0.813965 0.000000
0.937988 0.813965 0.000000
0.946289 0.813965 0.000000
0.957520 0.813965 0.000000
0.966797 0.813965 0.000000
0.974121 0.813965 0.000000
0.980957 0.813965 0.000000
0.986816 0.813965 0.000000
0.993652 0.813965 0.000000
1.000000 0.813965 0.000000
0.000000 0.834961 0.000000
0.000370 0.834961 0.000000
0.006588 0.834961 0.000000
0.038300 0.834961 0.000000
0.112000 0.834961 0.000000
0.213745 0.834961 0.000000
0.323242 0.834961 0.000000
0.424316 0.834961 0.000000
0.513184 0.834961 0.000000
0.586914 0.834961 0.000000
0.650391 0.834961 0.000000
0.700195 0.834961 0.000000
0.741699 0.834961 0.000000
0.772949 0.834961 0.000000
0.800781 0.834961 0.000000
0.825684 0.834961 0.000000
0.845703 0.834961 0.000000
0.863281 0.834961 0.000000
0.878906 0.834961 0.000000
0.893066 0.834961 0.000000
0.907715 0.834961 0.000000
0.920898 0.834961 0.000000
0.929688 0.834961 0.000000
0.937988 0.834961 0.000000
0.946289 0.834961 0.000000
0.957520 0.834961 0.000000
0.966797 0.834961 0.000000
0.974121 0.834961 0.000000
0.980957 0.834961 0.000000
0.986816 0.834961 0.000000
0.993652 0.834961 0.000000
1.000000 0.834961 0.000000
0.000000 0.855957 0.000000
0.000370 0.855957 0.000000
0.006588 0.855957 0.000000
0.038300 0.855957 0.000000
0.112000 0.855957 0.000000
0.213745 0.855957 0.000000
0.323242 0.855957 0.000000
0.424316 0.855957 0.000000
0.513184 0.855957 0.000000
0.586914 0.855957 0.000000
0.650391 0.855957 0.000000
0.700195 0.855957 0.000000
0.741699 0.855957 0.000000
0.772949 0.855957 0.000000
0.800781 0.855957 0.000000
0.825684 0.855957 0.000000
0.845703 0.855957 0.000000
0.863281 0.855957 0.000000
0.878906 0.855957 0.000000
0.893066 0.855957 0.000000
0.907715 0.855957 0.000000
0.920898 0.855957 0.000000
0.929688 0.855957 0.000000
0.937988 0.855957 0.000000
0.946289 0.855957 0.000000
0.957520 0.855957 0.000000
0.966797 0.855957 0.000000
0.974121 0.855957 0.000000
0.980957 0.855957 0.000000
0.986816 0.855957 0.000000
0.993652 0.855957 0.000000
1.000000 0.855957 0.000000
0.000000 0.875977 0.000000
0.000370 0.875977 0.000000
0.006588 0.875977 0.000000
0.038300 0.875977 0.000000
0.112000 0.875977 0.000000
0.213745 0.875977 0.000000
0.323242 0.875977 0.000000
0.424316 0.875977 0.000000
0.513184 0.875977 0.000000
0.586914 0.875977 0.000000
0.650391 0.875977 0.000000
0.700195 0.875977 0.000000
0.741699 0.875977 0.000000
0.772949 0.875977 0.000000
0.800781 0.875977 0.000000
0.825684 0.875977 0.000000
0.845703 0.875977 0.000000
0.863281 0.875977 0.000000
0.878906 0.875977 0.000000
0.893066 0.875977 0.000000
0.907715 0.875977 0.000000
0.920898 0.875977 0.000000
0.929688 0.875977 0.000000
0.937988 0.875977 0.000000
0.946289 0.875977 0.000000
0.957520 0.875977 0.000000
0.966797 0.875977 0.000000
0.974121 0.875977 0.000000
0.980957 0.875977 0.000000
0.986816 0.875977 0.000000
0.993652 0.875977 0.000000
1.000000 0.875977 0.000000
0.000000 0.893066 0.000000
0.000370 0.893066 0.000000
0.006588 0.893066 0.000000
0.038300 0.893066 0.000000
0.112000 0.893066 0.000000
0.213745 0.893066 0.000000
0.323242 0.893066 0.000000
0.424316 0.893066 0.000000
0.513184 0.893066 0.000000
0.586914 0.893066 0.000000
0.650391 0.893066 0.000000
0.700195 0.893066 0.000000
0.741699 0.893066 0.000000
0.772949 0.893066 0.000000
0.800781 0.893066 0.000000
0.825684 0.893066 0.000000
0.845703 0.893066 0.000000
0.863281 0.893066 0.000000
0.878906 0.893066 0.000000
0.893066 0.893066 0.000000
0.907715 0.893066 0.000000
0.920898 0.893066 0.000000
0.929688 0.893066 0.000000
0.937988 0.893066 0.000000
0.946289 0.893066 0.000000
0.957520 0.893066 0.000000
0.966797 0.893066 0.000000
0.974121 0.893066 0.000000
0.980957 0.893066 0.000000
0.986816 0.893066 0.000000
0.993652 0.893066 0.000000
1.000000 0.893066 0.000000
0.000000 0.909180 0.000000
0.000370 0.909180 0.000000
0.006588 0.909180 0.000000
0.038300 0.909180 0.000000
0.112000 0.909180 0.000000
0.213745 0.909180 0.000000
0.323242 0.909180 0.000000
0.424316 0.909180 0.000000
0.513184 0.909180 0.000000
0.586914 0.909180 0.000000
0.650391 0.909180 0.000000
0.700195 0.909180 0.000000
0.741699 0.909180 0.000000
0.772949 0.909180 0.000000
0.800781 0.909180 0.000000
0.825684 0.909180 0.000000
0.845703 0.909180 0.000000
0.863281 0.909180 0.000000
0.878906 0.909180 0.000000
0.893066 0.909180 0.000000
0.907715 0.909180 0.000000
0.920898 0.909180 0.000000
0.929688 0.909180 0.000000
0.937988 0.909180 0.000000
0.946289 0.909180 0.000000
0.957520 0.909180 0.000000
0.966797 0.909180 0.000000
0.974121 0.909180 0.000000
0.980957 0.909180 0.000000
0.986816 0.909180 0.000000
0.993652 0.909180 0.000000
1.000000 0.909180 0.000000
0.000000 0.924316 0.000000
0.000370 0.924316 0.000000
0.006588 0.924316 0.000000
0.038300 0.924316 0.000000
0.112000 0.924316 0.000000
0.213745 0.924316 0.000000
0.323242 0.924316 0.000000
0.424316 0.924316 0.000000
0.513184 0.924316 0.000000
0.586914 0.924316 0.000000
0.650391 0.924316 0.000000
0.700195 0.924316 0.000000
0.741699 0.924316 0.000000
0.772949 0.924316 0.000000
0.800781 0.924316 0.000000
0.825684 0.924316 0.000000
0.845703 0.924316 0.000000
0.863281 0.924316 0.000000
0.878906 0.924316 0.000000
0.893066 0.924316 0.000000
0.907715 0.924316 0.000000
0.920898 0.924316 0.000000
0.929688 0.924316 0.000000
0.937988 0.924316 0.000000
0.946289 0.924316 0.000000
0.957520 0.924316 0.000000
0.966797 0.924316 0.000000
0.974121 0.924316 0.000000
0.980957 0.924316 0.000000
0.986816 0.924316 0.000000
0.993652 0.924316 0.000000
1.000000 0.924316 0.000000
0.000000 0.938477 0.000000
0.000370 0.938477 0.000000
0.006588 0.938477 0.000000
0.038300 0.938477 0.000000
0.112000 0.938477 0.000000
0.213745 0.938477 0.000000
0.323242 0.938477 0.000000
0.424316 0.938477 0.000000
0.513184 0.938477 0.000000
0.586914 0.938477 0.000000
0.650391 0.938477 0.000000
0.700195 0.938477 0.000000
0.741699 0.938477 0.000000
0.772949 0.938477 0.000000
0.800781 0.938477 0.000000
0.825684 0.938477 0.000000
0.845703 0.938477 0.000000
0.863281 0.938477 0.000000
0.878906 0.938477 0.000000
0.893066 0.938477 0.000000
0.907715 0.938477 0.000000
0.920898 0.938477 0.000000
0.929688 0.938477 0.000000
0.937988 0.938477 0.000000
0.946289 0.938477 0.000000
0.957520 0.938477 0.000000
0.966797 0.938477 0.000000
0.974121 0.938477 0.000000
0.980957 0.938477 0.000000
0.986816 0.938477 0.000000
0.993652 0.938477 0.000000
1.000000 0.938477 0.000000
0.000000 0.953613 0.000000
0.000370 0.953613 0.000000
0.006588 0.953613 0.000000
0.038300 0.953613 0.000000
0.112000 0.953613 0.000000
0.213745 0.953613 0.000000
0.323242 0.953613 0.000000
0.424316 0.953613 0.000000
0.513184 0.953613 0.000000
0.586914 0.953613 0.000000
0.650391 0.953613 0.000000
0.700195 0.953613 0.000000
0.741699 0.953613 0.000000
0.772949 0.953613 0.000000
0.800781 0.953613 0.000000
0.825684 0.953613 0.000000
0.845703 0.953613 0.000000
0.863281 0.953613 0.000000
0.878906 0.953613 0.000000
0.893066 0.953613 0.000000
0.907715 0.953613 0.000000
0.920898 0.953613 0.000000
0.929688 0.953613 0.000000
