cubelut/Adanmq_Ektachrome 320t.cube
TITLE "Generated by Foundry::LUT"
LUT_3D_SIZE 32
0.000000 0.000000 0.000000
0.000096 0.000000 0.000000
0.001498 0.000000 0.000000
0.009193 0.000000 0.000000
0.032043 0.000000 0.000000
0.075134 0.000000 0.000000
0.136108 0.000000 0.000000
0.208374 0.000000 0.000000
0.285400 0.000000 0.000000
0.360596 0.000000 0.000000
0.432129 0.000000 0.000000
0.499512 0.000000 0.000000
0.562500 0.000000 0.000000
0.620605 0.000000 0.000000
0.674316 0.000000 0.000000
0.721680 0.000000 0.000000
0.762695 0.000000 0.000000
0.795898 0.000000 0.000000
0.824219 0.000000 0.000000
0.850098 0.000000 0.000000
0.872559 0.000000 0.000000
0.890625 0.000000 0.000000
0.904785 0.000000 0.000000
0.918945 0.000000 0.000000
0.934082 0.000000 0.000000
0.948242 0.000000 0.000000
0.960938 0.000000 0.000000
0.970215 0.000000 0.000000
0.978027 0.000000 0.000000
0.986816 0.000000 0.000000
0.993652 0.000000 0.000000
1.000000 0.000000 0.000000
0.000000 0.000047 0.000000
0.000096 0.000047 0.000000
0.001498 0.000047 0.000000
0.009193 0.000047 0.000000
0.032043 0.000047 0.000000
0.075134 0.000047 0.000000
0.136108 0.000047 0.000000
0.208374 0.000047 0.000000
0.285400 0.000047 0.000000
0.360596 0.000047 0.000000
0.432129 0.000047 0.000000
0.499512 0.000047 0.000000
0.562500 0.000047 0.000000
0.620605 0.000047 0.000000
0.674316 0.000047 0.000000
0.721680 0.000047 0.000000
0.762695 0.000047 0.000000
0.795898 0.000047 0.000000
0.824219 0.000047 0.000000
0.850098 0.000047 0.000000
0.872559 0.000047 0.000000
0.890625 0.000047 0.000000
0.904785 0.000047 0.000000
0.918945 0.000047 0.000000
0.934082 0.000047 0.000000
0.948242 0.000047 0.000000
0.960938 0.000047 0.000000
0.970215 0.000047 0.000000
0.978027 0.000047 0.000000
0.986816 0.000047 0.000000
0.993652 0.000047 0.000000
1.000000 0.000047 0.000000
0.000000 0.000763 0.000000
0.000096 0.000763 0.000000
0.001498 0.000763 0.000000
0.009193 0.000763 0.000000
0.032043 0.000763 0.000000
0.075134 0.000763 0.000000
0.136108 0.000763 0.000000
0.208374 0.000764 0.000000
0.285400 0.000764 0.000000
0.360596 0.000764 0.000000
0.432129 0.000764 0.000000
0.499512 0.000764 0.000000
0.562500 0.000764 0.000000
0.620605 0.000764 0.000000
0.674316 0.000764 0.000000
0.721680 0.000764 0.000000
0.762695 0.000764 0.000000
0.795898 0.000764 0.000000
0.824219 0.000764 0.000000
0.850098 0.000764 0.000000
0.872559 0.000764 0.000000
0.890625 0.000764 0.000000
0.904785 0.000764 0.000000
0.918945 0.000764 0.000000
0.934082 0.000764 0.000000
0.948242 0.000764 0.000000
0.960938 0.000764 0.000000
0.970215 0.000764 0.000000
0.978027 0.000764 0.000000
0.986816 0.000764 0.000000
0.993652 0.000764 0.000000
1.000000 0.000764 0.000000
0.000000 0.004921 0.000000
0.000096 0.004921 0.000000
0.001498 0.004921 0.000000
0.009193 0.004921 0.000000
0.032043 0.004921 0.000000
0.075134 0.004921 0.000000
0.136108 0.004921 0.000000
0.208374 0.004921 0.000000
0.285400 0.004925 0.000000
0.360596 0.004925 0.000000
0.432129 0.004925 0.000000
0.499512 0.004925 0.000000
0.562500 0.004925 0.000000
0.620605 0.004925 0.000000
0.674316 0.004925 0.000000
0.721680 0.004925 0.000000
0.762695 0.004925 0.000000
0.795898 0.004925 0.000000
0.824219 0.004925 0.000000
0.850098 0.004925 0.000000
0.872559 0.004925 0.000000
0.890625 0.004925 0.000000
0.904785 0.004925 0.000000
0.918945 0.004925 0.000000
0.934082 0.004925 0.000000
0.948242 0.004925 0.000000
0.960938 0.004925 0.000000
0.970215 0.004925 0.000000
0.978027 0.004925 0.000000
0.986816 0.004925 0.000000
0.993652 0.004929 0.000000
1.000000 0.004929 0.000000
0.000000 0.018494 0.000000
0.000096 0.018494 0.000000
0.001498 0.018494 0.000000
0.009193 0.018494 0.000000
0.032043 0.018494 0.000000
0.075134 0.018494 0.000000
0.136108 0.018494 0.000000
0.208374 0.018494 0.000000
0.285400 0.018494 0.000000
0.360596 0.018494 0.000000
0.432129 0.018494 0.000000
0.499512 0.018494 0.000000
0.562500 0.018494 0.000000
0.620605 0.018494 0.000000
0.674316 0.018494 0.000000
0.721680 0.018494 0.000000
0.762695 0.018494 0.000000
0.795898 0.018494 0.000000
0.824219 0.018494 0.000000
0.850098 0.018494 0.000000
0.872559 0.018494 0.000000
0.890625 0.018494 0.000000
0.904785 0.018494 0.000000
0.918945 0.018494 0.000000
0.934082 0.018494 0.000000
0.948242 0.018509 0.000000
0.960938 0.018509 0.000000
0.970215 0.018509 0.000000
0.978027 0.018509 0.000000
0.986816 0.018509 0.000000
0.993652 0.018509 0.000000
1.000000 0.018509 0.000000
0.000000 0.047668 0.000000
0.000096 0.047668 0.000000
0.001498 0.047668 0.000000
0.009193 0.047668 0.000000
0.032043 0.047668 0.000000
0.075134 0.047668 0.000000
0.136108 0.047668 0.000000
0.208374 0.047668 0.000000
0.285400 0.047668 0.000000
0.360596 0.047668 0.000000
0.432129 0.047668 0.000000
0.499512 0.047668 0.000000
0.562500 0.047668 0.000000
0.620605 0.047668 0.000000
0.674316 0.047668 0.000000
0.721680 0.047668 0.000000
0.762695 0.047668 0.000000
0.795898 0.047668 0.000000
0.824219 0.047668 0.000000
0.850098 0.047668 0.000000
0.872559 0.047668 0.000000
0.890625 0.047668 0.000000
0.904785 0.047668 0.000000
0.918945 0.047699 0.000000
0.934082 0.047699 0.000000
0.948242 0.047699 0.000000
0.960938 0.047699 0.000000
0.970215 0.047699 0.000000
0.978027 0.047699 0.000000
0.986816 0.047699 0.000000
0.993652 0.047699 0.000000
1.000000 0.047699 0.000000
0.000000 0.094055 0.000000
0.000096 0.094055 0.000000
0.001498 0.094055 0.000000
0.009193 0.094055 0.000000
0.032043 0.094055 0.000000
0.075134 0.094055 0.000000
0.136108 0.094055 0.000000
0.208374 0.094055 0.000000
0.285400 0.094055 0.000000
0.360596 0.094055 0.000000
0.432129 0.094116 0.000000
0.499512 0.094116 0.000000
0.562500 0.094116 0.000000
0.620605 0.094116 0.000000
0.674316 0.094116 0.000000
0.721680 0.094116 0.000000
0.762695 0.094116 0.000000
0.795898 0.094116 0.000000
0.824219 0.094116 0.000000
0.850098 0.094116 0.000000
0.872559 0.094116 0.000000
0.890625 0.094116 0.000000
0.904785 0.094116 0.000000
0.918945 0.094116 0.000000
0.934082 0.094116 0.000000
0.948242 0.094116 0.000000
0.960938 0.094116 0.000000
0.970215 0.094116 0.000000
0.978027 0.094116 0.000000
0.986816 0.094116 0.000000
0.993652 0.094116 0.000000
1.000000 0.094116 0.000000
0.000000 0.152710 0.000000
0.000096 0.152710 0.000000
0.001498 0.152710 0.000000
0.009193 0.152710 0.000000
0.032043 0.152710 0.000000
0.075134 0.152710 0.000000
0.136108 0.152710 0.000000
0.208374 0.152710 0.000000
0.285400 0.152710 0.000000
0.360596 0.152710 0.000000
0.432129 0.152710 0.000000
0.499512 0.152710 0.000000
0.562500 0.152710 0.000000
0.620605 0.152710 0.000000
0.674316 0.152710 0.000000
0.721680 0.152710 0.000000
0.762695 0.152710 0.000000
0.795898 0.152710 0.000000
0.824219 0.152710 0.000000
0.850098 0.152710 0.000000
0.872559 0.152710 0.000000
0.890625 0.152710 0.000000
0.904785 0.152710 0.000000
0.918945 0.152710 0.000000
0.934082 0.152710 0.000000
0.948242 0.152710 0.000000
0.960938 0.152710 0.000000
0.970215 0.152710 0.000000
0.978027 0.152710 0.000000
0.986816 0.152710 0.000000
0.993652 0.152710 0.000000
1.000000 0.152710 0.000000
0.000000 0.220825 0.000000
0.000096 0.220825 0.000000
0.001498 0.220825 0.000000
0.009193 0.220825 0.000000
0.032043 0.220825 0.000000
0.075134 0.220825 0.000000
0.136108 0.220825 0.000000
0.208374 0.220825 0.000000
0.285400 0.220825 0.000000
0.360596 0.220825 0.000000
0.432129 0.220825 0.000000
0.499512 0.220825 0.000000
0.562500 0.220825 0.000000
0.620605 0.220825 0.000000
0.674316 0.220825 0.000000
0.721680 0.220825 0.000000
0.762695 0.220825 0.000000
0.795898 0.220825 0.000000
0.824219 0.220825 0.000000
0.850098 0.220825 0.000000
0.872559 0.220825 0.000000
0.890625 0.220825 0.000000
0.904785 0.220825 0.000000
0.918945 0.220825 0.000000
0.934082 0.220825 0.000000
0.948242 0.220825 0.000000
0.960938 0.220825 0.000000
0.970215 0.220825 0.000000
0.978027 0.220825 0.000000
0.986816 0.220825 0.000000
0.993652 0.220825 0.000000
1.000000 0.220825 0.000000
0.000000 0.291260 0.000000
0.000096 0.291260 0.000000
0.001498 0.291260 0.000000
0.009193 0.291260 0.000000
0.032043 0.291260 0.000000
0.075134 0.291260 0.000000
0.136108 0.291260 0.000000
0.208374 0.291260 0.000000
0.285400 0.291260 0.000000
0.360596 0.291260 0.000000
0.432129 0.291260 0.000000
0.499512 0.291504 0.000000
0.562500 0.291504 0.000000
0.620605 0.291504 0.000000
0.674316 0.291504 0.000000
0.721680 0.291504 0.000000
0.762695 0.291504 0.000000
0.795898 0.291504 0.000000
0.824219 0.291504 0.000000
0.850098 0.291504 0.000000
0.872559 0.291504 0.000000
0.890625 0.291504 0.000000
0.904785 0.291504 0.000000
0.918945 0.291504 0.000000
0.934082 0.291504 0.000000
0.948242 0.291504 0.000000
0.960938 0.291504 0.000000
0.970215 0.291504 0.000000
0.978027 0.291504 0.000000
0.986816 0.291504 0.000000
0.993652 0.291504 0.000000
1.000000 0.291504 0.000000
0.000000 0.364014 0.000000
0.000096 0.364014 0.000000
0.001498 0.364014 0.000000
0.009193 0.364014 0.000000
0.032043 0.364014 0.000000
0.075134 0.364014 0.000000
0.136108 0.364014 0.000000
0.208374 0.364014 0.000000
0.285400 0.364014 0.000000
0.360596 0.364014 0.000000
0.432129 0.364014 0.000000
0.499512 0.364014 0.000000
0.562500 0.364014 0.000000
0.620605 0.364014 0.000000
0.674316 0.364258 0.000000
0.721680 0.364258 0.000000
0.762695 0.364258 0.000000
0.795898 0.364258 0.000000
0.824219 0.364258 0.000000
0.850098 0.364258 0.000000
0.872559 0.364258 0.000000
0.890625 0.364258 0.000000
0.904785 0.364258 0.000000
0.918945 0.364258 0.000000
0.934082 0.364258 0.000000
0.948242 0.364258 0.000000
0.960938 0.364258 0.000000
0.970215 0.364258 0.000000
0.978027 0.364258 0.000000
0.986816 0.364258 0.000000
0.993652 0.364258 0.000000
1.000000 0.364258 0.000000
0.000000 0.432129 0.000000
0.000096 0.432129 0.000000
0.001498 0.432129 0.000000
0.009193 0.432129 0.000000
0.032043 0.432129 0.000000
0.075134 0.432129 0.000000
0.136108 0.432129 0.000000
0.208374 0.432129 0.000000
0.285400 0.432129 0.000000
0.360596 0.432129 0.000000
0.432129 0.432129 0.000000
0.499512 0.432129 0.000000
0.562500 0.432129 0.000000
0.620605 0.432129 0.000000
0.674316 0.432129 0.000000
0.721680 0.432129 0.000000
0.762695 0.432129 0.000000
0.795898 0.432129 0.000000
0.824219 0.432129 0.000000
0.850098 0.432129 0.000000
0.872559 0.432129 0.000000
0.890625 0.432129 0.000000
0.904785 0.432129 0.000000
0.918945 0.432129 0.000000
0.934082 0.432129 0.000000
0.948242 0.432129 0.000000
0.960938 0.432129 0.000000
0.970215 0.432129 0.000000
0.978027 0.432129 0.000000
0.986816 0.432129 0.000000
0.993652 0.432129 0.000000
1.000000 0.432129 0.000000
0.000000 0.496582 0.000000
0.000096 0.496582 0.000000
0.001498 0.496582 0.000000
0.009193 0.496582 0.000000
0.032043 0.496582 0.000000
0.075134 0.496582 0.000000
0.136108 0.496582 0.000000
0.208374 0.496582 0.000000
0.285400 0.496582 0.000000
0.360596 0.496582 0.000000
0.432129 0.496582 0.000000
0.499512 0.496582 0.000000
0.562500 0.496582 0.000000
0.620605 0.496582 0.000000
0.674316 0.496582 0.000000
0.721680 0.496582 0.000000
0.762695 0.496582 0.000000
0.795898 0.496582 0.000000
0.824219 0.496582 0.000000
0.850098 0.496582 0.000000
0.872559 0.496582 0.000000
0.890625 0.496582 0.000000
0.904785 0.496582 0.000000
0.918945 0.496582 0.000000
0.934082 0.496582 0.000000
0.948242 0.496582 0.000000
0.960938 0.496582 0.000000
0.970215 0.496582 0.000000
0.978027 0.496582 0.000000
0.986816 0.496582 0.000000
0.993652 0.496582 0.000000
1.000000 0.496582 0.000000
0.000000 0.555176 0.000000
0.000096 0.555176 0.000000
0.001498 0.555176 0.000000
0.009193 0.555176 0.000000
0.032043 0.555176 0.000000
0.075134 0.555176 0.000000
0.136108 0.555176 0.000000
0.208374 0.555176 0.000000
0.285400 0.555176 0.000000
0.360596 0.555176 0.000000
0.432129 0.555176 0.000000
0.499512 0.555176 0.000000
0.562500 0.555176 0.000000
0.620605 0.555176 0.000000
0.674316 0.555176 0.000000
0.721680 0.555176 0.000000
0.762695 0.555176 0.000000
0.795898 0.555176 0.000000
0.824219 0.555176 0.000000
0.850098 0.555176 0.000000
0.872559 0.555176 0.000000
0.890625 0.555176 0.000000
0.904785 0.555176 0.000000
0.918945 0.555176 0.000000
0.934082 0.555176 0.000000
0.948242 0.555176 0.000000
0.960938 0.555176 0.000000
0.970215 0.555176 0.000000
0.978027 0.555664 0.000000
0.986816 0.555664 0.000000
0.993652 0.555664 0.000000
1.000000 0.555664 0.000000
0.000000 0.606934 0.000000
0.000096 0.606934 0.000000
0.001498 0.606934 0.000000
0.009193 0.606934 0.000000
0.032043 0.606934 0.000000
0.075134 0.606934 0.000000
0.136108 0.606934 0.000000
0.208374 0.606934 0.000000
0.285400 0.606934 0.000000
0.360596 0.606934 0.000000
0.432129 0.606934 0.000000
0.499512 0.606934 0.000000
0.562500 0.606934 0.000000
0.620605 0.606934 0.000000
0.674316 0.606934 0.000000
0.721680 0.606934 0.000000
0.762695 0.606934 0.000000
0.795898 0.606934 0.000000
0.824219 0.606934 0.000000
0.850098 0.606934 0.000000
0.872559 0.606934 0.000000
0.890625 0.606934 0.000000
0.904785 0.606934 0.000000
0.918945 0.606934 0.000000
0.934082 0.606934 0.000000
0.948242 0.606934 0.000000
0.960938 0.606934 0.000000
0.970215 0.606934 0.000000
0.978027 0.606934 0.000000
0.986816 0.606934 0.000000
0.993652 0.606934 0.000000
1.000000 0.606934 0.000000
0.000000 0.653809 0.000000
0.000096 0.653809 0.000000
0.001498 0.653809 0.000000
0.009193 0.653809 0.000000
0.032043 0.653809 0.000000
0.075134 0.653809 0.000000
0.136108 0.653809 0.000000
0.208374 0.653809 0.000000
0.285400 0.653809 0.000000
0.360596 0.653809 0.000000
0.432129 0.653809 0.000000
0.499512 0.653809 0.000000
0.562500 0.653809 0.000000
0.620605 0.653809 0.000000
0.674316 0.653809 0.000000
0.721680 0.653809 0.000000
0.762695 0.653809 0.000000
0.795898 0.653809 0.000000
0.824219 0.653809 0.000000
0.850098 0.653809 0.000000
0.872559 0.653809 0.000000
0.890625 0.653809 0.000000
0.904785 0.653809 0.000000
0.918945 0.653809 0.000000
0.934082 0.653809 0.000000
0.948242 0.653809 0.000000
0.960938 0.653809 0.000000
0.970215 0.653809 0.000000
0.978027 0.653809 0.000000
0.986816 0.653809 0.000000
0.993652 0.653809 0.000000
1.000000 0.653809 0.000000
0.000000 0.697754 0.000000
0.000096 0.697754 0.000000
0.001498 0.697754 0.000000
0.009193 0.697754 0.000000
0.032043 0.697754 0.000000
0.075134 0.697754 0.000000
0.136108 0.697754 0.000000
0.208374 0.697754 0.000000
0.285400 0.697754 0.000000
0.360596 0.697754 0.000000
0.432129 0.697754 0.000000
0.499512 0.697754 0.000000
0.562500 0.697754 0.000000
0.620605 0.697754 0.000000
0.674316 0.697754 0.000000
0.721680 0.697754 0.000000
0.762695 0.697754 0.000000
0.795898 0.697754 0.000000
0.824219 0.697754 0.000000
0.850098 0.697754 0.000000
0.872559 0.697754 0.000000
0.890625 0.697754 0.000000
0.904785 0.697754 0.000000
0.918945 0.697754 0.000000
0.934082 0.697754 0.000000
0.948242 0.697754 0.000000
0.960938 0.697754 0.000000
0.970215 0.697754 0.000000
0.978027 0.697754 0.000000
0.986816 0.697754 0.000000
0.993652 0.697754 0.000000
1.000000 0.697754 0.000000
0.000000 0.737793 0.000000
0.000096 0.737793 0.000000
0.001498 0.737793 0.000000
0.009193 0.737793 0.000000
0.032043 0.737793 0.000000
0.075134 0.737793 0.000000
0.136108 0.737793 0.000000
0.208374 0.737793 0.000000
0.285400 0.737793 0.000000
0.360596 0.737793 0.000000
0.432129 0.737793 0.000000
0.499512 0.737793 0.000000
0.562500 0.737793 0.000000
0.620605 0.737793 0.000000
0.674316 0.737793 0.000000
0.721680 0.737793 0.000000
0.762695 0.737793 0.000000
0.795898 0.737793 0.000000
0.824219 0.737793 0.000000
0.850098 0.737793 0.000000
0.872559 0.737793 0.000000
0.890625 0.737793 0.000000
0.904785 0.737793 0.000000
0.918945 0.737793 0.000000
0.934082 0.737793 0.000000
0.948242 0.737793 0.000000
0.960938 0.737793 0.000000
0.970215 0.737793 0.000000
0.978027 0.737793 0.000000
0.986816 0.737793 0.000000
0.993652 0.737793 0.000000
1.000000 0.737793 0.000000
0.000000 0.772949 0.000000
0.000096 0.772949 0.000000
0.001498 0.772949 0.000000
0.009193 0.772949 0.000000
0.032043 0.772949 0.000000
0.075134 0.772949 0.000000
0.136108 0.772949 0.000000
0.208374 0.772949 0.000000
0.285400 0.772949 0.000000
0.360596 0.772949 0.000000
0.432129 0.772949 0.000000
0.499512 0.772949 0.000000
0.562500 0.772949 0.000000
0.620605 0.772949 0.000000
0.674316 0.772949 0.000000
0.721680 0.772949 0.000000
0.762695 0.772949 0.000000
0.795898 0.772949 0.000000
0.824219 0.772949 0.000000
0.850098 0.772949 0.000000
0.872559 0.772949 0.000000
0.890625 0.772949 0.000000
0.904785 0.772949 0.000000
0.918945 0.772949 0.000000
0.934082 0.772949 0.000000
0.948242 0.772949 0.000000
0.960938 0.772949 0.000000
0.970215 0.772949 0.000000
0.978027 0.772949 0.000000
0.986816 0.772949 0.000000
0.993652 0.772949 0.000000
1.000000 0.772949 0.000000
0.000000 0.805176 0.000000
0.000096 0.805176 0.000000
0.001498 0.805176 0.000000
0.009193 0.805176 0.000000
0.032043 0.805176 0.000000
0.075134 0.805176 0.000000
0.136108 0.805176 0.000000
0.208374 0.805176 0.000000
0.285400 0.805176 0.000000
0.360596 0.805176 0.000000
0.432129 0.805176 0.000000
0.499512 0.805176 0.000000
0.562500 0.805176 0.000000
0.620605 0.805176 0.000000
0.674316 0.805176 0.000000
0.721680 0.805176 0.000000
0.762695 0.805176 0.000000
0.795898 0.805176 0.000000
0.824219 0.805176 0.000000
0.850098 0.805176 0.000000
0.872559 0.805176 0.000000
0.890625 0.805176 0.000000
0.904785 0.805176 0.000000
0.918945 0.805176 0.000000
0.934082 0.805176 0.000000
0.948242 0.805176 0.000000
0.960938 0.805176 0.000000
0.970215 0.805176 0.000000
0.978027 0.805176 0.000000
0.986816 0.805176 0.000000
0.993652 0.805176 0.000000
1.000000 0.805176 0.000000
0.000000 0.833984 0.000000
0.000096 0.833984 0.000000
0.001498 0.833984 0.000000
0.009193 0.833984 0.000000
0.032043 0.833984 0.000000
0.075134 0.833984 0.000000
0.136108 0.833984 0.000000
0.208374 0.833984 0.000000
0.285400 0.833984 0.000000
0.360596 0.833984 0.000000
0.432129 0.833984 0.000000
0.499512 0.833984 0.000000
0.562500 0.833984 0.000000
0.620605 0.833984 0.000000
0.674316 0.833984 0.000000
0.721680 0.833984 0.000000
0.762695 0.833984 0.000000
0.795898 0.833984 0.000000
0.824219 0.833984 0.000000
0.850098 0.833984 0.000000
0.872559 0.833984 0.000000
0.890625 0.833984 0.000000
0.904785 0.833984 0.000000
0.918945 0.833984 0.000000
0.934082 0.833984 0.000000
0.948242 0.833984 0.000000
0.960938 0.833984 0.000000
0.970215 0.833984 0.000000
0.978027 0.833984 0.000000
0.986816 0.833984 0.000000
0.993652 0.833984 0.000000
1.000000 0.833984 0.000000
0.000000 0.858887 0.000000
0.000096 0.858887 0.000000
0.001498 0.858887 0.000000
0.009193 0.858887 0.000000
0.032043 0.858887 0.000000
0.075134 0.858887 0.000000
0.136108 0.858887 0.000000
0.208374 0.858887 0.000000
0.285400 0.858887 0.000000
0.360596 0.858887 0.000000
0.432129 0.858887 0.000000
0.499512 0.858887 0.000000
0.562500 0.858887 0.000000
0.620605 0.858887 0.000000
0.674316 0.858887 0.000000
0.721680 0.858887 0.000000
0.762695 0.858887 0.000000
0.795898 0.858887 0.000000
0.824219 0.858887 0.000000
0.850098 0.858887 0.000000
0.872559 0.858887 0.000000
0.890625 0.858887 0.000000
0.904785 0.858887 0.000000
0.918945 0.858887 0.000000
0.934082 0.858887 0.000000
0.948242 0.858887 0.000000
0.960938 0.858887 0.000000
0.970215 0.858887 0.000000
0.978027 0.858887 0.000000
0.986816 0.858887 0.000000
0.993652 0.858887 0.000000
1.000000 0.858887 0.000000
0.000000 0.880859 0.000000
0.000096 0.880859 0.000000
0.001498 0.880859 0.000000
0.009193 0.880859 0.000000
0.032043 0.880859 0.000000
0.075134 0.880859 0.000000
0.136108 0.880859 0.000000
0.208374 0.880859 0.000000
0.285400 0.880859 0.000000
0.360596 0.880859 0.000000
0.432129 0.880859 0.000000
0.499512 0.880859 0.000000
0.562500 0.880859 0.000000
0.620605 0.880859 0.000000
0.674316 0.880859 0.000000
0.721680 0.880859 0.000000
0.762695 0.880859 0.000000
0.795898 0.880859 0.000000
0.824219 0.880859 0.000000
0.850098 0.880859 0.000000
0.872559 0.880859 0.000000
0.890625 0.880859 0.000000
0.904785 0.880859 0.000000
0.918945 0.880859 0.000000
0.934082 0.880859 0.000000
0.948242 0.880859 0.000000
0.960938 0.880859 0.000000
0.970215 0.880859 0.000000
0.978027 0.880859 0.000000
0.986816 0.880859 0.000000
0.993652 0.880859 0.000000
1.000000 0.880859 0.000000
0.000000 0.902344 0.000000
0.000096 0.902344 0.000000
0.001498 0.902344 0.000000
0.009193 0.902344 0.000000
0.032043 0.902344 0.000000
0.075134 0.902344 0.000000
0.136108 0.902344 0.000000
0.208374 0.902344 0.000000
0.285400 0.902344 0.000000
0.360596 0.902344 0.000000
0.432129 0.902344 0.000000
0.499512 0.902344 0.000000
0.562500 0.902344 0.000000
0.620605 0.902344 0.000000
0.674316 0.902344 0.000000
0.721680 0.902344 0.000000
0.762695 0.902344 0.000000
0.795898 0.902344 0.000000
0.824219 0.902344 0.000000
0.850098 0.902344 0.000000
0.872559 0.902344 0.000000
0.890625 0.902344 0.000000
0.904785 0.902344 0.000000
0.918945 0.902344 0.000000
0.934082 0.902344 0.000000
0.948242 0.902344 0.000000
0.960938 0.902344 0.000000
0.970215 0.902344 0.000000
0.978027 0.902344 0.000000
0.986816 0.902344 0.000000
0.993652 0.902344 0.000000
1.000000 0.902344 0.000000
0.000000 0.922852 0.000000
0.000096 0.922852 0.000000
0.001498 0.922852 0.000000
0.009193 0.922852 0.000000
0.032043 0.922852 0.000000
0.075134 0.922852 0.000000
0.136108 0.922852 0.000000
0.208374 0.922852 0.000000
0.285400 0.922852 0.000000
0.360596 0.922852 0.000000
0.432129 0.922852 0.000000
0.499512 0.922852 0.000000
0.562500 0.922852 0.000000
0.620605 0.922852 0.000000
0.674316 0.922852 0.000000
0.721680 0.922852 0.000000
0.762695 0.922852 0.000000
0.795898 0.922852 0.000000
0.824219 0.922852 0.000000
0.850098 0.922852 0.000000
0.872559 0.922852 0.000000
0.890625 0.922852 0.000000
0.904785 0.922852 0.000000
0.918945 0.922852 0.000000
0.934082 0.922852 0.000000
0.948242 0.922852 0.000000
0.960938 0.922852 0.000000
0.970215 0.922852 0.000000
0.978027 0.922852 0.000000
0.986816 0.922852 0.000000
0.993652 0.922852 0.000000
1.000000 0.922852 0.000000
0.000000 0.940918 0.000000
0.000096 0.940918 0.000000
0.001498 0.940918 0.000000
0.009193 0.940918 0.000000
0.032043 0.940918 0.000000
0.075134 0.940918 0.000000
0.136108 0.940918 0.000000
0.208374 0.940918 0.000000
0.285400 0.940918 0.000000
0.360596 0.940918 0.000000
0.432129 0.940918 0.000000
0.499512 0.940918 0.000000
0.562500 0.940918 0.000000
0.620605 0.940918 0.000000
0.674316 0.940918 0.000000
0.721680 0.940918 0.000000
0.762695 0.940918 0.000000
0.795898 0.940918 0.000000
0.824219 0.940918 0.000000
0.850098 0.940918 0.000000
0.872559 0.940918 0.000000
0.890625 0.940918 0.000000
0.904785 0.940918 0.000000
0.918945 0.940918 0.000000
0.934082 0.940918 0.000000
0.948242 0.940918 0.000000
0.960938 0.940918 0.000000
0.970215 0.940918 0.000000
0.978027 0.940918 0.000000
0.986816 0.940918 0.000000
0.993652 0.940918 0.000000
1.000000 0.940918 0.000000
0.000000 0.955566 0.000000
0.000096 0.955566 0.000000
0.001498 0.955566 0.000000
0.009193 0.955566 0.000000
0.032043 0.955566 0.000000
0.075134 0.955566 0.000000
0.136108 0.955566 0.000000
0.208374 0.955566 0.000000
0.285400 0.955566 0.000000
0.360596 0.955566 0.000000
0.432129 0.955566 0.000000
0.499512 0.955566 0.000000
0.562500 0.955566 0.000000
0.620605 0.955566 0.000000
0.674316 0.955566 0.000000
0.721680 0.955566 0.000000
0.762695 0.955566 0.000000
0.795898 0.955566 0.000000
0.824219 0.955566 0.000000
0.850098 0.955566 0.000000
0.872559 0.955566 0.000000
0.890625 0.955566 0.000000
0.904785 0.955566 0.000000
0.918945 0.955566 0.000000
0.934082 0.955566 0.000000
0.948242 0.955566 0.000000
0.960938 0.955566 0.000000
0.970215 0.955566 0.000000
0.978027 0.955566 0.000000
0.986816 0.955566 0.000000
0.993652 0.955566 0.000000
1.000000 0.955566 0.000000
0.000000 0.967285 0.000000
0.000096 0.967285 0.000000
0.001498 0.967285 0.000000
0.009193 0.967285 0.000000
0.032043 0.967285 0.000000
0.075134 0.967285 0.000000
0.136108 0.967285 0.000000
0.208374 0.967285 0.000000
0.285400 0.967285 0.000000
0.360596 0.967285 0.000000
0.432129 0.967285 0.000000
0.499512 0.967285 0.000000
0.562500 0.967285 0.000000
0.620605 0.967285 0.000000
0.674316 0.967285 0.000000
0.721680 0.967285 0.000000
0.762695 0.967285 0.000000
0.795898 0.967285 0.000000
0.824219 0.967285 0.000000
0.850098 0.967285 0.000000
0.872559 0.967285 0.000000
0.890625 0.967285 0.000000
0.904785 0.967285 0.000000
