cubelut/Adanmq_Portra 160v.cube
TITLE "Generated by Foundry::LUT"
LUT_3D_SIZE 8
DOMAIN_MIN 0.000000 0.000000 0.000000
DOMAIN_MAX 0.903226 0.903226 0.903226
0.000000 0.000000 0.000000
0.068115 0.000000 0.000000
0.171265 0.000000 0.000000
0.292969 0.000000 0.000000
0.426025 0.000000 0.000000
0.571777 0.000000 0.000000
0.725586 0.000000 0.000000
0.884277 0.000000 0.000000
0.000000 0.061859 0.000000
0.068115 0.061859 0.000000
0.171265 0.061859 0.000000
0.292969 0.061859 0.000000
0.426025 0.061859 0.000000
0.571777 0.061859 0.000000
0.725586 0.061859 0.000000
0.884277 0.061859 0.000000
0.000000 0.161255 0.000000
0.068115 0.161255 0.000000
0.171265 0.161255 0.000000
0.292969 0.161255 0.000000
0.426025 0.161255 0.000000
0.571777 0.161255 0.000000
0.725586 0.161255 0.000000
0.884277 0.161255 0.000000
0.000000 0.281738 0.000000
0.068115 0.281738 0.000000
0.171265 0.281738 0.000000
0.292969 0.281738 0.000000
0.426025 0.281738 0.000000
0.571777 0.281738 0.000000
0.725586 0.281738 0.000000
0.884277 0.281738 0.000000
0.000000 0.415283 0.000000
0.068115 0.415283 0.000000
0.171265 0.415283 0.000000
0.292969 0.415283 0.000000
0.426025 0.415283 0.000000
0.571777 0.415283 0.000000
0.725586 0.415283 0.000000
0.884277 0.415283 0.000000
0.000000 0.561523 0.000000
0.068115 0.561523 0.000000
0.171265 0.561523 0.000000
0.292969 0.561523 0.000000
0.426025 0.561523 0.000000
0.571777 0.561523 0.000000
0.725586 0.561523 0.000000
0.884277 0.561523 0.000000
0.000000 0.719238 0.000000
0.068115 0.719238 0.000000
0.171265 0.719238 0.000000
0.292969 0.719238 0.000000
0.426025 0.719238 0.000000
0.571777 0.719238 0.000000
0.725586 0.719238 0.000000
0.884277 0.719238 0.000000
0.000000 0.884766 0.000000
0.068115 0.884766 0.000000
0.171265 0.884766 0.000000
0.292969 0.884766 0.000000
0.426025 0.884766 0.000000
0.571777 0.884766 0.000000
0.725586 0.884766 0.000000
0.884277 0.884766 0.000000
0.000000 0.000000 0.047943
0.068115 0.000000 0.047943
0.171387 0.000000 0.047943
0.292969 0.000000 0.047943
0.426025 0.000000 0.047943
0.571777 0.000000 0.047943
0.725586 0.000000 0.047943
0.884277 0.000000 0.047943
0.000000 0.061859 0.047974
0.068115 0.061859 0.047974
0.171387 0.061859 0.047974
0.292969 0.061859 0.047974
0.426025 0.061859 0.047974
0.571777 0.061859 0.047974
0.725586 0.061859 0.047974
0.884277 0.061859 0.047974
0.000000 0.161255 0.047974
0.068115 0.161255 0.047974
0.171387 0.161255 0.047974
0.292969 0.161255 0.047974
0.426025 0.161255 0.047974
0.571777 0.161255 0.047974
0.725586 0.161255 0.047974
0.884277 0.161255 0.047974
0.000000 0.281738 0.047974
0.068115 0.281738 0.047974
0.171387 0.281738 0.047974
0.292969 0.281738 0.047974
0.426025 0.281738 0.047974
0.571777 0.281738 0.047974
0.725586 0.281738 0.047974
0.884277 0.281738 0.047974
0.000000 0.415283 0.047974
0.068115 0.415283 0.047974
0.171387 0.415283 0.047974
0.292969 0.415283 0.047974
0.426025 0.415283 0.047974
0.571777 0.415283 0.047974
0.725586 0.415283 0.047974
0.884277 0.415283 0.047974
0.000000 0.561523 0.047974
0.068115 0.561523 0.047974
0.171387 0.561523 0.047974
0.292969 0.561523 0.047974
0.426025 0.561523 0.047974
0.571777 0.561523 0.047974
0.725586 0.561523 0.047974
0.884277 0.561523 0.047974
0.000000 0.719238 0.047974
0.068115 0.719238 0.047974
0.171387 0.719238 0.047974
0.292969 0.719238 0.047974
0.426025 0.719238 0.047974
0.571777 0.719238 0.047974
0.725586 0.719238 0.047974
0.884277 0.719238 0.047974
0.000000 0.884766 0.047974
0.068115 0.884766 0.047974
0.171387 0.884766 0.047974
0.292969 0.884766 0.047974
0.426025 0.884766 0.047974
0.571777 0.884766 0.047974
0.725586 0.884766 0.047974
0.884277 0.884766 0.047974
0.000000 0.000000 0.135742
0.068115 0.000000 0.135742
0.171387 0.000000 0.135742
0.293213 0.000000 0.135742
0.426025 0.000000 0.135742
0.571777 0.000000 0.135742
0.725586 0.000000 0.135742
0.884766 0.000000 0.135742
0.000000 0.061859 0.135742
0.068115 0.061859 0.135742
0.171387 0.061859 0.135742
0.293213 0.061859 0.135742
0.426025 0.061859 0.135742
0.571777 0.061859 0.135742
0.725586 0.061859 0.135742
0.884766 0.061859 0.135742
0.000000 0.161255 0.135742
0.068115 0.161255 0.135742
0.171387 0.161255 0.135742
0.293213 0.161255 0.135742
0.426025 0.161255 0.135742
0.571777 0.161255 0.135742
0.725586 0.161255 0.135742
0.884766 0.161255 0.135742
0.000000 0.281738 0.135742
0.068115 0.281738 0.135742
0.171387 0.281738 0.135742
0.293213 0.281738 0.135742
0.426025 0.281738 0.135742
0.571777 0.281738 0.135742
0.725586 0.281738 0.135742
0.884766 0.281738 0.135742
0.000000 0.415283 0.135742
0.068115 0.415283 0.135742
0.171387 0.415283 0.135742
0.293213 0.415283 0.135742
0.426025 0.415283 0.135742
0.571777 0.415283 0.135742
0.725586 0.415283 0.135742
0.884766 0.415283 0.135742
0.000000 0.561523 0.135742
0.068115 0.561523 0.135742
0.171387 0.561523 0.135864
0.293213 0.561523 0.135742
0.426025 0.561523 0.135742
0.571777 0.561523 0.135864
0.725586 0.561523 0.135864
0.884766 0.561523 0.135864
0.000000 0.719238 0.135864
0.068115 0.719238 0.135864
0.171387 0.719238 0.135864
0.293213 0.719238 0.135864
0.426025 0.719238 0.135864
0.571777 0.719238 0.135864
0.725586 0.719238 0.135864
0.884766 0.719238 0.135864
0.000000 0.884766 0.135864
0.068115 0.884766 0.135864
0.171387 0.884766 0.135864
0.293213 0.884766 0.135864
0.426025 0.884766 0.135864
0.571777 0.884766 0.135864
0.725586 0.884766 0.135864
0.884766 0.884766 0.135864
0.000000 0.000000 0.249268
0.068176 0.000000 0.249268
0.171387 0.000000 0.249268
0.293213 0.000000 0.249268
0.426025 0.000000 0.249268
0.571777 0.000000 0.249268
0.725586 0.000000 0.249268
0.884766 0.000000 0.249268
0.000000 0.061859 0.249268
0.068176 0.061859 0.249268
0.171387 0.061859 0.249268
0.293213 0.061859 0.249268
0.426025 0.061859 0.249268
0.571777 0.061859 0.249268
0.725586 0.061859 0.249268
0.884766 0.061859 0.249268
0.000000 0.161255 0.249268
0.068176 0.161255 0.249268
0.171387 0.161255 0.249268
0.293213 0.161255 0.249268
0.426025 0.161255 0.249268
0.571777 0.161255 0.249268
0.725586 0.161255 0.249268
0.884766 0.161255 0.249268
0.000000 0.281738 0.249268
0.068176 0.281738 0.249268
0.171387 0.281738 0.249268
0.293213 0.281738 0.249268
0.426025 0.281738 0.249268
0.571777 0.281738 0.249268
0.725586 0.281738 0.249268
0.884766 0.281738 0.249268
0.000000 0.415283 0.249268
0.068176 0.415283 0.249268
0.171387 0.415283 0.249268
0.293213 0.415283 0.249268
0.426025 0.415283 0.249268
0.571777 0.415283 0.249268
0.725586 0.415283 0.249268
0.884766 0.415283 0.249268
0.000000 0.561523 0.249268
0.068176 0.561523 0.249268
0.171387 0.561523 0.249268
0.293213 0.561523 0.249268
0.426025 0.561523 0.249268
0.571777 0.561523 0.249268
0.725586 0.561523 0.249268
0.884766 0.561523 0.249268
0.000000 0.719238 0.249268
0.068176 0.719238 0.249268
0.171387 0.719238 0.249268
0.293213 0.719238 0.249268
0.426025 0.719238 0.249268
0.571777 0.719238 0.249268
0.725586 0.719238 0.249268
0.884766 0.719238 0.249268
0.000000 0.884766 0.249268
0.068176 0.884766 0.249268
0.171387 0.884766 0.249268
0.293213 0.884766 0.249268
0.426025 0.884766 0.249268
0.571777 0.884766 0.249268
0.725586 0.884766 0.249268
0.884766 0.884766 0.249268
0.000000 0.000000 0.382813
0.068176 0.000000 0.382813
0.171387 0.000000 0.382813
0.293213 0.000000 0.382813
0.426025 0.000000 0.382813
0.571777 0.000000 0.382813
0.725586 0.000000 0.382813
0.884766 0.000000 0.382813
0.000000 0.061859 0.382813
0.068176 0.061859 0.382813
0.171387 0.061859 0.382813
0.293213 0.061859 0.382813
0.426025 0.061859 0.382813
0.571777 0.061859 0.382813
0.725586 0.061859 0.382813
0.884766 0.061859 0.382813
0.000000 0.161255 0.382813
0.068176 0.161255 0.382813
0.171387 0.161255 0.382813
0.293213 0.161255 0.382813
0.426025 0.161255 0.382813
0.571777 0.161255 0.382813
0.725586 0.161255 0.382813
0.884766 0.161255 0.382813
0.000000 0.281738 0.382813
0.068176 0.281738 0.382813
0.171387 0.281738 0.382813
0.293213 0.281738 0.382813
0.426025 0.281738 0.382813
0.571777 0.281738 0.382813
0.725586 0.281738 0.382813
0.884766 0.281738 0.382813
0.000000 0.415283 0.382813
0.068176 0.415283 0.382813
0.171387 0.415283 0.382813
0.293213 0.415283 0.382813
0.426025 0.415283 0.382813
0.571777 0.415283 0.382813
0.725586 0.415283 0.382813
0.884766 0.415283 0.382813
0.000000 0.561523 0.382813
0.068176 0.561523 0.382813
0.171387 0.561523 0.382813
0.293213 0.561523 0.382813
0.426025 0.561523 0.382813
0.571777 0.561523 0.382813
0.725586 0.561523 0.382813
0.884766 0.561523 0.382813
0.000000 0.719238 0.382813
0.068176 0.719238 0.382813
0.171387 0.719238 0.382813
0.293213 0.719238 0.382813
0.426025 0.719238 0.382813
0.571777 0.719238 0.382813
0.725586 0.719238 0.382813
0.884766 0.719238 0.382813
0.000000 0.884766 0.382813
0.068176 0.884766 0.382813
0.171387 0.884766 0.382813
0.293213 0.884766 0.382813
0.426025 0.884766 0.382813
0.571777 0.884766 0.382813
0.725586 0.884766 0.382813
0.884766 0.884766 0.382813
0.000000 0.000000 0.533203
0.068176 0.000000 0.533203
0.171387 0.000000 0.533203
0.293213 0.000000 0.533203
0.426025 0.000000 0.533203
0.571777 0.000000 0.533203
0.725586 0.000000 0.533203
0.884766 0.000000 0.533203
0.000000 0.061859 0.533203
0.068176 0.061859 0.533203
0.171387 0.061859 0.533203
0.293213 0.061859 0.533203
0.426025 0.061859 0.533203
0.571777 0.061859 0.533203
0.725586 0.061859 0.533203
0.884766 0.061859 0.533203
0.000000 0.161255 0.533203
0.068176 0.161255 0.533203
0.171387 0.161255 0.533203
0.293213 0.161255 0.533203
0.426025 0.161255 0.533203
0.571777 0.161255 0.533203
0.725586 0.161255 0.533203
0.884766 0.161255 0.533203
0.000000 0.281738 0.533203
0.068176 0.281738 0.533203
0.171387 0.281738 0.533203
0.293213 0.281738 0.533203
0.426025 0.281738 0.533203
0.571777 0.281738 0.533203
0.725586 0.281738 0.533203
0.884766 0.281738 0.533203
0.000000 0.415283 0.533203
0.068176 0.415283 0.533203
0.171387 0.415283 0.533203
0.293213 0.415283 0.533203
0.426025 0.415283 0.533203
0.571777 0.415283 0.533203
0.725586 0.415283 0.533203
0.884766 0.415283 0.533203
0.000000 0.561523 0.533203
0.068176 0.561523 0.533203
0.171387 0.561523 0.533203
0.293213 0.561523 0.533203
0.426025 0.561523 0.533203
0.571777 0.561523 0.533203
0.725586 0.561523 0.533203
0.884766 0.561523 0.533203
0.000000 0.719238 0.533203
0.068176 0.719238 0.533203
0.171387 0.719238 0.533203
0.293213 0.719238 0.533203
0.426025 0.719238 0.533203
0.571777 0.719238 0.533203
0.725586 0.719238 0.533203
0.884766 0.719238 0.533203
0.000000 0.884766 0.533203
0.068176 0.884766 0.533203
0.171387 0.884766 0.533203
0.293213 0.884766 0.533203
0.426025 0.884766 0.533203
0.571777 0.884766 0.533203
0.725586 0.884766 0.533203
0.884766 0.884766 0.533203
0.000000 0.000000 0.698242
0.068176 0.000000 0.698242
0.171387 0.000000 0.698242
0.293213 0.000000 0.698242
0.426270 0.000000 0.698242
0.571777 0.000000 0.698242
0.725586 0.000000 0.698242
0.884766 0.000000 0.698242
0.000000 0.061859 0.698242
0.068176 0.061859 0.698242
0.171387 0.061859 0.698242
0.293213 0.061859 0.698242
0.426270 0.061859 0.698242
0.571777 0.061859 0.698242
0.725586 0.061859 0.698242
0.884766 0.061859 0.698242
0.000000 0.161255 0.698242
0.068176 0.161255 0.698242
0.171387 0.161255 0.698242
0.293213 0.161255 0.698242
0.426270 0.161255 0.698242
0.571777 0.161255 0.698242
0.725586 0.161255 0.698242
0.884766 0.161255 0.698242
0.000000 0.281738 0.698242
0.068237 0.281738 0.698242
0.171387 0.281738 0.698242
0.293213 0.281738 0.698242
0.426270 0.281738 0.698242
0.571777 0.281738 0.698242
0.725586 0.281738 0.698242
0.884766 0.281738 0.698242
0.000000 0.415283 0.698242
0.068176 0.415283 0.698242
0.171387 0.415283 0.698242
0.293213 0.415283 0.698242
0.426270 0.415283 0.698242
0.571777 0.415283 0.698242
0.725586 0.415283 0.698242
0.884766 0.415283 0.698242
0.000000 0.561523 0.698242
0.068176 0.561523 0.698242
0.171387 0.561523 0.698242
0.293213 0.561523 0.698242
0.426270 0.561523 0.698242
0.571777 0.561523 0.698242
0.725586 0.561523 0.698242
0.884766 0.561523 0.698242
0.000000 0.719238 0.698242
0.068176 0.719238 0.698242
0.171387 0.719238 0.698242
0.293213 0.719238 0.698242
0.426270 0.719238 0.698242
0.571777 0.719238 0.698242
0.725586 0.719238 0.698242
0.884766 0.719238 0.698242
0.000000 0.884766 0.698242
0.068176 0.884766 0.698242
0.171387 0.884766 0.698242
0.293213 0.884766 0.698242
0.426270 0.884766 0.698242
0.571777 0.884766 0.698242
0.725586 0.884766 0.698242
0.884766 0.884766 0.698242
0.000000 0.000000 0.876465
0.068237 0.000000 0.876465
0.171387 0.000000 0.876465
0.293213 0.000000 0.876465
0.426270 0.000000 0.876465
0.571777 0.000000 0.876465
0.725586 0.000000 0.876465
0.884766 0.000000 0.876465
0.000000 0.061859 0.876465
0.068237 0.061859 0.876465
0.171387 0.061859 0.876465
0.293213 0.061859 0.876465
0.426270 0.061859 0.876465
0.571777 0.061859 0.876465
0.725586 0.061859 0.876465
0.884766 0.061859 0.876465
0.000000 0.161255 0.876465
0.068237 0.161255 0.876465
0.171387 0.161255 0.876465
0.293213 0.161255 0.876465
0.426270 0.161255 0.876465
0.571777 0.161255 0.876465
0.725586 0.161255 0.876465
0.884766 0.161255 0.876465
0.000000 0.281738 0.876465
0.068237 0.281738 0.876465
0.171387 0.281738 0.876465
0.293213 0.281738 0.876465
0.426270 0.281738 0.876465
0.571777 0.281738 0.876465
0.725586 0.281738 0.876465
0.884766 0.281738 0.876465
0.000000 0.415283 0.876465
0.068237 0.415283 0.876465
0.171387 0.415283 0.876465
0.293213 0.415283 0.876465
0.426270 0.415283 0.876465
0.571777 0.415283 0.876465
0.725586 0.415283 0.876465
0.884766 0.415283 0.876465
0.000000 0.561523 0.876465
0.068237 0.561523 0.876465
0.171387 0.561523 0.876465
0.293213 0.561523 0.876465
0.426270 0.561523 0.876465
0.571777 0.561523 0.876465
0.725586 0.561523 0.876465
0.884766 0.561523 0.876465
0.000000 0.719238 0.876465
0.068237 0.719238 0.876465
0.171387 0.719238 0.876465
0.293213 0.719238 0.876465
0.426270 0.719238 0.876465
0.571777 0.719238 0.876465
0.725586 0.719238 0.876465
0.884766 0.719238 0.876465
0.000000 0.884766 0.876465
0.068237 0.884766 0.876465
0.171387 0.884766 0.876465
0.293213 0.884766 0.876465
0.426270 0.884766 0.876465
0.571777 0.884766 0.876465
0.725586 0.884766 0.876465
0.884766 0.884766 0.876465
