cubelut/Adanmq_Gold 100.cube
TITLE "Generated by Foundry::LUT"
LUT_3D_SIZE 8
DOMAIN_MIN 0.000000 0.000000 0.000000
DOMAIN_MAX 0.903226 0.903226 0.903226
0.000000 0.000000 0.000000
0.107422 0.000000 0.000000
0.276611 0.000000 0.000000
0.451172 0.000000 0.000000
0.606934 0.000000 0.000000
0.735352 0.000000 0.000000
0.844727 0.000000 0.000000
0.941406 0.000000 0.000000
0.000000 0.107422 0.000000
0.107422 0.107422 0.000000
0.276611 0.107422 0.000000
0.451172 0.107422 0.000000
0.606934 0.107422 0.000000
0.735352 0.107422 0.000000
0.844727 0.107422 0.000000
0.941406 0.107422 0.000000
0.000000 0.276855 0.000000
0.107422 0.276855 0.000000
0.276611 0.276855 0.000000
0.451172 0.276855 0.000000
0.606934 0.276855 0.000000
0.735352 0.276855 0.000000
0.844727 0.276855 0.000000
0.941406 0.276855 0.000000
0.000000 0.451172 0.000000
0.107422 0.451416 0.000000
0.276611 0.451416 0.000000
0.451172 0.451416 0.000000
0.606934 0.451416 0.000000
0.735352 0.451416 0.000000
0.844727 0.451416 0.000000
0.941406 0.451416 0.000000
0.000000 0.606934 0.000000
0.107422 0.606934 0.000000
0.276611 0.606934 0.000000
0.451172 0.606934 0.000000
0.606934 0.606934 0.000000
0.735352 0.606934 0.000000
0.844727 0.606934 0.000000
0.941406 0.606934 0.000000
0.000000 0.735352 0.000000
0.107422 0.735352 0.000000
0.276611 0.735352 0.000000
0.451172 0.735352 0.000000
0.606934 0.735352 0.000000
0.735352 0.735352 0.000000
0.844727 0.735352 0.000000
0.941406 0.735352 0.000000
0.000000 0.845215 0.000000
0.107422 0.845215 0.000000
0.276611 0.845215 0.000000
0.451172 0.845215 0.000000
0.606934 0.845215 0.000000
0.735352 0.845215 0.000000
0.844727 0.845215 0.000000
0.941406 0.845215 0.000000
0.000000 0.941406 0.000000
0.107422 0.941406 0.000000
0.276611 0.941406 0.000000
0.451172 0.941406 0.000000
0.606934 0.941406 0.000000
0.735352 0.941406 0.000000
0.844727 0.941406 0.000000
0.941406 0.941406 0.000000
0.000000 0.000000 0.059570
0.107422 0.000000 0.059570
0.276855 0.000000 0.059570
0.451416 0.000000 0.059570
0.606934 0.000000 0.059570
0.735352 0.000000 0.059570
0.844727 0.000000 0.059570
0.941406 0.000000 0.059570
0.000000 0.107422 0.059570
0.107422 0.107422 0.059570
0.276855 0.107422 0.059570
0.451416 0.107422 0.059570
0.606934 0.107422 0.059570
0.735352 0.107422 0.059570
0.844727 0.107422 0.059570
0.941406 0.107422 0.059570
0.000000 0.276855 0.059570
0.107422 0.276855 0.059570
0.276855 0.276855 0.059570
0.451416 0.276855 0.059570
0.606934 0.276855 0.059570
0.735352 0.276855 0.059570
0.844727 0.276855 0.059570
0.941406 0.276855 0.059570
0.000000 0.451172 0.059570
0.107422 0.451172 0.059570
0.276855 0.451416 0.059570
0.451416 0.451416 0.059570
0.606934 0.451416 0.059570
0.735352 0.451416 0.059570
0.844727 0.451416 0.059570
0.941406 0.451416 0.059570
0.000000 0.606934 0.059601
0.107422 0.606934 0.059601
0.276855 0.606934 0.059601
0.451416 0.606934 0.059601
0.606934 0.606934 0.059601
0.735352 0.606934 0.059601
0.844727 0.606934 0.059601
0.941406 0.606934 0.059601
0.000000 0.735352 0.059601
0.107422 0.735352 0.059601
0.276855 0.735352 0.059601
0.451416 0.735352 0.059601
0.606934 0.735352 0.059601
0.735352 0.735352 0.059601
0.844727 0.735352 0.059601
0.941406 0.735352 0.059601
0.000000 0.845215 0.059601
0.107422 0.845215 0.059601
0.276855 0.845215 0.059601
0.451416 0.845215 0.059601
0.606934 0.845215 0.059601
0.735352 0.845215 0.059601
0.844727 0.845215 0.059601
0.941406 0.845215 0.059601
0.000000 0.941406 0.059601
0.107422 0.941406 0.059601
0.276855 0.941406 0.059601
0.451416 0.941406 0.059601
0.606934 0.941406 0.059601
0.735352 0.941406 0.059601
0.844727 0.941406 0.059601
0.941406 0.941406 0.059601
0.000000 0.000000 0.187134
0.107422 0.000000 0.187134
0.276855 0.000000 0.187134
0.451416 0.000000 0.187134
0.606934 0.000000 0.187134
0.735352 0.000000 0.187134
0.845215 0.000000 0.187134
0.941406 0.000000 0.187134
0.000000 0.107422 0.187256
0.107422 0.107422 0.187256
0.276855 0.107422 0.187256
0.451416 0.107422 0.187256
0.606934 0.107422 0.187256
0.735352 0.107422 0.187256
0.845215 0.107422 0.187256
0.941406 0.107422 0.187256
0.000000 0.276855 0.187256
0.107422 0.276855 0.187256
0.276855 0.276855 0.187256
0.451416 0.276855 0.187256
0.606934 0.276855 0.187256
0.735352 0.276855 0.187256
0.845215 0.276855 0.187256
0.941406 0.276855 0.187256
0.000000 0.451172 0.187256
0.107422 0.451172 0.187256
0.276855 0.451172 0.187256
0.451416 0.451416 0.187256
0.606934 0.451416 0.187256
0.735352 0.451416 0.187256
0.845215 0.451416 0.187256
0.941406 0.451416 0.187256
0.000000 0.606934 0.187256
0.107422 0.606934 0.187256
0.276855 0.606934 0.187256
0.451416 0.606934 0.187256
0.606934 0.606934 0.187256
0.735352 0.606934 0.187256
0.845215 0.606934 0.187256
0.941406 0.606934 0.187256
0.000000 0.735352 0.187256
0.107422 0.735352 0.187256
0.276855 0.735352 0.187256
0.451416 0.735352 0.187256
0.606934 0.735352 0.187256
0.735352 0.735352 0.187256
0.845215 0.735352 0.187256
0.941406 0.735352 0.187256
0.000000 0.845215 0.187256
0.107422 0.845215 0.187256
0.276855 0.845215 0.187256
0.451416 0.845215 0.187256
0.606934 0.845215 0.187256
0.735352 0.845215 0.187256
0.845215 0.845215 0.187256
0.941406 0.845215 0.187256
0.000000 0.941406 0.187256
0.107422 0.941406 0.187256
0.276855 0.941406 0.187256
0.451416 0.941406 0.187256
0.606934 0.941406 0.187256
0.735352 0.941406 0.187256
0.845215 0.941406 0.187256
0.941406 0.941406 0.187256
0.000000 0.000000 0.343994
0.107483 0.000000 0.343994
0.276855 0.000000 0.343994
0.451416 0.000000 0.343994
0.606934 0.000000 0.343994
0.735352 0.000000 0.343994
0.845215 0.000000 0.343994
0.941406 0.000000 0.343994
0.000000 0.107361 0.343994
0.107483 0.107422 0.343994
0.276855 0.107422 0.343994
0.451416 0.107422 0.343994
0.606934 0.107422 0.343994
0.735352 0.107422 0.343994
0.845215 0.107422 0.343994
0.941406 0.107422 0.343994
0.000000 0.276855 0.343994
0.107483 0.276855 0.343994
0.276855 0.276855 0.343994
0.451416 0.276855 0.343994
0.606934 0.276855 0.343994
0.735352 0.276855 0.343994
0.845215 0.276855 0.343994
0.941406 0.276855 0.343994
0.000000 0.451172 0.343994
0.107483 0.451172 0.343994
0.276855 0.451172 0.343994
0.451416 0.451172 0.343994
0.606934 0.451416 0.343994
0.735352 0.451416 0.343994
0.845215 0.451416 0.343994
0.941406 0.451416 0.343994
0.000000 0.606934 0.343994
0.107483 0.606934 0.343994
0.276855 0.606934 0.343994
0.451416 0.606934 0.343994
0.606934 0.606934 0.343994
0.735352 0.606934 0.343994
0.845215 0.606934 0.343994
0.941406 0.606934 0.343994
0.000000 0.735352 0.343994
0.107483 0.735352 0.343994
0.276855 0.735352 0.343994
0.451416 0.735352 0.343994
0.606934 0.735352 0.343994
0.735352 0.735352 0.343994
0.845215 0.735352 0.343994
0.941406 0.735352 0.343994
0.000000 0.845215 0.343994
0.107483 0.845215 0.343994
0.276855 0.845215 0.343994
0.451416 0.845215 0.343994
0.606934 0.845215 0.343994
0.735352 0.845215 0.343994
0.845215 0.845215 0.343994
0.941406 0.845215 0.343994
0.000000 0.941406 0.343994
0.107483 0.941406 0.343994
0.276855 0.941406 0.343994
0.451416 0.941406 0.343994
0.606934 0.941406 0.343994
0.735352 0.941406 0.343994
0.845215 0.941406 0.343994
0.941406 0.941406 0.343994
0.000000 0.000000 0.502930
0.107483 0.000000 0.502930
0.276855 0.000000 0.502930
0.451416 0.000000 0.502930
0.606934 0.000000 0.502930
0.735352 0.000000 0.502930
0.845215 0.000000 0.502930
0.941406 0.000000 0.502930
0.000000 0.107361 0.502930
0.107483 0.107361 0.502930
0.276855 0.107422 0.502930
0.451416 0.107422 0.502930
0.606934 0.107422 0.502930
0.735352 0.107422 0.502930
0.845215 0.107422 0.502930
0.941406 0.107422 0.502930
0.000000 0.276611 0.502930
0.107483 0.276855 0.502930
0.276855 0.276855 0.502930
0.451416 0.276855 0.502930
0.606934 0.276855 0.502930
0.735352 0.276855 0.502930
0.845215 0.276855 0.502930
0.941406 0.276855 0.502930
0.000000 0.451172 0.502930
0.107483 0.451172 0.502930
0.276855 0.451172 0.502930
0.451416 0.451172 0.502930
0.606934 0.451416 0.502930
0.735352 0.451416 0.502930
0.845215 0.451416 0.502930
0.941406 0.451416 0.502930
0.000000 0.606934 0.502930
0.107483 0.606934 0.502930
0.276855 0.606934 0.502930
0.451416 0.606934 0.502930
0.606934 0.606934 0.502930
0.735352 0.606934 0.502930
0.845215 0.606934 0.502930
0.941406 0.606934 0.502930
0.000000 0.735352 0.502930
0.107483 0.735352 0.502930
0.276855 0.735352 0.502930
0.451416 0.735352 0.502930
0.606934 0.735352 0.502930
0.735352 0.735352 0.502930
0.845215 0.735352 0.502930
0.941406 0.735352 0.502930
0.000000 0.845215 0.502930
0.107483 0.845215 0.502930
0.276855 0.845215 0.502930
0.451416 0.845215 0.502930
0.606934 0.845215 0.502930
0.735352 0.845215 0.502930
0.845215 0.845215 0.502930
0.941406 0.845215 0.502930
0.000000 0.941406 0.502930
0.107483 0.941406 0.502930
0.276855 0.941406 0.502930
0.451416 0.941406 0.502930
0.606934 0.941406 0.502930
0.735352 0.941406 0.502930
0.845215 0.941406 0.502930
0.941406 0.941406 0.502930
0.000000 0.000000 0.651367
0.107544 0.000000 0.651367
0.276855 0.000000 0.651367
0.451416 0.000000 0.651367
0.606934 0.000000 0.651367
0.735352 0.000000 0.651367
0.845215 0.000000 0.651367
0.941406 0.000000 0.651367
0.000000 0.107361 0.651367
0.107544 0.107361 0.651367
0.276855 0.107361 0.651367
0.451416 0.107422 0.651367
0.606934 0.107422 0.651367
0.735352 0.107422 0.651367
0.845215 0.107422 0.651367
0.941406 0.107422 0.651367
0.000000 0.276611 0.651367
0.107544 0.276611 0.651367
0.276855 0.276855 0.651367
0.451416 0.276855 0.651367
0.606934 0.276855 0.651367
0.735352 0.276855 0.651367
0.845215 0.276855 0.651367
0.941406 0.276855 0.651367
0.000000 0.451172 0.651367
0.107544 0.451172 0.651367
0.276855 0.451172 0.651367
0.451416 0.451172 0.651367
0.606934 0.451172 0.651367
0.735352 0.451416 0.651367
0.845215 0.451416 0.651367
0.941406 0.451416 0.651367
0.000000 0.606934 0.651367
0.107544 0.606934 0.651367
0.276855 0.606934 0.651367
0.451416 0.606934 0.651367
0.606934 0.606934 0.651367
0.735352 0.606934 0.651367
0.845215 0.606934 0.651367
0.941406 0.606934 0.651367
0.000000 0.735352 0.651367
0.107544 0.735352 0.651367
0.276855 0.735352 0.651367
0.451416 0.735352 0.651367
0.606934 0.735352 0.651367
0.735352 0.735352 0.651367
0.845215 0.735352 0.651367
0.941406 0.735352 0.651367
0.000000 0.844727 0.651367
0.107544 0.845215 0.651367
0.276855 0.845215 0.651367
0.451416 0.845215 0.651367
0.606934 0.845215 0.651367
0.735352 0.845215 0.651367
0.845215 0.845215 0.651367
0.941406 0.845215 0.651367
0.000000 0.941406 0.651367
0.107544 0.941406 0.651367
0.276855 0.941406 0.651367
0.451416 0.941406 0.651367
0.606934 0.941406 0.651367
0.735352 0.941406 0.651367
0.845215 0.941406 0.651367
0.941406 0.941406 0.651367
0.000000 0.000000 0.789063
0.107544 0.000000 0.789063
0.276855 0.000000 0.789063
0.451416 0.000000 0.789063
0.606934 0.000000 0.789063
0.735352 0.000000 0.789063
0.845215 0.000000 0.789063
0.941406 0.000000 0.789063
0.000000 0.107361 0.789063
0.107544 0.107361 0.789063
0.276855 0.107361 0.789063
0.451416 0.107361 0.789063
0.606934 0.107422 0.789063
0.735352 0.107422 0.789063
0.845215 0.107422 0.789063
0.941406 0.107422 0.789063
0.000000 0.276611 0.789063
0.107544 0.276611 0.789063
0.276855 0.276611 0.789063
0.451416 0.276855 0.789063
0.606934 0.276855 0.789063
0.735352 0.276855 0.789063
0.845215 0.276855 0.789063
0.941406 0.276855 0.789063
0.000000 0.451172 0.789063
0.107544 0.451172 0.789063
0.276855 0.451172 0.789063
0.451416 0.451172 0.789063
0.606934 0.451172 0.789063
0.735352 0.451172 0.789063
0.845215 0.451416 0.789063
0.941406 0.451416 0.789063
0.000000 0.606934 0.789063
0.107544 0.606934 0.789063
0.276855 0.606934 0.789063
0.451416 0.606934 0.789063
0.606934 0.606934 0.789063
0.735352 0.606934 0.789063
0.845215 0.606934 0.789063
0.941406 0.606934 0.789063
0.000000 0.735352 0.789063
0.107544 0.735352 0.789063
0.276855 0.735352 0.789063
0.451416 0.735352 0.789063
0.606934 0.735352 0.789063
0.735352 0.735352 0.789063
0.845215 0.735352 0.789063
0.941406 0.735352 0.789063
0.000000 0.844727 0.789063
0.107544 0.844727 0.789063
0.276855 0.845215 0.789063
0.451416 0.845215 0.789063
0.606934 0.845215 0.789063
0.735352 0.845215 0.789063
0.845215 0.845215 0.789063
0.941406 0.845215 0.789063
0.000000 0.941406 0.789063
0.107544 0.941406 0.789063
0.276855 0.941406 0.789063
0.451416 0.941406 0.789063
0.606934 0.941406 0.789063
0.735352 0.941406 0.789063
0.845215 0.941406 0.789063
0.941406 0.941406 0.789063
0.000000 0.000000 0.917969
0.107544 0.000000 0.917969
0.276855 0.000000 0.917969
0.451416 0.000000 0.917969
0.606934 0.000000 0.917969
0.735352 0.000000 0.917969
0.845215 0.000000 0.917969
0.941406 0.000000 0.917969
0.000000 0.107361 0.917969
0.107544 0.107361 0.917969
0.276855 0.107361 0.917969
0.451416 0.107361 0.917969
0.606934 0.107361 0.917969
0.735352 0.107422 0.917969
0.845215 0.107422 0.917969
0.941406 0.107422 0.917969
0.000000 0.276611 0.917969
0.107544 0.276611 0.917969
0.276855 0.276611 0.917969
0.451416 0.276611 0.917969
0.606934 0.276855 0.917969
0.735352 0.276855 0.917969
0.845215 0.276855 0.917969
0.941406 0.276855 0.917969
0.000000 0.451172 0.917969
0.107544 0.451172 0.917969
0.276855 0.451172 0.917969
0.451416 0.451172 0.917969
0.606934 0.451172 0.917969
0.735352 0.451172 0.917969
0.845215 0.451172 0.917969
0.941406 0.451416 0.917969
0.000000 0.606934 0.917969
0.107544 0.606934 0.917969
0.276855 0.606934 0.917969
0.451416 0.606934 0.917969
0.606934 0.606934 0.917969
0.735352 0.606934 0.917969
0.845215 0.606934 0.917969
0.941406 0.606934 0.917969
0.000000 0.735352 0.917969
0.107544 0.735352 0.917969
0.276855 0.735352 0.917969
0.451416 0.735352 0.917969
0.606934 0.735352 0.917969
0.735352 0.735352 0.917969
0.845215 0.735352 0.917969
0.941406 0.735352 0.917969
0.000000 0.844727 0.917969
0.107544 0.844727 0.917969
0.276855 0.844727 0.917969
0.451416 0.845215 0.917969
0.606934 0.845215 0.917969
0.735352 0.845215 0.917969
0.845215 0.845215 0.917969
0.941406 0.845215 0.917969
0.000000 0.941406 0.917969
0.107544 0.941406 0.917969
0.276855 0.941406 0.917969
0.451416 0.941406 0.917969
0.606934 0.941406 0.917969
0.735352 0.941406 0.917969
0.845215 0.941406 0.917969
0.941406 0.941406 0.917969
