cubelut/Adanmq_Canon DSC S315 n3.cube
TITLE "Generated by Foundry::LUT"
LUT_3D_SIZE 32
0.000000 0.000000 0.000000
0.012703 0.000000 0.000000
0.046295 0.000000 0.000000
0.086304 0.000000 0.000000
0.131714 0.000000 0.000000
0.183594 0.000000 0.000000
0.242554 0.000000 0.000000
0.306641 0.000000 0.000000
0.371582 0.000000 0.000000
0.432861 0.000000 0.000000
0.488037 0.000000 0.000000
0.536621 0.000000 0.000000
0.580078 0.000000 0.000000
0.618652 0.000000 0.000000
0.653320 0.000000 0.000000
0.685059 0.000000 0.000000
0.713867 0.000000 0.000000
0.740723 0.000000 0.000000
0.766113 0.000000 0.000000
0.789551 0.000000 0.000000
0.812012 0.000000 0.000000
0.833008 0.000000 0.000000
0.852539 0.000000 0.000000
0.871582 0.000000 0.000000
0.890137 0.000000 0.000000
0.907715 0.000000 0.000000
0.924316 0.000000 0.000000
0.940430 0.000000 0.000000
0.956055 0.000000 0.000000
0.971191 0.000000 0.000000
0.985840 0.000000 0.000000
1.000000 0.000000 0.000000
0.000000 0.016434 0.000000
0.012703 0.016434 0.000000
0.046295 0.016434 0.000000
0.086304 0.016434 0.000000
0.131714 0.016434 0.000000
0.183594 0.016434 0.000000
0.242554 0.016434 0.000000
0.306641 0.016434 0.000000
0.371582 0.016434 0.000000
0.432861 0.016449 0.000000
0.488037 0.016449 0.000000
0.536621 0.016449 0.000000
0.580078 0.016449 0.000000
0.618652 0.016449 0.000000
0.653320 0.016449 0.000000
0.685059 0.016449 0.000000
0.713867 0.016449 0.000000
0.740723 0.016449 0.000000
0.766113 0.016449 0.000000
0.789551 0.016449 0.000000
0.812012 0.016449 0.000000
0.833008 0.016449 0.000000
0.852539 0.016449 0.000000
0.871582 0.016449 0.000000
0.890137 0.016449 0.000000
0.907715 0.016449 0.000000
0.924316 0.016449 0.000000
0.940430 0.016449 0.000000
0.956055 0.016449 0.000000
0.971191 0.016449 0.000000
0.985840 0.016464 0.000000
1.000000 0.016464 0.000000
0.000000 0.055969 0.000000
0.012703 0.055969 0.000000
0.046295 0.055969 0.000000
0.086304 0.055969 0.000000
0.131714 0.056000 0.000000
0.183594 0.056000 0.000000
0.242554 0.056000 0.000000
0.306641 0.056000 0.000000
0.371582 0.056000 0.000000
0.432861 0.056000 0.000000
0.488037 0.056000 0.000000
0.536621 0.056000 0.000000
0.580078 0.056000 0.000000
0.618652 0.056000 0.000000
0.653320 0.056000 0.000000
0.685059 0.056000 0.000000
0.713867 0.056000 0.000000
0.740723 0.056000 0.000000
0.766113 0.056000 0.000000
0.789551 0.056000 0.000000
0.812012 0.056000 0.000000
0.833008 0.056000 0.000000
0.852539 0.056000 0.000000
0.871582 0.056000 0.000000
0.890137 0.056000 0.000000
0.907715 0.056000 0.000000
0.924316 0.056000 0.000000
0.940430 0.056000 0.000000
0.956055 0.056000 0.000000
0.971191 0.056000 0.000000
0.985840 0.056000 0.000000
1.000000 0.056000 0.000000
0.000000 0.101440 0.000000
0.012703 0.101440 0.000000
0.046295 0.101440 0.000000
0.086304 0.101440 0.000000
0.131714 0.101440 0.000000
0.183594 0.101440 0.000000
0.242554 0.101440 0.000000
0.306641 0.101440 0.000000
0.371582 0.101440 0.000000
0.432861 0.101440 0.000000
0.488037 0.101440 0.000000
0.536621 0.101440 0.000000
0.580078 0.101440 0.000000
0.618652 0.101440 0.000000
0.653320 0.101440 0.000000
0.685059 0.101440 0.000000
0.713867 0.101440 0.000000
0.740723 0.101440 0.000000
0.766113 0.101440 0.000000
0.789551 0.101440 0.000000
0.812012 0.101440 0.000000
0.833008 0.101440 0.000000
0.852539 0.101440 0.000000
0.871582 0.101501 0.000000
0.890137 0.101501 0.000000
0.907715 0.101501 0.000000
0.924316 0.101501 0.000000
0.940430 0.101501 0.000000
0.956055 0.101501 0.000000
0.971191 0.101501 0.000000
0.985840 0.101501 0.000000
1.000000 0.101501 0.000000
0.000000 0.152832 0.000000
0.012703 0.152832 0.000000
0.046295 0.152832 0.000000
0.086304 0.152832 0.000000
0.131714 0.152954 0.000000
0.183594 0.152954 0.000000
0.242554 0.152954 0.000000
0.306641 0.152954 0.000000
0.371582 0.152954 0.000000
0.432861 0.152954 0.000000
0.488037 0.152954 0.000000
0.536621 0.152954 0.000000
0.580078 0.152954 0.000000
0.618652 0.152954 0.000000
0.653320 0.152954 0.000000
0.685059 0.152954 0.000000
0.713867 0.152954 0.000000
0.740723 0.152954 0.000000
0.766113 0.152954 0.000000
0.789551 0.152954 0.000000
0.812012 0.152954 0.000000
0.833008 0.152954 0.000000
0.852539 0.152954 0.000000
0.871582 0.152954 0.000000
0.890137 0.152954 0.000000
0.907715 0.152954 0.000000
0.924316 0.152954 0.000000
0.940430 0.152954 0.000000
0.956055 0.152954 0.000000
0.971191 0.152954 0.000000
0.985840 0.152954 0.000000
1.000000 0.152954 0.000000
0.000000 0.211182 0.000000
0.012703 0.211182 0.000000
0.046295 0.211182 0.000000
0.086304 0.211182 0.000000
0.131714 0.211182 0.000000
0.183594 0.211182 0.000000
0.242554 0.211182 0.000000
0.306641 0.211182 0.000000
0.371582 0.211182 0.000000
0.432861 0.211182 0.000000
0.488037 0.211182 0.000000
0.536621 0.211182 0.000000
0.580078 0.211182 0.000000
0.618652 0.211182 0.000000
0.653320 0.211182 0.000000
0.685059 0.211304 0.000000
0.713867 0.211304 0.000000
0.740723 0.211304 0.000000
0.766113 0.211304 0.000000
0.789551 0.211304 0.000000
0.812012 0.211304 0.000000
0.833008 0.211304 0.000000
0.852539 0.211304 0.000000
0.871582 0.211304 0.000000
0.890137 0.211304 0.000000
0.907715 0.211304 0.000000
0.924316 0.211304 0.000000
0.940430 0.211304 0.000000
0.956055 0.211304 0.000000
0.971191 0.211304 0.000000
0.985840 0.211304 0.000000
1.000000 0.211304 0.000000
0.000000 0.275879 0.000000
0.012703 0.275879 0.000000
0.046295 0.275879 0.000000
0.086304 0.275879 0.000000
0.131714 0.275879 0.000000
0.183594 0.275879 0.000000
0.242554 0.275879 0.000000
0.306641 0.275879 0.000000
0.371582 0.275879 0.000000
0.432861 0.275879 0.000000
0.488037 0.275879 0.000000
0.536621 0.275879 0.000000
0.580078 0.275879 0.000000
0.618652 0.275879 0.000000
0.653320 0.275879 0.000000
0.685059 0.275879 0.000000
0.713867 0.275879 0.000000
0.740723 0.275879 0.000000
0.766113 0.275879 0.000000
0.789551 0.275879 0.000000
0.812012 0.275879 0.000000
0.833008 0.275879 0.000000
0.852539 0.275879 0.000000
0.871582 0.275879 0.000000
0.890137 0.275879 0.000000
0.907715 0.275879 0.000000
0.924316 0.275879 0.000000
0.940430 0.275879 0.000000
0.956055 0.275879 0.000000
0.971191 0.275879 0.000000
0.985840 0.275879 0.000000
1.000000 0.275879 0.000000
0.000000 0.342285 0.000000
0.012703 0.342285 0.000000
0.046295 0.342285 0.000000
0.086304 0.342285 0.000000
0.131714 0.342285 0.000000
0.183594 0.342285 0.000000
0.242554 0.342285 0.000000
0.306641 0.342285 0.000000
0.371582 0.342285 0.000000
0.432861 0.342285 0.000000
0.488037 0.342285 0.000000
0.536621 0.342285 0.000000
0.580078 0.342285 0.000000
0.618652 0.342285 0.000000
0.653320 0.342285 0.000000
0.685059 0.342285 0.000000
0.713867 0.342285 0.000000
0.740723 0.342285 0.000000
0.766113 0.342285 0.000000
0.789551 0.342285 0.000000
0.812012 0.342285 0.000000
0.833008 0.342285 0.000000
0.852539 0.342285 0.000000
0.871582 0.342285 0.000000
0.890137 0.342285 0.000000
0.907715 0.342285 0.000000
0.924316 0.342285 0.000000
0.940430 0.342285 0.000000
0.956055 0.342285 0.000000
0.971191 0.342285 0.000000
0.985840 0.342285 0.000000
1.000000 0.342285 0.000000
0.000000 0.405762 0.000000
0.012703 0.405762 0.000000
0.046295 0.405762 0.000000
0.086304 0.405762 0.000000
0.131714 0.405762 0.000000
0.183594 0.405762 0.000000
0.242554 0.405762 0.000000
0.306641 0.405762 0.000000
0.371582 0.405762 0.000000
0.432861 0.405762 0.000000
0.488037 0.405762 0.000000
0.536621 0.405762 0.000000
0.580078 0.405762 0.000000
0.618652 0.405762 0.000000
0.653320 0.405762 0.000000
0.685059 0.405762 0.000000
0.713867 0.405762 0.000000
0.740723 0.405762 0.000000
0.766113 0.405762 0.000000
0.789551 0.405762 0.000000
0.812012 0.405762 0.000000
0.833008 0.405762 0.000000
0.852539 0.405762 0.000000
0.871582 0.405762 0.000000
0.890137 0.405762 0.000000
0.907715 0.405762 0.000000
0.924316 0.405762 0.000000
0.940430 0.405762 0.000000
0.956055 0.405762 0.000000
0.971191 0.405762 0.000000
0.985840 0.405762 0.000000
1.000000 0.405762 0.000000
0.000000 0.463135 0.000000
0.012703 0.463135 0.000000
0.046295 0.463135 0.000000
0.086304 0.463135 0.000000
0.131714 0.463135 0.000000
0.183594 0.463135 0.000000
0.242554 0.463135 0.000000
0.306641 0.463135 0.000000
0.371582 0.463135 0.000000
0.432861 0.463135 0.000000
0.488037 0.463135 0.000000
0.536621 0.463135 0.000000
0.580078 0.463135 0.000000
0.618652 0.463135 0.000000
0.653320 0.463135 0.000000
0.685059 0.463135 0.000000
0.713867 0.463135 0.000000
0.740723 0.463135 0.000000
0.766113 0.463135 0.000000
0.789551 0.463135 0.000000
0.812012 0.463135 0.000000
0.833008 0.463135 0.000000
0.852539 0.463135 0.000000
0.871582 0.463135 0.000000
0.890137 0.463135 0.000000
0.907715 0.463135 0.000000
0.924316 0.463135 0.000000
0.940430 0.463135 0.000000
0.956055 0.463135 0.000000
0.971191 0.463135 0.000000
0.985840 0.463135 0.000000
1.000000 0.463135 0.000000
0.000000 0.513672 0.000000
0.012703 0.513672 0.000000
0.046295 0.513672 0.000000
0.086304 0.513672 0.000000
0.131714 0.513672 0.000000
0.183594 0.513672 0.000000
0.242554 0.513672 0.000000
0.306641 0.513672 0.000000
0.371582 0.513672 0.000000
0.432861 0.513672 0.000000
0.488037 0.513672 0.000000
0.536621 0.513672 0.000000
0.580078 0.513672 0.000000
0.618652 0.513672 0.000000
0.653320 0.513672 0.000000
0.685059 0.513672 0.000000
0.713867 0.513672 0.000000
0.740723 0.513672 0.000000
0.766113 0.513672 0.000000
0.789551 0.513672 0.000000
0.812012 0.513672 0.000000
0.833008 0.513672 0.000000
0.852539 0.513672 0.000000
0.871582 0.513672 0.000000
0.890137 0.513672 0.000000
0.907715 0.513672 0.000000
0.924316 0.513672 0.000000
0.940430 0.513672 0.000000
0.956055 0.513672 0.000000
0.971191 0.513672 0.000000
0.985840 0.513672 0.000000
1.000000 0.513672 0.000000
0.000000 0.558594 0.000000
0.012703 0.558594 0.000000
0.046295 0.558594 0.000000
0.086304 0.558594 0.000000
0.131714 0.558594 0.000000
0.183594 0.558594 0.000000
0.242554 0.558594 0.000000
0.306641 0.558594 0.000000
0.371582 0.558594 0.000000
0.432861 0.558594 0.000000
0.488037 0.558594 0.000000
0.536621 0.558594 0.000000
0.580078 0.558594 0.000000
0.618652 0.558594 0.000000
0.653320 0.558594 0.000000
0.685059 0.558594 0.000000
0.713867 0.558594 0.000000
0.740723 0.558594 0.000000
0.766113 0.558594 0.000000
0.789551 0.558594 0.000000
0.812012 0.558594 0.000000
0.833008 0.558594 0.000000
0.852539 0.558594 0.000000
0.871582 0.558594 0.000000
0.890137 0.558594 0.000000
0.907715 0.558594 0.000000
0.924316 0.558594 0.000000
0.940430 0.558594 0.000000
0.956055 0.558594 0.000000
0.971191 0.558594 0.000000
0.985840 0.558594 0.000000
1.000000 0.558594 0.000000
0.000000 0.598633 0.000000
0.012703 0.598633 0.000000
0.046295 0.598633 0.000000
0.086304 0.598633 0.000000
0.131714 0.598633 0.000000
0.183594 0.598633 0.000000
0.242554 0.598633 0.000000
0.306641 0.598633 0.000000
0.371582 0.598633 0.000000
0.432861 0.598633 0.000000
0.488037 0.598633 0.000000
0.536621 0.598633 0.000000
0.580078 0.598633 0.000000
0.618652 0.598633 0.000000
0.653320 0.598633 0.000000
0.685059 0.598633 0.000000
0.713867 0.598633 0.000000
0.740723 0.598633 0.000000
0.766113 0.598633 0.000000
0.789551 0.598633 0.000000
0.812012 0.598633 0.000000
0.833008 0.598633 0.000000
0.852539 0.598633 0.000000
0.871582 0.598633 0.000000
0.890137 0.598633 0.000000
0.907715 0.598633 0.000000
0.924316 0.598633 0.000000
0.940430 0.598633 0.000000
0.956055 0.598633 0.000000
0.971191 0.598633 0.000000
0.985840 0.598633 0.000000
1.000000 0.598633 0.000000
0.000000 0.634277 0.000000
0.012703 0.634277 0.000000
0.046295 0.634277 0.000000
0.086304 0.634277 0.000000
0.131714 0.634277 0.000000
0.183594 0.634277 0.000000
0.242554 0.634277 0.000000
0.306641 0.634277 0.000000
0.371582 0.634277 0.000000
0.432861 0.634277 0.000000
0.488037 0.634277 0.000000
0.536621 0.634277 0.000000
0.580078 0.634277 0.000000
0.618652 0.634277 0.000000
0.653320 0.634277 0.000000
0.685059 0.634277 0.000000
0.713867 0.634277 0.000000
0.740723 0.634277 0.000000
0.766113 0.634277 0.000000
0.789551 0.634277 0.000000
0.812012 0.634277 0.000000
0.833008 0.634277 0.000000
0.852539 0.634277 0.000000
0.871582 0.634277 0.000000
0.890137 0.634277 0.000000
0.907715 0.634277 0.000000
0.924316 0.634277 0.000000
0.940430 0.634277 0.000000
0.956055 0.634277 0.000000
0.971191 0.634277 0.000000
0.985840 0.634277 0.000000
1.000000 0.634277 0.000000
0.000000 0.666504 0.000000
0.012703 0.666504 0.000000
0.046295 0.666504 0.000000
0.086304 0.666504 0.000000
0.131714 0.666504 0.000000
0.183594 0.666504 0.000000
0.242554 0.666504 0.000000
0.306641 0.666504 0.000000
0.371582 0.666504 0.000000
0.432861 0.666504 0.000000
0.488037 0.666504 0.000000
0.536621 0.666504 0.000000
0.580078 0.666504 0.000000
0.618652 0.666504 0.000000
0.653320 0.666504 0.000000
0.685059 0.666504 0.000000
0.713867 0.666504 0.000000
0.740723 0.666504 0.000000
0.766113 0.666504 0.000000
0.789551 0.666504 0.000000
0.812012 0.666504 0.000000
0.833008 0.666504 0.000000
0.852539 0.666504 0.000000
0.871582 0.666504 0.000000
0.890137 0.666504 0.000000
0.907715 0.666504 0.000000
0.924316 0.666504 0.000000
0.940430 0.666504 0.000000
0.956055 0.666504 0.000000
0.971191 0.666504 0.000000
0.985840 0.666504 0.000000
1.000000 0.666504 0.000000
0.000000 0.696289 0.000000
0.012703 0.696289 0.000000
0.046295 0.696289 0.000000
0.086304 0.696289 0.000000
0.131714 0.696289 0.000000
0.183594 0.696289 0.000000
0.242554 0.696289 0.000000
0.306641 0.696289 0.000000
0.371582 0.696289 0.000000
0.432861 0.696289 0.000000
0.488037 0.696289 0.000000
0.536621 0.696289 0.000000
0.580078 0.696289 0.000000
0.618652 0.696289 0.000000
0.653320 0.696289 0.000000
0.685059 0.696289 0.000000
0.713867 0.696289 0.000000
0.740723 0.696289 0.000000
0.766113 0.696289 0.000000
0.789551 0.696289 0.000000
0.812012 0.696289 0.000000
0.833008 0.696289 0.000000
0.852539 0.696289 0.000000
0.871582 0.696289 0.000000
0.890137 0.696289 0.000000
0.907715 0.696289 0.000000
0.924316 0.696289 0.000000
0.940430 0.696289 0.000000
0.956055 0.696289 0.000000
0.971191 0.696289 0.000000
0.985840 0.696289 0.000000
1.000000 0.696289 0.000000
0.000000 0.723633 0.000000
0.012703 0.723633 0.000000
0.046295 0.723633 0.000000
0.086304 0.723633 0.000000
0.131714 0.723633 0.000000
0.183594 0.723633 0.000000
0.242554 0.723633 0.000000
0.306641 0.723633 0.000000
0.371582 0.723633 0.000000
0.432861 0.723633 0.000000
0.488037 0.723633 0.000000
0.536621 0.723633 0.000000
0.580078 0.723633 0.000000
0.618652 0.723633 0.000000
0.653320 0.723633 0.000000
0.685059 0.723633 0.000000
0.713867 0.723633 0.000000
0.740723 0.723633 0.000000
0.766113 0.723633 0.000000
0.789551 0.723633 0.000000
0.812012 0.723633 0.000000
0.833008 0.723633 0.000000
0.852539 0.723633 0.000000
0.871582 0.723633 0.000000
0.890137 0.723633 0.000000
0.907715 0.723633 0.000000
0.924316 0.723633 0.000000
0.940430 0.723633 0.000000
0.956055 0.723633 0.000000
0.971191 0.723633 0.000000
0.985840 0.723633 0.000000
1.000000 0.723633 0.000000
0.000000 0.749023 0.000000
0.012703 0.749023 0.000000
0.046295 0.749023 0.000000
0.086304 0.749023 0.000000
0.131714 0.749023 0.000000
0.183594 0.749023 0.000000
0.242554 0.749023 0.000000
0.306641 0.749023 0.000000
0.371582 0.749023 0.000000
0.432861 0.749023 0.000000
0.488037 0.749023 0.000000
0.536621 0.749023 0.000000
0.580078 0.749023 0.000000
0.618652 0.749023 0.000000
0.653320 0.749023 0.000000
0.685059 0.749023 0.000000
0.713867 0.749023 0.000000
0.740723 0.749023 0.000000
0.766113 0.749023 0.000000
0.789551 0.749023 0.000000
0.812012 0.749023 0.000000
0.833008 0.749023 0.000000
0.852539 0.749023 0.000000
0.871582 0.749023 0.000000
0.890137 0.749023 0.000000
0.907715 0.749023 0.000000
0.924316 0.749023 0.000000
0.940430 0.749023 0.000000
0.956055 0.749023 0.000000
0.971191 0.749023 0.000000
0.985840 0.749023 0.000000
1.000000 0.749023 0.000000
0.000000 0.773438 0.000000
0.012703 0.773438 0.000000
0.046295 0.773438 0.000000
0.086304 0.773438 0.000000
0.131714 0.773438 0.000000
0.183594 0.773438 0.000000
0.242554 0.773438 0.000000
0.306641 0.773438 0.000000
0.371582 0.773438 0.000000
0.432861 0.773438 0.000000
0.488037 0.773438 0.000000
0.536621 0.773438 0.000000
0.580078 0.773438 0.000000
0.618652 0.773438 0.000000
0.653320 0.773438 0.000000
0.685059 0.773438 0.000000
0.713867 0.773438 0.000000
0.740723 0.773438 0.000000
0.766113 0.773438 0.000000
0.789551 0.773438 0.000000
0.812012 0.773438 0.000000
0.833008 0.773438 0.000000
0.852539 0.773438 0.000000
0.871582 0.773438 0.000000
0.890137 0.773438 0.000000
0.907715 0.773438 0.000000
0.924316 0.773438 0.000000
0.940430 0.773438 0.000000
0.956055 0.773438 0.000000
0.971191 0.773438 0.000000
0.985840 0.773438 0.000000
1.000000 0.773438 0.000000
0.000000 0.795898 0.000000
0.012703 0.795898 0.000000
0.046295 0.795898 0.000000
0.086304 0.795898 0.000000
0.131714 0.795898 0.000000
0.183594 0.795898 0.000000
0.242554 0.795898 0.000000
0.306641 0.795898 0.000000
0.371582 0.795898 0.000000
0.432861 0.795898 0.000000
0.488037 0.795898 0.000000
0.536621 0.795898 0.000000
0.580078 0.795898 0.000000
0.618652 0.795898 0.000000
0.653320 0.795898 0.000000
0.685059 0.795898 0.000000
0.713867 0.795898 0.000000
0.740723 0.795898 0.000000
0.766113 0.795898 0.000000
0.789551 0.795898 0.000000
0.812012 0.795898 0.000000
0.833008 0.795898 0.000000
0.852539 0.795898 0.000000
0.871582 0.795898 0.000000
0.890137 0.795898 0.000000
0.907715 0.795898 0.000000
0.924316 0.795898 0.000000
0.940430 0.795898 0.000000
0.956055 0.795898 0.000000
0.971191 0.795898 0.000000
0.985840 0.795898 0.000000
1.000000 0.795898 0.000000
0.000000 0.816895 0.000000
0.012703 0.816895 0.000000
0.046295 0.816895 0.000000
0.086304 0.816895 0.000000
0.131714 0.816895 0.000000
0.183594 0.816895 0.000000
0.242554 0.816895 0.000000
0.306641 0.816895 0.000000
0.371582 0.816895 0.000000
0.432861 0.816895 0.000000
0.488037 0.816895 0.000000
0.536621 0.816895 0.000000
0.580078 0.816895 0.000000
0.618652 0.816895 0.000000
0.653320 0.816895 0.000000
0.685059 0.816895 0.000000
0.713867 0.816895 0.000000
0.740723 0.816895 0.000000
0.766113 0.816895 0.000000
0.789551 0.816895 0.000000
0.812012 0.816895 0.000000
0.833008 0.816895 0.000000
0.852539 0.816895 0.000000
0.871582 0.816895 0.000000
0.890137 0.816895 0.000000
0.907715 0.816895 0.000000
0.924316 0.816895 0.000000
0.940430 0.816895 0.000000
0.956055 0.816895 0.000000
0.971191 0.816895 0.000000
0.985840 0.816895 0.000000
1.000000 0.816895 0.000000
0.000000 0.837402 0.000000
0.012703 0.837402 0.000000
0.046295 0.837402 0.000000
0.086304 0.837402 0.000000
0.131714 0.837402 0.000000
0.183594 0.837402 0.000000
0.242554 0.837402 0.000000
0.306641 0.837402 0.000000
0.371582 0.837402 0.000000
0.432861 0.837402 0.000000
0.488037 0.837402 0.000000
0.536621 0.837402 0.000000
0.580078 0.837402 0.000000
0.618652 0.837402 0.000000
0.653320 0.837402 0.000000
0.685059 0.837402 0.000000
0.713867 0.837402 0.000000
0.740723 0.837402 0.000000
0.766113 0.837402 0.000000
0.789551 0.837402 0.000000
0.812012 0.837402 0.000000
0.833008 0.837402 0.000000
0.852539 0.837402 0.000000
0.871582 0.837402 0.000000
0.890137 0.837402 0.000000
0.907715 0.837402 0.000000
0.924316 0.837402 0.000000
0.940430 0.837402 0.000000
0.956055 0.837402 0.000000
0.971191 0.837402 0.000000
0.985840 0.837402 0.000000
1.000000 0.837402 0.000000
0.000000 0.856445 0.000000
0.012703 0.856445 0.000000
0.046295 0.856445 0.000000
0.086304 0.856445 0.000000
0.131714 0.856445 0.000000
0.183594 0.856445 0.000000
0.242554 0.856445 0.000000
0.306641 0.856445 0.000000
0.371582 0.856445 0.000000
0.432861 0.856445 0.000000
0.488037 0.856445 0.000000
0.536621 0.856445 0.000000
0.580078 0.856445 0.000000
0.618652 0.856445 0.000000
0.653320 0.856445 0.000000
0.685059 0.856445 0.000000
0.713867 0.856445 0.000000
0.740723 0.856445 0.000000
0.766113 0.856445 0.000000
0.789551 0.856445 0.000000
0.812012 0.856445 0.000000
0.833008 0.856445 0.000000
0.852539 0.856445 0.000000
0.871582 0.856445 0.000000
0.890137 0.856445 0.000000
0.907715 0.856445 0.000000
0.924316 0.856445 0.000000
0.940430 0.856445 0.000000
0.956055 0.856445 0.000000
0.971191 0.856445 0.000000
0.985840 0.856445 0.000000
1.000000 0.856445 0.000000
0.000000 0.875000 0.000000
0.012703 0.875000 0.000000
0.046295 0.875000 0.000000
0.086304 0.875000 0.000000
0.131714 0.875000 0.000000
0.183594 0.875000 0.000000
0.242554 0.875000 0.000000
0.306641 0.875000 0.000000
0.371582 0.875000 0.000000
0.432861 0.875000 0.000000
0.488037 0.875000 0.000000
0.536621 0.875000 0.000000
0.580078 0.875000 0.000000
0.618652 0.875000 0.000000
0.653320 0.875000 0.000000
0.685059 0.875000 0.000000
0.713867 0.875000 0.000000
0.740723 0.875000 0.000000
0.766113 0.875000 0.000000
0.789551 0.875000 0.000000
0.812012 0.875000 0.000000
0.833008 0.875000 0.000000
0.852539 0.875000 0.000000
0.871582 0.875000 0.000000
0.890137 0.875000 0.000000
0.907715 0.875000 0.000000
0.924316 0.875000 0.000000
0.940430 0.875000 0.000000
0.956055 0.875000 0.000000
0.971191 0.875000 0.000000
0.985840 0.875000 0.000000
1.000000 0.875000 0.000000
0.000000 0.893066 0.000000
0.012703 0.893066 0.000000
0.046295 0.893066 0.000000
0.086304 0.893066 0.000000
0.131714 0.893066 0.000000
0.183594 0.893066 0.000000
0.242554 0.893066 0.000000
0.306641 0.893066 0.000000
0.371582 0.893066 0.000000
0.432861 0.893066 0.000000
0.488037 0.893066 0.000000
0.536621 0.893066 0.000000
0.580078 0.893066 0.000000
0.618652 0.893066 0.000000
0.653320 0.893066 0.000000
0.685059 0.893066 0.000000
0.713867 0.893066 0.000000
0.740723 0.893066 0.000000
0.766113 0.893066 0.000000
0.789551 0.893066 0.000000
0.812012 0.893066 0.000000
0.833008 0.893066 0.000000
0.852539 0.893066 0.000000
0.871582 0.893066 0.000000
0.890137 0.893066 0.000000
0.907715 0.893066 0.000000
0.924316 0.893066 0.000000
0.940430 0.893066 0.000000
0.956055 0.893066 0.000000
0.971191 0.893066 0.000000
0.985840 0.893066 0.000000
1.000000 0.893066 0.000000
0.000000 0.909668 0.000000
0.012703 0.909668 0.000000
0.046295 0.909668 0.000000
0.086304 0.909668 0.000000
0.131714 0.909668 0.000000
0.183594 0.909668 0.000000
0.242554 0.909668 0.000000
0.306641 0.909668 0.000000
0.371582 0.909668 0.000000
0.432861 0.909668 0.000000
0.488037 0.909668 0.000000
0.536621 0.909668 0.000000
0.580078 0.909668 0.000000
0.618652 0.909668 0.000000
0.653320 0.909668 0.000000
0.685059 0.909668 0.000000
0.713867 0.909668 0.000000
0.740723 0.909668 0.000000
0.766113 0.909668 0.000000
0.789551 0.909668 0.000000
0.812012 0.909668 0.000000
0.833008 0.909668 0.000000
0.852539 0.909668 0.000000
0.871582 0.909668 0.000000
0.890137 0.909668 0.000000
0.907715 0.909668 0.000000
0.924316 0.909668 0.000000
0.940430 0.909668 0.000000
0.956055 0.909668 0.000000
0.971191 0.909668 0.000000
0.985840 0.909668 0.000000
1.000000 0.909668 0.000000
0.000000 0.926270 0.000000
0.012703 0.926270 0.000000
0.046295 0.926270 0.000000
0.086304 0.926270 0.000000
0.131714 0.926270 0.000000
0.183594 0.926270 0.000000
0.242554 0.926270 0.000000
0.306641 0.926270 0.000000
0.371582 0.926270 0.000000
0.432861 0.926270 0.000000
0.488037 0.926270 0.000000
0.536621 0.926270 0.000000
0.580078 0.926270 0.000000
0.618652 0.926270 0.000000
0.653320 0.926270 0.000000
0.685059 0.926270 0.000000
0.713867 0.926270 0.000000
0.740723 0.926270 0.000000
0.766113 0.926270 0.000000
0.789551 0.926270 0.000000
0.812012 0.926270 0.000000
0.833008 0.926270 0.000000
0.852539 0.926270 0.000000
0.871582 0.926270 0.000000
0.890137 0.926270 0.000000
0.907715 0.926270 0.000000
0.924316 0.926270 0.000000
0.940430 0.926270 0.000000
0.956055 0.926270 0.000000
0.971191 0.926270 0.000000
0.985840 0.926270 0.000000
1.000000 0.926270 0.000000
0.000000 0.941895 0.000000
0.012703 0.941895 0.000000
0.046295 0.941895 0.000000
0.086304 0.941895 0.000000
0.131714 0.941895 0.000000
0.183594 0.941895 0.000000
0.242554 0.941895 0.000000
0.306641 0.941895 0.000000
0.371582 0.941895 0.000000
0.432861 0.941895 0.000000
0.488037 0.941895 0.000000
0.536621 0.941895 0.000000
0.580078 0.941895 0.000000
0.618652 0.941895 0.000000
0.653320 0.941895 0.000000
0.685059 0.941895 0.000000
0.713867 0.941895 0.000000
0.740723 0.941895 0.000000
0.766113 0.941895 0.000000
0.789551 0.941895 0.000000
0.812012 0.941895 0.000000
0.833008 0.941895 0.000000
0.852539 0.941895 0.000000
