cubelut/Adanmq_Ektachrome 100+.cube
TITLE "Generated by Foundry::LUT"
LUT_3D_SIZE 5
DOMAIN_MIN 0.000000 0.000000 0.000000
DOMAIN_MAX 0.903226 0.903226 0.903226
0.000000 0.000000 0.000000
0.434570 0.000000 0.000000
0.863770 0.000000 0.000000
0.965332 0.000000 0.000000
0.992188 0.000000 0.000000
0.000000 0.223022 0.000000
0.434570 0.223022 0.000000
0.863770 0.223022 0.000000
0.965332 0.223022 0.000000
0.992188 0.223022 0.000000
0.000000 0.740234 0.000000
0.434570 0.740234 0.000000
0.863770 0.740234 0.000000
0.965332 0.740234 0.000000
0.992188 0.740234 0.000000
0.000000 0.932617 0.000000
0.434570 0.932617 0.000000
0.863770 0.932617 0.000000
0.965332 0.932617 0.000000
0.992188 0.932617 0.000000
0.000000 0.985840 0.000000
0.434570 0.985840 0.000000
0.863770 0.985840 0.000000
0.965332 0.985840 0.000000
0.992188 0.985840 0.000000
0.000000 0.000000 0.168457
0.434814 0.000000 0.168457
0.863770 0.000000 0.168457
0.965332 0.000000 0.168457
0.992188 0.000000 0.168457
0.000000 0.222900 0.168457
0.434814 0.223022 0.168457
0.863770 0.223022 0.168457
0.965332 0.223022 0.168457
0.992188 0.223022 0.168457
0.000000 0.740234 0.168457
0.434814 0.740234 0.168457
0.863770 0.740234 0.168457
0.965332 0.740234 0.168457
0.992188 0.740234 0.168457
0.000000 0.932617 0.168457
0.434814 0.932617 0.168457
0.863770 0.932617 0.168457
0.965332 0.932617 0.168457
0.992188 0.932617 0.168457
0.000000 0.985840 0.168457
0.434814 0.985840 0.168457
0.863770 0.985840 0.168457
0.965332 0.985840 0.168457
0.992188 0.985840 0.168457
0.000000 0.000000 0.597168
0.435059 0.000000 0.597168
0.863770 0.000000 0.597168
0.965332 0.000000 0.597168
0.992188 0.000000 0.597168
0.000000 0.222900 0.597168
0.435059 0.222900 0.597168
0.863770 0.223022 0.597168
0.965332 0.223022 0.597168
0.992188 0.223022 0.597168
0.000000 0.740234 0.597168
0.435059 0.740234 0.597168
0.863770 0.740234 0.597168
0.965332 0.740234 0.597168
0.992188 0.740234 0.597168
0.000000 0.932617 0.597168
0.435059 0.932617 0.597168
0.863770 0.932617 0.597168
0.965332 0.932617 0.597168
0.992188 0.932617 0.597168
0.000000 0.985840 0.597168
0.435059 0.985840 0.597168
0.863770 0.985840 0.597168
0.965332 0.985840 0.597168
0.992188 0.985840 0.597168
0.000000 0.000000 0.823730
0.435059 0.000000 0.823730
0.863770 0.000000 0.823730
0.965332 0.000000 0.823730
0.992188 0.000000 0.823730
0.000000 0.222900 0.823730
0.435059 0.222900 0.823730
0.863770 0.223022 0.823730
0.965332 0.223022 0.823730
0.992188 0.223022 0.823730
0.000000 0.740234 0.823730
0.435059 0.740234 0.823730
0.863770 0.740234 0.823730
0.965332 0.740234 0.823730
0.992188 0.740234 0.823730
0.000000 0.932617 0.823730
0.435059 0.932617 0.823730
0.863770 0.932617 0.823730
0.965332 0.932617 0.823730
0.992188 0.932617 0.823730
0.000000 0.985840 0.823730
0.435059 0.985840 0.823730
0.863770 0.985840 0.823730
0.965332 0.985840 0.823730
0.992188 0.985840 0.823730
0.000000 0.000000 0.958984
0.435303 0.000000 0.958984
0.863770 0.000000 0.958984
0.965332 0.000000 0.958984
0.992188 0.000000 0.958984
0.000000 0.222900 0.958984
0.435303 0.222900 0.958984
0.863770 0.222900 0.958984
0.965332 0.223022 0.958984
0.992188 0.223022 0.958984
0.000000 0.740234 0.958984
0.435303 0.740234 0.958984
0.863770 0.740234 0.958984
0.965332 0.740234 0.958984
0.992188 0.740234 0.958984
0.000000 0.932617 0.958984
0.435303 0.932617 0.958984
0.863770 0.932617 0.958984
0.965332 0.932617 0.958984
0.992188 0.932617 0.958984
0.000000 0.985840 0.958984
0.435303 0.985840 0.958984
0.863770 0.985840 0.958984
0.965332 0.985840 0.958984
0.992188 0.985840 0.958984
