cubelut/Adanmq_AgfaColor HDC 200+.cube
TITLE "Generated by Foundry::LUT"
LUT_3D_SIZE 32
0.000000 0.000000 0.000000
0.023560 0.000000 0.000000
0.056519 0.000000 0.000000
0.092529 0.000000 0.000000
0.130493 0.000000 0.000000
0.169434 0.000000 0.000000
0.209595 0.000000 0.000000
0.249512 0.000000 0.000000
0.288818 0.000000 0.000000
0.327881 0.000000 0.000000
0.366943 0.000000 0.000000
0.405273 0.000000 0.000000
0.443359 0.000000 0.000000
0.480225 0.000000 0.000000
0.516602 0.000000 0.000000
0.551758 0.000000 0.000000
0.585938 0.000000 0.000000
0.619629 0.000000 0.000000
0.652344 0.000000 0.000000
0.684082 0.000000 0.000000
0.715332 0.000000 0.000000
0.745117 0.000000 0.000000
0.774414 0.000000 0.000000
0.803223 0.000000 0.000000
0.832031 0.000000 0.000000
0.859375 0.000000 0.000000
0.886230 0.000000 0.000000
0.911621 0.000000 0.000000
0.936523 0.000000 0.000000
0.959961 0.000000 0.000000
0.981445 0.000000 0.000000
1.000000 0.000000 0.000000
0.000000 0.025528 0.000000
0.023560 0.025528 0.000000
0.056519 0.025528 0.000000
0.092529 0.025528 0.000000
0.130493 0.025528 0.000000
0.169434 0.025528 0.000000
0.209595 0.025528 0.000000
0.249512 0.025528 0.000000
0.288818 0.025528 0.000000
0.327881 0.025528 0.000000
0.366943 0.025528 0.000000
0.405273 0.025543 0.000000
0.443359 0.025543 0.000000
0.480225 0.025543 0.000000
0.516602 0.025543 0.000000
0.551758 0.025543 0.000000
0.585938 0.025543 0.000000
0.619629 0.025543 0.000000
0.652344 0.025543 0.000000
0.684082 0.025543 0.000000
0.715332 0.025543 0.000000
0.745117 0.025543 0.000000
0.774414 0.025543 0.000000
0.803223 0.025543 0.000000
0.832031 0.025543 0.000000
0.859375 0.025543 0.000000
0.886230 0.025543 0.000000
0.911621 0.025543 0.000000
0.936523 0.025543 0.000000
0.959961 0.025543 0.000000
0.981445 0.025543 0.000000
1.000000 0.025543 0.000000
0.000000 0.061981 0.000000
0.023560 0.061981 0.000000
0.056519 0.061981 0.000000
0.092529 0.061981 0.000000
0.130493 0.061981 0.000000
0.169434 0.061981 0.000000
0.209595 0.061981 0.000000
0.249512 0.061981 0.000000
0.288818 0.061981 0.000000
0.327881 0.061981 0.000000
0.366943 0.061981 0.000000
0.405273 0.061981 0.000000
0.443359 0.062012 0.000000
0.480225 0.062012 0.000000
0.516602 0.062012 0.000000
0.551758 0.062012 0.000000
0.585938 0.062012 0.000000
0.619629 0.062012 0.000000
0.652344 0.062012 0.000000
0.684082 0.062012 0.000000
0.715332 0.062012 0.000000
0.745117 0.062012 0.000000
0.774414 0.062012 0.000000
0.803223 0.062012 0.000000
0.832031 0.062012 0.000000
0.859375 0.062012 0.000000
0.886230 0.062012 0.000000
0.911621 0.062012 0.000000
0.936523 0.062012 0.000000
0.959961 0.062012 0.000000
0.981445 0.062012 0.000000
1.000000 0.062012 0.000000
0.000000 0.102417 0.000000
0.023560 0.102417 0.000000
0.056519 0.102417 0.000000
0.092529 0.102417 0.000000
0.130493 0.102417 0.000000
0.169434 0.102417 0.000000
0.209595 0.102417 0.000000
0.249512 0.102417 0.000000
0.288818 0.102417 0.000000
0.327881 0.102417 0.000000
0.366943 0.102417 0.000000
0.405273 0.102417 0.000000
0.443359 0.102417 0.000000
0.480225 0.102417 0.000000
0.516602 0.102478 0.000000
0.551758 0.102478 0.000000
0.585938 0.102478 0.000000
0.619629 0.102478 0.000000
0.652344 0.102478 0.000000
0.684082 0.102478 0.000000
0.715332 0.102478 0.000000
0.745117 0.102478 0.000000
0.774414 0.102478 0.000000
0.803223 0.102478 0.000000
0.832031 0.102478 0.000000
0.859375 0.102478 0.000000
0.886230 0.102478 0.000000
0.911621 0.102478 0.000000
0.936523 0.102478 0.000000
0.959961 0.102478 0.000000
0.981445 0.102478 0.000000
1.000000 0.102478 0.000000
0.000000 0.145142 0.000000
0.023560 0.145142 0.000000
0.056519 0.145142 0.000000
0.092529 0.145142 0.000000
0.130493 0.145142 0.000000
0.169434 0.145142 0.000000
0.209595 0.145142 0.000000
0.249512 0.145142 0.000000
0.288818 0.145142 0.000000
0.327881 0.145142 0.000000
0.366943 0.145142 0.000000
0.405273 0.145142 0.000000
0.443359 0.145142 0.000000
0.480225 0.145142 0.000000
0.516602 0.145142 0.000000
0.551758 0.145142 0.000000
0.585938 0.145142 0.000000
0.619629 0.145142 0.000000
0.652344 0.145142 0.000000
0.684082 0.145142 0.000000
0.715332 0.145142 0.000000
0.745117 0.145142 0.000000
0.774414 0.145142 0.000000
0.803223 0.145142 0.000000
0.832031 0.145142 0.000000
0.859375 0.145142 0.000000
0.886230 0.145142 0.000000
0.911621 0.145142 0.000000
0.936523 0.145142 0.000000
0.959961 0.145142 0.000000
0.981445 0.145142 0.000000
1.000000 0.145142 0.000000
0.000000 0.188599 0.000000
0.023560 0.188599 0.000000
0.056519 0.188599 0.000000
0.092529 0.188599 0.000000
0.130493 0.188599 0.000000
0.169434 0.188599 0.000000
0.209595 0.188599 0.000000
0.249512 0.188599 0.000000
0.288818 0.188599 0.000000
0.327881 0.188721 0.000000
0.366943 0.188721 0.000000
0.405273 0.188721 0.000000
0.443359 0.188721 0.000000
0.480225 0.188721 0.000000
0.516602 0.188721 0.000000
0.551758 0.188721 0.000000
0.585938 0.188721 0.000000
0.619629 0.188721 0.000000
0.652344 0.188721 0.000000
0.684082 0.188721 0.000000
0.715332 0.188721 0.000000
0.745117 0.188721 0.000000
0.774414 0.188721 0.000000
0.803223 0.188721 0.000000
0.832031 0.188721 0.000000
0.859375 0.188721 0.000000
0.886230 0.188721 0.000000
0.911621 0.188721 0.000000
0.936523 0.188721 0.000000
0.959961 0.188721 0.000000
0.981445 0.188721 0.000000
1.000000 0.188721 0.000000
0.000000 0.232056 0.000000
0.023560 0.232056 0.000000
0.056519 0.232056 0.000000
0.092529 0.232056 0.000000
0.130493 0.232056 0.000000
0.169434 0.232056 0.000000
0.209595 0.232056 0.000000
0.249512 0.232056 0.000000
0.288818 0.232056 0.000000
0.327881 0.232056 0.000000
0.366943 0.232056 0.000000
0.405273 0.232056 0.000000
0.443359 0.232056 0.000000
0.480225 0.232056 0.000000
0.516602 0.232056 0.000000
0.551758 0.232056 0.000000
0.585938 0.232056 0.000000
0.619629 0.232056 0.000000
0.652344 0.232056 0.000000
0.684082 0.232056 0.000000
0.715332 0.232056 0.000000
0.745117 0.232056 0.000000
0.774414 0.232056 0.000000
0.803223 0.232056 0.000000
0.832031 0.232056 0.000000
0.859375 0.232056 0.000000
0.886230 0.232056 0.000000
0.911621 0.232056 0.000000
0.936523 0.232056 0.000000
0.959961 0.232056 0.000000
0.981445 0.232056 0.000000
1.000000 0.232056 0.000000
0.000000 0.275635 0.000000
0.023560 0.275635 0.000000
0.056519 0.275635 0.000000
0.092529 0.275635 0.000000
0.130493 0.275635 0.000000
0.169434 0.275635 0.000000
0.209595 0.275635 0.000000
0.249512 0.275635 0.000000
0.288818 0.275635 0.000000
0.327881 0.275635 0.000000
0.366943 0.275635 0.000000
0.405273 0.275635 0.000000
0.443359 0.275635 0.000000
0.480225 0.275635 0.000000
0.516602 0.275635 0.000000
0.551758 0.275635 0.000000
0.585938 0.275635 0.000000
0.619629 0.275635 0.000000
0.652344 0.275635 0.000000
0.684082 0.275635 0.000000
0.715332 0.275635 0.000000
0.745117 0.275635 0.000000
0.774414 0.275635 0.000000
0.803223 0.275635 0.000000
0.832031 0.275635 0.000000
0.859375 0.275635 0.000000
0.886230 0.275635 0.000000
0.911621 0.275635 0.000000
0.936523 0.275635 0.000000
0.959961 0.275635 0.000000
0.981445 0.275635 0.000000
1.000000 0.275635 0.000000
0.000000 0.317871 0.000000
0.023560 0.317871 0.000000
0.056519 0.317871 0.000000
0.092529 0.317871 0.000000
0.130493 0.317871 0.000000
0.169434 0.317871 0.000000
0.209595 0.317871 0.000000
0.249512 0.317871 0.000000
0.288818 0.317871 0.000000
0.327881 0.318115 0.000000
0.366943 0.318115 0.000000
0.405273 0.318115 0.000000
0.443359 0.318115 0.000000
0.480225 0.318115 0.000000
0.516602 0.318115 0.000000
0.551758 0.318115 0.000000
0.585938 0.318115 0.000000
0.619629 0.318115 0.000000
0.652344 0.318115 0.000000
0.684082 0.318115 0.000000
0.715332 0.318115 0.000000
0.745117 0.318115 0.000000
0.774414 0.318115 0.000000
0.803223 0.318115 0.000000
0.832031 0.318115 0.000000
0.859375 0.318115 0.000000
0.886230 0.318115 0.000000
0.911621 0.318115 0.000000
0.936523 0.318115 0.000000
0.959961 0.318115 0.000000
0.981445 0.318115 0.000000
1.000000 0.318115 0.000000
0.000000 0.359375 0.000000
0.023560 0.359375 0.000000
0.056519 0.359375 0.000000
0.092529 0.359375 0.000000
0.130493 0.359375 0.000000
0.169434 0.359375 0.000000
0.209595 0.359375 0.000000
0.249512 0.359375 0.000000
0.288818 0.359375 0.000000
0.327881 0.359375 0.000000
0.366943 0.359375 0.000000
0.405273 0.359375 0.000000
0.443359 0.359375 0.000000
0.480225 0.359375 0.000000
0.516602 0.359375 0.000000
0.551758 0.359375 0.000000
0.585938 0.359375 0.000000
0.619629 0.359375 0.000000
0.652344 0.359375 0.000000
0.684082 0.359375 0.000000
0.715332 0.359375 0.000000
0.745117 0.359375 0.000000
0.774414 0.359375 0.000000
0.803223 0.359375 0.000000
0.832031 0.359375 0.000000
0.859375 0.359375 0.000000
0.886230 0.359375 0.000000
0.911621 0.359375 0.000000
0.936523 0.359375 0.000000
0.959961 0.359375 0.000000
0.981445 0.359375 0.000000
1.000000 0.359375 0.000000
0.000000 0.399658 0.000000
0.023560 0.399658 0.000000
0.056519 0.399658 0.000000
0.092529 0.399658 0.000000
0.130493 0.399658 0.000000
0.169434 0.399658 0.000000
0.209595 0.399658 0.000000
0.249512 0.399658 0.000000
0.288818 0.399658 0.000000
0.327881 0.399658 0.000000
0.366943 0.399658 0.000000
0.405273 0.399658 0.000000
0.443359 0.399658 0.000000
0.480225 0.399658 0.000000
0.516602 0.399658 0.000000
0.551758 0.399658 0.000000
0.585938 0.399658 0.000000
0.619629 0.399658 0.000000
0.652344 0.399658 0.000000
0.684082 0.399658 0.000000
0.715332 0.399658 0.000000
0.745117 0.399658 0.000000
0.774414 0.399658 0.000000
0.803223 0.399658 0.000000
0.832031 0.399658 0.000000
0.859375 0.399658 0.000000
0.886230 0.399658 0.000000
0.911621 0.399658 0.000000
0.936523 0.399658 0.000000
0.959961 0.399658 0.000000
0.981445 0.399658 0.000000
1.000000 0.399658 0.000000
0.000000 0.438721 0.000000
0.023560 0.438721 0.000000
0.056519 0.438721 0.000000
0.092529 0.438721 0.000000
0.130493 0.438721 0.000000
0.169434 0.438721 0.000000
0.209595 0.438721 0.000000
0.249512 0.438721 0.000000
0.288818 0.438721 0.000000
0.327881 0.438721 0.000000
0.366943 0.438721 0.000000
0.405273 0.438721 0.000000
0.443359 0.438721 0.000000
0.480225 0.438721 0.000000
0.516602 0.438721 0.000000
0.551758 0.438721 0.000000
0.585938 0.438721 0.000000
0.619629 0.438721 0.000000
0.652344 0.438721 0.000000
0.684082 0.438721 0.000000
0.715332 0.438721 0.000000
0.745117 0.438721 0.000000
0.774414 0.438721 0.000000
0.803223 0.438721 0.000000
0.832031 0.438721 0.000000
0.859375 0.438721 0.000000
0.886230 0.438721 0.000000
0.911621 0.438721 0.000000
0.936523 0.438721 0.000000
0.959961 0.438721 0.000000
0.981445 0.438721 0.000000
1.000000 0.438721 0.000000
0.000000 0.476563 0.000000
0.023560 0.476563 0.000000
0.056519 0.476563 0.000000
0.092529 0.476563 0.000000
0.130493 0.476563 0.000000
0.169434 0.476563 0.000000
0.209595 0.476563 0.000000
0.249512 0.476563 0.000000
0.288818 0.476563 0.000000
0.327881 0.476563 0.000000
0.366943 0.476563 0.000000
0.405273 0.476563 0.000000
0.443359 0.476563 0.000000
0.480225 0.476563 0.000000
0.516602 0.476563 0.000000
0.551758 0.476563 0.000000
0.585938 0.476563 0.000000
0.619629 0.476563 0.000000
0.652344 0.476563 0.000000
0.684082 0.476563 0.000000
0.715332 0.476563 0.000000
0.745117 0.476563 0.000000
0.774414 0.476563 0.000000
0.803223 0.476563 0.000000
0.832031 0.476563 0.000000
0.859375 0.476563 0.000000
0.886230 0.476563 0.000000
0.911621 0.476563 0.000000
0.936523 0.476563 0.000000
0.959961 0.476563 0.000000
0.981445 0.476563 0.000000
1.000000 0.476563 0.000000
0.000000 0.513184 0.000000
0.023560 0.513184 0.000000
0.056519 0.513184 0.000000
0.092529 0.513184 0.000000
0.130493 0.513184 0.000000
0.169434 0.513184 0.000000
0.209595 0.513184 0.000000
0.249512 0.513184 0.000000
0.288818 0.513184 0.000000
0.327881 0.513184 0.000000
0.366943 0.513184 0.000000
0.405273 0.513184 0.000000
0.443359 0.513184 0.000000
0.480225 0.513184 0.000000
0.516602 0.513184 0.000000
0.551758 0.513184 0.000000
0.585938 0.513184 0.000000
0.619629 0.513184 0.000000
0.652344 0.513184 0.000000
0.684082 0.513184 0.000000
0.715332 0.513184 0.000000
0.745117 0.513184 0.000000
0.774414 0.513184 0.000000
0.803223 0.513184 0.000000
0.832031 0.513184 0.000000
0.859375 0.513184 0.000000
0.886230 0.513184 0.000000
0.911621 0.513184 0.000000
0.936523 0.513184 0.000000
0.959961 0.513184 0.000000
0.981445 0.513184 0.000000
1.000000 0.513184 0.000000
0.000000 0.547852 0.000000
0.023560 0.547852 0.000000
0.056519 0.547852 0.000000
0.092529 0.547852 0.000000
0.130493 0.547852 0.000000
0.169434 0.547852 0.000000
0.209595 0.547852 0.000000
0.249512 0.547852 0.000000
0.288818 0.547852 0.000000
0.327881 0.547852 0.000000
0.366943 0.547852 0.000000
0.405273 0.547852 0.000000
0.443359 0.547852 0.000000
0.480225 0.547852 0.000000
0.516602 0.547852 0.000000
0.551758 0.547852 0.000000
0.585938 0.547852 0.000000
0.619629 0.547852 0.000000
0.652344 0.547852 0.000000
0.684082 0.547852 0.000000
0.715332 0.547852 0.000000
0.745117 0.547852 0.000000
0.774414 0.547852 0.000000
0.803223 0.547852 0.000000
0.832031 0.547852 0.000000
0.859375 0.547852 0.000000
0.886230 0.547852 0.000000
0.911621 0.547852 0.000000
0.936523 0.547852 0.000000
0.959961 0.547852 0.000000
0.981445 0.547852 0.000000
1.000000 0.547852 0.000000
0.000000 0.581543 0.000000
0.023560 0.581543 0.000000
0.056519 0.581543 0.000000
0.092529 0.581543 0.000000
0.130493 0.581543 0.000000
0.169434 0.581543 0.000000
0.209595 0.581543 0.000000
0.249512 0.581543 0.000000
0.288818 0.581543 0.000000
0.327881 0.581543 0.000000
0.366943 0.582031 0.000000
0.405273 0.582031 0.000000
0.443359 0.582031 0.000000
0.480225 0.582031 0.000000
0.516602 0.582031 0.000000
0.551758 0.582031 0.000000
0.585938 0.582031 0.000000
0.619629 0.582031 0.000000
0.652344 0.582031 0.000000
0.684082 0.582031 0.000000
0.715332 0.582031 0.000000
0.745117 0.582031 0.000000
0.774414 0.582031 0.000000
0.803223 0.582031 0.000000
0.832031 0.582031 0.000000
0.859375 0.582031 0.000000
0.886230 0.582031 0.000000
0.911621 0.582031 0.000000
0.936523 0.582031 0.000000
0.959961 0.582031 0.000000
0.981445 0.582031 0.000000
1.000000 0.582031 0.000000
0.000000 0.614258 0.000000
0.023560 0.614258 0.000000
0.056519 0.614258 0.000000
0.092529 0.614258 0.000000
0.130493 0.614258 0.000000
0.169434 0.614258 0.000000
0.209595 0.614258 0.000000
0.249512 0.614258 0.000000
0.288818 0.614258 0.000000
0.327881 0.614258 0.000000
0.366943 0.614258 0.000000
0.405273 0.614258 0.000000
0.443359 0.614258 0.000000
0.480225 0.614258 0.000000
0.516602 0.614258 0.000000
0.551758 0.614258 0.000000
0.585938 0.614258 0.000000
0.619629 0.614258 0.000000
0.652344 0.614258 0.000000
0.684082 0.614258 0.000000
0.715332 0.614258 0.000000
0.745117 0.614258 0.000000
0.774414 0.614258 0.000000
0.803223 0.614258 0.000000
0.832031 0.614258 0.000000
0.859375 0.614258 0.000000
0.886230 0.614258 0.000000
0.911621 0.614258 0.000000
0.936523 0.614258 0.000000
0.959961 0.614258 0.000000
0.981445 0.614258 0.000000
1.000000 0.614258 0.000000
0.000000 0.645996 0.000000
0.023560 0.645996 0.000000
0.056519 0.645996 0.000000
0.092529 0.645996 0.000000
0.130493 0.645996 0.000000
0.169434 0.645996 0.000000
0.209595 0.645996 0.000000
0.249512 0.645996 0.000000
0.288818 0.645996 0.000000
0.327881 0.645996 0.000000
0.366943 0.645996 0.000000
0.405273 0.645996 0.000000
0.443359 0.645996 0.000000
0.480225 0.645996 0.000000
0.516602 0.645996 0.000000
0.551758 0.645996 0.000000
0.585938 0.645996 0.000000
0.619629 0.645996 0.000000
0.652344 0.645996 0.000000
0.684082 0.645996 0.000000
0.715332 0.645996 0.000000
0.745117 0.645996 0.000000
0.774414 0.645996 0.000000
0.803223 0.645996 0.000000
0.832031 0.645996 0.000000
0.859375 0.645996 0.000000
0.886230 0.645996 0.000000
0.911621 0.645996 0.000000
0.936523 0.645996 0.000000
0.959961 0.645996 0.000000
0.981445 0.645996 0.000000
1.000000 0.645996 0.000000
0.000000 0.676270 0.000000
0.023560 0.676270 0.000000
0.056519 0.676270 0.000000
0.092529 0.676270 0.000000
0.130493 0.676270 0.000000
0.169434 0.676270 0.000000
0.209595 0.676270 0.000000
0.249512 0.676270 0.000000
0.288818 0.676270 0.000000
0.327881 0.676270 0.000000
0.366943 0.676270 0.000000
0.405273 0.676270 0.000000
0.443359 0.676270 0.000000
0.480225 0.676270 0.000000
0.516602 0.676270 0.000000
0.551758 0.676270 0.000000
0.585938 0.676270 0.000000
0.619629 0.676270 0.000000
0.652344 0.676270 0.000000
0.684082 0.676270 0.000000
0.715332 0.676270 0.000000
0.745117 0.676270 0.000000
0.774414 0.676270 0.000000
0.803223 0.676270 0.000000
0.832031 0.676270 0.000000
0.859375 0.676270 0.000000
0.886230 0.676270 0.000000
0.911621 0.676270 0.000000
0.936523 0.676270 0.000000
0.959961 0.676270 0.000000
0.981445 0.676270 0.000000
1.000000 0.676270 0.000000
0.000000 0.706055 0.000000
0.023560 0.706055 0.000000
0.056519 0.706055 0.000000
0.092529 0.706055 0.000000
0.130493 0.706055 0.000000
0.169434 0.706055 0.000000
0.209595 0.706055 0.000000
0.249512 0.706055 0.000000
0.288818 0.706055 0.000000
0.327881 0.706055 0.000000
0.366943 0.706055 0.000000
0.405273 0.706055 0.000000
0.443359 0.706055 0.000000
0.480225 0.706055 0.000000
0.516602 0.706055 0.000000
0.551758 0.706055 0.000000
0.585938 0.706055 0.000000
0.619629 0.706055 0.000000
0.652344 0.706055 0.000000
0.684082 0.706055 0.000000
0.715332 0.706055 0.000000
0.745117 0.706055 0.000000
0.774414 0.706055 0.000000
0.803223 0.706055 0.000000
0.832031 0.706055 0.000000
0.859375 0.706055 0.000000
0.886230 0.706055 0.000000
0.911621 0.706055 0.000000
0.936523 0.706055 0.000000
0.959961 0.706055 0.000000
0.981445 0.706055 0.000000
1.000000 0.706055 0.000000
0.000000 0.734863 0.000000
0.023560 0.734863 0.000000
0.056519 0.734863 0.000000
0.092529 0.734863 0.000000
0.130493 0.734863 0.000000
0.169434 0.734863 0.000000
0.209595 0.734863 0.000000
0.249512 0.734863 0.000000
0.288818 0.734863 0.000000
0.327881 0.734863 0.000000
0.366943 0.734863 0.000000
0.405273 0.734863 0.000000
0.443359 0.734863 0.000000
0.480225 0.734863 0.000000
0.516602 0.734863 0.000000
0.551758 0.734863 0.000000
0.585938 0.734863 0.000000
0.619629 0.734863 0.000000
0.652344 0.734863 0.000000
0.684082 0.734863 0.000000
0.715332 0.734863 0.000000
0.745117 0.734863 0.000000
0.774414 0.734863 0.000000
0.803223 0.734863 0.000000
0.832031 0.734863 0.000000
0.859375 0.734863 0.000000
0.886230 0.734863 0.000000
0.911621 0.734863 0.000000
0.936523 0.734863 0.000000
0.959961 0.734863 0.000000
0.981445 0.734863 0.000000
1.000000 0.734863 0.000000
0.000000 0.762695 0.000000
0.023560 0.762695 0.000000
0.056519 0.762695 0.000000
0.092529 0.762695 0.000000
0.130493 0.762695 0.000000
0.169434 0.762695 0.000000
0.209595 0.762695 0.000000
0.249512 0.762695 0.000000
0.288818 0.762695 0.000000
0.327881 0.762695 0.000000
0.366943 0.762695 0.000000
0.405273 0.762695 0.000000
0.443359 0.762695 0.000000
0.480225 0.762695 0.000000
0.516602 0.762695 0.000000
0.551758 0.762695 0.000000
0.585938 0.762695 0.000000
0.619629 0.762695 0.000000
0.652344 0.762695 0.000000
0.684082 0.762695 0.000000
0.715332 0.762695 0.000000
0.745117 0.762695 0.000000
0.774414 0.762695 0.000000
0.803223 0.762695 0.000000
0.832031 0.762695 0.000000
0.859375 0.762695 0.000000
0.886230 0.762695 0.000000
0.911621 0.762695 0.000000
0.936523 0.762695 0.000000
0.959961 0.762695 0.000000
0.981445 0.762695 0.000000
1.000000 0.762695 0.000000
0.000000 0.790039 0.000000
0.023560 0.790039 0.000000
0.056519 0.790039 0.000000
0.092529 0.790039 0.000000
0.130493 0.790039 0.000000
0.169434 0.790039 0.000000
0.209595 0.790039 0.000000
0.249512 0.790039 0.000000
0.288818 0.790039 0.000000
0.327881 0.790039 0.000000
0.366943 0.790039 0.000000
0.405273 0.790039 0.000000
0.443359 0.790039 0.000000
0.480225 0.790039 0.000000
0.516602 0.790039 0.000000
0.551758 0.790039 0.000000
0.585938 0.790039 0.000000
0.619629 0.790039 0.000000
0.652344 0.790039 0.000000
0.684082 0.790039 0.000000
0.715332 0.790039 0.000000
0.745117 0.790039 0.000000
0.774414 0.790039 0.000000
0.803223 0.790039 0.000000
0.832031 0.790039 0.000000
0.859375 0.790039 0.000000
0.886230 0.790039 0.000000
0.911621 0.790039 0.000000
0.936523 0.790039 0.000000
0.959961 0.790039 0.000000
0.981445 0.790039 0.000000
1.000000 0.790039 0.000000
0.000000 0.816406 0.000000
0.023560 0.816406 0.000000
0.056519 0.816406 0.000000
0.092529 0.816406 0.000000
0.130493 0.816406 0.000000
0.169434 0.816406 0.000000
0.209595 0.816406 0.000000
0.249512 0.816406 0.000000
0.288818 0.816406 0.000000
0.327881 0.816406 0.000000
0.366943 0.816406 0.000000
0.405273 0.816406 0.000000
0.443359 0.816406 0.000000
0.480225 0.816406 0.000000
0.516602 0.816406 0.000000
0.551758 0.816406 0.000000
0.585938 0.816406 0.000000
0.619629 0.816406 0.000000
0.652344 0.816406 0.000000
0.684082 0.816406 0.000000
0.715332 0.816406 0.000000
0.745117 0.816406 0.000000
0.774414 0.816406 0.000000
0.803223 0.816406 0.000000
0.832031 0.816406 0.000000
0.859375 0.816406 0.000000
0.886230 0.816406 0.000000
0.911621 0.816406 0.000000
0.936523 0.816406 0.000000
0.959961 0.816406 0.000000
0.981445 0.816406 0.000000
1.000000 0.816406 0.000000
0.000000 0.842285 0.000000
0.023560 0.842285 0.000000
0.056519 0.842285 0.000000
0.092529 0.842285 0.000000
0.130493 0.842285 0.000000
0.169434 0.842285 0.000000
0.209595 0.842285 0.000000
0.249512 0.842285 0.000000
0.288818 0.842285 0.000000
0.327881 0.842285 0.000000
0.366943 0.842285 0.000000
0.405273 0.842285 0.000000
0.443359 0.842285 0.000000
0.480225 0.842285 0.000000
0.516602 0.842285 0.000000
0.551758 0.842285 0.000000
0.585938 0.842285 0.000000
0.619629 0.842285 0.000000
0.652344 0.842285 0.000000
0.684082 0.842285 0.000000
0.715332 0.842285 0.000000
0.745117 0.842285 0.000000
0.774414 0.842285 0.000000
0.803223 0.842285 0.000000
0.832031 0.842285 0.000000
0.859375 0.842285 0.000000
0.886230 0.842285 0.000000
0.911621 0.842285 0.000000
0.936523 0.842285 0.000000
0.959961 0.842285 0.000000
0.981445 0.842285 0.000000
1.000000 0.842285 0.000000
0.000000 0.867188 0.000000
0.023560 0.867188 0.000000
0.056519 0.867188 0.000000
0.092529 0.867188 0.000000
0.130493 0.867188 0.000000
0.169434 0.867188 0.000000
0.209595 0.867188 0.000000
0.249512 0.867188 0.000000
0.288818 0.867188 0.000000
0.327881 0.867188 0.000000
0.366943 0.867188 0.000000
0.405273 0.867188 0.000000
0.443359 0.867188 0.000000
0.480225 0.867188 0.000000
0.516602 0.867188 0.000000
0.551758 0.867188 0.000000
0.585938 0.867188 0.000000
0.619629 0.867188 0.000000
0.652344 0.867188 0.000000
0.684082 0.867188 0.000000
0.715332 0.867188 0.000000
0.745117 0.867188 0.000000
0.774414 0.867188 0.000000
0.803223 0.867188 0.000000
0.832031 0.867188 0.000000
0.859375 0.867188 0.000000
0.886230 0.867188 0.000000
0.911621 0.867188 0.000000
0.936523 0.867188 0.000000
0.959961 0.867188 0.000000
0.981445 0.867188 0.000000
1.000000 0.867188 0.000000
0.000000 0.891602 0.000000
0.023560 0.891602 0.000000
0.056519 0.891602 0.000000
0.092529 0.891602 0.000000
0.130493 0.891602 0.000000
0.169434 0.891602 0.000000
0.209595 0.891602 0.000000
0.249512 0.891602 0.000000
0.288818 0.891602 0.000000
0.327881 0.891602 0.000000
0.366943 0.891602 0.000000
0.405273 0.891602 0.000000
0.443359 0.891602 0.000000
0.480225 0.891602 0.000000
0.516602 0.891602 0.000000
0.551758 0.891602 0.000000
0.585938 0.891602 0.000000
0.619629 0.891602 0.000000
0.652344 0.891602 0.000000
0.684082 0.891602 0.000000
0.715332 0.891602 0.000000
0.745117 0.891602 0.000000
0.774414 0.891602 0.000000
0.803223 0.891602 0.000000
0.832031 0.891602 0.000000
0.859375 0.891602 0.000000
0.886230 0.891602 0.000000
0.911621 0.891602 0.000000
0.936523 0.891602 0.000000
0.959961 0.891602 0.000000
0.981445 0.891602 0.000000
1.000000 0.891602 0.000000
0.000000 0.915527 0.000000
0.023560 0.915527 0.000000
0.056519 0.915527 0.000000
0.092529 0.915527 0.000000
0.130493 0.915527 0.000000
0.169434 0.915527 0.000000
0.209595 0.915527 0.000000
0.249512 0.915527 0.000000
0.288818 0.915527 0.000000
0.327881 0.915527 0.000000
0.366943 0.915527 0.000000
0.405273 0.915527 0.000000
0.443359 0.915527 0.000000
0.480225 0.915527 0.000000
0.516602 0.915527 0.000000
0.551758 0.915527 0.000000
0.585938 0.915527 0.000000
0.619629 0.915527 0.000000
0.652344 0.915527 0.000000
0.684082 0.915527 0.000000
0.715332 0.915527 0.000000
0.745117 0.915527 0.000000
0.774414 0.915527 0.000000
