cubelut/Adanmq_Kodachrome 200.cube
TITLE "Generated by Foundry::LUT"
LUT_3D_SIZE 5
DOMAIN_MIN 0.000000 0.000000 0.000000
DOMAIN_MAX 0.903226 0.903226 0.903226
0.000000 0.000000 0.000000
0.136230 0.000000 0.000000
0.576172 0.000000 0.000000
0.871094 0.000000 0.000000
0.980957 0.000000 0.000000
0.000000 0.121033 0.000000
0.136230 0.121033 0.000000
0.576172 0.121033 0.000000
0.871094 0.121094 0.000000
0.980957 0.121094 0.000000
0.000000 0.591797 0.000000
0.136230 0.591797 0.000000
0.576172 0.591797 0.000000
0.871094 0.591797 0.000000
0.980957 0.591797 0.000000
0.000000 0.884766 0.000000
0.136230 0.884766 0.000000
0.576172 0.884766 0.000000
0.871094 0.884766 0.000000
0.980957 0.884766 0.000000
0.000000 0.982910 0.000000
0.136230 0.982910 0.000000
0.576172 0.982910 0.000000
0.871094 0.982910 0.000000
0.980957 0.982910 0.000000
0.000000 0.000000 0.093872
0.136230 0.000000 0.093872
0.576172 0.000000 0.093872
0.871094 0.000000 0.093872
0.980957 0.000000 0.093872
0.000000 0.121033 0.093872
0.136230 0.121033 0.093872
0.576172 0.121033 0.093872
0.871094 0.121033 0.093872
0.980957 0.121094 0.093872
0.000000 0.591797 0.093872
0.136230 0.591797 0.093872
0.576172 0.591797 0.093872
0.871094 0.591797 0.093872
0.980957 0.591797 0.093872
0.000000 0.884766 0.093872
0.136230 0.884766 0.093872
0.576172 0.884766 0.093872
0.871094 0.884766 0.093872
0.980957 0.884766 0.093872
0.000000 0.982910 0.093872
0.136230 0.982910 0.093872
0.576172 0.982910 0.093872
0.871094 0.982910 0.093872
0.980957 0.982910 0.093872
0.000000 0.000000 0.487793
0.136353 0.000000 0.487793
0.576172 0.000000 0.487793
0.871094 0.000000 0.487793
0.980957 0.000000 0.487793
0.000000 0.121033 0.487793
0.136353 0.121033 0.487793
0.576172 0.121033 0.487793
0.871094 0.121033 0.487793
0.980957 0.121033 0.487793
0.000000 0.591797 0.487793
0.136353 0.591797 0.487793
0.576172 0.591797 0.487793
0.871094 0.591797 0.487793
0.980957 0.591797 0.487793
0.000000 0.884766 0.487793
0.136353 0.884766 0.487793
0.576172 0.884766 0.487793
0.871094 0.884766 0.487793
0.980957 0.884766 0.487793
0.000000 0.982910 0.487793
0.136353 0.982910 0.487793
0.576172 0.982910 0.487793
0.871094 0.982910 0.487793
0.980957 0.982910 0.487793
0.000000 0.000000 0.800293
0.136475 0.000000 0.800293
0.576660 0.000000 0.800293
0.871094 0.000000 0.800293
0.980957 0.000000 0.800293
0.000000 0.121033 0.800293
0.136475 0.121033 0.800293
0.576660 0.121033 0.800293
0.871094 0.121033 0.800293
0.980957 0.121033 0.800293
0.000000 0.591797 0.800293
0.136475 0.591797 0.800293
0.576660 0.591797 0.800293
0.871094 0.591797 0.800293
0.980957 0.591797 0.800293
0.000000 0.884766 0.800293
0.136475 0.884766 0.800293
0.576660 0.884766 0.800293
0.871094 0.884766 0.800293
0.980957 0.884766 0.800293
0.000000 0.982910 0.800293
0.136475 0.982910 0.800293
0.576660 0.982910 0.800293
0.871094 0.982910 0.800293
0.980957 0.982910 0.800293
0.000000 0.000000 0.959961
0.136475 0.000000 0.959961
0.576660 0.000000 0.959961
0.871094 0.000000 0.959961
0.980957 0.000000 0.959961
0.000000 0.121033 0.959961
0.136475 0.121033 0.959961
0.576660 0.121033 0.959961
0.871094 0.121033 0.959961
0.980957 0.121033 0.959961
0.000000 0.591797 0.959961
0.136475 0.591797 0.959961
0.576660 0.591797 0.959961
0.871094 0.591797 0.959961
0.980957 0.591797 0.959961
0.000000 0.884766 0.959961
0.136475 0.884766 0.959961
0.576660 0.884766 0.959961
0.871094 0.884766 0.959961
0.980957 0.884766 0.959961
0.000000 0.982910 0.959961
0.136475 0.982910 0.959961
0.576660 0.982910 0.959961
0.871094 0.982910 0.959961
0.980957 0.982910 0.959961
