cubelut/Adanmq_AgfaColor Ultra 050.cube
TITLE "Generated by Foundry::LUT"
LUT_3D_SIZE 32
0.000000 0.000000 0.000000
0.047821 0.000000 0.000000
0.098572 0.000000 0.000000
0.145020 0.000000 0.000000
0.186768 0.000000 0.000000
0.225098 0.000000 0.000000
0.262207 0.000000 0.000000
0.297363 0.000000 0.000000
0.331787 0.000000 0.000000
0.365723 0.000000 0.000000
0.399170 0.000000 0.000000
0.431885 0.000000 0.000000
0.463867 0.000000 0.000000
0.495117 0.000000 0.000000
0.525879 0.000000 0.000000
0.557129 0.000000 0.000000
0.587402 0.000000 0.000000
0.617676 0.000000 0.000000
0.647461 0.000000 0.000000
0.676758 0.000000 0.000000
0.706055 0.000000 0.000000
0.734863 0.000000 0.000000
0.763672 0.000000 0.000000
0.792480 0.000000 0.000000
0.821289 0.000000 0.000000
0.849609 0.000000 0.000000
0.876953 0.000000 0.000000
0.904297 0.000000 0.000000
0.930664 0.000000 0.000000
0.956055 0.000000 0.000000
0.979492 0.000000 0.000000
1.000000 0.000000 0.000000
0.000000 0.067139 0.000000
0.047821 0.067139 0.000000
0.098572 0.067139 0.000000
0.145020 0.067200 0.000000
0.186768 0.067200 0.000000
0.225098 0.067200 0.000000
0.262207 0.067200 0.000000
0.297363 0.067200 0.000000
0.331787 0.067200 0.000000
0.365723 0.067200 0.000000
0.399170 0.067200 0.000000
0.431885 0.067200 0.000000
0.463867 0.067200 0.000000
0.495117 0.067200 0.000000
0.525879 0.067200 0.000000
0.557129 0.067200 0.000000
0.587402 0.067200 0.000000
0.617676 0.067200 0.000000
0.647461 0.067200 0.000000
0.676758 0.067200 0.000000
0.706055 0.067200 0.000000
0.734863 0.067200 0.000000
0.763672 0.067200 0.000000
0.792480 0.067200 0.000000
0.821289 0.067200 0.000000
0.849609 0.067200 0.000000
0.876953 0.067200 0.000000
0.904297 0.067200 0.000000
0.930664 0.067200 0.000000
0.956055 0.067200 0.000000
0.979492 0.067200 0.000000
1.000000 0.067200 0.000000
0.000000 0.142700 0.000000
0.047821 0.142700 0.000000
0.098572 0.142700 0.000000
0.145020 0.142700 0.000000
0.186768 0.142700 0.000000
0.225098 0.142700 0.000000
0.262207 0.142700 0.000000
0.297363 0.142700 0.000000
0.331787 0.142700 0.000000
0.365723 0.142700 0.000000
0.399170 0.142700 0.000000
0.431885 0.142700 0.000000
0.463867 0.142700 0.000000
0.495117 0.142700 0.000000
0.525879 0.142700 0.000000
0.557129 0.142700 0.000000
0.587402 0.142700 0.000000
0.617676 0.142700 0.000000
0.647461 0.142700 0.000000
0.676758 0.142700 0.000000
0.706055 0.142700 0.000000
0.734863 0.142700 0.000000
0.763672 0.142700 0.000000
0.792480 0.142700 0.000000
0.821289 0.142700 0.000000
0.849609 0.142700 0.000000
0.876953 0.142700 0.000000
0.904297 0.142700 0.000000
0.930664 0.142700 0.000000
0.956055 0.142700 0.000000
0.979492 0.142700 0.000000
1.000000 0.142700 0.000000
0.000000 0.218018 0.000000
0.047821 0.218018 0.000000
0.098572 0.218018 0.000000
0.145020 0.218018 0.000000
0.186768 0.218018 0.000000
0.225098 0.218018 0.000000
0.262207 0.218018 0.000000
0.297363 0.218018 0.000000
0.331787 0.218018 0.000000
0.365723 0.218018 0.000000
0.399170 0.218018 0.000000
0.431885 0.218018 0.000000
0.463867 0.218018 0.000000
0.495117 0.218018 0.000000
0.525879 0.218018 0.000000
0.557129 0.218018 0.000000
0.587402 0.218018 0.000000
0.617676 0.218018 0.000000
0.647461 0.218018 0.000000
0.676758 0.218018 0.000000
0.706055 0.218018 0.000000
0.734863 0.218018 0.000000
0.763672 0.218018 0.000000
0.792480 0.218018 0.000000
0.821289 0.218018 0.000000
0.849609 0.218018 0.000000
0.876953 0.218018 0.000000
0.904297 0.218018 0.000000
0.930664 0.218018 0.000000
0.956055 0.218018 0.000000
0.979492 0.218018 0.000000
1.000000 0.218018 0.000000
0.000000 0.285889 0.000000
0.047821 0.285889 0.000000
0.098572 0.285889 0.000000
0.145020 0.285889 0.000000
0.186768 0.285889 0.000000
0.225098 0.285889 0.000000
0.262207 0.285889 0.000000
0.297363 0.285889 0.000000
0.331787 0.285889 0.000000
0.365723 0.285889 0.000000
0.399170 0.285889 0.000000
0.431885 0.285889 0.000000
0.463867 0.285889 0.000000
0.495117 0.285889 0.000000
0.525879 0.285889 0.000000
0.557129 0.285889 0.000000
0.587402 0.285889 0.000000
0.617676 0.285889 0.000000
0.647461 0.285889 0.000000
0.676758 0.285889 0.000000
0.706055 0.285889 0.000000
0.734863 0.285889 0.000000
0.763672 0.285889 0.000000
0.792480 0.285889 0.000000
0.821289 0.285889 0.000000
0.849609 0.285889 0.000000
0.876953 0.285889 0.000000
0.904297 0.285889 0.000000
0.930664 0.285889 0.000000
0.956055 0.285889 0.000000
0.979492 0.285889 0.000000
1.000000 0.285889 0.000000
0.000000 0.345703 0.000000
0.047821 0.345703 0.000000
0.098572 0.345703 0.000000
0.145020 0.345703 0.000000
0.186768 0.345703 0.000000
0.225098 0.345703 0.000000
0.262207 0.345703 0.000000
0.297363 0.345703 0.000000
0.331787 0.345703 0.000000
0.365723 0.345703 0.000000
0.399170 0.345703 0.000000
0.431885 0.345703 0.000000
0.463867 0.345703 0.000000
0.495117 0.345703 0.000000
0.525879 0.345703 0.000000
0.557129 0.345703 0.000000
0.587402 0.345703 0.000000
0.617676 0.345703 0.000000
0.647461 0.345703 0.000000
0.676758 0.345703 0.000000
0.706055 0.345703 0.000000
0.734863 0.345703 0.000000
0.763672 0.345703 0.000000
0.792480 0.345703 0.000000
0.821289 0.345703 0.000000
0.849609 0.345703 0.000000
0.876953 0.345703 0.000000
0.904297 0.345703 0.000000
0.930664 0.345703 0.000000
0.956055 0.345703 0.000000
0.979492 0.345703 0.000000
1.000000 0.345703 0.000000
0.000000 0.398682 0.000000
0.047821 0.398682 0.000000
0.098572 0.398682 0.000000
0.145020 0.398682 0.000000
0.186768 0.398682 0.000000
0.225098 0.398682 0.000000
0.262207 0.398682 0.000000
0.297363 0.398682 0.000000
0.331787 0.398682 0.000000
0.365723 0.398682 0.000000
0.399170 0.398682 0.000000
0.431885 0.398682 0.000000
0.463867 0.398926 0.000000
0.495117 0.398926 0.000000
0.525879 0.398926 0.000000
0.557129 0.398926 0.000000
0.587402 0.398926 0.000000
0.617676 0.398926 0.000000
0.647461 0.398926 0.000000
0.676758 0.398926 0.000000
0.706055 0.398926 0.000000
0.734863 0.398926 0.000000
0.763672 0.398926 0.000000
0.792480 0.398926 0.000000
0.821289 0.398926 0.000000
0.849609 0.398926 0.000000
0.876953 0.398926 0.000000
0.904297 0.398926 0.000000
0.930664 0.398926 0.000000
0.956055 0.398926 0.000000
0.979492 0.398926 0.000000
1.000000 0.398926 0.000000
0.000000 0.446289 0.000000
0.047821 0.446289 0.000000
0.098572 0.446289 0.000000
0.145020 0.446289 0.000000
0.186768 0.446289 0.000000
0.225098 0.446289 0.000000
0.262207 0.446289 0.000000
0.297363 0.446289 0.000000
0.331787 0.446289 0.000000
0.365723 0.446289 0.000000
0.399170 0.446289 0.000000
0.431885 0.446289 0.000000
0.463867 0.446289 0.000000
0.495117 0.446289 0.000000
0.525879 0.446289 0.000000
0.557129 0.446289 0.000000
0.587402 0.446289 0.000000
0.617676 0.446289 0.000000
0.647461 0.446289 0.000000
0.676758 0.446289 0.000000
0.706055 0.446289 0.000000
0.734863 0.446289 0.000000
0.763672 0.446289 0.000000
0.792480 0.446289 0.000000
0.821289 0.446289 0.000000
0.849609 0.446289 0.000000
0.876953 0.446289 0.000000
0.904297 0.446289 0.000000
0.930664 0.446289 0.000000
0.956055 0.446289 0.000000
0.979492 0.446289 0.000000
1.000000 0.446289 0.000000
0.000000 0.489258 0.000000
0.047821 0.489258 0.000000
0.098572 0.489258 0.000000
0.145020 0.489258 0.000000
0.186768 0.489258 0.000000
0.225098 0.489258 0.000000
0.262207 0.489258 0.000000
0.297363 0.489258 0.000000
0.331787 0.489258 0.000000
0.365723 0.489258 0.000000
0.399170 0.489258 0.000000
0.431885 0.489258 0.000000
0.463867 0.489258 0.000000
0.495117 0.489258 0.000000
0.525879 0.489258 0.000000
0.557129 0.489258 0.000000
0.587402 0.489258 0.000000
0.617676 0.489258 0.000000
0.647461 0.489258 0.000000
0.676758 0.489258 0.000000
0.706055 0.489258 0.000000
0.734863 0.489258 0.000000
0.763672 0.489258 0.000000
0.792480 0.489258 0.000000
0.821289 0.489258 0.000000
0.849609 0.489258 0.000000
0.876953 0.489258 0.000000
0.904297 0.489258 0.000000
0.930664 0.489258 0.000000
0.956055 0.489258 0.000000
0.979492 0.489258 0.000000
1.000000 0.489258 0.000000
0.000000 0.528320 0.000000
0.047821 0.528320 0.000000
0.098572 0.528320 0.000000
0.145020 0.528320 0.000000
0.186768 0.528320 0.000000
0.225098 0.528320 0.000000
0.262207 0.528320 0.000000
0.297363 0.528320 0.000000
0.331787 0.528320 0.000000
0.365723 0.528320 0.000000
0.399170 0.528320 0.000000
0.431885 0.528320 0.000000
0.463867 0.528320 0.000000
0.495117 0.528320 0.000000
0.525879 0.528320 0.000000
0.557129 0.528320 0.000000
0.587402 0.528320 0.000000
0.617676 0.528320 0.000000
0.647461 0.528320 0.000000
0.676758 0.528320 0.000000
0.706055 0.528320 0.000000
0.734863 0.528320 0.000000
0.763672 0.528320 0.000000
0.792480 0.528320 0.000000
0.821289 0.528320 0.000000
0.849609 0.528320 0.000000
0.876953 0.528320 0.000000
0.904297 0.528320 0.000000
0.930664 0.528320 0.000000
0.956055 0.528320 0.000000
0.979492 0.528320 0.000000
1.000000 0.528320 0.000000
0.000000 0.564453 0.000000
0.047821 0.564453 0.000000
0.098572 0.564453 0.000000
0.145020 0.564453 0.000000
0.186768 0.564453 0.000000
0.225098 0.564453 0.000000
0.262207 0.564453 0.000000
0.297363 0.564941 0.000000
0.331787 0.564941 0.000000
0.365723 0.564941 0.000000
0.399170 0.564941 0.000000
0.431885 0.564941 0.000000
0.463867 0.564941 0.000000
0.495117 0.564941 0.000000
0.525879 0.564941 0.000000
0.557129 0.564941 0.000000
0.587402 0.564941 0.000000
0.617676 0.564941 0.000000
0.647461 0.564941 0.000000
0.676758 0.564941 0.000000
0.706055 0.564941 0.000000
0.734863 0.564941 0.000000
0.763672 0.564941 0.000000
0.792480 0.564941 0.000000
0.821289 0.564941 0.000000
0.849609 0.564941 0.000000
0.876953 0.564941 0.000000
0.904297 0.564941 0.000000
0.930664 0.564941 0.000000
0.956055 0.564941 0.000000
0.979492 0.564941 0.000000
1.000000 0.564941 0.000000
0.000000 0.598633 0.000000
0.047821 0.598633 0.000000
0.098572 0.598633 0.000000
0.145020 0.598633 0.000000
0.186768 0.598633 0.000000
0.225098 0.598633 0.000000
0.262207 0.598633 0.000000
0.297363 0.598633 0.000000
0.331787 0.598633 0.000000
0.365723 0.598633 0.000000
0.399170 0.598633 0.000000
0.431885 0.598633 0.000000
0.463867 0.598633 0.000000
0.495117 0.598633 0.000000
0.525879 0.598633 0.000000
0.557129 0.598633 0.000000
0.587402 0.598633 0.000000
0.617676 0.598633 0.000000
0.647461 0.598633 0.000000
0.676758 0.598633 0.000000
0.706055 0.598633 0.000000
0.734863 0.598633 0.000000
0.763672 0.598633 0.000000
0.792480 0.598633 0.000000
0.821289 0.598633 0.000000
0.849609 0.598633 0.000000
0.876953 0.598633 0.000000
0.904297 0.598633 0.000000
0.930664 0.598633 0.000000
0.956055 0.598633 0.000000
0.979492 0.598633 0.000000
1.000000 0.598633 0.000000
0.000000 0.629883 0.000000
0.047821 0.629883 0.000000
0.098572 0.629883 0.000000
0.145020 0.629883 0.000000
0.186768 0.629883 0.000000
0.225098 0.629883 0.000000
0.262207 0.629883 0.000000
0.297363 0.629883 0.000000
0.331787 0.629883 0.000000
0.365723 0.629883 0.000000
0.399170 0.629883 0.000000
0.431885 0.629883 0.000000
0.463867 0.629883 0.000000
0.495117 0.629883 0.000000
0.525879 0.629883 0.000000
0.557129 0.629883 0.000000
0.587402 0.629883 0.000000
0.617676 0.629883 0.000000
0.647461 0.629883 0.000000
0.676758 0.629883 0.000000
0.706055 0.629883 0.000000
0.734863 0.629883 0.000000
0.763672 0.629883 0.000000
0.792480 0.629883 0.000000
0.821289 0.629883 0.000000
0.849609 0.629883 0.000000
0.876953 0.629883 0.000000
0.904297 0.629883 0.000000
0.930664 0.629883 0.000000
0.956055 0.629883 0.000000
0.979492 0.629883 0.000000
1.000000 0.629883 0.000000
0.000000 0.659180 0.000000
0.047821 0.659180 0.000000
0.098572 0.659180 0.000000
0.145020 0.659180 0.000000
0.186768 0.659180 0.000000
0.225098 0.659180 0.000000
0.262207 0.659180 0.000000
0.297363 0.659180 0.000000
0.331787 0.659180 0.000000
0.365723 0.659180 0.000000
0.399170 0.659180 0.000000
0.431885 0.659180 0.000000
0.463867 0.659180 0.000000
0.495117 0.659180 0.000000
0.525879 0.659180 0.000000
0.557129 0.659180 0.000000
0.587402 0.659180 0.000000
0.617676 0.659180 0.000000
0.647461 0.659180 0.000000
0.676758 0.659180 0.000000
0.706055 0.659180 0.000000
0.734863 0.659180 0.000000
0.763672 0.659180 0.000000
0.792480 0.659180 0.000000
0.821289 0.659180 0.000000
0.849609 0.659180 0.000000
0.876953 0.659180 0.000000
0.904297 0.659180 0.000000
0.930664 0.659180 0.000000
0.956055 0.659180 0.000000
0.979492 0.659180 0.000000
1.000000 0.659180 0.000000
0.000000 0.686523 0.000000
0.047821 0.686523 0.000000
0.098572 0.686523 0.000000
0.145020 0.686523 0.000000
0.186768 0.686523 0.000000
0.225098 0.686523 0.000000
0.262207 0.686523 0.000000
0.297363 0.686523 0.000000
0.331787 0.686523 0.000000
0.365723 0.686523 0.000000
0.399170 0.686523 0.000000
0.431885 0.686523 0.000000
0.463867 0.686523 0.000000
0.495117 0.686523 0.000000
0.525879 0.686523 0.000000
0.557129 0.686523 0.000000
0.587402 0.686523 0.000000
0.617676 0.686523 0.000000
0.647461 0.686523 0.000000
0.676758 0.686523 0.000000
0.706055 0.686523 0.000000
0.734863 0.686523 0.000000
0.763672 0.686523 0.000000
0.792480 0.686523 0.000000
0.821289 0.686523 0.000000
0.849609 0.686523 0.000000
0.876953 0.686523 0.000000
0.904297 0.686523 0.000000
0.930664 0.686523 0.000000
0.956055 0.686523 0.000000
0.979492 0.686523 0.000000
1.000000 0.686523 0.000000
0.000000 0.712402 0.000000
0.047821 0.712402 0.000000
0.098572 0.712402 0.000000
0.145020 0.712402 0.000000
0.186768 0.712402 0.000000
0.225098 0.712402 0.000000
0.262207 0.712402 0.000000
0.297363 0.712402 0.000000
0.331787 0.712402 0.000000
0.365723 0.712402 0.000000
0.399170 0.712402 0.000000
0.431885 0.712402 0.000000
0.463867 0.712402 0.000000
0.495117 0.712402 0.000000
0.525879 0.712402 0.000000
0.557129 0.712402 0.000000
0.587402 0.712402 0.000000
0.617676 0.712402 0.000000
0.647461 0.712402 0.000000
0.676758 0.712402 0.000000
0.706055 0.712402 0.000000
0.734863 0.712402 0.000000
0.763672 0.712402 0.000000
0.792480 0.712402 0.000000
0.821289 0.712402 0.000000
0.849609 0.712402 0.000000
0.876953 0.712402 0.000000
0.904297 0.712402 0.000000
0.930664 0.712402 0.000000
0.956055 0.712402 0.000000
0.979492 0.712402 0.000000
1.000000 0.712402 0.000000
0.000000 0.736816 0.000000
0.047821 0.736816 0.000000
0.098572 0.736816 0.000000
0.145020 0.736816 0.000000
0.186768 0.736816 0.000000
0.225098 0.736816 0.000000
0.262207 0.736816 0.000000
0.297363 0.736816 0.000000
0.331787 0.736816 0.000000
0.365723 0.736816 0.000000
0.399170 0.736816 0.000000
0.431885 0.736816 0.000000
0.463867 0.736816 0.000000
0.495117 0.736816 0.000000
0.525879 0.736816 0.000000
0.557129 0.736816 0.000000
0.587402 0.736816 0.000000
0.617676 0.736816 0.000000
0.647461 0.736816 0.000000
0.676758 0.736816 0.000000
0.706055 0.736816 0.000000
0.734863 0.736816 0.000000
0.763672 0.736816 0.000000
0.792480 0.736816 0.000000
0.821289 0.736816 0.000000
0.849609 0.736816 0.000000
0.876953 0.736816 0.000000
0.904297 0.736816 0.000000
0.930664 0.736816 0.000000
0.956055 0.736816 0.000000
0.979492 0.736816 0.000000
1.000000 0.736816 0.000000
0.000000 0.759766 0.000000
0.047821 0.759766 0.000000
0.098572 0.759766 0.000000
0.145020 0.759766 0.000000
0.186768 0.759766 0.000000
0.225098 0.759766 0.000000
0.262207 0.759766 0.000000
0.297363 0.759766 0.000000
0.331787 0.759766 0.000000
0.365723 0.759766 0.000000
0.399170 0.759766 0.000000
0.431885 0.759766 0.000000
0.463867 0.759766 0.000000
0.495117 0.759766 0.000000
0.525879 0.759766 0.000000
0.557129 0.759766 0.000000
0.587402 0.759766 0.000000
0.617676 0.759766 0.000000
0.647461 0.759766 0.000000
0.676758 0.759766 0.000000
0.706055 0.759766 0.000000
0.734863 0.759766 0.000000
0.763672 0.759766 0.000000
0.792480 0.759766 0.000000
0.821289 0.759766 0.000000
0.849609 0.759766 0.000000
0.876953 0.759766 0.000000
0.904297 0.759766 0.000000
0.930664 0.759766 0.000000
0.956055 0.759766 0.000000
0.979492 0.759766 0.000000
1.000000 0.759766 0.000000
0.000000 0.782227 0.000000
0.047821 0.782227 0.000000
0.098572 0.782227 0.000000
0.145020 0.782227 0.000000
0.186768 0.782227 0.000000
0.225098 0.782227 0.000000
0.262207 0.782227 0.000000
0.297363 0.782227 0.000000
0.331787 0.782227 0.000000
0.365723 0.782227 0.000000
0.399170 0.782227 0.000000
0.431885 0.782227 0.000000
0.463867 0.782227 0.000000
0.495117 0.782227 0.000000
0.525879 0.782227 0.000000
0.557129 0.782227 0.000000
0.587402 0.782227 0.000000
0.617676 0.782227 0.000000
0.647461 0.782227 0.000000
0.676758 0.782227 0.000000
0.706055 0.782227 0.000000
0.734863 0.782227 0.000000
0.763672 0.782227 0.000000
0.792480 0.782227 0.000000
0.821289 0.782227 0.000000
0.849609 0.782227 0.000000
0.876953 0.782227 0.000000
0.904297 0.782227 0.000000
0.930664 0.782227 0.000000
0.956055 0.782227 0.000000
0.979492 0.782227 0.000000
1.000000 0.782227 0.000000
0.000000 0.803223 0.000000
0.047821 0.803223 0.000000
0.098572 0.803223 0.000000
0.145020 0.803223 0.000000
0.186768 0.803223 0.000000
0.225098 0.803223 0.000000
0.262207 0.803223 0.000000
0.297363 0.803223 0.000000
0.331787 0.803223 0.000000
0.365723 0.803223 0.000000
0.399170 0.803223 0.000000
0.431885 0.803223 0.000000
0.463867 0.803223 0.000000
0.495117 0.803223 0.000000
0.525879 0.803223 0.000000
0.557129 0.803223 0.000000
0.587402 0.803223 0.000000
0.617676 0.803223 0.000000
0.647461 0.803223 0.000000
0.676758 0.803223 0.000000
0.706055 0.803223 0.000000
0.734863 0.803223 0.000000
0.763672 0.803223 0.000000
0.792480 0.803223 0.000000
0.821289 0.803223 0.000000
0.849609 0.803223 0.000000
0.876953 0.803223 0.000000
0.904297 0.803223 0.000000
0.930664 0.803223 0.000000
0.956055 0.803223 0.000000
0.979492 0.803223 0.000000
1.000000 0.803223 0.000000
0.000000 0.823730 0.000000
0.047821 0.823730 0.000000
0.098572 0.823730 0.000000
0.145020 0.823730 0.000000
0.186768 0.823730 0.000000
0.225098 0.823730 0.000000
0.262207 0.823730 0.000000
0.297363 0.823730 0.000000
0.331787 0.823730 0.000000
0.365723 0.823730 0.000000
0.399170 0.823730 0.000000
0.431885 0.823730 0.000000
0.463867 0.823730 0.000000
0.495117 0.823730 0.000000
0.525879 0.823730 0.000000
0.557129 0.823730 0.000000
0.587402 0.823730 0.000000
0.617676 0.823730 0.000000
0.647461 0.823730 0.000000
0.676758 0.823730 0.000000
0.706055 0.823730 0.000000
0.734863 0.823730 0.000000
0.763672 0.823730 0.000000
0.792480 0.823730 0.000000
0.821289 0.823730 0.000000
0.849609 0.823730 0.000000
0.876953 0.823730 0.000000
0.904297 0.823730 0.000000
0.930664 0.823730 0.000000
0.956055 0.823730 0.000000
0.979492 0.823730 0.000000
1.000000 0.823730 0.000000
0.000000 0.843750 0.000000
0.047821 0.843750 0.000000
0.098572 0.843750 0.000000
0.145020 0.843750 0.000000
0.186768 0.843750 0.000000
0.225098 0.843750 0.000000
0.262207 0.843750 0.000000
0.297363 0.843750 0.000000
0.331787 0.843750 0.000000
0.365723 0.843750 0.000000
0.399170 0.843750 0.000000
0.431885 0.843750 0.000000
0.463867 0.843750 0.000000
0.495117 0.843750 0.000000
0.525879 0.843750 0.000000
0.557129 0.843750 0.000000
0.587402 0.843750 0.000000
0.617676 0.843750 0.000000
0.647461 0.843750 0.000000
0.676758 0.843750 0.000000
0.706055 0.843750 0.000000
0.734863 0.843750 0.000000
0.763672 0.843750 0.000000
0.792480 0.843750 0.000000
0.821289 0.843750 0.000000
0.849609 0.843750 0.000000
0.876953 0.843750 0.000000
0.904297 0.843750 0.000000
0.930664 0.843750 0.000000
0.956055 0.843750 0.000000
0.979492 0.843750 0.000000
1.000000 0.843750 0.000000
0.000000 0.862793 0.000000
0.047821 0.862793 0.000000
0.098572 0.862793 0.000000
0.145020 0.862793 0.000000
0.186768 0.862793 0.000000
0.225098 0.862793 0.000000
0.262207 0.862793 0.000000
0.297363 0.862793 0.000000
0.331787 0.862793 0.000000
0.365723 0.862793 0.000000
0.399170 0.862793 0.000000
0.431885 0.862793 0.000000
0.463867 0.862793 0.000000
0.495117 0.862793 0.000000
0.525879 0.862793 0.000000
0.557129 0.862793 0.000000
0.587402 0.862793 0.000000
0.617676 0.862793 0.000000
0.647461 0.862793 0.000000
0.676758 0.862793 0.000000
0.706055 0.862793 0.000000
0.734863 0.862793 0.000000
0.763672 0.862793 0.000000
0.792480 0.862793 0.000000
0.821289 0.862793 0.000000
0.849609 0.862793 0.000000
0.876953 0.862793 0.000000
0.904297 0.862793 0.000000
0.930664 0.862793 0.000000
0.956055 0.862793 0.000000
0.979492 0.862793 0.000000
1.000000 0.862793 0.000000
0.000000 0.880859 0.000000
0.047821 0.880859 0.000000
0.098572 0.880859 0.000000
0.145020 0.880859 0.000000
0.186768 0.880859 0.000000
0.225098 0.880859 0.000000
0.262207 0.880859 0.000000
0.297363 0.880859 0.000000
0.331787 0.880859 0.000000
0.365723 0.880859 0.000000
0.399170 0.880859 0.000000
0.431885 0.880859 0.000000
0.463867 0.880859 0.000000
0.495117 0.880859 0.000000
0.525879 0.880859 0.000000
0.557129 0.880859 0.000000
0.587402 0.880859 0.000000
0.617676 0.880859 0.000000
0.647461 0.880859 0.000000
0.676758 0.880859 0.000000
0.706055 0.880859 0.000000
0.734863 0.880859 0.000000
0.763672 0.880859 0.000000
0.792480 0.880859 0.000000
0.821289 0.880859 0.000000
0.849609 0.880859 0.000000
0.876953 0.880859 0.000000
0.904297 0.880859 0.000000
0.930664 0.880859 0.000000
0.956055 0.880859 0.000000
0.979492 0.880859 0.000000
1.000000 0.880859 0.000000
0.000000 0.898438 0.000000
0.047821 0.898438 0.000000
0.098572 0.898438 0.000000
0.145020 0.898438 0.000000
0.186768 0.898438 0.000000
0.225098 0.898438 0.000000
0.262207 0.898438 0.000000
0.297363 0.898438 0.000000
0.331787 0.898438 0.000000
0.365723 0.898438 0.000000
0.399170 0.898438 0.000000
0.431885 0.898438 0.000000
0.463867 0.898438 0.000000
0.495117 0.898438 0.000000
0.525879 0.898438 0.000000
0.557129 0.898438 0.000000
0.587402 0.898438 0.000000
0.617676 0.898438 0.000000
0.647461 0.898438 0.000000
0.676758 0.898438 0.000000
0.706055 0.898438 0.000000
0.734863 0.898438 0.000000
0.763672 0.898438 0.000000
0.792480 0.898438 0.000000
0.821289 0.898438 0.000000
0.849609 0.898438 0.000000
0.876953 0.898438 0.000000
0.904297 0.898438 0.000000
0.930664 0.898438 0.000000
0.956055 0.898438 0.000000
0.979492 0.898438 0.000000
1.000000 0.898438 0.000000
0.000000 0.915527 0.000000
0.047821 0.915527 0.000000
0.098572 0.915527 0.000000
0.145020 0.915527 0.000000
0.186768 0.915527 0.000000
0.225098 0.915527 0.000000
0.262207 0.915527 0.000000
0.297363 0.915527 0.000000
0.331787 0.915527 0.000000
0.365723 0.915527 0.000000
0.399170 0.915527 0.000000
0.431885 0.915527 0.000000
0.463867 0.915527 0.000000
0.495117 0.915527 0.000000
0.525879 0.915527 0.000000
0.557129 0.915527 0.000000
0.587402 0.915527 0.000000
0.617676 0.915527 0.000000
0.647461 0.915527 0.000000
0.676758 0.915527 0.000000
0.706055 0.915527 0.000000
0.734863 0.915527 0.000000
0.763672 0.915527 0.000000
0.792480 0.915527 0.000000
0.821289 0.915527 0.000000
0.849609 0.915527 0.000000
0.876953 0.915527 0.000000
0.904297 0.915527 0.000000
0.930664 0.915527 0.000000
0.956055 0.915527 0.000000
0.979492 0.915527 0.000000
1.000000 0.915527 0.000000
0.000000 0.931641 0.000000
0.047821 0.931641 0.000000
0.098572 0.931641 0.000000
0.145020 0.931641 0.000000
0.186768 0.931641 0.000000
0.225098 0.931641 0.000000
0.262207 0.931641 0.000000
0.297363 0.931641 0.000000
0.331787 0.931641 0.000000
0.365723 0.931641 0.000000
0.399170 0.931641 0.000000
0.431885 0.931641 0.000000
0.463867 0.931641 0.000000
0.495117 0.931641 0.000000
0.525879 0.931641 0.000000
0.557129 0.931641 0.000000
0.587402 0.931641 0.000000
0.617676 0.931641 0.000000
0.647461 0.931641 0.000000
0.676758 0.931641 0.000000
0.706055 0.931641 0.000000
0.734863 0.931641 0.000000
0.763672 0.931641 0.000000
0.792480 0.931641 0.000000
0.821289 0.931641 0.000000
0.849609 0.931641 0.000000
0.876953 0.931641 0.000000
0.904297 0.931641 0.000000
0.930664 0.931641 0.000000
0.956055 0.931641 0.000000
0.979492 0.931641 0.000000
1.000000 0.931641 0.000000
0.000000 0.946777 0.000000
0.047821 0.946777 0.000000
0.098572 0.946777 0.000000
0.145020 0.946777 0.000000
0.186768 0.946777 0.000000
0.225098 0.946777 0.000000
0.262207 0.946777 0.000000
0.297363 0.946777 0.000000
0.331787 0.946777 0.000000
0.365723 0.946777 0.000000
0.399170 0.946777 0.000000
0.431885 0.946777 0.000000
0.463867 0.946777 0.000000
0.495117 0.946777 0.000000
0.525879 0.946777 0.000000
0.557129 0.946777 0.000000
0.587402 0.946777 0.000000
0.617676 0.946777 0.000000
0.647461 0.946777 0.000000
0.676758 0.946777 0.000000
0.706055 0.946777 0.000000
0.734863 0.946777 0.000000
0.763672 0.946777 0.000000
