cubelut/Adanmq_AgfaColor Vista 200.cube
TITLE "Generated by Foundry::LUT"
LUT_3D_SIZE 5
DOMAIN_MIN 0.000000 0.000000 0.000000
DOMAIN_MAX 0.903226 0.903226 0.903226
0.000000 0.000000 0.000000
0.327637 0.000000 0.000000
0.583984 0.000000 0.000000
0.782227 0.000000 0.000000
0.943359 0.000000 0.000000
0.000000 0.311768 0.000000
0.327637 0.311768 0.000000
0.583984 0.311768 0.000000
0.782227 0.311768 0.000000
0.943359 0.311768 0.000000
0.000000 0.551758 0.000000
0.327637 0.551758 0.000000
0.583984 0.551758 0.000000
0.782227 0.551758 0.000000
0.943359 0.551758 0.000000
0.000000 0.752441 0.000000
0.327637 0.752441 0.000000
0.583984 0.752441 0.000000
0.782227 0.752441 0.000000
0.943359 0.752441 0.000000
0.000000 0.934082 0.000000
0.327637 0.934082 0.000000
0.583984 0.934082 0.000000
0.782227 0.934082 0.000000
0.943359 0.934082 0.000000
0.000000 0.000000 0.277832
0.327637 0.000000 0.277832
0.583984 0.000000 0.277832
0.782227 0.000000 0.277832
0.943359 0.000000 0.277832
0.000000 0.311768 0.278076
0.327637 0.311768 0.278076
0.583984 0.311768 0.278076
0.782227 0.311768 0.278076
0.943359 0.311768 0.278076
0.000000 0.551758 0.278076
0.327637 0.551758 0.278076
0.583984 0.551758 0.278076
0.782227 0.551758 0.278076
0.943359 0.551758 0.278076
0.000000 0.752441 0.278076
0.327637 0.752441 0.278076
0.583984 0.752441 0.278076
0.782227 0.752441 0.278076
0.943359 0.752441 0.278076
0.000000 0.934082 0.278076
0.327637 0.934082 0.278076
0.583984 0.934082 0.278076
0.782227 0.934082 0.278076
0.943359 0.934082 0.278076
0.000001 0.000000 0.555176
0.327637 0.000000 0.555176
0.584473 0.000000 0.555176
0.782227 0.000000 0.555176
0.943848 0.000000 0.555176
0.000001 0.311768 0.555176
0.327637 0.311768 0.555176
0.584473 0.311768 0.555176
0.782227 0.311768 0.555176
0.943848 0.311768 0.555176
0.000001 0.551758 0.555176
0.327637 0.551758 0.555176
0.584473 0.551758 0.555176
0.782227 0.551758 0.555176
0.943848 0.551758 0.555176
0.000001 0.752441 0.555176
0.327637 0.752441 0.555176
0.584473 0.752441 0.555176
0.782227 0.752441 0.555176
0.943848 0.752441 0.555176
0.000001 0.934082 0.555176
0.327637 0.934082 0.555176
0.584473 0.934082 0.555176
0.782227 0.934082 0.555176
0.943848 0.934082 0.555176
0.000001 0.000000 0.775391
0.327637 0.000000 0.775391
0.584473 0.000000 0.775391
0.782227 0.000000 0.775391
0.943848 0.000000 0.775391
0.000001 0.311768 0.775391
0.327637 0.311768 0.775391
0.584473 0.311768 0.775391
0.782227 0.311768 0.775391
0.943848 0.311768 0.775391
0.000001 0.551758 0.775391
0.327637 0.551758 0.775391
0.584473 0.551758 0.775391
0.782227 0.551758 0.775391
0.943848 0.551758 0.775391
0.000001 0.752441 0.775391
0.327637 0.752441 0.775391
0.584473 0.752441 0.775391
0.782227 0.752441 0.775391
0.943848 0.752441 0.775391
0.000001 0.934082 0.775391
0.327637 0.934082 0.775391
0.584473 0.934082 0.775391
0.782227 0.934082 0.775391
0.943848 0.934082 0.775391
0.000003 0.000000 0.944336
0.327637 0.000000 0.944336
0.584473 0.000000 0.944336
0.782227 0.000000 0.944336
0.943848 0.000000 0.944336
0.000003 0.311768 0.944336
0.327637 0.311768 0.944336
0.584473 0.311768 0.944336
0.782227 0.311768 0.944336
0.943848 0.311768 0.944336
0.000003 0.551758 0.944336
0.327637 0.551758 0.944336
0.584473 0.551758 0.944336
0.782227 0.551758 0.944336
0.943848 0.551758 0.944336
0.000003 0.752441 0.944336
0.327637 0.752441 0.944336
0.584473 0.752441 0.944336
0.782227 0.752441 0.944336
0.943848 0.752441 0.944336
0.000003 0.934082 0.944336
0.327637 0.934082 0.944336
0.584473 0.934082 0.944336
0.782227 0.934082 0.944336
0.943848 0.934082 0.944336
