cubelut/Adanmq_AgfaColor Vista 800.cube
TITLE "Generated by Foundry::LUT"
LUT_3D_SIZE 32
0.000000 0.000000 0.000000
0.038452 0.000000 0.000000
0.095642 0.000000 0.000000
0.155762 0.000000 0.000000
0.215210 0.000000 0.000000
0.269287 0.000000 0.000000
0.317871 0.000000 0.000000
0.362305 0.000000 0.000000
0.403320 0.000000 0.000000
0.441406 0.000000 0.000000
0.477295 0.000000 0.000000
0.511719 0.000000 0.000000
0.544434 0.000000 0.000000
0.575684 0.000000 0.000000
0.604980 0.000000 0.000000
0.633789 0.000000 0.000000
0.661621 0.000000 0.000000
0.688477 0.000000 0.000000
0.714355 0.000000 0.000000
0.739746 0.000000 0.000000
0.764160 0.000000 0.000000
0.788574 0.000000 0.000000
0.812012 0.000000 0.000000
0.834961 0.000000 0.000000
0.858398 0.000000 0.000000
0.880859 0.000000 0.000000
0.902832 0.000000 0.000000
0.924316 0.000000 0.000000
0.944824 0.000000 0.000000
0.964844 0.000000 0.000000
0.983398 0.000000 0.000000
1.000000 0.000000 0.000000
0.000000 0.033447 0.000000
0.038452 0.033447 0.000000
0.095642 0.033447 0.000000
0.155762 0.033447 0.000000
0.215210 0.033447 0.000000
0.269287 0.033447 0.000000
0.317871 0.033447 0.000000
0.362305 0.033447 0.000000
0.403320 0.033447 0.000000
0.441406 0.033447 0.000000
0.477295 0.033447 0.000000
0.511719 0.033447 0.000000
0.544434 0.033447 0.000000
0.575684 0.033447 0.000000
0.604980 0.033447 0.000000
0.633789 0.033447 0.000000
0.661621 0.033447 0.000000
0.688477 0.033447 0.000000
0.714355 0.033478 0.000000
0.739746 0.033478 0.000000
0.764160 0.033478 0.000000
0.788574 0.033478 0.000000
0.812012 0.033478 0.000000
0.834961 0.033478 0.000000
0.858398 0.033478 0.000000
0.880859 0.033478 0.000000
0.902832 0.033478 0.000000
0.924316 0.033478 0.000000
0.944824 0.033478 0.000000
0.964844 0.033478 0.000000
0.983398 0.033478 0.000000
1.000000 0.033478 0.000000
0.000000 0.084961 0.000000
0.038452 0.084961 0.000000
0.095642 0.084961 0.000000
0.155762 0.084961 0.000000
0.215210 0.084961 0.000000
0.269287 0.084961 0.000000
0.317871 0.084961 0.000000
0.362305 0.084961 0.000000
0.403320 0.084961 0.000000
0.441406 0.084961 0.000000
0.477295 0.084961 0.000000
0.511719 0.084961 0.000000
0.544434 0.084961 0.000000
0.575684 0.084961 0.000000
0.604980 0.084961 0.000000
0.633789 0.084961 0.000000
0.661621 0.084961 0.000000
0.688477 0.084961 0.000000
0.714355 0.084961 0.000000
0.739746 0.084961 0.000000
0.764160 0.084961 0.000000
0.788574 0.084961 0.000000
0.812012 0.084961 0.000000
0.834961 0.084961 0.000000
0.858398 0.084961 0.000000
0.880859 0.084961 0.000000
0.902832 0.084961 0.000000
0.924316 0.084961 0.000000
0.944824 0.084961 0.000000
0.964844 0.084961 0.000000
0.983398 0.084961 0.000000
1.000000 0.084961 0.000000
0.000000 0.140137 0.000000
0.038452 0.140137 0.000000
0.095642 0.140137 0.000000
0.155762 0.140137 0.000000
0.215210 0.140137 0.000000
0.269287 0.140137 0.000000
0.317871 0.140137 0.000000
0.362305 0.140137 0.000000
0.403320 0.140137 0.000000
0.441406 0.140137 0.000000
0.477295 0.140137 0.000000
0.511719 0.140137 0.000000
0.544434 0.140137 0.000000
0.575684 0.140137 0.000000
0.604980 0.140137 0.000000
0.633789 0.140137 0.000000
0.661621 0.140137 0.000000
0.688477 0.140137 0.000000
0.714355 0.140137 0.000000
0.739746 0.140137 0.000000
0.764160 0.140137 0.000000
0.788574 0.140137 0.000000
0.812012 0.140137 0.000000
0.834961 0.140137 0.000000
0.858398 0.140137 0.000000
0.880859 0.140137 0.000000
0.902832 0.140137 0.000000
0.924316 0.140137 0.000000
0.944824 0.140137 0.000000
0.964844 0.140137 0.000000
0.983398 0.140137 0.000000
1.000000 0.140137 0.000000
0.000000 0.196533 0.000000
0.038452 0.196533 0.000000
0.095642 0.196533 0.000000
0.155762 0.196533 0.000000
0.215210 0.196533 0.000000
0.269287 0.196533 0.000000
0.317871 0.196533 0.000000
0.362305 0.196533 0.000000
0.403320 0.196533 0.000000
0.441406 0.196533 0.000000
0.477295 0.196533 0.000000
0.511719 0.196533 0.000000
0.544434 0.196533 0.000000
0.575684 0.196533 0.000000
0.604980 0.196533 0.000000
0.633789 0.196533 0.000000
0.661621 0.196533 0.000000
0.688477 0.196533 0.000000
0.714355 0.196533 0.000000
0.739746 0.196533 0.000000
0.764160 0.196533 0.000000
0.788574 0.196533 0.000000
0.812012 0.196533 0.000000
0.834961 0.196533 0.000000
0.858398 0.196533 0.000000
0.880859 0.196533 0.000000
0.902832 0.196533 0.000000
0.924316 0.196533 0.000000
0.944824 0.196533 0.000000
0.964844 0.196533 0.000000
0.983398 0.196533 0.000000
1.000000 0.196533 0.000000
0.000000 0.250488 0.000000
0.038452 0.250488 0.000000
0.095642 0.250488 0.000000
0.155762 0.250488 0.000000
0.215210 0.250488 0.000000
0.269287 0.250488 0.000000
0.317871 0.250488 0.000000
0.362305 0.250488 0.000000
0.403320 0.250488 0.000000
0.441406 0.250488 0.000000
0.477295 0.250488 0.000000
0.511719 0.250488 0.000000
0.544434 0.250488 0.000000
0.575684 0.250488 0.000000
0.604980 0.250488 0.000000
0.633789 0.250488 0.000000
0.661621 0.250488 0.000000
0.688477 0.250488 0.000000
0.714355 0.250488 0.000000
0.739746 0.250488 0.000000
0.764160 0.250488 0.000000
0.788574 0.250488 0.000000
0.812012 0.250488 0.000000
0.834961 0.250488 0.000000
0.858398 0.250488 0.000000
0.880859 0.250488 0.000000
0.902832 0.250488 0.000000
0.924316 0.250488 0.000000
0.944824 0.250488 0.000000
0.964844 0.250488 0.000000
0.983398 0.250488 0.000000
1.000000 0.250488 0.000000
0.000000 0.301514 0.000000
0.038452 0.301514 0.000000
0.095642 0.301514 0.000000
0.155762 0.301514 0.000000
0.215210 0.301514 0.000000
0.269287 0.301514 0.000000
0.317871 0.301514 0.000000
0.362305 0.301514 0.000000
0.403320 0.301514 0.000000
0.441406 0.301514 0.000000
0.477295 0.301514 0.000000
0.511719 0.301514 0.000000
0.544434 0.301514 0.000000
0.575684 0.301514 0.000000
0.604980 0.301514 0.000000
0.633789 0.301514 0.000000
0.661621 0.301514 0.000000
0.688477 0.301514 0.000000
0.714355 0.301514 0.000000
0.739746 0.301514 0.000000
0.764160 0.301514 0.000000
0.788574 0.301514 0.000000
0.812012 0.301514 0.000000
0.834961 0.301514 0.000000
0.858398 0.301514 0.000000
0.880859 0.301514 0.000000
0.902832 0.301514 0.000000
0.924316 0.301514 0.000000
0.944824 0.301514 0.000000
0.964844 0.301514 0.000000
0.983398 0.301514 0.000000
1.000000 0.301514 0.000000
0.000000 0.349121 0.000000
0.038452 0.349121 0.000000
0.095642 0.349121 0.000000
0.155762 0.349121 0.000000
0.215210 0.349121 0.000000
0.269287 0.349121 0.000000
0.317871 0.349121 0.000000
0.362305 0.349121 0.000000
0.403320 0.349121 0.000000
0.441406 0.349121 0.000000
0.477295 0.349121 0.000000
0.511719 0.349121 0.000000
0.544434 0.349121 0.000000
0.575684 0.349121 0.000000
0.604980 0.349121 0.000000
0.633789 0.349121 0.000000
0.661621 0.349121 0.000000
0.688477 0.349121 0.000000
0.714355 0.349121 0.000000
0.739746 0.349121 0.000000
0.764160 0.349121 0.000000
0.788574 0.349121 0.000000
0.812012 0.349121 0.000000
0.834961 0.349121 0.000000
0.858398 0.349121 0.000000
0.880859 0.349121 0.000000
0.902832 0.349121 0.000000
0.924316 0.349121 0.000000
0.944824 0.349121 0.000000
0.964844 0.349121 0.000000
0.983398 0.349121 0.000000
1.000000 0.349121 0.000000
0.000000 0.393799 0.000000
0.038452 0.393799 0.000000
0.095642 0.393799 0.000000
0.155762 0.393799 0.000000
0.215210 0.393799 0.000000
0.269287 0.393799 0.000000
0.317871 0.393799 0.000000
0.362305 0.393799 0.000000
0.403320 0.393799 0.000000
0.441406 0.393799 0.000000
0.477295 0.393799 0.000000
0.511719 0.393799 0.000000
0.544434 0.393799 0.000000
0.575684 0.393799 0.000000
0.604980 0.393799 0.000000
0.633789 0.393799 0.000000
0.661621 0.393799 0.000000
0.688477 0.393799 0.000000
0.714355 0.393799 0.000000
0.739746 0.393799 0.000000
0.764160 0.393799 0.000000
0.788574 0.393799 0.000000
0.812012 0.393799 0.000000
0.834961 0.393799 0.000000
0.858398 0.393799 0.000000
0.880859 0.393799 0.000000
0.902832 0.393799 0.000000
0.924316 0.393799 0.000000
0.944824 0.393799 0.000000
0.964844 0.393799 0.000000
0.983398 0.393799 0.000000
1.000000 0.393799 0.000000
0.000000 0.435547 0.000000
0.038452 0.435547 0.000000
0.095642 0.435547 0.000000
0.155762 0.435547 0.000000
0.215210 0.435547 0.000000
0.269287 0.435547 0.000000
0.317871 0.435547 0.000000
0.362305 0.435547 0.000000
0.403320 0.435547 0.000000
0.441406 0.435547 0.000000
0.477295 0.435547 0.000000
0.511719 0.435547 0.000000
0.544434 0.435547 0.000000
0.575684 0.435547 0.000000
0.604980 0.435547 0.000000
0.633789 0.435547 0.000000
0.661621 0.435547 0.000000
0.688477 0.435547 0.000000
0.714355 0.435547 0.000000
0.739746 0.435547 0.000000
0.764160 0.435547 0.000000
0.788574 0.435547 0.000000
0.812012 0.435547 0.000000
0.834961 0.435547 0.000000
0.858398 0.435547 0.000000
0.880859 0.435547 0.000000
0.902832 0.435547 0.000000
0.924316 0.435547 0.000000
0.944824 0.435547 0.000000
0.964844 0.435547 0.000000
0.983398 0.435547 0.000000
1.000000 0.435547 0.000000
0.000000 0.475098 0.000000
0.038452 0.475098 0.000000
0.095642 0.475098 0.000000
0.155762 0.475098 0.000000
0.215210 0.475098 0.000000
0.269287 0.475098 0.000000
0.317871 0.475098 0.000000
0.362305 0.475098 0.000000
0.403320 0.475098 0.000000
0.441406 0.475098 0.000000
0.477295 0.475098 0.000000
0.511719 0.475098 0.000000
0.544434 0.475098 0.000000
0.575684 0.475098 0.000000
0.604980 0.475098 0.000000
0.633789 0.475098 0.000000
0.661621 0.475098 0.000000
0.688477 0.475098 0.000000
0.714355 0.475098 0.000000
0.739746 0.475098 0.000000
0.764160 0.475098 0.000000
0.788574 0.475098 0.000000
0.812012 0.475098 0.000000
0.834961 0.475098 0.000000
0.858398 0.475098 0.000000
0.880859 0.475098 0.000000
0.902832 0.475098 0.000000
0.924316 0.475098 0.000000
0.944824 0.475098 0.000000
0.964844 0.475098 0.000000
0.983398 0.475098 0.000000
1.000000 0.475098 0.000000
0.000000 0.512207 0.000000
0.038452 0.512207 0.000000
0.095642 0.512207 0.000000
0.155762 0.512207 0.000000
0.215210 0.512207 0.000000
0.269287 0.512207 0.000000
0.317871 0.512207 0.000000
0.362305 0.512207 0.000000
0.403320 0.512207 0.000000
0.441406 0.512207 0.000000
0.477295 0.512207 0.000000
0.511719 0.512207 0.000000
0.544434 0.512207 0.000000
0.575684 0.512207 0.000000
0.604980 0.512207 0.000000
0.633789 0.512207 0.000000
0.661621 0.512207 0.000000
0.688477 0.512207 0.000000
0.714355 0.512207 0.000000
0.739746 0.512207 0.000000
0.764160 0.512207 0.000000
0.788574 0.512207 0.000000
0.812012 0.512207 0.000000
0.834961 0.512207 0.000000
0.858398 0.512207 0.000000
0.880859 0.512207 0.000000
0.902832 0.512207 0.000000
0.924316 0.512207 0.000000
0.944824 0.512207 0.000000
0.964844 0.512207 0.000000
0.983398 0.512207 0.000000
1.000000 0.512207 0.000000
0.000000 0.547363 0.000000
0.038452 0.547363 0.000000
0.095642 0.547363 0.000000
0.155762 0.547363 0.000000
0.215210 0.547363 0.000000
0.269287 0.547363 0.000000
0.317871 0.547363 0.000000
0.362305 0.547363 0.000000
0.403320 0.547363 0.000000
0.441406 0.547363 0.000000
0.477295 0.547363 0.000000
0.511719 0.547363 0.000000
0.544434 0.547363 0.000000
0.575684 0.547363 0.000000
0.604980 0.547363 0.000000
0.633789 0.547363 0.000000
0.661621 0.547363 0.000000
0.688477 0.547363 0.000000
0.714355 0.547363 0.000000
0.739746 0.547363 0.000000
0.764160 0.547363 0.000000
0.788574 0.547363 0.000000
0.812012 0.547363 0.000000
0.834961 0.547363 0.000000
0.858398 0.547363 0.000000
0.880859 0.547363 0.000000
0.902832 0.547363 0.000000
0.924316 0.547363 0.000000
0.944824 0.547363 0.000000
0.964844 0.547363 0.000000
0.983398 0.547363 0.000000
1.000000 0.547363 0.000000
0.000000 0.580566 0.000000
0.038452 0.580566 0.000000
0.095642 0.580566 0.000000
0.155762 0.580566 0.000000
0.215210 0.580566 0.000000
0.269287 0.580566 0.000000
0.317871 0.580566 0.000000
0.362305 0.580566 0.000000
0.403320 0.580566 0.000000
0.441406 0.580566 0.000000
0.477295 0.580566 0.000000
0.511719 0.580566 0.000000
0.544434 0.580566 0.000000
0.575684 0.580566 0.000000
0.604980 0.580566 0.000000
0.633789 0.580566 0.000000
0.661621 0.580566 0.000000
0.688477 0.580566 0.000000
0.714355 0.580566 0.000000
0.739746 0.580566 0.000000
0.764160 0.580566 0.000000
0.788574 0.580566 0.000000
0.812012 0.580566 0.000000
0.834961 0.580566 0.000000
0.858398 0.580566 0.000000
0.880859 0.580566 0.000000
0.902832 0.580566 0.000000
0.924316 0.580566 0.000000
0.944824 0.580566 0.000000
0.964844 0.580566 0.000000
0.983398 0.580566 0.000000
1.000000 0.580566 0.000000
0.000000 0.612305 0.000000
0.038452 0.612305 0.000000
0.095642 0.612305 0.000000
0.155762 0.612305 0.000000
0.215210 0.612305 0.000000
0.269287 0.612305 0.000000
0.317871 0.612305 0.000000
0.362305 0.612305 0.000000
0.403320 0.612305 0.000000
0.441406 0.612305 0.000000
0.477295 0.612305 0.000000
0.511719 0.612305 0.000000
0.544434 0.612305 0.000000
0.575684 0.612305 0.000000
0.604980 0.612305 0.000000
0.633789 0.612305 0.000000
0.661621 0.612305 0.000000
0.688477 0.612305 0.000000
0.714355 0.612305 0.000000
0.739746 0.612305 0.000000
0.764160 0.612305 0.000000
0.788574 0.612305 0.000000
0.812012 0.612305 0.000000
0.834961 0.612305 0.000000
0.858398 0.612305 0.000000
0.880859 0.612305 0.000000
0.902832 0.612305 0.000000
0.924316 0.612305 0.000000
0.944824 0.612305 0.000000
0.964844 0.612305 0.000000
0.983398 0.612305 0.000000
1.000000 0.612305 0.000000
0.000000 0.642090 0.000000
0.038452 0.642090 0.000000
0.095642 0.642090 0.000000
0.155762 0.642090 0.000000
0.215210 0.642090 0.000000
0.269287 0.642090 0.000000
0.317871 0.642090 0.000000
0.362305 0.642578 0.000000
0.403320 0.642578 0.000000
0.441406 0.642578 0.000000
0.477295 0.642578 0.000000
0.511719 0.642578 0.000000
0.544434 0.642578 0.000000
0.575684 0.642578 0.000000
0.604980 0.642578 0.000000
0.633789 0.642578 0.000000
0.661621 0.642578 0.000000
0.688477 0.642578 0.000000
0.714355 0.642578 0.000000
0.739746 0.642578 0.000000
0.764160 0.642578 0.000000
0.788574 0.642578 0.000000
0.812012 0.642578 0.000000
0.834961 0.642578 0.000000
0.858398 0.642578 0.000000
0.880859 0.642578 0.000000
0.902832 0.642578 0.000000
0.924316 0.642578 0.000000
0.944824 0.642578 0.000000
0.964844 0.642578 0.000000
0.983398 0.642578 0.000000
1.000000 0.642578 0.000000
0.000000 0.670898 0.000000
0.038452 0.670898 0.000000
0.095642 0.670898 0.000000
0.155762 0.670898 0.000000
0.215210 0.670898 0.000000
0.269287 0.670898 0.000000
0.317871 0.670898 0.000000
0.362305 0.670898 0.000000
0.403320 0.670898 0.000000
0.441406 0.670898 0.000000
0.477295 0.670898 0.000000
0.511719 0.670898 0.000000
0.544434 0.670898 0.000000
0.575684 0.670898 0.000000
0.604980 0.670898 0.000000
0.633789 0.670898 0.000000
0.661621 0.670898 0.000000
0.688477 0.671387 0.000000
0.714355 0.671387 0.000000
0.739746 0.671387 0.000000
0.764160 0.671387 0.000000
0.788574 0.671387 0.000000
0.812012 0.671387 0.000000
0.834961 0.671387 0.000000
0.858398 0.671387 0.000000
0.880859 0.671387 0.000000
0.902832 0.671387 0.000000
0.924316 0.671387 0.000000
0.944824 0.671387 0.000000
0.964844 0.671387 0.000000
0.983398 0.671387 0.000000
1.000000 0.671387 0.000000
0.000000 0.698730 0.000000
0.038452 0.698730 0.000000
0.095642 0.698730 0.000000
0.155762 0.698730 0.000000
0.215210 0.698730 0.000000
0.269287 0.698730 0.000000
0.317871 0.698730 0.000000
0.362305 0.698730 0.000000
0.403320 0.698730 0.000000
0.441406 0.698730 0.000000
0.477295 0.698730 0.000000
0.511719 0.698730 0.000000
0.544434 0.698730 0.000000
0.575684 0.698730 0.000000
0.604980 0.698730 0.000000
0.633789 0.698730 0.000000
0.661621 0.698730 0.000000
0.688477 0.698730 0.000000
0.714355 0.698730 0.000000
0.739746 0.698730 0.000000
0.764160 0.698730 0.000000
0.788574 0.698730 0.000000
0.812012 0.698730 0.000000
0.834961 0.698730 0.000000
0.858398 0.698730 0.000000
0.880859 0.698730 0.000000
0.902832 0.698730 0.000000
0.924316 0.698730 0.000000
0.944824 0.698730 0.000000
0.964844 0.698730 0.000000
0.983398 0.698730 0.000000
1.000000 0.698730 0.000000
0.000000 0.725586 0.000000
0.038452 0.725586 0.000000
0.095642 0.725586 0.000000
0.155762 0.725586 0.000000
0.215210 0.725586 0.000000
0.269287 0.725586 0.000000
0.317871 0.725586 0.000000
0.362305 0.725586 0.000000
0.403320 0.725586 0.000000
0.441406 0.725586 0.000000
0.477295 0.725586 0.000000
0.511719 0.725586 0.000000
0.544434 0.725586 0.000000
0.575684 0.725586 0.000000
0.604980 0.725586 0.000000
0.633789 0.725586 0.000000
0.661621 0.725586 0.000000
0.688477 0.725586 0.000000
0.714355 0.725586 0.000000
0.739746 0.725586 0.000000
0.764160 0.725586 0.000000
0.788574 0.725586 0.000000
0.812012 0.725586 0.000000
0.834961 0.725586 0.000000
0.858398 0.725586 0.000000
0.880859 0.725586 0.000000
0.902832 0.725586 0.000000
0.924316 0.725586 0.000000
0.944824 0.725586 0.000000
0.964844 0.725586 0.000000
0.983398 0.725586 0.000000
1.000000 0.725586 0.000000
0.000000 0.750977 0.000000
0.038452 0.750977 0.000000
0.095642 0.750977 0.000000
0.155762 0.750977 0.000000
0.215210 0.750977 0.000000
0.269287 0.750977 0.000000
0.317871 0.750977 0.000000
0.362305 0.750977 0.000000
0.403320 0.750977 0.000000
0.441406 0.750977 0.000000
0.477295 0.750977 0.000000
0.511719 0.750977 0.000000
0.544434 0.750977 0.000000
0.575684 0.750977 0.000000
0.604980 0.750977 0.000000
0.633789 0.750977 0.000000
0.661621 0.750977 0.000000
0.688477 0.750977 0.000000
0.714355 0.750977 0.000000
0.739746 0.750977 0.000000
0.764160 0.750977 0.000000
0.788574 0.750977 0.000000
0.812012 0.750977 0.000000
0.834961 0.750977 0.000000
0.858398 0.750977 0.000000
0.880859 0.750977 0.000000
0.902832 0.750977 0.000000
0.924316 0.750977 0.000000
0.944824 0.750977 0.000000
0.964844 0.750977 0.000000
0.983398 0.750977 0.000000
1.000000 0.750977 0.000000
0.000000 0.775879 0.000000
0.038452 0.775879 0.000000
0.095642 0.775879 0.000000
0.155762 0.775879 0.000000
0.215210 0.775879 0.000000
0.269287 0.775879 0.000000
0.317871 0.775879 0.000000
0.362305 0.775879 0.000000
0.403320 0.775879 0.000000
0.441406 0.775879 0.000000
0.477295 0.775879 0.000000
0.511719 0.775879 0.000000
0.544434 0.775879 0.000000
0.575684 0.775879 0.000000
0.604980 0.775879 0.000000
0.633789 0.775879 0.000000
0.661621 0.775879 0.000000
0.688477 0.775879 0.000000
0.714355 0.775879 0.000000
0.739746 0.775879 0.000000
0.764160 0.775879 0.000000
0.788574 0.775879 0.000000
0.812012 0.775879 0.000000
0.834961 0.775879 0.000000
0.858398 0.775879 0.000000
0.880859 0.775879 0.000000
0.902832 0.775879 0.000000
0.924316 0.775879 0.000000
0.944824 0.775879 0.000000
0.964844 0.775879 0.000000
0.983398 0.775879 0.000000
1.000000 0.775879 0.000000
0.000000 0.799805 0.000000
0.038452 0.799805 0.000000
0.095642 0.799805 0.000000
0.155762 0.799805 0.000000
0.215210 0.799805 0.000000
0.269287 0.799805 0.000000
0.317871 0.799805 0.000000
0.362305 0.799805 0.000000
0.403320 0.799805 0.000000
0.441406 0.799805 0.000000
0.477295 0.799805 0.000000
0.511719 0.799805 0.000000
0.544434 0.799805 0.000000
0.575684 0.799805 0.000000
0.604980 0.799805 0.000000
0.633789 0.799805 0.000000
0.661621 0.799805 0.000000
0.688477 0.799805 0.000000
0.714355 0.799805 0.000000
0.739746 0.799805 0.000000
0.764160 0.799805 0.000000
0.788574 0.799805 0.000000
0.812012 0.799805 0.000000
0.834961 0.799805 0.000000
0.858398 0.799805 0.000000
0.880859 0.799805 0.000000
0.902832 0.799805 0.000000
0.924316 0.799805 0.000000
0.944824 0.799805 0.000000
0.964844 0.799805 0.000000
0.983398 0.799805 0.000000
1.000000 0.799805 0.000000
0.000000 0.822754 0.000000
0.038452 0.822754 0.000000
0.095642 0.822754 0.000000
0.155762 0.822754 0.000000
0.215210 0.822754 0.000000
0.269287 0.822754 0.000000
0.317871 0.822754 0.000000
0.362305 0.822754 0.000000
0.403320 0.822754 0.000000
0.441406 0.822754 0.000000
0.477295 0.822754 0.000000
0.511719 0.822754 0.000000
0.544434 0.822754 0.000000
0.575684 0.822754 0.000000
0.604980 0.822754 0.000000
0.633789 0.822754 0.000000
0.661621 0.822754 0.000000
0.688477 0.822754 0.000000
0.714355 0.822754 0.000000
0.739746 0.822754 0.000000
0.764160 0.822754 0.000000
0.788574 0.822754 0.000000
0.812012 0.822754 0.000000
0.834961 0.822754 0.000000
0.858398 0.822754 0.000000
0.880859 0.822754 0.000000
0.902832 0.822754 0.000000
0.924316 0.822754 0.000000
0.944824 0.822754 0.000000
0.964844 0.822754 0.000000
0.983398 0.822754 0.000000
1.000000 0.822754 0.000000
0.000000 0.845215 0.000000
0.038452 0.845215 0.000000
0.095642 0.845215 0.000000
0.155762 0.845215 0.000000
0.215210 0.845215 0.000000
0.269287 0.845215 0.000000
0.317871 0.845215 0.000000
0.362305 0.845215 0.000000
0.403320 0.845215 0.000000
0.441406 0.845215 0.000000
0.477295 0.845215 0.000000
0.511719 0.845215 0.000000
0.544434 0.845215 0.000000
0.575684 0.845215 0.000000
0.604980 0.845215 0.000000
0.633789 0.845215 0.000000
0.661621 0.845215 0.000000
0.688477 0.845215 0.000000
0.714355 0.845215 0.000000
0.739746 0.845215 0.000000
0.764160 0.845215 0.000000
0.788574 0.845215 0.000000
0.812012 0.845215 0.000000
0.834961 0.845215 0.000000
0.858398 0.845215 0.000000
0.880859 0.845215 0.000000
0.902832 0.845215 0.000000
0.924316 0.845215 0.000000
0.944824 0.845215 0.000000
0.964844 0.845215 0.000000
0.983398 0.845215 0.000000
1.000000 0.845215 0.000000
0.000000 0.867188 0.000000
0.038452 0.867188 0.000000
0.095642 0.867188 0.000000
0.155762 0.867188 0.000000
0.215210 0.867188 0.000000
0.269287 0.867188 0.000000
0.317871 0.867188 0.000000
0.362305 0.867188 0.000000
0.403320 0.867188 0.000000
0.441406 0.867188 0.000000
0.477295 0.867188 0.000000
0.511719 0.867188 0.000000
0.544434 0.867188 0.000000
0.575684 0.867188 0.000000
0.604980 0.867188 0.000000
0.633789 0.867188 0.000000
0.661621 0.867188 0.000000
0.688477 0.867188 0.000000
0.714355 0.867188 0.000000
0.739746 0.867188 0.000000
0.764160 0.867188 0.000000
0.788574 0.867188 0.000000
0.812012 0.867188 0.000000
0.834961 0.867188 0.000000
0.858398 0.867188 0.000000
0.880859 0.867188 0.000000
0.902832 0.867188 0.000000
0.924316 0.867188 0.000000
0.944824 0.867188 0.000000
0.964844 0.867188 0.000000
0.983398 0.867188 0.000000
1.000000 0.867188 0.000000
0.000000 0.888672 0.000000
0.038452 0.888672 0.000000
0.095642 0.888672 0.000000
0.155762 0.888672 0.000000
0.215210 0.888672 0.000000
0.269287 0.888672 0.000000
0.317871 0.888672 0.000000
0.362305 0.888672 0.000000
0.403320 0.888672 0.000000
0.441406 0.888672 0.000000
0.477295 0.888672 0.000000
0.511719 0.888672 0.000000
0.544434 0.888672 0.000000
0.575684 0.888672 0.000000
0.604980 0.888672 0.000000
0.633789 0.888672 0.000000
0.661621 0.888672 0.000000
0.688477 0.888672 0.000000
0.714355 0.888672 0.000000
0.739746 0.888672 0.000000
0.764160 0.888672 0.000000
0.788574 0.888672 0.000000
0.812012 0.888672 0.000000
0.834961 0.888672 0.000000
0.858398 0.888672 0.000000
0.880859 0.888672 0.000000
0.902832 0.888672 0.000000
0.924316 0.888672 0.000000
0.944824 0.888672 0.000000
0.964844 0.888672 0.000000
0.983398 0.888672 0.000000
1.000000 0.888672 0.000000
0.000000 0.909668 0.000000
0.038452 0.909668 0.000000
0.095642 0.909668 0.000000
0.155762 0.909668 0.000000
0.215210 0.909668 0.000000
0.269287 0.909668 0.000000
0.317871 0.909668 0.000000
0.362305 0.909668 0.000000
0.403320 0.909668 0.000000
0.441406 0.909668 0.000000
0.477295 0.909668 0.000000
0.511719 0.909668 0.000000
0.544434 0.909668 0.000000
0.575684 0.909668 0.000000
0.604980 0.909668 0.000000
0.633789 0.909668 0.000000
0.661621 0.909668 0.000000
0.688477 0.909668 0.000000
0.714355 0.909668 0.000000
0.739746 0.909668 0.000000
0.764160 0.909668 0.000000
0.788574 0.909668 0.000000
0.812012 0.909668 0.000000
0.834961 0.909668 0.000000
0.858398 0.909668 0.000000
0.880859 0.909668 0.000000
0.902832 0.909668 0.000000
0.924316 0.909668 0.000000
0.944824 0.909668 0.000000
0.964844 0.909668 0.000000
0.983398 0.909668 0.000000
1.000000 0.909668 0.000000
0.000000 0.929688 0.000000
0.038452 0.929688 0.000000
0.095642 0.929688 0.000000
0.155762 0.929688 0.000000
0.215210 0.929688 0.000000
0.269287 0.929688 0.000000
0.317871 0.929688 0.000000
0.362305 0.929688 0.000000
0.403320 0.929688 0.000000
0.441406 0.929688 0.000000
0.477295 0.929688 0.000000
0.511719 0.929688 0.000000
0.544434 0.929688 0.000000
0.575684 0.929688 0.000000
0.604980 0.929688 0.000000
0.633789 0.929688 0.000000
0.661621 0.929688 0.000000
0.688477 0.929688 0.000000
0.714355 0.929688 0.000000
0.739746 0.929688 0.000000
0.764160 0.929688 0.000000
0.788574 0.929688 0.000000
0.812012 0.929688 0.000000
