cubelut/Adanmq_Ektachrome e100s.cube
TITLE "Generated by Foundry::LUT"
LUT_3D_SIZE 5
DOMAIN_MIN 0.000000 0.000000 0.000000
DOMAIN_MAX 0.903226 0.903226 0.903226
0.000000 0.000000 0.000000
0.424316 0.000000 0.000000
0.800781 0.000000 0.000000
0.920898 0.000000 0.000000
0.980957 0.000000 0.000000
0.000000 0.274170 0.000000
0.424316 0.274170 0.000000
0.800781 0.274170 0.000000
0.920898 0.274170 0.000000
0.980957 0.274170 0.000000
0.000000 0.681641 0.000000
0.424316 0.681641 0.000000
0.800781 0.681641 0.000000
0.920898 0.681641 0.000000
0.980957 0.681641 0.000000
0.000000 0.855957 0.000000
0.424316 0.855957 0.000000
0.800781 0.855957 0.000000
0.920898 0.855957 0.000000
0.980957 0.855957 0.000000
0.000000 0.967285 0.000000
0.424316 0.967285 0.000000
0.800781 0.967285 0.000000
0.920898 0.967285 0.000000
0.980957 0.967285 0.000000
0.000000 0.000000 0.273926
0.424316 0.000000 0.273926
0.800781 0.000000 0.273926
0.920898 0.000000 0.273926
0.980957 0.000000 0.273926
0.000000 0.274170 0.273926
0.424316 0.274170 0.273926
0.800781 0.274170 0.273926
0.920898 0.274170 0.273926
0.980957 0.274170 0.273926
0.000000 0.681641 0.273926
0.424316 0.681641 0.273926
0.800781 0.681641 0.273926
0.920898 0.681641 0.273926
0.980957 0.681641 0.273926
0.000000 0.855957 0.273926
0.424316 0.855957 0.273926
0.800781 0.855957 0.273926
0.920898 0.855957 0.273926
0.980957 0.855957 0.273926
0.000000 0.967285 0.273926
0.424316 0.967285 0.273926
0.800781 0.967285 0.273926
0.920898 0.967285 0.273926
0.980957 0.967285 0.273926
0.000000 0.000000 0.681641
0.424561 0.000000 0.681641
0.800781 0.000000 0.681641
0.920898 0.000000 0.681641
0.980957 0.000000 0.681641
0.000000 0.273926 0.681641
0.424561 0.274170 0.681641
0.800781 0.274170 0.681641
0.920898 0.274170 0.681641
0.980957 0.274170 0.681641
0.000000 0.681641 0.681641
0.424561 0.681641 0.681641
0.800781 0.681641 0.681641
0.920898 0.681641 0.681641
0.980957 0.681641 0.681641
0.000000 0.855957 0.681641
0.424561 0.855957 0.681641
0.800781 0.855957 0.681641
0.920898 0.855957 0.681641
0.980957 0.855957 0.681641
0.000000 0.967285 0.681641
0.424561 0.967285 0.681641
0.800781 0.967285 0.681641
0.920898 0.967285 0.681641
0.980957 0.967285 0.681641
0.000000 0.000000 0.855957
0.424561 0.000000 0.855957
0.801270 0.000000 0.855957
0.920898 0.000000 0.855957
0.980957 0.000000 0.855957
0.000000 0.273926 0.855957
0.424561 0.273926 0.855957
0.801270 0.274170 0.855957
0.920898 0.274170 0.855957
0.980957 0.274170 0.855957
0.000000 0.681641 0.855957
0.424561 0.681641 0.855957
0.801270 0.681641 0.855957
0.920898 0.681641 0.855957
0.980957 0.681641 0.855957
0.000000 0.855957 0.855957
0.424561 0.855957 0.855957
0.801270 0.855957 0.855957
0.920898 0.855957 0.855957
0.980957 0.855957 0.855957
0.000000 0.967285 0.855957
0.424561 0.967285 0.855957
0.801270 0.967285 0.855957
0.920898 0.967285 0.855957
0.980957 0.967285 0.855957
0.000000 0.000000 0.967285
0.424805 0.000000 0.967285
0.801270 0.000000 0.967285
0.920898 0.000000 0.967285
0.980957 0.000000 0.967285
0.000000 0.273926 0.967285
0.424805 0.273926 0.967285
0.801270 0.273926 0.967285
0.920898 0.274170 0.967285
0.980957 0.274170 0.967285
0.000000 0.681641 0.967285
0.424805 0.681641 0.967285
0.801270 0.681641 0.967285
0.920898 0.681641 0.967285
0.980957 0.681641 0.967285
0.000000 0.855957 0.967285
0.424805 0.855957 0.967285
0.801270 0.855957 0.967285
0.920898 0.855957 0.967285
0.980957 0.855957 0.967285
0.000000 0.967285 0.967285
0.424805 0.967285 0.967285
0.801270 0.967285 0.967285
0.920898 0.967285 0.967285
0.980957 0.967285 0.967285
