cubelut/Adanmq_Ektachrome e100s.cube
TITLE "Generated by Foundry::LUT"
LUT_3D_SIZE 8
DOMAIN_MIN 0.000000 0.000000 0.000000
DOMAIN_MAX 0.903226 0.903226 0.903226
0.000000 0.000000 0.000000
0.112000 0.000000 0.000000
0.513184 0.000000 0.000000
0.741699 0.000000 0.000000
0.845703 0.000000 0.000000
0.907715 0.000000 0.000000
0.946289 0.000000 0.000000
0.980957 0.000000 0.000000
0.000000 0.051788 0.000000
0.112000 0.051788 0.000000
0.513184 0.051788 0.000000
0.741699 0.051819 0.000000
0.845703 0.051819 0.000000
0.907715 0.051819 0.000000
0.946289 0.051819 0.000000
0.980957 0.051819 0.000000
0.000000 0.354980 0.000000
0.112000 0.354980 0.000000
0.513184 0.354980 0.000000
0.741699 0.354980 0.000000
0.845703 0.354980 0.000000
0.907715 0.354980 0.000000
0.946289 0.354980 0.000000
0.980957 0.354980 0.000000
0.000000 0.603516 0.000000
0.112000 0.603516 0.000000
0.513184 0.604004 0.000000
0.741699 0.604004 0.000000
0.845703 0.604004 0.000000
0.907715 0.604004 0.000000
0.946289 0.604004 0.000000
0.980957 0.604004 0.000000
0.000000 0.741699 0.000000
0.112000 0.741699 0.000000
0.513184 0.741699 0.000000
0.741699 0.741699 0.000000
0.845703 0.741699 0.000000
0.907715 0.741699 0.000000
0.946289 0.741699 0.000000
0.980957 0.741699 0.000000
0.000000 0.834961 0.000000
0.112000 0.834961 0.000000
0.513184 0.834961 0.000000
0.741699 0.834961 0.000000
0.845703 0.834961 0.000000
0.907715 0.834961 0.000000
0.946289 0.834961 0.000000
0.980957 0.834961 0.000000
0.000000 0.909180 0.000000
0.112000 0.909180 0.000000
0.513184 0.909180 0.000000
0.741699 0.909180 0.000000
0.845703 0.909180 0.000000
0.907715 0.909180 0.000000
0.946289 0.909180 0.000000
0.980957 0.909180 0.000000
0.000000 0.967285 0.000000
0.112000 0.967285 0.000000
0.513184 0.967285 0.000000
0.741699 0.967285 0.000000
0.845703 0.967285 0.000000
0.907715 0.967285 0.000000
0.946289 0.967285 0.000000
0.980957 0.967285 0.000000
0.000000 0.000000 0.051727
0.112061 0.000000 0.051727
0.513184 0.000000 0.051727
0.741699 0.000000 0.051727
0.845703 0.000000 0.051727
0.907715 0.000000 0.051727
0.946289 0.000000 0.051727
0.980957 0.000000 0.051727
0.000000 0.051788 0.051727
0.112061 0.051788 0.051727
0.513184 0.051788 0.051727
0.741699 0.051788 0.051727
0.845703 0.051819 0.051727
0.907715 0.051819 0.051727
0.946289 0.051819 0.051727
0.980957 0.051819 0.051727
0.000000 0.354980 0.051727
0.112061 0.354980 0.051727
0.513184 0.354980 0.051727
0.741699 0.354980 0.051727
0.845703 0.354980 0.051727
0.907715 0.354980 0.051727
0.946289 0.354980 0.051727
0.980957 0.354980 0.051727
0.000000 0.603516 0.051727
0.112061 0.603516 0.051727
0.513184 0.603516 0.051727
0.741699 0.604004 0.051727
0.845703 0.604004 0.051727
0.907715 0.604004 0.051727
0.946289 0.604004 0.051727
0.980957 0.604004 0.051727
0.000000 0.741699 0.051727
0.112061 0.741699 0.051727
0.513184 0.741699 0.051727
0.741699 0.741699 0.051727
0.845703 0.741699 0.051727
0.907715 0.741699 0.051727
0.946289 0.741699 0.051727
0.980957 0.741699 0.051727
0.000000 0.834961 0.051727
0.112061 0.834961 0.051727
0.513184 0.834961 0.051727
0.741699 0.834961 0.051727
0.845703 0.834961 0.051727
0.907715 0.834961 0.051727
0.946289 0.834961 0.051727
0.980957 0.834961 0.051727
0.000000 0.909180 0.051727
0.112061 0.909180 0.051727
0.513184 0.909180 0.051727
0.741699 0.909180 0.051727
0.845703 0.909180 0.051727
0.907715 0.909180 0.051727
0.946289 0.909180 0.051727
0.980957 0.909180 0.051727
0.000000 0.967285 0.051727
0.112061 0.967285 0.051727
0.513184 0.967285 0.051727
0.741699 0.967285 0.051727
0.845703 0.967285 0.051727
0.907715 0.967285 0.051727
0.946289 0.967285 0.051727
0.980957 0.967285 0.051727
0.000000 0.000000 0.354736
0.112122 0.000000 0.354736
0.513184 0.000000 0.354736
0.741699 0.000000 0.354736
0.845703 0.000000 0.354736
0.907715 0.000000 0.354736
0.946289 0.000000 0.354736
0.980957 0.000000 0.354736
0.000000 0.051788 0.354736
0.112122 0.051788 0.354736
0.513184 0.051788 0.354736
0.741699 0.051788 0.354736
0.845703 0.051788 0.354736
0.907715 0.051819 0.354736
0.946289 0.051819 0.354736
0.980957 0.051819 0.354736
0.000000 0.354980 0.354736
0.112122 0.354980 0.354736
0.513184 0.354980 0.354736
0.741699 0.354980 0.354736
0.845703 0.354980 0.354736
0.907715 0.354980 0.354736
0.946289 0.354980 0.354736
0.980957 0.354980 0.354736
0.000000 0.603516 0.354736
0.112122 0.603516 0.354736
0.513184 0.603516 0.354736
0.741699 0.603516 0.354736
0.845703 0.604004 0.354736
0.907715 0.604004 0.354736
0.946289 0.604004 0.354736
0.980957 0.604004 0.354736
0.000000 0.741699 0.354736
0.112122 0.741699 0.354736
0.513184 0.741699 0.354736
0.741699 0.741699 0.354736
0.845703 0.741699 0.354736
0.907715 0.741699 0.354736
0.946289 0.741699 0.354736
0.980957 0.741699 0.354736
0.000000 0.834961 0.354736
0.112122 0.834961 0.354736
0.513184 0.834961 0.354736
0.741699 0.834961 0.354736
0.845703 0.834961 0.354736
0.907715 0.834961 0.354736
0.946289 0.834961 0.354736
0.980957 0.834961 0.354736
0.000000 0.909180 0.354736
0.112122 0.909180 0.354736
0.513184 0.909180 0.354736
0.741699 0.909180 0.354736
0.845703 0.909180 0.354736
0.907715 0.909180 0.354736
0.946289 0.909180 0.354736
0.980957 0.909180 0.354736
0.000000 0.967285 0.354736
0.112122 0.967285 0.354736
0.513184 0.967285 0.354736
0.741699 0.967285 0.354736
0.845703 0.967285 0.354736
0.907715 0.967285 0.354736
0.946289 0.967285 0.354736
0.980957 0.967285 0.354736
0.000000 0.000000 0.603516
0.112183 0.000000 0.603516
0.513184 0.000000 0.603516
0.741699 0.000000 0.603516
0.845703 0.000000 0.603516
0.907715 0.000000 0.603516
0.946289 0.000000 0.603516
0.980957 0.000000 0.603516
0.000000 0.051788 0.603516
0.112183 0.051788 0.603516
0.513184 0.051788 0.603516
0.741699 0.051788 0.603516
0.845703 0.051788 0.603516
0.907715 0.051788 0.603516
0.946289 0.051819 0.603516
0.980957 0.051819 0.603516
0.000000 0.354736 0.603516
0.112183 0.354980 0.603516
0.513184 0.354980 0.603516
0.741699 0.354980 0.603516
0.845703 0.354980 0.603516
0.907715 0.354980 0.603516
0.946289 0.354980 0.603516
0.980957 0.354980 0.603516
0.000000 0.603516 0.603516
0.112183 0.603516 0.603516
0.513184 0.603516 0.603516
0.741699 0.603516 0.603516
0.845703 0.603516 0.603516
0.907715 0.604004 0.603516
0.946289 0.604004 0.603516
0.980957 0.604004 0.603516
0.000000 0.741699 0.603516
0.112183 0.741699 0.603516
0.513184 0.741699 0.603516
0.741699 0.741699 0.603516
0.845703 0.741699 0.603516
0.907715 0.741699 0.603516
0.946289 0.741699 0.603516
0.980957 0.741699 0.603516
0.000000 0.834961 0.603516
0.112183 0.834961 0.603516
0.513184 0.834961 0.603516
0.741699 0.834961 0.603516
0.845703 0.834961 0.603516
0.907715 0.834961 0.603516
0.946289 0.834961 0.603516
0.980957 0.834961 0.603516
0.000000 0.909180 0.603516
0.112183 0.909180 0.603516
0.513184 0.909180 0.603516
0.741699 0.909180 0.603516
0.845703 0.909180 0.603516
0.907715 0.909180 0.603516
0.946289 0.909180 0.603516
0.980957 0.909180 0.603516
0.000000 0.967285 0.603516
0.112183 0.967285 0.603516
0.513184 0.967285 0.603516
0.741699 0.967285 0.603516
0.845703 0.967285 0.603516
0.907715 0.967285 0.603516
0.946289 0.967285 0.603516
0.980957 0.967285 0.603516
0.000000 0.000000 0.741699
0.112244 0.000000 0.741699
0.513672 0.000000 0.741699
0.741699 0.000000 0.741699
0.845703 0.000000 0.741699
0.907715 0.000000 0.741699
0.946289 0.000000 0.741699
0.980957 0.000000 0.741699
0.000000 0.051788 0.741699
0.112244 0.051788 0.741699
0.513672 0.051788 0.741699
0.741699 0.051788 0.741699
0.845703 0.051788 0.741699
0.907715 0.051788 0.741699
0.946289 0.051788 0.741699
0.980957 0.051819 0.741699
0.000000 0.354736 0.741699
0.112244 0.354736 0.741699
0.513672 0.354980 0.741699
0.741699 0.354980 0.741699
0.845703 0.354980 0.741699
0.907715 0.354980 0.741699
0.946289 0.354980 0.741699
0.980957 0.354980 0.741699
0.000000 0.603516 0.741699
0.112244 0.603516 0.741699
0.513672 0.603516 0.741699
0.741699 0.603516 0.741699
0.845703 0.603516 0.741699
0.907715 0.603516 0.741699
0.946289 0.604004 0.741699
0.980957 0.604004 0.741699
0.000000 0.741699 0.741699
0.112244 0.741699 0.741699
0.513672 0.741699 0.741699
0.741699 0.741699 0.741699
0.845703 0.741699 0.741699
0.907715 0.741699 0.741699
0.946289 0.741699 0.741699
0.980957 0.741699 0.741699
0.000000 0.834961 0.741699
0.112244 0.834961 0.741699
0.513672 0.834961 0.741699
0.741699 0.834961 0.741699
0.845703 0.834961 0.741699
0.907715 0.834961 0.741699
0.946289 0.834961 0.741699
0.980957 0.834961 0.741699
0.000000 0.909180 0.741699
0.112244 0.909180 0.741699
0.513672 0.909180 0.741699
0.741699 0.909180 0.741699
0.845703 0.909180 0.741699
0.907715 0.909180 0.741699
0.946289 0.909180 0.741699
0.980957 0.909180 0.741699
0.000000 0.967285 0.741699
0.112244 0.967285 0.741699
0.513672 0.967285 0.741699
0.741699 0.967285 0.741699
0.845703 0.967285 0.741699
0.907715 0.967285 0.741699
0.946289 0.967285 0.741699
0.980957 0.967285 0.741699
0.000000 0.000000 0.834961
0.112305 0.000000 0.834961
0.513672 0.000000 0.834961
0.742188 0.000000 0.834961
0.845703 0.000000 0.834961
0.907715 0.000000 0.834961
0.946289 0.000000 0.834961
0.980957 0.000000 0.834961
0.000000 0.051758 0.834961
0.112305 0.051788 0.834961
0.513672 0.051788 0.834961
0.742188 0.051788 0.834961
0.845703 0.051788 0.834961
0.907715 0.051788 0.834961
0.946289 0.051788 0.834961
0.980957 0.051788 0.834961
0.000000 0.354736 0.834961
0.112305 0.354736 0.834961
0.513672 0.354736 0.834961
0.742188 0.354980 0.834961
0.845703 0.354980 0.834961
0.907715 0.354980 0.834961
0.946289 0.354980 0.834961
0.980957 0.354980 0.834961
0.000000 0.603516 0.834961
0.112305 0.603516 0.834961
0.513672 0.603516 0.834961
0.742188 0.603516 0.834961
0.845703 0.603516 0.834961
0.907715 0.603516 0.834961
0.946289 0.603516 0.834961
0.980957 0.604004 0.834961
0.000000 0.741699 0.834961
0.112305 0.741699 0.834961
0.513672 0.741699 0.834961
0.742188 0.741699 0.834961
0.845703 0.741699 0.834961
0.907715 0.741699 0.834961
0.946289 0.741699 0.834961
0.980957 0.741699 0.834961
0.000000 0.834961 0.834961
0.112305 0.834961 0.834961
0.513672 0.834961 0.834961
0.742188 0.834961 0.834961
0.845703 0.834961 0.834961
0.907715 0.834961 0.834961
0.946289 0.834961 0.834961
0.980957 0.834961 0.834961
0.000000 0.909180 0.834961
0.112305 0.909180 0.834961
0.513672 0.909180 0.834961
0.742188 0.909180 0.834961
0.845703 0.909180 0.834961
0.907715 0.909180 0.834961
0.946289 0.909180 0.834961
0.980957 0.909180 0.834961
0.000000 0.967285 0.834961
0.112305 0.967285 0.834961
0.513672 0.967285 0.834961
0.742188 0.967285 0.834961
0.845703 0.967285 0.834961
0.907715 0.967285 0.834961
0.946289 0.967285 0.834961
0.980957 0.967285 0.834961
0.000000 0.000000 0.908691
0.112366 0.000000 0.908691
0.513672 0.000000 0.908691
0.742188 0.000000 0.908691
0.845703 0.000000 0.908691
0.907715 0.000000 0.908691
0.946289 0.000000 0.908691
0.980957 0.000000 0.908691
0.000000 0.051758 0.908691
0.112366 0.051788 0.908691
0.513672 0.051788 0.908691
0.742188 0.051788 0.908691
0.845703 0.051788 0.908691
0.907715 0.051788 0.908691
0.946289 0.051788 0.908691
0.980957 0.051788 0.908691
0.000000 0.354736 0.908691
0.112366 0.354736 0.908691
0.513672 0.354736 0.908691
0.742188 0.354736 0.908691
0.845703 0.354980 0.908691
0.907715 0.354980 0.908691
0.946289 0.354980 0.908691
0.980957 0.354980 0.908691
0.000000 0.603516 0.908691
0.112366 0.603516 0.908691
0.513672 0.603516 0.908691
0.742188 0.603516 0.908691
0.845703 0.603516 0.908691
0.907715 0.603516 0.908691
0.946289 0.603516 0.908691
0.980957 0.603516 0.908691
0.000000 0.741699 0.908691
0.112366 0.741699 0.908691
0.513672 0.741699 0.908691
0.742188 0.741699 0.908691
0.845703 0.741699 0.908691
0.907715 0.741699 0.908691
0.946289 0.741699 0.908691
0.980957 0.741699 0.908691
0.000000 0.834961 0.908691
0.112366 0.834961 0.908691
0.513672 0.834961 0.908691
0.742188 0.834961 0.908691
0.845703 0.834961 0.908691
0.907715 0.834961 0.908691
0.946289 0.834961 0.908691
0.980957 0.834961 0.908691
0.000000 0.909180 0.908691
0.112366 0.909180 0.908691
0.513672 0.909180 0.908691
0.742188 0.909180 0.908691
0.845703 0.909180 0.908691
0.907715 0.909180 0.908691
0.946289 0.909180 0.908691
0.980957 0.909180 0.908691
0.000000 0.967285 0.908691
0.112366 0.967285 0.908691
0.513672 0.967285 0.908691
0.742188 0.967285 0.908691
0.845703 0.967285 0.908691
0.907715 0.967285 0.908691
0.946289 0.967285 0.908691
0.980957 0.967285 0.908691
0.000000 0.000000 0.967285
0.112427 0.000000 0.967285
0.513672 0.000000 0.967285
0.742188 0.000000 0.967285
0.845703 0.000000 0.967285
0.907715 0.000000 0.967285
0.946289 0.000000 0.967285
0.980957 0.000000 0.967285
0.000000 0.051758 0.967285
0.112427 0.051758 0.967285
0.513672 0.051788 0.967285
0.742188 0.051788 0.967285
0.845703 0.051788 0.967285
0.907715 0.051788 0.967285
0.946289 0.051788 0.967285
0.980957 0.051788 0.967285
0.000000 0.354736 0.967285
0.112427 0.354736 0.967285
0.513672 0.354736 0.967285
0.742188 0.354736 0.967285
0.845703 0.354736 0.967285
0.907715 0.354980 0.967285
0.946289 0.354980 0.967285
0.980957 0.354980 0.967285
0.000000 0.603516 0.967285
0.112427 0.603516 0.967285
0.513672 0.603516 0.967285
0.742188 0.603516 0.967285
0.845703 0.603516 0.967285
0.907715 0.603516 0.967285
0.946289 0.603516 0.967285
0.980957 0.603516 0.967285
0.000000 0.741699 0.967285
0.112427 0.741699 0.967285
0.513672 0.741699 0.967285
0.742188 0.741699 0.967285
0.845703 0.741699 0.967285
0.907715 0.741699 0.967285
0.946289 0.741699 0.967285
0.980957 0.741699 0.967285
0.000000 0.834961 0.967285
0.112427 0.834961 0.967285
0.513672 0.834961 0.967285
0.742188 0.834961 0.967285
0.845703 0.834961 0.967285
0.907715 0.834961 0.967285
0.946289 0.834961 0.967285
0.980957 0.834961 0.967285
0.000000 0.909180 0.967285
0.112427 0.909180 0.967285
0.513672 0.909180 0.967285
0.742188 0.909180 0.967285
0.845703 0.909180 0.967285
0.907715 0.909180 0.967285
0.946289 0.909180 0.967285
0.980957 0.909180 0.967285
0.000000 0.967285 0.967285
0.112427 0.967285 0.967285
0.513672 0.967285 0.967285
0.742188 0.967285 0.967285
0.845703 0.967285 0.967285
0.907715 0.967285 0.967285
0.946289 0.967285 0.967285
0.980957 0.967285 0.967285
