cubelut/Adanmq_AgfaColor Optima II 100.cube
TITLE "Generated by Foundry::LUT"
LUT_3D_SIZE 5
DOMAIN_MIN 0.000000 0.000000 0.000000
DOMAIN_MAX 0.903226 0.903226 0.903226
0.000000 0.000000 0.000000
0.214478 0.000000 0.000000
0.473877 0.000000 0.000000
0.713867 0.000000 0.000000
0.928711 0.000000 0.000000
0.000000 0.230591 0.000000
0.214478 0.230591 0.000000
0.473877 0.230591 0.000000
0.713867 0.230591 0.000000
0.928711 0.230591 0.000000
0.000000 0.504883 0.000000
0.214478 0.504883 0.000000
0.473877 0.504883 0.000000
0.713867 0.504883 0.000000
0.928711 0.504883 0.000000
0.000000 0.743164 0.000000
0.214478 0.743164 0.000000
0.473877 0.743164 0.000000
0.713867 0.743164 0.000000
0.928711 0.743652 0.000000
0.000000 0.936523 0.000000
0.214478 0.936523 0.000000
0.473877 0.936523 0.000000
0.713867 0.936523 0.000000
0.928711 0.936523 0.000000
0.000000 0.000000 0.178833
0.214478 0.000000 0.178833
0.473877 0.000000 0.178833
0.713867 0.000000 0.178833
0.928711 0.000000 0.178833
0.000000 0.230591 0.178833
0.214478 0.230591 0.178833
0.473877 0.230591 0.178833
0.713867 0.230591 0.178833
0.928711 0.230591 0.178833
0.000000 0.504883 0.178833
0.214478 0.504883 0.178833
0.473877 0.504883 0.178833
0.713867 0.504883 0.178833
0.928711 0.504883 0.178833
0.000000 0.743164 0.178833
0.214478 0.743164 0.178833
0.473877 0.743164 0.178833
0.713867 0.743164 0.178833
0.928711 0.743164 0.178833
0.000000 0.936523 0.178833
0.214478 0.936523 0.178833
0.473877 0.936523 0.178833
0.713867 0.936523 0.178833
0.928711 0.936523 0.178833
0.000000 0.000000 0.428467
0.214478 0.000000 0.428467
0.473877 0.000000 0.428467
0.713867 0.000000 0.428467
0.928711 0.000000 0.428467
0.000000 0.230591 0.428467
0.214478 0.230591 0.428467
0.473877 0.230591 0.428467
0.713867 0.230591 0.428467
0.928711 0.230591 0.428467
0.000000 0.504883 0.428467
0.214478 0.504883 0.428467
0.473877 0.504883 0.428467
0.713867 0.504883 0.428467
0.928711 0.504883 0.428467
0.000000 0.743164 0.428467
0.214478 0.743164 0.428467
0.473877 0.743164 0.428467
0.713867 0.743164 0.428467
0.928711 0.743164 0.428467
0.000000 0.936523 0.428467
0.214478 0.936523 0.428467
0.473877 0.936523 0.428467
0.713867 0.936523 0.428467
0.928711 0.936523 0.428467
0.000000 0.000000 0.674316
0.214600 0.000000 0.674316
0.473877 0.000000 0.674316
0.713867 0.000000 0.674316
0.928711 0.000000 0.674316
0.000000 0.230591 0.674316
0.214600 0.230591 0.674316
0.473877 0.230591 0.674316
0.713867 0.230591 0.674316
0.928711 0.230591 0.674316
0.000000 0.504883 0.674316
0.214600 0.504883 0.674316
0.473877 0.504883 0.674316
0.713867 0.504883 0.674316
0.928711 0.504883 0.674316
0.000000 0.743164 0.674316
0.214600 0.743164 0.674316
0.473877 0.743164 0.674316
0.713867 0.743164 0.674316
0.928711 0.743164 0.674316
0.000000 0.936523 0.674316
0.214600 0.936523 0.674316
0.473877 0.936523 0.674316
0.713867 0.936523 0.674316
0.928711 0.936523 0.674316
0.000000 0.000000 0.914551
0.214600 0.000000 0.914551
0.473877 0.000000 0.914551
0.713867 0.000000 0.914551
0.928711 0.000000 0.914551
0.000000 0.230591 0.914551
0.214600 0.230591 0.914551
0.473877 0.230591 0.914551
0.713867 0.230591 0.914551
0.928711 0.230591 0.914551
0.000000 0.504883 0.914551
0.214600 0.504883 0.914551
0.473877 0.504883 0.914551
0.713867 0.504883 0.914551
0.928711 0.504883 0.914551
0.000000 0.743164 0.914551
0.214600 0.743164 0.914551
0.473877 0.743164 0.914551
0.713867 0.743164 0.914551
0.928711 0.743164 0.914551
0.000000 0.936523 0.914551
0.214600 0.936523 0.914551
0.473877 0.936523 0.914551
0.713867 0.936523 0.914551
0.928711 0.936523 0.914551
