cubelut/Adanmq_Canon DSC S315 n5.cube
TITLE "Generated by Foundry::LUT"
LUT_3D_SIZE 32
0.000000 0.000000 0.000000
0.015083 0.000000 0.000000
0.048828 0.000000 0.000000
0.091187 0.000000 0.000000
0.140259 0.000000 0.000000
0.195068 0.000000 0.000000
0.253662 0.000000 0.000000
0.312500 0.000000 0.000000
0.369385 0.000000 0.000000
0.422363 0.000000 0.000000
0.470947 0.000000 0.000000
0.515625 0.000000 0.000000
0.556152 0.000000 0.000000
0.593262 0.000000 0.000000
0.627930 0.000000 0.000000
0.659668 0.000000 0.000000
0.689453 0.000000 0.000000
0.717773 0.000000 0.000000
0.744141 0.000000 0.000000
0.769043 0.000000 0.000000
0.792969 0.000000 0.000000
0.815430 0.000000 0.000000
0.836914 0.000000 0.000000
0.857910 0.000000 0.000000
0.877930 0.000000 0.000000
0.897461 0.000000 0.000000
0.916016 0.000000 0.000000
0.933594 0.000000 0.000000
0.951172 0.000000 0.000000
0.967773 0.000000 0.000000
0.983887 0.000000 0.000000
1.000000 0.000000 0.000000
0.000000 0.015083 0.000000
0.015083 0.015083 0.000000
0.048828 0.015091 0.000000
0.091187 0.015091 0.000000
0.140259 0.015091 0.000000
0.195068 0.015091 0.000000
0.253662 0.015091 0.000000
0.312500 0.015091 0.000000
0.369385 0.015091 0.000000
0.422363 0.015091 0.000000
0.470947 0.015091 0.000000
0.515625 0.015091 0.000000
0.556152 0.015091 0.000000
0.593262 0.015091 0.000000
0.627930 0.015091 0.000000
0.659668 0.015099 0.000000
0.689453 0.015099 0.000000
0.717773 0.015099 0.000000
0.744141 0.015099 0.000000
0.769043 0.015099 0.000000
0.792969 0.015099 0.000000
0.815430 0.015099 0.000000
0.836914 0.015099 0.000000
0.857910 0.015099 0.000000
0.877930 0.015099 0.000000
0.897461 0.015099 0.000000
0.916016 0.015099 0.000000
0.933594 0.015099 0.000000
0.951172 0.015106 0.000000
0.967773 0.015106 0.000000
0.983887 0.015106 0.000000
1.000000 0.015106 0.000000
0.000000 0.048828 0.000000
0.015083 0.048828 0.000000
0.048828 0.048828 0.000000
0.091187 0.048828 0.000000
0.140259 0.048828 0.000000
0.195068 0.048859 0.000000
0.253662 0.048859 0.000000
0.312500 0.048859 0.000000
0.369385 0.048859 0.000000
0.422363 0.048859 0.000000
0.470947 0.048859 0.000000
0.515625 0.048859 0.000000
0.556152 0.048859 0.000000
0.593262 0.048859 0.000000
0.627930 0.048859 0.000000
0.659668 0.048859 0.000000
0.689453 0.048859 0.000000
0.717773 0.048859 0.000000
0.744141 0.048859 0.000000
0.769043 0.048859 0.000000
0.792969 0.048859 0.000000
0.815430 0.048859 0.000000
0.836914 0.048859 0.000000
0.857910 0.048859 0.000000
0.877930 0.048859 0.000000
0.897461 0.048859 0.000000
0.916016 0.048859 0.000000
0.933594 0.048859 0.000000
0.951172 0.048859 0.000000
0.967773 0.048859 0.000000
0.983887 0.048859 0.000000
1.000000 0.048859 0.000000
0.000000 0.091248 0.000000
0.015083 0.091248 0.000000
0.048828 0.091248 0.000000
0.091187 0.091248 0.000000
0.140259 0.091248 0.000000
0.195068 0.091248 0.000000
0.253662 0.091248 0.000000
0.312500 0.091248 0.000000
0.369385 0.091248 0.000000
0.422363 0.091248 0.000000
0.470947 0.091248 0.000000
0.515625 0.091248 0.000000
0.556152 0.091248 0.000000
0.593262 0.091248 0.000000
0.627930 0.091248 0.000000
0.659668 0.091248 0.000000
0.689453 0.091248 0.000000
0.717773 0.091248 0.000000
0.744141 0.091248 0.000000
0.769043 0.091248 0.000000
0.792969 0.091248 0.000000
0.815430 0.091248 0.000000
0.836914 0.091248 0.000000
0.857910 0.091248 0.000000
0.877930 0.091248 0.000000
0.897461 0.091248 0.000000
0.916016 0.091248 0.000000
0.933594 0.091248 0.000000
0.951172 0.091248 0.000000
0.967773 0.091248 0.000000
0.983887 0.091248 0.000000
1.000000 0.091248 0.000000
0.000000 0.140259 0.000000
0.015083 0.140259 0.000000
0.048828 0.140259 0.000000
0.091187 0.140259 0.000000
0.140259 0.140259 0.000000
0.195068 0.140259 0.000000
0.253662 0.140259 0.000000
0.312500 0.140259 0.000000
0.369385 0.140259 0.000000
0.422363 0.140259 0.000000
0.470947 0.140259 0.000000
0.515625 0.140259 0.000000
0.556152 0.140259 0.000000
0.593262 0.140259 0.000000
0.627930 0.140259 0.000000
0.659668 0.140259 0.000000
0.689453 0.140259 0.000000
0.717773 0.140381 0.000000
0.744141 0.140381 0.000000
0.769043 0.140381 0.000000
0.792969 0.140381 0.000000
0.815430 0.140381 0.000000
0.836914 0.140381 0.000000
0.857910 0.140381 0.000000
0.877930 0.140381 0.000000
0.897461 0.140381 0.000000
0.916016 0.140381 0.000000
0.933594 0.140381 0.000000
0.951172 0.140381 0.000000
0.967773 0.140381 0.000000
0.983887 0.140381 0.000000
1.000000 0.140381 0.000000
0.000000 0.195068 0.000000
0.015083 0.195068 0.000000
0.048828 0.195068 0.000000
0.091187 0.195068 0.000000
0.140259 0.195068 0.000000
0.195068 0.195068 0.000000
0.253662 0.195068 0.000000
0.312500 0.195068 0.000000
0.369385 0.195068 0.000000
0.422363 0.195068 0.000000
0.470947 0.195068 0.000000
0.515625 0.195068 0.000000
0.556152 0.195068 0.000000
0.593262 0.195068 0.000000
0.627930 0.195068 0.000000
0.659668 0.195068 0.000000
0.689453 0.195068 0.000000
0.717773 0.195068 0.000000
0.744141 0.195068 0.000000
0.769043 0.195068 0.000000
0.792969 0.195068 0.000000
0.815430 0.195068 0.000000
0.836914 0.195068 0.000000
0.857910 0.195068 0.000000
0.877930 0.195068 0.000000
0.897461 0.195068 0.000000
0.916016 0.195068 0.000000
0.933594 0.195068 0.000000
0.951172 0.195068 0.000000
0.967773 0.195068 0.000000
0.983887 0.195068 0.000000
1.000000 0.195068 0.000000
0.000000 0.253662 0.000000
0.015083 0.253662 0.000000
0.048828 0.253662 0.000000
0.091187 0.253662 0.000000
0.140259 0.253662 0.000000
0.195068 0.253662 0.000000
0.253662 0.253662 0.000000
0.312500 0.253662 0.000000
0.369385 0.253662 0.000000
0.422363 0.253662 0.000000
0.470947 0.253662 0.000000
0.515625 0.253662 0.000000
0.556152 0.253662 0.000000
0.593262 0.253662 0.000000
0.627930 0.253662 0.000000
0.659668 0.253662 0.000000
0.689453 0.253662 0.000000
0.717773 0.253662 0.000000
0.744141 0.253662 0.000000
0.769043 0.253662 0.000000
0.792969 0.253662 0.000000
0.815430 0.253662 0.000000
0.836914 0.253662 0.000000
0.857910 0.253662 0.000000
0.877930 0.253662 0.000000
0.897461 0.253662 0.000000
0.916016 0.253662 0.000000
0.933594 0.253662 0.000000
0.951172 0.253662 0.000000
0.967773 0.253662 0.000000
0.983887 0.253662 0.000000
1.000000 0.253662 0.000000
0.000000 0.312744 0.000000
0.015083 0.312744 0.000000
0.048828 0.312744 0.000000
0.091187 0.312744 0.000000
0.140259 0.312744 0.000000
0.195068 0.312744 0.000000
0.253662 0.312744 0.000000
0.312500 0.312744 0.000000
0.369385 0.312744 0.000000
0.422363 0.312744 0.000000
0.470947 0.312744 0.000000
0.515625 0.312744 0.000000
0.556152 0.312744 0.000000
0.593262 0.312744 0.000000
0.627930 0.312744 0.000000
0.659668 0.312744 0.000000
0.689453 0.312744 0.000000
0.717773 0.312744 0.000000
0.744141 0.312744 0.000000
0.769043 0.312744 0.000000
0.792969 0.312744 0.000000
0.815430 0.312744 0.000000
0.836914 0.312744 0.000000
0.857910 0.312744 0.000000
0.877930 0.312744 0.000000
0.897461 0.312744 0.000000
0.916016 0.312744 0.000000
0.933594 0.312744 0.000000
0.951172 0.312744 0.000000
0.967773 0.312744 0.000000
0.983887 0.312744 0.000000
1.000000 0.312744 0.000000
0.000000 0.369385 0.000000
0.015083 0.369385 0.000000
0.048828 0.369385 0.000000
0.091187 0.369385 0.000000
0.140259 0.369385 0.000000
0.195068 0.369385 0.000000
0.253662 0.369385 0.000000
0.312500 0.369385 0.000000
0.369385 0.369385 0.000000
0.422363 0.369385 0.000000
0.470947 0.369385 0.000000
0.515625 0.369385 0.000000
0.556152 0.369385 0.000000
0.593262 0.369385 0.000000
0.627930 0.369385 0.000000
0.659668 0.369385 0.000000
0.689453 0.369385 0.000000
0.717773 0.369385 0.000000
0.744141 0.369385 0.000000
0.769043 0.369385 0.000000
0.792969 0.369385 0.000000
0.815430 0.369385 0.000000
0.836914 0.369385 0.000000
0.857910 0.369385 0.000000
0.877930 0.369385 0.000000
0.897461 0.369385 0.000000
0.916016 0.369385 0.000000
0.933594 0.369385 0.000000
0.951172 0.369385 0.000000
0.967773 0.369385 0.000000
0.983887 0.369385 0.000000
1.000000 0.369385 0.000000
0.000000 0.422363 0.000000
0.015083 0.422363 0.000000
0.048828 0.422363 0.000000
0.091187 0.422363 0.000000
0.140259 0.422363 0.000000
0.195068 0.422363 0.000000
0.253662 0.422363 0.000000
0.312500 0.422363 0.000000
0.369385 0.422363 0.000000
0.422363 0.422363 0.000000
0.470947 0.422363 0.000000
0.515625 0.422363 0.000000
0.556152 0.422363 0.000000
0.593262 0.422363 0.000000
0.627930 0.422363 0.000000
0.659668 0.422363 0.000000
0.689453 0.422363 0.000000
0.717773 0.422363 0.000000
0.744141 0.422363 0.000000
0.769043 0.422363 0.000000
0.792969 0.422363 0.000000
0.815430 0.422363 0.000000
0.836914 0.422363 0.000000
0.857910 0.422363 0.000000
0.877930 0.422363 0.000000
0.897461 0.422363 0.000000
0.916016 0.422363 0.000000
0.933594 0.422363 0.000000
0.951172 0.422363 0.000000
0.967773 0.422363 0.000000
0.983887 0.422363 0.000000
1.000000 0.422363 0.000000
0.000000 0.471191 0.000000
0.015083 0.471191 0.000000
0.048828 0.471191 0.000000
0.091187 0.471191 0.000000
0.140259 0.471191 0.000000
0.195068 0.471191 0.000000
0.253662 0.471191 0.000000
0.312500 0.471191 0.000000
0.369385 0.471191 0.000000
0.422363 0.471191 0.000000
0.470947 0.471191 0.000000
0.515625 0.471191 0.000000
0.556152 0.471191 0.000000
0.593262 0.471191 0.000000
0.627930 0.471191 0.000000
0.659668 0.471191 0.000000
0.689453 0.471191 0.000000
0.717773 0.471191 0.000000
0.744141 0.471191 0.000000
0.769043 0.471191 0.000000
0.792969 0.471191 0.000000
0.815430 0.471191 0.000000
0.836914 0.471191 0.000000
0.857910 0.471191 0.000000
0.877930 0.471191 0.000000
0.897461 0.471191 0.000000
0.916016 0.471191 0.000000
0.933594 0.471191 0.000000
0.951172 0.471191 0.000000
0.967773 0.471191 0.000000
0.983887 0.471191 0.000000
1.000000 0.471191 0.000000
0.000000 0.515625 0.000000
0.015083 0.515625 0.000000
0.048828 0.515625 0.000000
0.091187 0.515625 0.000000
0.140259 0.515625 0.000000
0.195068 0.515625 0.000000
0.253662 0.515625 0.000000
0.312500 0.515625 0.000000
0.369385 0.515625 0.000000
0.422363 0.515625 0.000000
0.470947 0.515625 0.000000
0.515625 0.515625 0.000000
0.556152 0.515625 0.000000
0.593262 0.515625 0.000000
0.627930 0.515625 0.000000
0.659668 0.515625 0.000000
0.689453 0.515625 0.000000
0.717773 0.515625 0.000000
0.744141 0.515625 0.000000
0.769043 0.515625 0.000000
0.792969 0.515625 0.000000
0.815430 0.515625 0.000000
0.836914 0.515625 0.000000
0.857910 0.515625 0.000000
0.877930 0.515625 0.000000
0.897461 0.515625 0.000000
0.916016 0.515625 0.000000
0.933594 0.515625 0.000000
0.951172 0.515625 0.000000
0.967773 0.515625 0.000000
0.983887 0.515625 0.000000
1.000000 0.515625 0.000000
0.000000 0.556152 0.000000
0.015083 0.556152 0.000000
0.048828 0.556152 0.000000
0.091187 0.556152 0.000000
0.140259 0.556152 0.000000
0.195068 0.556152 0.000000
0.253662 0.556152 0.000000
0.312500 0.556152 0.000000
0.369385 0.556152 0.000000
0.422363 0.556152 0.000000
0.470947 0.556152 0.000000
0.515625 0.556152 0.000000
0.556152 0.556152 0.000000
0.593262 0.556152 0.000000
0.627930 0.556152 0.000000
0.659668 0.556152 0.000000
0.689453 0.556152 0.000000
0.717773 0.556152 0.000000
0.744141 0.556152 0.000000
0.769043 0.556152 0.000000
0.792969 0.556152 0.000000
0.815430 0.556152 0.000000
0.836914 0.556152 0.000000
0.857910 0.556152 0.000000
0.877930 0.556152 0.000000
0.897461 0.556152 0.000000
0.916016 0.556152 0.000000
0.933594 0.556152 0.000000
0.951172 0.556152 0.000000
0.967773 0.556152 0.000000
0.983887 0.556152 0.000000
1.000000 0.556152 0.000000
0.000000 0.593262 0.000000
0.015083 0.593262 0.000000
0.048828 0.593262 0.000000
0.091187 0.593262 0.000000
0.140259 0.593262 0.000000
0.195068 0.593262 0.000000
0.253662 0.593262 0.000000
0.312500 0.593262 0.000000
0.369385 0.593262 0.000000
0.422363 0.593262 0.000000
0.470947 0.593262 0.000000
0.515625 0.593262 0.000000
0.556152 0.593262 0.000000
0.593262 0.593262 0.000000
0.627930 0.593262 0.000000
0.659668 0.593262 0.000000
0.689453 0.593262 0.000000
0.717773 0.593262 0.000000
0.744141 0.593262 0.000000
0.769043 0.593262 0.000000
0.792969 0.593262 0.000000
0.815430 0.593262 0.000000
0.836914 0.593262 0.000000
0.857910 0.593262 0.000000
0.877930 0.593262 0.000000
0.897461 0.593262 0.000000
0.916016 0.593262 0.000000
0.933594 0.593262 0.000000
0.951172 0.593262 0.000000
0.967773 0.593262 0.000000
0.983887 0.593262 0.000000
1.000000 0.593262 0.000000
0.000000 0.627930 0.000000
0.015083 0.627930 0.000000
0.048828 0.627930 0.000000
0.091187 0.627930 0.000000
0.140259 0.627930 0.000000
0.195068 0.627930 0.000000
0.253662 0.627930 0.000000
0.312500 0.627930 0.000000
0.369385 0.627930 0.000000
0.422363 0.627930 0.000000
0.470947 0.627930 0.000000
0.515625 0.627930 0.000000
0.556152 0.627930 0.000000
0.593262 0.627930 0.000000
0.627930 0.627930 0.000000
0.659668 0.627930 0.000000
0.689453 0.627930 0.000000
0.717773 0.627930 0.000000
0.744141 0.627930 0.000000
0.769043 0.627930 0.000000
0.792969 0.627930 0.000000
0.815430 0.627930 0.000000
0.836914 0.627930 0.000000
0.857910 0.627930 0.000000
0.877930 0.627930 0.000000
0.897461 0.627930 0.000000
0.916016 0.627930 0.000000
0.933594 0.627930 0.000000
0.951172 0.627930 0.000000
0.967773 0.627930 0.000000
0.983887 0.627930 0.000000
1.000000 0.627930 0.000000
0.000000 0.659668 0.000000
0.015083 0.659668 0.000000
0.048828 0.659668 0.000000
0.091187 0.659668 0.000000
0.140259 0.659668 0.000000
0.195068 0.659668 0.000000
0.253662 0.659668 0.000000
0.312500 0.659668 0.000000
0.369385 0.659668 0.000000
0.422363 0.659668 0.000000
0.470947 0.659668 0.000000
0.515625 0.659668 0.000000
0.556152 0.659668 0.000000
0.593262 0.659668 0.000000
0.627930 0.659668 0.000000
0.659668 0.659668 0.000000
0.689453 0.659668 0.000000
0.717773 0.659668 0.000000
0.744141 0.659668 0.000000
0.769043 0.659668 0.000000
0.792969 0.659668 0.000000
0.815430 0.659668 0.000000
0.836914 0.659668 0.000000
0.857910 0.659668 0.000000
0.877930 0.659668 0.000000
0.897461 0.659668 0.000000
0.916016 0.659668 0.000000
0.933594 0.659668 0.000000
0.951172 0.659668 0.000000
0.967773 0.659668 0.000000
0.983887 0.659668 0.000000
1.000000 0.659668 0.000000
0.000000 0.689453 0.000000
0.015083 0.689453 0.000000
0.048828 0.689453 0.000000
0.091187 0.689453 0.000000
0.140259 0.689453 0.000000
0.195068 0.689453 0.000000
0.253662 0.689453 0.000000
0.312500 0.689453 0.000000
0.369385 0.689453 0.000000
0.422363 0.689453 0.000000
0.470947 0.689453 0.000000
0.515625 0.689453 0.000000
0.556152 0.689453 0.000000
0.593262 0.689453 0.000000
0.627930 0.689453 0.000000
0.659668 0.689453 0.000000
0.689453 0.689453 0.000000
0.717773 0.689453 0.000000
0.744141 0.689453 0.000000
0.769043 0.689453 0.000000
0.792969 0.689453 0.000000
0.815430 0.689453 0.000000
0.836914 0.689453 0.000000
0.857910 0.689453 0.000000
0.877930 0.689453 0.000000
0.897461 0.689453 0.000000
0.916016 0.689453 0.000000
0.933594 0.689453 0.000000
0.951172 0.689453 0.000000
0.967773 0.689453 0.000000
0.983887 0.689453 0.000000
1.000000 0.689453 0.000000
0.000000 0.717773 0.000000
0.015083 0.717773 0.000000
0.048828 0.717773 0.000000
0.091187 0.717773 0.000000
0.140259 0.717773 0.000000
0.195068 0.717773 0.000000
0.253662 0.717773 0.000000
0.312500 0.717773 0.000000
0.369385 0.717773 0.000000
0.422363 0.717773 0.000000
0.470947 0.717773 0.000000
0.515625 0.717773 0.000000
0.556152 0.717773 0.000000
0.593262 0.717773 0.000000
0.627930 0.717773 0.000000
0.659668 0.717773 0.000000
0.689453 0.717773 0.000000
0.717773 0.717773 0.000000
0.744141 0.717773 0.000000
0.769043 0.717773 0.000000
0.792969 0.717773 0.000000
0.815430 0.717773 0.000000
0.836914 0.717773 0.000000
0.857910 0.717773 0.000000
0.877930 0.717773 0.000000
0.897461 0.717773 0.000000
0.916016 0.717773 0.000000
0.933594 0.717773 0.000000
0.951172 0.717773 0.000000
0.967773 0.717773 0.000000
0.983887 0.717773 0.000000
1.000000 0.717773 0.000000
0.000000 0.744141 0.000000
0.015083 0.744141 0.000000
0.048828 0.744141 0.000000
0.091187 0.744141 0.000000
0.140259 0.744141 0.000000
0.195068 0.744141 0.000000
0.253662 0.744141 0.000000
0.312500 0.744141 0.000000
0.369385 0.744141 0.000000
0.422363 0.744141 0.000000
0.470947 0.744141 0.000000
0.515625 0.744141 0.000000
0.556152 0.744141 0.000000
0.593262 0.744141 0.000000
0.627930 0.744141 0.000000
0.659668 0.744141 0.000000
0.689453 0.744141 0.000000
0.717773 0.744141 0.000000
0.744141 0.744141 0.000000
0.769043 0.744141 0.000000
0.792969 0.744141 0.000000
0.815430 0.744141 0.000000
0.836914 0.744141 0.000000
0.857910 0.744141 0.000000
0.877930 0.744141 0.000000
0.897461 0.744141 0.000000
0.916016 0.744141 0.000000
0.933594 0.744141 0.000000
0.951172 0.744141 0.000000
0.967773 0.744141 0.000000
0.983887 0.744141 0.000000
1.000000 0.744141 0.000000
0.000000 0.769043 0.000000
0.015083 0.769043 0.000000
0.048828 0.769043 0.000000
0.091187 0.769043 0.000000
0.140259 0.769043 0.000000
0.195068 0.769043 0.000000
0.253662 0.769043 0.000000
0.312500 0.769043 0.000000
0.369385 0.769043 0.000000
0.422363 0.769043 0.000000
0.470947 0.769043 0.000000
0.515625 0.769043 0.000000
0.556152 0.769043 0.000000
0.593262 0.769043 0.000000
0.627930 0.769043 0.000000
0.659668 0.769043 0.000000
0.689453 0.769043 0.000000
0.717773 0.769043 0.000000
0.744141 0.769043 0.000000
0.769043 0.769043 0.000000
0.792969 0.769043 0.000000
0.815430 0.769043 0.000000
0.836914 0.769043 0.000000
0.857910 0.769043 0.000000
0.877930 0.769043 0.000000
0.897461 0.769043 0.000000
0.916016 0.769043 0.000000
0.933594 0.769043 0.000000
0.951172 0.769043 0.000000
0.967773 0.769043 0.000000
0.983887 0.769043 0.000000
1.000000 0.769043 0.000000
0.000000 0.792969 0.000000
0.015083 0.792969 0.000000
0.048828 0.792969 0.000000
0.091187 0.792969 0.000000
0.140259 0.792969 0.000000
0.195068 0.792969 0.000000
0.253662 0.792969 0.000000
0.312500 0.792969 0.000000
0.369385 0.792969 0.000000
0.422363 0.792969 0.000000
0.470947 0.792969 0.000000
0.515625 0.792969 0.000000
0.556152 0.792969 0.000000
0.593262 0.792969 0.000000
0.627930 0.792969 0.000000
0.659668 0.792969 0.000000
0.689453 0.792969 0.000000
0.717773 0.792969 0.000000
0.744141 0.792969 0.000000
0.769043 0.792969 0.000000
0.792969 0.792969 0.000000
0.815430 0.792969 0.000000
0.836914 0.792969 0.000000
0.857910 0.792969 0.000000
0.877930 0.792969 0.000000
0.897461 0.792969 0.000000
0.916016 0.792969 0.000000
0.933594 0.792969 0.000000
0.951172 0.792969 0.000000
0.967773 0.792969 0.000000
0.983887 0.792969 0.000000
1.000000 0.792969 0.000000
0.000000 0.815430 0.000000
0.015083 0.815430 0.000000
0.048828 0.815430 0.000000
0.091187 0.815430 0.000000
0.140259 0.815430 0.000000
0.195068 0.815430 0.000000
0.253662 0.815430 0.000000
0.312500 0.815430 0.000000
0.369385 0.815430 0.000000
0.422363 0.815430 0.000000
0.470947 0.815430 0.000000
0.515625 0.815430 0.000000
0.556152 0.815430 0.000000
0.593262 0.815430 0.000000
0.627930 0.815430 0.000000
0.659668 0.815430 0.000000
0.689453 0.815430 0.000000
0.717773 0.815430 0.000000
0.744141 0.815430 0.000000
0.769043 0.815430 0.000000
0.792969 0.815430 0.000000
0.815430 0.815430 0.000000
0.836914 0.815430 0.000000
0.857910 0.815430 0.000000
0.877930 0.815430 0.000000
0.897461 0.815430 0.000000
0.916016 0.815430 0.000000
0.933594 0.815430 0.000000
0.951172 0.815430 0.000000
0.967773 0.815430 0.000000
0.983887 0.815430 0.000000
1.000000 0.815430 0.000000
0.000000 0.836914 0.000000
0.015083 0.836914 0.000000
0.048828 0.836914 0.000000
0.091187 0.836914 0.000000
0.140259 0.836914 0.000000
0.195068 0.836914 0.000000
0.253662 0.836914 0.000000
0.312500 0.836914 0.000000
0.369385 0.836914 0.000000
0.422363 0.836914 0.000000
0.470947 0.836914 0.000000
0.515625 0.836914 0.000000
0.556152 0.836914 0.000000
0.593262 0.836914 0.000000
0.627930 0.836914 0.000000
0.659668 0.836914 0.000000
0.689453 0.836914 0.000000
0.717773 0.836914 0.000000
0.744141 0.836914 0.000000
0.769043 0.836914 0.000000
0.792969 0.836914 0.000000
0.815430 0.836914 0.000000
0.836914 0.836914 0.000000
0.857910 0.836914 0.000000
0.877930 0.836914 0.000000
0.897461 0.836914 0.000000
0.916016 0.836914 0.000000
0.933594 0.836914 0.000000
0.951172 0.836914 0.000000
0.967773 0.836914 0.000000
0.983887 0.836914 0.000000
1.000000 0.836914 0.000000
0.000000 0.857910 0.000000
0.015083 0.857910 0.000000
0.048828 0.857910 0.000000
0.091187 0.857910 0.000000
0.140259 0.857910 0.000000
0.195068 0.857910 0.000000
0.253662 0.857910 0.000000
0.312500 0.857910 0.000000
0.369385 0.857910 0.000000
0.422363 0.857910 0.000000
0.470947 0.857910 0.000000
0.515625 0.857910 0.000000
0.556152 0.857910 0.000000
0.593262 0.857910 0.000000
0.627930 0.857910 0.000000
0.659668 0.857910 0.000000
0.689453 0.857910 0.000000
0.717773 0.857910 0.000000
0.744141 0.857910 0.000000
0.769043 0.857910 0.000000
0.792969 0.857910 0.000000
0.815430 0.857910 0.000000
0.836914 0.857910 0.000000
0.857910 0.857910 0.000000
0.877930 0.857910 0.000000
0.897461 0.857910 0.000000
0.916016 0.857910 0.000000
0.933594 0.857910 0.000000
0.951172 0.857910 0.000000
0.967773 0.857910 0.000000
0.983887 0.857910 0.000000
1.000000 0.857910 0.000000
0.000000 0.877930 0.000000
0.015083 0.877930 0.000000
0.048828 0.877930 0.000000
0.091187 0.877930 0.000000
0.140259 0.877930 0.000000
0.195068 0.877930 0.000000
0.253662 0.877930 0.000000
0.312500 0.877930 0.000000
0.369385 0.877930 0.000000
0.422363 0.877930 0.000000
0.470947 0.877930 0.000000
0.515625 0.877930 0.000000
0.556152 0.877930 0.000000
0.593262 0.877930 0.000000
0.627930 0.877930 0.000000
0.659668 0.877930 0.000000
0.689453 0.877930 0.000000
0.717773 0.877930 0.000000
0.744141 0.877930 0.000000
0.769043 0.877930 0.000000
0.792969 0.877930 0.000000
0.815430 0.877930 0.000000
0.836914 0.877930 0.000000
0.857910 0.877930 0.000000
0.877930 0.877930 0.000000
0.897461 0.877930 0.000000
0.916016 0.877930 0.000000
0.933594 0.877930 0.000000
0.951172 0.877930 0.000000
0.967773 0.877930 0.000000
0.983887 0.877930 0.000000
1.000000 0.877930 0.000000
0.000000 0.897461 0.000000
0.015083 0.897461 0.000000
0.048828 0.897461 0.000000
0.091187 0.897461 0.000000
0.140259 0.897461 0.000000
0.195068 0.897461 0.000000
0.253662 0.897461 0.000000
0.312500 0.897461 0.000000
0.369385 0.897461 0.000000
0.422363 0.897461 0.000000
0.470947 0.897461 0.000000
0.515625 0.897461 0.000000
0.556152 0.897461 0.000000
0.593262 0.897461 0.000000
0.627930 0.897461 0.000000
0.659668 0.897461 0.000000
0.689453 0.897461 0.000000
0.717773 0.897461 0.000000
0.744141 0.897461 0.000000
0.769043 0.897461 0.000000
0.792969 0.897461 0.000000
0.815430 0.897461 0.000000
0.836914 0.897461 0.000000
0.857910 0.897461 0.000000
0.877930 0.897461 0.000000
0.897461 0.897461 0.000000
0.916016 0.897461 0.000000
0.933594 0.897461 0.000000
0.951172 0.897461 0.000000
0.967773 0.897461 0.000000
0.983887 0.897461 0.000000
1.000000 0.897461 0.000000
0.000000 0.916016 0.000000
0.015083 0.916016 0.000000
0.048828 0.916016 0.000000
0.091187 0.916016 0.000000
0.140259 0.916016 0.000000
0.195068 0.916016 0.000000
0.253662 0.916016 0.000000
0.312500 0.916016 0.000000
0.369385 0.916016 0.000000
0.422363 0.916016 0.000000
0.470947 0.916016 0.000000
0.515625 0.916016 0.000000
0.556152 0.916016 0.000000
0.593262 0.916016 0.000000
0.627930 0.916016 0.000000
0.659668 0.916016 0.000000
0.689453 0.916016 0.000000
0.717773 0.916016 0.000000
0.744141 0.916016 0.000000
0.769043 0.916016 0.000000
0.792969 0.916016 0.000000
0.815430 0.916016 0.000000
0.836914 0.916016 0.000000
0.857910 0.916016 0.000000
0.877930 0.916016 0.000000
0.897461 0.916016 0.000000
0.916016 0.916016 0.000000
0.933594 0.916016 0.000000
0.951172 0.916016 0.000000
0.967773 0.916016 0.000000
0.983887 0.916016 0.000000
1.000000 0.916016 0.000000
0.000000 0.933594 0.000000
0.015083 0.933594 0.000000
0.048828 0.933594 0.000000
0.091187 0.933594 0.000000
0.140259 0.933594 0.000000
0.195068 0.933594 0.000000
0.253662 0.933594 0.000000
0.312500 0.933594 0.000000
0.369385 0.933594 0.000000
0.422363 0.933594 0.000000
0.470947 0.933594 0.000000
0.515625 0.933594 0.000000
0.556152 0.933594 0.000000
0.593262 0.933594 0.000000
0.627930 0.933594 0.000000
0.659668 0.933594 0.000000
0.689453 0.933594 0.000000
0.717773 0.933594 0.000000
0.744141 0.933594 0.000000
0.769043 0.933594 0.000000
0.792969 0.933594 0.000000
0.815430 0.933594 0.000000
0.836914 0.933594 0.000000
