cubelut/Adanmq_FCI.cube
TITLE "Generated by Foundry::LUT"
LUT_3D_SIZE 32
0.000000 0.000000 0.000000
0.006821 0.000000 0.000000
0.020950 0.000000 0.000000
0.039368 0.000000 0.000000
0.060730 0.000000 0.000000
0.084778 0.000000 0.000000
0.110596 0.000000 0.000000
0.138428 0.000000 0.000000
0.167725 0.000000 0.000000
0.198364 0.000000 0.000000
0.230103 0.000000 0.000000
0.262939 0.000000 0.000000
0.297852 0.000000 0.000000
0.333008 0.000000 0.000000
0.368164 0.000000 0.000000
0.404297 0.000000 0.000000
0.441406 0.000000 0.000000
0.479248 0.000000 0.000000
0.517578 0.000000 0.000000
0.555664 0.000000 0.000000
0.594238 0.000000 0.000000
0.633301 0.000000 0.000000
0.671875 0.000000 0.000000
0.710938 0.000000 0.000000
0.750000 0.000000 0.000000
0.788086 0.000000 0.000000
0.825684 0.000000 0.000000
0.862305 0.000000 0.000000
0.898438 0.000000 0.000000
0.933594 0.000000 0.000000
0.967773 0.000000 0.000000
1.000000 0.000000 0.000000
0.000000 0.008293 0.000000
0.006821 0.008293 0.000000
0.020950 0.008293 0.000000
0.039368 0.008293 0.000000
0.060730 0.008293 0.000000
0.084778 0.008293 0.000000
0.110596 0.008293 0.000000
0.138428 0.008293 0.000000
0.167725 0.008293 0.000000
0.198364 0.008293 0.000000
0.230103 0.008293 0.000000
0.262939 0.008293 0.000000
0.297852 0.008293 0.000000
0.333008 0.008293 0.000000
0.368164 0.008293 0.000000
0.404297 0.008293 0.000000
0.441406 0.008293 0.000000
0.479248 0.008293 0.000000
0.517578 0.008293 0.000000
0.555664 0.008293 0.000000
0.594238 0.008293 0.000000
0.633301 0.008293 0.000000
0.671875 0.008293 0.000000
0.710938 0.008293 0.000000
0.750000 0.008301 0.000000
0.788086 0.008301 0.000000
0.825684 0.008301 0.000000
0.862305 0.008301 0.000000
0.898438 0.008301 0.000000
0.933594 0.008301 0.000000
0.967773 0.008301 0.000000
1.000000 0.008301 0.000000
0.000000 0.023926 0.000000
0.006821 0.023926 0.000000
0.020950 0.023926 0.000000
0.039368 0.023926 0.000000
0.060730 0.023926 0.000000
0.084778 0.023926 0.000000
0.110596 0.023926 0.000000
0.138428 0.023926 0.000000
0.167725 0.023926 0.000000
0.198364 0.023926 0.000000
0.230103 0.023926 0.000000
0.262939 0.023926 0.000000
0.297852 0.023926 0.000000
0.333008 0.023926 0.000000
0.368164 0.023926 0.000000
0.404297 0.023926 0.000000
0.441406 0.023926 0.000000
0.479248 0.023926 0.000000
0.517578 0.023926 0.000000
0.555664 0.023926 0.000000
0.594238 0.023941 0.000000
0.633301 0.023941 0.000000
0.671875 0.023941 0.000000
0.710938 0.023941 0.000000
0.750000 0.023941 0.000000
0.788086 0.023941 0.000000
0.825684 0.023941 0.000000
0.862305 0.023941 0.000000
0.898438 0.023941 0.000000
0.933594 0.023941 0.000000
0.967773 0.023941 0.000000
1.000000 0.023941 0.000000
0.000000 0.043854 0.000000
0.006821 0.043854 0.000000
0.020950 0.043854 0.000000
0.039368 0.043854 0.000000
0.060730 0.043854 0.000000
0.084778 0.043854 0.000000
0.110596 0.043854 0.000000
0.138428 0.043854 0.000000
0.167725 0.043854 0.000000
0.198364 0.043854 0.000000
0.230103 0.043854 0.000000
0.262939 0.043854 0.000000
0.297852 0.043854 0.000000
0.333008 0.043854 0.000000
0.368164 0.043854 0.000000
0.404297 0.043854 0.000000
0.441406 0.043854 0.000000
0.479248 0.043854 0.000000
0.517578 0.043854 0.000000
0.555664 0.043884 0.000000
0.594238 0.043884 0.000000
0.633301 0.043884 0.000000
0.671875 0.043884 0.000000
0.710938 0.043884 0.000000
0.750000 0.043884 0.000000
0.788086 0.043884 0.000000
0.825684 0.043884 0.000000
0.862305 0.043884 0.000000
0.898438 0.043884 0.000000
0.933594 0.043884 0.000000
0.967773 0.043884 0.000000
1.000000 0.043884 0.000000
0.000000 0.066589 0.000000
0.006821 0.066589 0.000000
0.020950 0.066589 0.000000
0.039368 0.066589 0.000000
0.060730 0.066589 0.000000
0.084778 0.066589 0.000000
0.110596 0.066589 0.000000
0.138428 0.066589 0.000000
0.167725 0.066589 0.000000
0.198364 0.066589 0.000000
0.230103 0.066589 0.000000
0.262939 0.066589 0.000000
0.297852 0.066589 0.000000
0.333008 0.066589 0.000000
0.368164 0.066589 0.000000
0.404297 0.066589 0.000000
0.441406 0.066589 0.000000
0.479248 0.066589 0.000000
0.517578 0.066589 0.000000
0.555664 0.066589 0.000000
0.594238 0.066589 0.000000
0.633301 0.066589 0.000000
0.671875 0.066589 0.000000
0.710938 0.066589 0.000000
0.750000 0.066589 0.000000
0.788086 0.066589 0.000000
0.825684 0.066589 0.000000
0.862305 0.066589 0.000000
0.898438 0.066589 0.000000
0.933594 0.066589 0.000000
0.967773 0.066589 0.000000
1.000000 0.066589 0.000000
0.000000 0.091736 0.000000
0.006821 0.091736 0.000000
0.020950 0.091736 0.000000
0.039368 0.091736 0.000000
0.060730 0.091736 0.000000
0.084778 0.091736 0.000000
0.110596 0.091797 0.000000
0.138428 0.091797 0.000000
0.167725 0.091797 0.000000
0.198364 0.091797 0.000000
0.230103 0.091797 0.000000
0.262939 0.091797 0.000000
0.297852 0.091797 0.000000
0.333008 0.091797 0.000000
0.368164 0.091797 0.000000
0.404297 0.091797 0.000000
0.441406 0.091797 0.000000
0.479248 0.091797 0.000000
0.517578 0.091797 0.000000
0.555664 0.091797 0.000000
0.594238 0.091797 0.000000
0.633301 0.091797 0.000000
0.671875 0.091797 0.000000
0.710938 0.091797 0.000000
0.750000 0.091797 0.000000
0.788086 0.091797 0.000000
0.825684 0.091797 0.000000
0.862305 0.091797 0.000000
0.898438 0.091797 0.000000
0.933594 0.091797 0.000000
0.967773 0.091797 0.000000
1.000000 0.091797 0.000000
0.000000 0.119385 0.000000
0.006821 0.119385 0.000000
0.020950 0.119385 0.000000
0.039368 0.119385 0.000000
0.060730 0.119385 0.000000
0.084778 0.119385 0.000000
0.110596 0.119385 0.000000
0.138428 0.119385 0.000000
0.167725 0.119385 0.000000
0.198364 0.119385 0.000000
0.230103 0.119385 0.000000
0.262939 0.119385 0.000000
0.297852 0.119385 0.000000
0.333008 0.119385 0.000000
0.368164 0.119385 0.000000
0.404297 0.119385 0.000000
0.441406 0.119385 0.000000
0.479248 0.119385 0.000000
0.517578 0.119385 0.000000
0.555664 0.119385 0.000000
0.594238 0.119385 0.000000
0.633301 0.119385 0.000000
0.671875 0.119385 0.000000
0.710938 0.119385 0.000000
0.750000 0.119385 0.000000
0.788086 0.119385 0.000000
0.825684 0.119385 0.000000
0.862305 0.119385 0.000000
0.898438 0.119385 0.000000
0.933594 0.119385 0.000000
0.967773 0.119385 0.000000
1.000000 0.119385 0.000000
0.000000 0.148682 0.000000
0.006821 0.148682 0.000000
0.020950 0.148682 0.000000
0.039368 0.148682 0.000000
0.060730 0.148682 0.000000
0.084778 0.148682 0.000000
0.110596 0.148682 0.000000
0.138428 0.148682 0.000000
0.167725 0.148682 0.000000
0.198364 0.148682 0.000000
0.230103 0.148682 0.000000
0.262939 0.148682 0.000000
0.297852 0.148682 0.000000
0.333008 0.148682 0.000000
0.368164 0.148682 0.000000
0.404297 0.148682 0.000000
0.441406 0.148682 0.000000
0.479248 0.148682 0.000000
0.517578 0.148682 0.000000
0.555664 0.148682 0.000000
0.594238 0.148682 0.000000
0.633301 0.148682 0.000000
0.671875 0.148682 0.000000
0.710938 0.148682 0.000000
0.750000 0.148682 0.000000
0.788086 0.148682 0.000000
0.825684 0.148682 0.000000
0.862305 0.148682 0.000000
0.898438 0.148682 0.000000
0.933594 0.148682 0.000000
0.967773 0.148682 0.000000
1.000000 0.148682 0.000000
0.000000 0.179199 0.000000
0.006821 0.179199 0.000000
0.020950 0.179199 0.000000
0.039368 0.179199 0.000000
0.060730 0.179199 0.000000
0.084778 0.179199 0.000000
0.110596 0.179199 0.000000
0.138428 0.179199 0.000000
0.167725 0.179199 0.000000
0.198364 0.179199 0.000000
0.230103 0.179199 0.000000
0.262939 0.179199 0.000000
0.297852 0.179199 0.000000
0.333008 0.179199 0.000000
0.368164 0.179199 0.000000
0.404297 0.179199 0.000000
0.441406 0.179199 0.000000
0.479248 0.179199 0.000000
0.517578 0.179199 0.000000
0.555664 0.179199 0.000000
0.594238 0.179199 0.000000
0.633301 0.179199 0.000000
0.671875 0.179199 0.000000
0.710938 0.179199 0.000000
0.750000 0.179199 0.000000
0.788086 0.179199 0.000000
0.825684 0.179199 0.000000
0.862305 0.179199 0.000000
0.898438 0.179199 0.000000
0.933594 0.179199 0.000000
0.967773 0.179199 0.000000
1.000000 0.179199 0.000000
0.000000 0.211182 0.000000
0.006821 0.211182 0.000000
0.020950 0.211182 0.000000
0.039368 0.211182 0.000000
0.060730 0.211182 0.000000
0.084778 0.211182 0.000000
0.110596 0.211182 0.000000
0.138428 0.211182 0.000000
0.167725 0.211182 0.000000
0.198364 0.211182 0.000000
0.230103 0.211182 0.000000
0.262939 0.211182 0.000000
0.297852 0.211182 0.000000
0.333008 0.211182 0.000000
0.368164 0.211182 0.000000
0.404297 0.211182 0.000000
0.441406 0.211182 0.000000
0.479248 0.211182 0.000000
0.517578 0.211182 0.000000
0.555664 0.211182 0.000000
0.594238 0.211182 0.000000
0.633301 0.211182 0.000000
0.671875 0.211182 0.000000
0.710938 0.211182 0.000000
0.750000 0.211182 0.000000
0.788086 0.211182 0.000000
0.825684 0.211182 0.000000
0.862305 0.211182 0.000000
0.898438 0.211182 0.000000
0.933594 0.211182 0.000000
0.967773 0.211182 0.000000
1.000000 0.211182 0.000000
0.000000 0.244385 0.000000
0.006821 0.244385 0.000000
0.020950 0.244385 0.000000
0.039368 0.244385 0.000000
0.060730 0.244385 0.000000
0.084778 0.244385 0.000000
0.110596 0.244385 0.000000
0.138428 0.244385 0.000000
0.167725 0.244385 0.000000
0.198364 0.244385 0.000000
0.230103 0.244385 0.000000
0.262939 0.244385 0.000000
0.297852 0.244385 0.000000
0.333008 0.244385 0.000000
0.368164 0.244385 0.000000
0.404297 0.244385 0.000000
0.441406 0.244385 0.000000
0.479248 0.244385 0.000000
0.517578 0.244385 0.000000
0.555664 0.244385 0.000000
0.594238 0.244385 0.000000
0.633301 0.244385 0.000000
0.671875 0.244385 0.000000
0.710938 0.244385 0.000000
0.750000 0.244385 0.000000
0.788086 0.244385 0.000000
0.825684 0.244385 0.000000
0.862305 0.244385 0.000000
0.898438 0.244385 0.000000
0.933594 0.244385 0.000000
0.967773 0.244385 0.000000
1.000000 0.244385 0.000000
0.000000 0.278320 0.000000
0.006821 0.278320 0.000000
0.020950 0.278320 0.000000
0.039368 0.278320 0.000000
0.060730 0.278320 0.000000
0.084778 0.278320 0.000000
0.110596 0.278320 0.000000
0.138428 0.278320 0.000000
0.167725 0.278320 0.000000
0.198364 0.278320 0.000000
0.230103 0.278320 0.000000
0.262939 0.278320 0.000000
0.297852 0.278320 0.000000
0.333008 0.278320 0.000000
0.368164 0.278320 0.000000
0.404297 0.278320 0.000000
0.441406 0.278320 0.000000
0.479248 0.278320 0.000000
0.517578 0.278320 0.000000
0.555664 0.278320 0.000000
0.594238 0.278320 0.000000
0.633301 0.278320 0.000000
0.671875 0.278320 0.000000
0.710938 0.278320 0.000000
0.750000 0.278320 0.000000
0.788086 0.278320 0.000000
0.825684 0.278320 0.000000
0.862305 0.278320 0.000000
0.898438 0.278320 0.000000
0.933594 0.278320 0.000000
0.967773 0.278320 0.000000
1.000000 0.278320 0.000000
0.000000 0.313477 0.000000
0.006821 0.313477 0.000000
0.020950 0.313477 0.000000
0.039368 0.313477 0.000000
0.060730 0.313477 0.000000
0.084778 0.313477 0.000000
0.110596 0.313477 0.000000
0.138428 0.313477 0.000000
0.167725 0.313477 0.000000
0.198364 0.313477 0.000000
0.230103 0.313477 0.000000
0.262939 0.313477 0.000000
0.297852 0.313477 0.000000
0.333008 0.313477 0.000000
0.368164 0.313477 0.000000
0.404297 0.313477 0.000000
0.441406 0.313477 0.000000
0.479248 0.313477 0.000000
0.517578 0.313477 0.000000
0.555664 0.313477 0.000000
0.594238 0.313477 0.000000
0.633301 0.313477 0.000000
0.671875 0.313477 0.000000
0.710938 0.313477 0.000000
0.750000 0.313477 0.000000
0.788086 0.313477 0.000000
0.825684 0.313477 0.000000
0.862305 0.313477 0.000000
0.898438 0.313477 0.000000
0.933594 0.313477 0.000000
0.967773 0.313477 0.000000
1.000000 0.313477 0.000000
0.000000 0.349365 0.000000
0.006821 0.349365 0.000000
0.020950 0.349365 0.000000
0.039368 0.349365 0.000000
0.060730 0.349365 0.000000
0.084778 0.349365 0.000000
0.110596 0.349365 0.000000
0.138428 0.349365 0.000000
0.167725 0.349365 0.000000
0.198364 0.349365 0.000000
0.230103 0.349365 0.000000
0.262939 0.349365 0.000000
0.297852 0.349365 0.000000
0.333008 0.349365 0.000000
0.368164 0.349365 0.000000
0.404297 0.349365 0.000000
0.441406 0.349365 0.000000
0.479248 0.349365 0.000000
0.517578 0.349365 0.000000
0.555664 0.349365 0.000000
0.594238 0.349365 0.000000
0.633301 0.349365 0.000000
0.671875 0.349365 0.000000
0.710938 0.349365 0.000000
0.750000 0.349365 0.000000
0.788086 0.349365 0.000000
0.825684 0.349365 0.000000
0.862305 0.349365 0.000000
0.898438 0.349365 0.000000
0.933594 0.349365 0.000000
0.967773 0.349365 0.000000
1.000000 0.349365 0.000000
0.000000 0.385986 0.000000
0.006821 0.385986 0.000000
0.020950 0.385986 0.000000
0.039368 0.385986 0.000000
0.060730 0.385986 0.000000
0.084778 0.385986 0.000000
0.110596 0.385986 0.000000
0.138428 0.385986 0.000000
0.167725 0.385986 0.000000
0.198364 0.385986 0.000000
0.230103 0.385986 0.000000
0.262939 0.385986 0.000000
0.297852 0.385986 0.000000
0.333008 0.385986 0.000000
0.368164 0.385986 0.000000
0.404297 0.385986 0.000000
0.441406 0.385986 0.000000
0.479248 0.385986 0.000000
0.517578 0.385986 0.000000
0.555664 0.385986 0.000000
0.594238 0.385986 0.000000
0.633301 0.385986 0.000000
0.671875 0.385986 0.000000
0.710938 0.385986 0.000000
0.750000 0.385986 0.000000
0.788086 0.385986 0.000000
0.825684 0.385986 0.000000
0.862305 0.385986 0.000000
0.898438 0.385986 0.000000
0.933594 0.385986 0.000000
0.967773 0.385986 0.000000
1.000000 0.385986 0.000000
0.000000 0.423096 0.000000
0.006821 0.423096 0.000000
0.020950 0.423096 0.000000
0.039368 0.423096 0.000000
0.060730 0.423096 0.000000
0.084778 0.423096 0.000000
0.110596 0.423096 0.000000
0.138428 0.423096 0.000000
0.167725 0.423096 0.000000
0.198364 0.423096 0.000000
0.230103 0.423096 0.000000
0.262939 0.423096 0.000000
0.297852 0.423096 0.000000
0.333008 0.423096 0.000000
0.368164 0.423096 0.000000
0.404297 0.423096 0.000000
0.441406 0.423096 0.000000
0.479248 0.423096 0.000000
0.517578 0.423096 0.000000
0.555664 0.423096 0.000000
0.594238 0.423096 0.000000
0.633301 0.423096 0.000000
0.671875 0.423096 0.000000
0.710938 0.423340 0.000000
0.750000 0.423340 0.000000
0.788086 0.423340 0.000000
0.825684 0.423340 0.000000
0.862305 0.423340 0.000000
0.898438 0.423340 0.000000
0.933594 0.423340 0.000000
0.967773 0.423340 0.000000
1.000000 0.423340 0.000000
0.000000 0.460938 0.000000
0.006821 0.460938 0.000000
0.020950 0.460938 0.000000
0.039368 0.460938 0.000000
0.060730 0.460938 0.000000
0.084778 0.460938 0.000000
0.110596 0.460938 0.000000
0.138428 0.460938 0.000000
0.167725 0.460938 0.000000
0.198364 0.460938 0.000000
0.230103 0.460938 0.000000
0.262939 0.460938 0.000000
0.297852 0.460938 0.000000
0.333008 0.460938 0.000000
0.368164 0.460938 0.000000
0.404297 0.460938 0.000000
0.441406 0.460938 0.000000
0.479248 0.460938 0.000000
0.517578 0.460938 0.000000
0.555664 0.460938 0.000000
0.594238 0.460938 0.000000
0.633301 0.460938 0.000000
0.671875 0.460938 0.000000
0.710938 0.460938 0.000000
0.750000 0.460938 0.000000
0.788086 0.460938 0.000000
0.825684 0.460938 0.000000
0.862305 0.460938 0.000000
0.898438 0.460938 0.000000
0.933594 0.460938 0.000000
0.967773 0.460938 0.000000
1.000000 0.460938 0.000000
0.000000 0.499023 0.000000
0.006821 0.499023 0.000000
0.020950 0.499023 0.000000
0.039368 0.499023 0.000000
0.060730 0.499023 0.000000
0.084778 0.499023 0.000000
0.110596 0.499023 0.000000
0.138428 0.499023 0.000000
0.167725 0.499023 0.000000
0.198364 0.499023 0.000000
0.230103 0.499023 0.000000
0.262939 0.499023 0.000000
0.297852 0.499023 0.000000
0.333008 0.499023 0.000000
0.368164 0.499023 0.000000
0.404297 0.499023 0.000000
0.441406 0.499023 0.000000
0.479248 0.499023 0.000000
0.517578 0.499023 0.000000
0.555664 0.499023 0.000000
0.594238 0.499023 0.000000
0.633301 0.499023 0.000000
0.671875 0.499023 0.000000
0.710938 0.499023 0.000000
0.750000 0.499023 0.000000
0.788086 0.499023 0.000000
0.825684 0.499023 0.000000
0.862305 0.499023 0.000000
0.898438 0.499023 0.000000
0.933594 0.499023 0.000000
0.967773 0.499023 0.000000
1.000000 0.499023 0.000000
0.000000 0.537109 0.000000
0.006821 0.537109 0.000000
0.020950 0.537109 0.000000
0.039368 0.537109 0.000000
0.060730 0.537109 0.000000
0.084778 0.537109 0.000000
0.110596 0.537109 0.000000
0.138428 0.537109 0.000000
0.167725 0.537109 0.000000
0.198364 0.537109 0.000000
0.230103 0.537109 0.000000
0.262939 0.537109 0.000000
0.297852 0.537109 0.000000
0.333008 0.537109 0.000000
0.368164 0.537109 0.000000
0.404297 0.537109 0.000000
0.441406 0.537109 0.000000
0.479248 0.537109 0.000000
0.517578 0.537109 0.000000
0.555664 0.537109 0.000000
0.594238 0.537109 0.000000
0.633301 0.537109 0.000000
0.671875 0.537109 0.000000
0.710938 0.537109 0.000000
0.750000 0.537109 0.000000
0.788086 0.537109 0.000000
0.825684 0.537109 0.000000
0.862305 0.537109 0.000000
0.898438 0.537109 0.000000
0.933594 0.537109 0.000000
0.967773 0.537109 0.000000
1.000000 0.537109 0.000000
0.000000 0.575195 0.000000
0.006821 0.575195 0.000000
0.020950 0.575195 0.000000
0.039368 0.575195 0.000000
0.060730 0.575195 0.000000
0.084778 0.575195 0.000000
0.110596 0.575195 0.000000
0.138428 0.575195 0.000000
0.167725 0.575195 0.000000
0.198364 0.575195 0.000000
0.230103 0.575195 0.000000
0.262939 0.575195 0.000000
0.297852 0.575195 0.000000
0.333008 0.575195 0.000000
0.368164 0.575195 0.000000
0.404297 0.575195 0.000000
0.441406 0.575195 0.000000
0.479248 0.575195 0.000000
0.517578 0.575195 0.000000
0.555664 0.575195 0.000000
0.594238 0.575195 0.000000
0.633301 0.575195 0.000000
0.671875 0.575195 0.000000
0.710938 0.575195 0.000000
0.750000 0.575195 0.000000
0.788086 0.575195 0.000000
0.825684 0.575195 0.000000
0.862305 0.575195 0.000000
0.898438 0.575195 0.000000
0.933594 0.575195 0.000000
0.967773 0.575195 0.000000
1.000000 0.575195 0.000000
0.000000 0.613281 0.000000
0.006821 0.613281 0.000000
0.020950 0.613281 0.000000
0.039368 0.613281 0.000000
0.060730 0.613281 0.000000
0.084778 0.613281 0.000000
0.110596 0.613281 0.000000
0.138428 0.613281 0.000000
0.167725 0.613281 0.000000
0.198364 0.613281 0.000000
0.230103 0.613281 0.000000
0.262939 0.613281 0.000000
0.297852 0.613281 0.000000
0.333008 0.613281 0.000000
0.368164 0.613281 0.000000
0.404297 0.613281 0.000000
0.441406 0.613281 0.000000
0.479248 0.613281 0.000000
0.517578 0.613281 0.000000
0.555664 0.613281 0.000000
0.594238 0.613281 0.000000
0.633301 0.613281 0.000000
0.671875 0.613281 0.000000
0.710938 0.613281 0.000000
0.750000 0.613281 0.000000
0.788086 0.613281 0.000000
0.825684 0.613281 0.000000
0.862305 0.613281 0.000000
0.898438 0.613281 0.000000
0.933594 0.613281 0.000000
0.967773 0.613281 0.000000
1.000000 0.613281 0.000000
0.000000 0.650879 0.000000
0.006821 0.650879 0.000000
0.020950 0.650879 0.000000
0.039368 0.650879 0.000000
0.060730 0.650879 0.000000
0.084778 0.650879 0.000000
0.110596 0.650879 0.000000
0.138428 0.650879 0.000000
0.167725 0.650879 0.000000
0.198364 0.650879 0.000000
0.230103 0.650879 0.000000
0.262939 0.650879 0.000000
0.297852 0.650879 0.000000
0.333008 0.650879 0.000000
0.368164 0.650879 0.000000
0.404297 0.650879 0.000000
0.441406 0.650879 0.000000
0.479248 0.650879 0.000000
0.517578 0.650879 0.000000
0.555664 0.650879 0.000000
0.594238 0.650879 0.000000
0.633301 0.650879 0.000000
0.671875 0.650879 0.000000
0.710938 0.650879 0.000000
0.750000 0.650879 0.000000
0.788086 0.650879 0.000000
0.825684 0.650879 0.000000
0.862305 0.650879 0.000000
0.898438 0.650879 0.000000
0.933594 0.650879 0.000000
0.967773 0.650879 0.000000
1.000000 0.650879 0.000000
0.000000 0.688965 0.000000
0.006821 0.688965 0.000000
0.020950 0.688965 0.000000
0.039368 0.688965 0.000000
0.060730 0.688965 0.000000
0.084778 0.688965 0.000000
0.110596 0.688965 0.000000
0.138428 0.688965 0.000000
0.167725 0.688965 0.000000
0.198364 0.688965 0.000000
0.230103 0.688965 0.000000
0.262939 0.688965 0.000000
0.297852 0.688965 0.000000
0.333008 0.688965 0.000000
0.368164 0.688965 0.000000
0.404297 0.688965 0.000000
0.441406 0.688965 0.000000
0.479248 0.688965 0.000000
0.517578 0.688965 0.000000
0.555664 0.688965 0.000000
0.594238 0.688965 0.000000
0.633301 0.688965 0.000000
0.671875 0.688965 0.000000
0.710938 0.688965 0.000000
0.750000 0.688965 0.000000
0.788086 0.688965 0.000000
0.825684 0.688965 0.000000
0.862305 0.688965 0.000000
0.898438 0.688965 0.000000
0.933594 0.688965 0.000000
0.967773 0.688965 0.000000
1.000000 0.688965 0.000000
0.000000 0.727051 0.000000
0.006821 0.727051 0.000000
0.020950 0.727051 0.000000
0.039368 0.727051 0.000000
0.060730 0.727051 0.000000
0.084778 0.727051 0.000000
0.110596 0.727051 0.000000
0.138428 0.727051 0.000000
0.167725 0.727051 0.000000
0.198364 0.727051 0.000000
0.230103 0.727051 0.000000
0.262939 0.727051 0.000000
0.297852 0.727051 0.000000
0.333008 0.727051 0.000000
0.368164 0.727051 0.000000
0.404297 0.727051 0.000000
0.441406 0.727051 0.000000
0.479248 0.727051 0.000000
0.517578 0.727051 0.000000
0.555664 0.727051 0.000000
0.594238 0.727051 0.000000
0.633301 0.727051 0.000000
0.671875 0.727051 0.000000
0.710938 0.727051 0.000000
0.750000 0.727051 0.000000
0.788086 0.727051 0.000000
0.825684 0.727051 0.000000
0.862305 0.727051 0.000000
0.898438 0.727051 0.000000
0.933594 0.727051 0.000000
0.967773 0.727051 0.000000
1.000000 0.727051 0.000000
0.000000 0.765625 0.000000
0.006821 0.765625 0.000000
0.020950 0.765625 0.000000
0.039368 0.765625 0.000000
0.060730 0.765625 0.000000
0.084778 0.765625 0.000000
0.110596 0.765625 0.000000
0.138428 0.765625 0.000000
0.167725 0.765625 0.000000
0.198364 0.765625 0.000000
0.230103 0.765625 0.000000
0.262939 0.765625 0.000000
0.297852 0.765625 0.000000
0.333008 0.765625 0.000000
0.368164 0.765625 0.000000
0.404297 0.765625 0.000000
0.441406 0.765625 0.000000
0.479248 0.765625 0.000000
0.517578 0.765625 0.000000
0.555664 0.765625 0.000000
0.594238 0.765625 0.000000
0.633301 0.765625 0.000000
0.671875 0.765625 0.000000
0.710938 0.765625 0.000000
0.750000 0.765625 0.000000
0.788086 0.765625 0.000000
0.825684 0.765625 0.000000
0.862305 0.765625 0.000000
0.898438 0.765625 0.000000
0.933594 0.765625 0.000000
0.967773 0.765625 0.000000
1.000000 0.765625 0.000000
0.000000 0.803223 0.000000
0.006821 0.803223 0.000000
0.020950 0.803223 0.000000
0.039368 0.803223 0.000000
0.060730 0.803223 0.000000
0.084778 0.803223 0.000000
0.110596 0.803223 0.000000
0.138428 0.803223 0.000000
0.167725 0.803223 0.000000
0.198364 0.803223 0.000000
0.230103 0.803223 0.000000
0.262939 0.803223 0.000000
0.297852 0.803223 0.000000
0.333008 0.803223 0.000000
0.368164 0.803223 0.000000
0.404297 0.803223 0.000000
0.441406 0.803223 0.000000
0.479248 0.803223 0.000000
0.517578 0.803223 0.000000
0.555664 0.803223 0.000000
0.594238 0.803223 0.000000
0.633301 0.803223 0.000000
0.671875 0.803223 0.000000
0.710938 0.803223 0.000000
0.750000 0.803223 0.000000
0.788086 0.803223 0.000000
0.825684 0.803223 0.000000
0.862305 0.803223 0.000000
0.898438 0.803223 0.000000
0.933594 0.803223 0.000000
0.967773 0.803223 0.000000
1.000000 0.803223 0.000000
0.000000 0.839355 0.000000
0.006821 0.839355 0.000000
0.020950 0.839355 0.000000
0.039368 0.839355 0.000000
0.060730 0.839355 0.000000
0.084778 0.839355 0.000000
0.110596 0.839355 0.000000
0.138428 0.839355 0.000000
0.167725 0.839355 0.000000
0.198364 0.839355 0.000000
0.230103 0.839355 0.000000
0.262939 0.839355 0.000000
0.297852 0.839355 0.000000
0.333008 0.839355 0.000000
0.368164 0.839355 0.000000
0.404297 0.839355 0.000000
0.441406 0.839355 0.000000
0.479248 0.839355 0.000000
0.517578 0.839355 0.000000
0.555664 0.839355 0.000000
0.594238 0.839355 0.000000
0.633301 0.839355 0.000000
0.671875 0.839355 0.000000
0.710938 0.839355 0.000000
0.750000 0.839355 0.000000
0.788086 0.839355 0.000000
0.825684 0.839355 0.000000
0.862305 0.839355 0.000000
0.898438 0.839355 0.000000
0.933594 0.839355 0.000000
0.967773 0.839355 0.000000
1.000000 0.839355 0.000000
0.000000 0.874512 0.000000
0.006821 0.874512 0.000000
0.020950 0.874512 0.000000
0.039368 0.874512 0.000000
0.060730 0.874512 0.000000
0.084778 0.874512 0.000000
0.110596 0.874512 0.000000
0.138428 0.874512 0.000000
0.167725 0.874512 0.000000
0.198364 0.874512 0.000000
0.230103 0.874512 0.000000
0.262939 0.874512 0.000000
0.297852 0.874512 0.000000
0.333008 0.874512 0.000000
0.368164 0.874512 0.000000
0.404297 0.874512 0.000000
0.441406 0.874512 0.000000
0.479248 0.874512 0.000000
0.517578 0.874512 0.000000
0.555664 0.874512 0.000000
0.594238 0.874512 0.000000
0.633301 0.874512 0.000000
0.671875 0.874512 0.000000
