cubelut/Adanmq_Ektachrome 64t.cube
TITLE "Generated by Foundry::LUT"
LUT_3D_SIZE 8
DOMAIN_MIN 0.000000 0.000000 0.000000
DOMAIN_MAX 0.903226 0.903226 0.903226
0.000000 0.000000 0.000000
0.328613 0.000000 0.000000
0.719238 0.000000 0.000000
0.874023 0.000000 0.000000
0.942871 0.000000 0.000000
0.973633 0.000000 0.000000
0.990234 0.000000 0.000000
0.992188 0.000000 0.000000
0.000000 0.239380 0.000000
0.328613 0.239380 0.000000
0.719238 0.239380 0.000000
0.874023 0.239380 0.000000
0.942871 0.239380 0.000000
0.973633 0.239380 0.000000
0.990234 0.239380 0.000000
0.992188 0.239380 0.000000
0.000000 0.663086 0.000000
0.328613 0.663086 0.000000
0.719238 0.663086 0.000000
0.874023 0.663086 0.000000
0.942871 0.663086 0.000000
0.973633 0.663086 0.000000
0.990234 0.663086 0.000000
0.992188 0.663086 0.000000
0.000000 0.833496 0.000000
0.328613 0.833496 0.000000
0.719238 0.833496 0.000000
0.874023 0.833496 0.000000
0.942871 0.833496 0.000000
0.973633 0.833496 0.000000
0.990234 0.833496 0.000000
0.992188 0.833496 0.000000
0.000000 0.911133 0.000000
0.328613 0.911133 0.000000
0.719238 0.911133 0.000000
0.874023 0.911133 0.000000
0.942871 0.911133 0.000000
0.973633 0.911133 0.000000
0.990234 0.911133 0.000000
0.992188 0.911133 0.000000
0.000000 0.956055 0.000000
0.328613 0.956055 0.000000
0.719238 0.956055 0.000000
0.874023 0.956055 0.000000
0.942871 0.956055 0.000000
0.973633 0.956055 0.000000
0.990234 0.956055 0.000000
0.992188 0.956055 0.000000
0.000000 0.979980 0.000000
0.328613 0.979980 0.000000
0.719238 0.979980 0.000000
0.874023 0.979980 0.000000
0.942871 0.979980 0.000000
0.973633 0.979980 0.000000
0.990234 0.979980 0.000000
0.992188 0.979980 0.000000
0.000000 0.986816 0.000000
0.328613 0.986816 0.000000
0.719238 0.986816 0.000000
0.874023 0.986816 0.000000
0.942871 0.986816 0.000000
0.973633 0.986816 0.000000
0.990234 0.986816 0.000000
0.992188 0.986816 0.000000
0.000000 0.000000 0.099548
0.328857 0.000000 0.099548
0.719238 0.000000 0.099548
0.874023 0.000000 0.099548
0.942871 0.000000 0.099548
0.973633 0.000000 0.099548
0.990234 0.000000 0.099548
0.992188 0.000000 0.099548
0.000000 0.239380 0.099548
0.328857 0.239380 0.099548
0.719238 0.239380 0.099548
0.874023 0.239380 0.099548
0.942871 0.239380 0.099548
0.973633 0.239380 0.099548
0.990234 0.239380 0.099548
0.992188 0.239380 0.099548
0.000000 0.663086 0.099548
0.328857 0.663086 0.099548
0.719238 0.663086 0.099548
0.874023 0.663086 0.099548
0.942871 0.663086 0.099548
0.973633 0.663086 0.099548
0.990234 0.663086 0.099548
0.992188 0.663086 0.099548
0.000000 0.833496 0.099548
0.328857 0.833496 0.099548
0.719238 0.833496 0.099548
0.874023 0.833496 0.099548
0.942871 0.833496 0.099548
0.973633 0.833496 0.099548
0.990234 0.833496 0.099548
0.992188 0.833496 0.099548
0.000000 0.911133 0.099548
0.328857 0.911133 0.099548
0.719238 0.911133 0.099548
0.874023 0.911133 0.099548
0.942871 0.911133 0.099548
0.973633 0.911133 0.099548
0.990234 0.911133 0.099548
0.992188 0.911133 0.099548
0.000000 0.956055 0.099548
0.328857 0.956055 0.099548
0.719238 0.956055 0.099548
0.874023 0.956055 0.099548
0.942871 0.956055 0.099548
0.973633 0.956055 0.099548
0.990234 0.956055 0.099548
0.992188 0.956055 0.099548
0.000000 0.979980 0.099548
0.328857 0.979980 0.099548
0.719238 0.979980 0.099548
0.874023 0.979980 0.099548
0.942871 0.979980 0.099548
0.973633 0.979980 0.099548
0.990234 0.979980 0.099548
0.992188 0.979980 0.099548
0.000000 0.986816 0.099548
0.328857 0.986816 0.099548
0.719238 0.986816 0.099548
0.874023 0.986816 0.099548
0.942871 0.986816 0.099548
0.973633 0.986816 0.099548
0.990234 0.986816 0.099548
0.992188 0.986816 0.099548
0.000000 0.000000 0.493652
0.328857 0.000000 0.493652
0.719238 0.000000 0.493652
0.874023 0.000000 0.493652
0.942871 0.000000 0.493652
0.973633 0.000000 0.493652
0.990234 0.000000 0.493652
0.992188 0.000000 0.493652
0.000000 0.239258 0.493652
0.328857 0.239380 0.493652
0.719238 0.239380 0.493652
0.874023 0.239380 0.493652
0.942871 0.239380 0.493652
0.973633 0.239380 0.493652
0.990234 0.239380 0.493652
0.992188 0.239380 0.493652
0.000000 0.663086 0.493652
0.328857 0.663086 0.493652
0.719238 0.663086 0.493652
0.874023 0.663086 0.493652
0.942871 0.663086 0.493652
0.973633 0.663086 0.493652
0.990234 0.663086 0.493652
0.992188 0.663086 0.493652
0.000000 0.833496 0.493652
0.328857 0.833496 0.493652
0.719238 0.833496 0.493652
0.874023 0.833496 0.493652
0.942871 0.833496 0.493652
0.973633 0.833496 0.493652
0.990234 0.833496 0.493652
0.992188 0.833496 0.493652
0.000000 0.911133 0.493652
0.328857 0.911133 0.493652
0.719238 0.911133 0.493652
0.874023 0.911133 0.493652
0.942871 0.911133 0.493652
0.973633 0.911133 0.493652
0.990234 0.911133 0.493652
0.992188 0.911133 0.493652
0.000000 0.956055 0.493652
0.328857 0.956055 0.493652
0.719238 0.956055 0.493652
0.874023 0.956055 0.493652
0.942871 0.956055 0.493652
0.973633 0.956055 0.493652
0.990234 0.956055 0.493652
0.992188 0.956055 0.493652
0.000000 0.979980 0.493652
0.328857 0.979980 0.493652
0.719238 0.979980 0.493652
0.874023 0.979980 0.493652
0.942871 0.979980 0.493652
0.973633 0.979980 0.493652
0.990234 0.979980 0.493652
0.992188 0.979980 0.493652
0.000000 0.986816 0.493652
0.328857 0.986816 0.493652
0.719238 0.986816 0.493652
0.874023 0.986816 0.493652
0.942871 0.986816 0.493652
0.973633 0.986816 0.493652
0.990234 0.986816 0.493652
0.992188 0.986816 0.493652
0.000000 0.000000 0.748535
0.329102 0.000000 0.748535
0.719238 0.000000 0.748535
0.874023 0.000000 0.748535
0.942871 0.000000 0.748535
0.973633 0.000000 0.748535
0.990234 0.000000 0.748535
0.992188 0.000000 0.748535
0.000000 0.239258 0.748535
0.329102 0.239258 0.748535
0.719238 0.239380 0.748535
0.874023 0.239380 0.748535
0.942871 0.239380 0.748535
0.973633 0.239380 0.748535
0.990234 0.239380 0.748535
0.992188 0.239380 0.748535
0.000000 0.663086 0.748535
0.329102 0.663086 0.748535
0.719238 0.663086 0.748535
0.874023 0.663086 0.748535
0.942871 0.663086 0.748535
0.973633 0.663086 0.748535
0.990234 0.663086 0.748535
0.992188 0.663086 0.748535
0.000000 0.833496 0.748535
0.329102 0.833496 0.748535
0.719238 0.833496 0.748535
0.874023 0.833496 0.748535
0.942871 0.833496 0.748535
0.973633 0.833496 0.748535
0.990234 0.833496 0.748535
0.992188 0.833496 0.748535
0.000000 0.911133 0.748535
0.329102 0.911133 0.748535
0.719238 0.911133 0.748535
0.874023 0.911133 0.748535
0.942871 0.911133 0.748535
0.973633 0.911133 0.748535
0.990234 0.911133 0.748535
0.992188 0.911133 0.748535
0.000000 0.956055 0.748535
0.329102 0.956055 0.748535
0.719238 0.956055 0.748535
0.874023 0.956055 0.748535
0.942871 0.956055 0.748535
0.973633 0.956055 0.748535
0.990234 0.956055 0.748535
0.992188 0.956055 0.748535
0.000000 0.979980 0.748535
0.329102 0.979980 0.748535
0.719238 0.979980 0.748535
0.874023 0.979980 0.748535
0.942871 0.979980 0.748535
0.973633 0.979980 0.748535
0.990234 0.979980 0.748535
0.992188 0.979980 0.748535
0.000000 0.986816 0.748535
0.329102 0.986816 0.748535
0.719238 0.986816 0.748535
0.874023 0.986816 0.748535
0.942871 0.986816 0.748535
0.973633 0.986816 0.748535
0.990234 0.986816 0.748535
0.992188 0.986816 0.748535
0.000000 0.000000 0.875977
0.329102 0.000000 0.875977
0.719238 0.000000 0.875977
0.874023 0.000000 0.875977
0.942871 0.000000 0.875977
0.973633 0.000000 0.875977
0.990234 0.000000 0.875977
0.992188 0.000000 0.875977
0.000000 0.239258 0.875977
0.329102 0.239258 0.875977
0.719238 0.239258 0.875977
0.874023 0.239380 0.875977
0.942871 0.239380 0.875977
0.973633 0.239380 0.875977
0.990234 0.239380 0.875977
0.992188 0.239380 0.875977
0.000000 0.663086 0.875977
0.329102 0.663086 0.875977
0.719238 0.663086 0.875977
0.874023 0.663086 0.875977
0.942871 0.663086 0.875977
0.973633 0.663086 0.875977
0.990234 0.663086 0.875977
0.992188 0.663086 0.875977
0.000000 0.833496 0.875977
0.329102 0.833496 0.875977
0.719238 0.833496 0.875977
0.874023 0.833496 0.875977
0.942871 0.833496 0.875977
0.973633 0.833496 0.875977
0.990234 0.833496 0.875977
0.992188 0.833496 0.875977
0.000000 0.911133 0.875977
0.329102 0.911133 0.875977
0.719238 0.911133 0.875977
0.874023 0.911133 0.875977
0.942871 0.911133 0.875977
0.973633 0.911133 0.875977
0.990234 0.911133 0.875977
0.992188 0.911133 0.875977
0.000000 0.956055 0.875977
0.329102 0.956055 0.875977
0.719238 0.956055 0.875977
0.874023 0.956055 0.875977
0.942871 0.956055 0.875977
0.973633 0.956055 0.875977
0.990234 0.956055 0.875977
0.992188 0.956055 0.875977
0.000000 0.979980 0.875977
0.329102 0.979980 0.875977
0.719238 0.979980 0.875977
0.874023 0.979980 0.875977
0.942871 0.979980 0.875977
0.973633 0.979980 0.875977
0.990234 0.979980 0.875977
0.992188 0.979980 0.875977
0.000000 0.986816 0.875977
0.329102 0.986816 0.875977
0.719238 0.986816 0.875977
0.874023 0.986816 0.875977
0.942871 0.986816 0.875977
0.973633 0.986816 0.875977
0.990234 0.986816 0.875977
0.992188 0.986816 0.875977
0.000000 0.000000 0.942871
0.329346 0.000000 0.942871
0.719238 0.000000 0.942871
0.874023 0.000000 0.942871
0.942871 0.000000 0.942871
0.973633 0.000000 0.942871
0.990234 0.000000 0.942871
0.992188 0.000000 0.942871
0.000000 0.239258 0.942871
0.329346 0.239258 0.942871
0.719238 0.239258 0.942871
0.874023 0.239258 0.942871
0.942871 0.239380 0.942871
0.973633 0.239380 0.942871
0.990234 0.239380 0.942871
0.992188 0.239380 0.942871
0.000000 0.663086 0.942871
0.329346 0.663086 0.942871
0.719238 0.663086 0.942871
0.874023 0.663086 0.942871
0.942871 0.663086 0.942871
0.973633 0.663086 0.942871
0.990234 0.663086 0.942871
0.992188 0.663086 0.942871
0.000000 0.833496 0.942871
0.329346 0.833496 0.942871
0.719238 0.833496 0.942871
0.874023 0.833496 0.942871
0.942871 0.833496 0.942871
0.973633 0.833496 0.942871
0.990234 0.833496 0.942871
0.992188 0.833496 0.942871
0.000000 0.911133 0.942871
0.329346 0.911133 0.942871
0.719238 0.911133 0.942871
0.874023 0.911133 0.942871
0.942871 0.911133 0.942871
0.973633 0.911133 0.942871
0.990234 0.911133 0.942871
0.992188 0.911133 0.942871
0.000000 0.956055 0.942871
0.329346 0.956055 0.942871
0.719238 0.956055 0.942871
0.874023 0.956055 0.942871
0.942871 0.956055 0.942871
0.973633 0.956055 0.942871
0.990234 0.956055 0.942871
0.992188 0.956055 0.942871
0.000000 0.979980 0.942871
0.329346 0.979980 0.942871
0.719238 0.979980 0.942871
0.874023 0.979980 0.942871
0.942871 0.979980 0.942871
0.973633 0.979980 0.942871
0.990234 0.979980 0.942871
0.992188 0.979980 0.942871
0.000000 0.986816 0.942871
0.329346 0.986816 0.942871
0.719238 0.986816 0.942871
0.874023 0.986816 0.942871
0.942871 0.986816 0.942871
0.973633 0.986816 0.942871
0.990234 0.986816 0.942871
0.992188 0.986816 0.942871
0.000000 0.000000 0.975098
0.329346 0.000000 0.975098
0.719238 0.000000 0.975098
0.874023 0.000000 0.975098
0.942871 0.000000 0.975098
0.973633 0.000000 0.975098
0.990234 0.000000 0.975098
0.992188 0.000000 0.975098
0.000000 0.239258 0.975098
0.329346 0.239258 0.975098
0.719238 0.239258 0.975098
0.874023 0.239258 0.975098
0.942871 0.239258 0.975098
0.973633 0.239380 0.975098
0.990234 0.239380 0.975098
0.992188 0.239380 0.975098
0.000000 0.663086 0.975098
0.329346 0.663086 0.975098
0.719238 0.663086 0.975098
0.874023 0.663086 0.975098
0.942871 0.663086 0.975098
0.973633 0.663086 0.975098
0.990234 0.663086 0.975098
0.992188 0.663086 0.975098
0.000000 0.833496 0.975098
0.329346 0.833496 0.975098
0.719238 0.833496 0.975098
0.874023 0.833496 0.975098
0.942871 0.833496 0.975098
0.973633 0.833496 0.975098
0.990234 0.833496 0.975098
0.992188 0.833496 0.975098
0.000000 0.911133 0.975098
0.329346 0.911133 0.975098
0.719238 0.911133 0.975098
0.874023 0.911133 0.975098
0.942871 0.911133 0.975098
0.973633 0.911133 0.975098
0.990234 0.911133 0.975098
0.992188 0.911133 0.975098
0.000000 0.956055 0.975098
0.329346 0.956055 0.975098
0.719238 0.956055 0.975098
0.874023 0.956055 0.975098
0.942871 0.956055 0.975098
0.973633 0.956055 0.975098
0.990234 0.956055 0.975098
0.992188 0.956055 0.975098
0.000000 0.979980 0.975098
0.329346 0.979980 0.975098
0.719238 0.979980 0.975098
0.874023 0.979980 0.975098
0.942871 0.979980 0.975098
0.973633 0.979980 0.975098
0.990234 0.979980 0.975098
0.992188 0.979980 0.975098
0.000000 0.986816 0.975098
0.329346 0.986816 0.975098
0.719238 0.986816 0.975098
0.874023 0.986816 0.975098
0.942871 0.986816 0.975098
0.973633 0.986816 0.975098
0.990234 0.986816 0.975098
0.992188 0.986816 0.975098
0.000000 0.000000 0.989746
0.329346 0.000000 0.989746
0.719727 0.000000 0.989746
0.874023 0.000000 0.989746
0.942871 0.000000 0.989746
0.973633 0.000000 0.989746
0.990234 0.000000 0.989746
0.992188 0.000000 0.989746
0.000000 0.239258 0.989746
0.329346 0.239258 0.989746
0.719727 0.239258 0.989746
0.874023 0.239258 0.989746
0.942871 0.239258 0.989746
0.973633 0.239380 0.989746
0.990234 0.239380 0.989746
0.992188 0.239380 0.989746
0.000000 0.663086 0.989746
0.329346 0.663086 0.989746
0.719727 0.663086 0.989746
0.874023 0.663086 0.989746
0.942871 0.663086 0.989746
0.973633 0.663086 0.989746
0.990234 0.663086 0.989746
0.992188 0.663086 0.989746
0.000000 0.833496 0.989746
0.329346 0.833496 0.989746
0.719727 0.833496 0.989746
0.874023 0.833496 0.989746
0.942871 0.833496 0.989746
0.973633 0.833496 0.989746
0.990234 0.833496 0.989746
0.992188 0.833496 0.989746
0.000000 0.911133 0.989746
0.329346 0.911133 0.989746
0.719727 0.911133 0.989746
0.874023 0.911133 0.989746
0.942871 0.911133 0.989746
0.973633 0.911133 0.989746
0.990234 0.911133 0.989746
0.992188 0.911133 0.989746
0.000000 0.956055 0.989746
0.329346 0.956055 0.989746
0.719727 0.956055 0.989746
0.874023 0.956055 0.989746
0.942871 0.956055 0.989746
0.973633 0.956055 0.989746
0.990234 0.956055 0.989746
0.992188 0.956055 0.989746
0.000000 0.979980 0.989746
0.329346 0.979980 0.989746
0.719727 0.979980 0.989746
0.874023 0.979980 0.989746
0.942871 0.979980 0.989746
0.973633 0.979980 0.989746
0.990234 0.979980 0.989746
0.992188 0.979980 0.989746
0.000000 0.986816 0.989746
0.329346 0.986816 0.989746
0.719727 0.986816 0.989746
0.874023 0.986816 0.989746
0.942871 0.986816 0.989746
0.973633 0.986816 0.989746
0.990234 0.986816 0.989746
0.992188 0.986816 0.989746
