cubelut/Adanmq_Kodachrome 200.cube
TITLE "Generated by Foundry::LUT"
LUT_3D_SIZE 32
0.000000 0.000000 0.000000
0.000047 0.000000 0.000000
0.000691 0.000000 0.000000
0.004299 0.000000 0.000000
0.016510 0.000000 0.000000
0.042664 0.000000 0.000000
0.083801 0.000000 0.000000
0.136230 0.000000 0.000000
0.196899 0.000000 0.000000
0.259521 0.000000 0.000000
0.323730 0.000000 0.000000
0.386475 0.000000 0.000000
0.450928 0.000000 0.000000
0.514160 0.000000 0.000000
0.576172 0.000000 0.000000
0.634277 0.000000 0.000000
0.685547 0.000000 0.000000
0.732422 0.000000 0.000000
0.773926 0.000000 0.000000
0.811523 0.000000 0.000000
0.843750 0.000000 0.000000
0.871094 0.000000 0.000000
0.894043 0.000000 0.000000
0.914063 0.000000 0.000000
0.933105 0.000000 0.000000
0.950195 0.000000 0.000000
0.964355 0.000000 0.000000
0.974609 0.000000 0.000000
0.980957 0.000000 0.000000
0.987305 0.000000 0.000000
0.993164 0.000000 0.000000
1.000000 0.000000 0.000000
0.000000 0.000052 0.000000
0.000047 0.000052 0.000000
0.000691 0.000052 0.000000
0.004299 0.000052 0.000000
0.016510 0.000052 0.000000
0.042664 0.000052 0.000000
0.083801 0.000052 0.000000
0.136230 0.000052 0.000000
0.196899 0.000052 0.000000
0.259521 0.000052 0.000000
0.323730 0.000052 0.000000
0.386475 0.000052 0.000000
0.450928 0.000052 0.000000
0.514160 0.000052 0.000000
0.576172 0.000052 0.000000
0.634277 0.000052 0.000000
0.685547 0.000052 0.000000
0.732422 0.000052 0.000000
0.773926 0.000052 0.000000
0.811523 0.000052 0.000000
0.843750 0.000052 0.000000
0.871094 0.000052 0.000000
0.894043 0.000052 0.000000
0.914063 0.000052 0.000000
0.933105 0.000052 0.000000
0.950195 0.000052 0.000000
0.964355 0.000052 0.000000
0.974609 0.000052 0.000000
0.980957 0.000052 0.000000
0.987305 0.000052 0.000000
0.993164 0.000052 0.000000
1.000000 0.000052 0.000000
0.000000 0.000682 0.000000
0.000047 0.000682 0.000000
0.000691 0.000682 0.000000
0.004299 0.000682 0.000000
0.016510 0.000682 0.000000
0.042664 0.000682 0.000000
0.083801 0.000683 0.000000
0.136230 0.000683 0.000000
0.196899 0.000683 0.000000
0.259521 0.000683 0.000000
0.323730 0.000683 0.000000
0.386475 0.000683 0.000000
0.450928 0.000683 0.000000
0.514160 0.000683 0.000000
0.576172 0.000683 0.000000
0.634277 0.000683 0.000000
0.685547 0.000683 0.000000
0.732422 0.000683 0.000000
0.773926 0.000683 0.000000
0.811523 0.000683 0.000000
0.843750 0.000683 0.000000
0.871094 0.000683 0.000000
0.894043 0.000683 0.000000
0.914063 0.000683 0.000000
0.933105 0.000683 0.000000
0.950195 0.000683 0.000000
0.964355 0.000683 0.000000
0.974609 0.000683 0.000000
0.980957 0.000683 0.000000
0.987305 0.000683 0.000000
0.993164 0.000683 0.000000
1.000000 0.000683 0.000000
0.000000 0.003796 0.000000
0.000047 0.003796 0.000000
0.000691 0.003796 0.000000
0.004299 0.003796 0.000000
0.016510 0.003796 0.000000
0.042664 0.003796 0.000000
0.083801 0.003796 0.000000
0.136230 0.003796 0.000000
0.196899 0.003796 0.000000
0.259521 0.003796 0.000000
0.323730 0.003796 0.000000
0.386475 0.003796 0.000000
0.450928 0.003798 0.000000
0.514160 0.003798 0.000000
0.576172 0.003798 0.000000
0.634277 0.003798 0.000000
0.685547 0.003798 0.000000
0.732422 0.003798 0.000000
0.773926 0.003798 0.000000
0.811523 0.003798 0.000000
0.843750 0.003798 0.000000
0.871094 0.003798 0.000000
0.894043 0.003798 0.000000
0.914063 0.003798 0.000000
0.933105 0.003798 0.000000
0.950195 0.003798 0.000000
0.964355 0.003798 0.000000
0.974609 0.003798 0.000000
0.980957 0.003799 0.000000
0.987305 0.003799 0.000000
0.993164 0.003799 0.000000
1.000000 0.003799 0.000000
0.000000 0.012703 0.000000
0.000047 0.012703 0.000000
0.000691 0.012703 0.000000
0.004299 0.012703 0.000000
0.016510 0.012703 0.000000
0.042664 0.012703 0.000000
0.083801 0.012703 0.000000
0.136230 0.012703 0.000000
0.196899 0.012703 0.000000
0.259521 0.012703 0.000000
0.323730 0.012703 0.000000
0.386475 0.012703 0.000000
0.450928 0.012711 0.000000
0.514160 0.012711 0.000000
0.576172 0.012711 0.000000
0.634277 0.012711 0.000000
0.685547 0.012711 0.000000
0.732422 0.012711 0.000000
0.773926 0.012711 0.000000
0.811523 0.012711 0.000000
0.843750 0.012711 0.000000
0.871094 0.012711 0.000000
0.894043 0.012711 0.000000
0.914063 0.012711 0.000000
0.933105 0.012711 0.000000
0.950195 0.012711 0.000000
0.964355 0.012711 0.000000
0.974609 0.012711 0.000000
0.980957 0.012711 0.000000
0.987305 0.012711 0.000000
0.993164 0.012711 0.000000
1.000000 0.012711 0.000000
0.000000 0.032349 0.000000
0.000047 0.032349 0.000000
0.000691 0.032349 0.000000
0.004299 0.032349 0.000000
0.016510 0.032349 0.000000
0.042664 0.032349 0.000000
0.083801 0.032349 0.000000
0.136230 0.032349 0.000000
0.196899 0.032349 0.000000
0.259521 0.032349 0.000000
0.323730 0.032349 0.000000
0.386475 0.032349 0.000000
0.450928 0.032349 0.000000
0.514160 0.032349 0.000000
0.576172 0.032349 0.000000
0.634277 0.032349 0.000000
0.685547 0.032349 0.000000
0.732422 0.032349 0.000000
0.773926 0.032349 0.000000
0.811523 0.032349 0.000000
0.843750 0.032349 0.000000
0.871094 0.032379 0.000000
0.894043 0.032379 0.000000
0.914063 0.032379 0.000000
0.933105 0.032379 0.000000
0.950195 0.032379 0.000000
0.964355 0.032379 0.000000
0.974609 0.032379 0.000000
0.980957 0.032379 0.000000
0.987305 0.032379 0.000000
0.993164 0.032379 0.000000
1.000000 0.032379 0.000000
0.000000 0.068176 0.000000
0.000047 0.068176 0.000000
0.000691 0.068176 0.000000
0.004299 0.068176 0.000000
0.016510 0.068176 0.000000
0.042664 0.068176 0.000000
0.083801 0.068176 0.000000
0.136230 0.068176 0.000000
0.196899 0.068176 0.000000
0.259521 0.068176 0.000000
0.323730 0.068176 0.000000
0.386475 0.068176 0.000000
0.450928 0.068176 0.000000
0.514160 0.068176 0.000000
0.576172 0.068176 0.000000
0.634277 0.068176 0.000000
0.685547 0.068176 0.000000
0.732422 0.068176 0.000000
0.773926 0.068176 0.000000
0.811523 0.068176 0.000000
0.843750 0.068176 0.000000
0.871094 0.068176 0.000000
0.894043 0.068176 0.000000
0.914063 0.068176 0.000000
0.933105 0.068176 0.000000
0.950195 0.068176 0.000000
0.964355 0.068176 0.000000
0.974609 0.068176 0.000000
0.980957 0.068176 0.000000
0.987305 0.068176 0.000000
0.993164 0.068176 0.000000
1.000000 0.068176 0.000000
0.000000 0.121033 0.000000
0.000047 0.121033 0.000000
0.000691 0.121033 0.000000
0.004299 0.121033 0.000000
0.016510 0.121033 0.000000
0.042664 0.121033 0.000000
0.083801 0.121033 0.000000
0.136230 0.121033 0.000000
0.196899 0.121033 0.000000
0.259521 0.121033 0.000000
0.323730 0.121033 0.000000
0.386475 0.121033 0.000000
0.450928 0.121033 0.000000
0.514160 0.121033 0.000000
0.576172 0.121033 0.000000
0.634277 0.121033 0.000000
0.685547 0.121033 0.000000
0.732422 0.121033 0.000000
0.773926 0.121033 0.000000
0.811523 0.121033 0.000000
0.843750 0.121094 0.000000
0.871094 0.121094 0.000000
0.894043 0.121094 0.000000
0.914063 0.121094 0.000000
0.933105 0.121094 0.000000
0.950195 0.121094 0.000000
0.964355 0.121094 0.000000
0.974609 0.121094 0.000000
0.980957 0.121094 0.000000
0.987305 0.121094 0.000000
0.993164 0.121094 0.000000
1.000000 0.121094 0.000000
0.000000 0.185791 0.000000
0.000047 0.185791 0.000000
0.000691 0.185791 0.000000
0.004299 0.185791 0.000000
0.016510 0.185791 0.000000
0.042664 0.185791 0.000000
0.083801 0.185791 0.000000
0.136230 0.185791 0.000000
0.196899 0.185791 0.000000
0.259521 0.185791 0.000000
0.323730 0.185791 0.000000
0.386475 0.185791 0.000000
0.450928 0.185791 0.000000
0.514160 0.185791 0.000000
0.576172 0.185791 0.000000
0.634277 0.185791 0.000000
0.685547 0.185791 0.000000
0.732422 0.185791 0.000000
0.773926 0.185791 0.000000
0.811523 0.185791 0.000000
0.843750 0.185791 0.000000
0.871094 0.185791 0.000000
0.894043 0.185791 0.000000
0.914063 0.185791 0.000000
0.933105 0.185791 0.000000
0.950195 0.185791 0.000000
0.964355 0.185791 0.000000
0.974609 0.185791 0.000000
0.980957 0.185791 0.000000
0.987305 0.185791 0.000000
0.993164 0.185791 0.000000
1.000000 0.185791 0.000000
0.000000 0.255615 0.000000
0.000047 0.255615 0.000000
0.000691 0.255615 0.000000
0.004299 0.255615 0.000000
0.016510 0.255615 0.000000
0.042664 0.255615 0.000000
0.083801 0.255615 0.000000
0.136230 0.255615 0.000000
0.196899 0.255615 0.000000
0.259521 0.255615 0.000000
0.323730 0.255615 0.000000
0.386475 0.255615 0.000000
0.450928 0.255615 0.000000
0.514160 0.255615 0.000000
0.576172 0.255615 0.000000
0.634277 0.255615 0.000000
0.685547 0.255615 0.000000
0.732422 0.255615 0.000000
0.773926 0.255615 0.000000
0.811523 0.255615 0.000000
0.843750 0.255615 0.000000
0.871094 0.255615 0.000000
0.894043 0.255615 0.000000
0.914063 0.255615 0.000000
0.933105 0.255615 0.000000
0.950195 0.255615 0.000000
0.964355 0.255615 0.000000
0.974609 0.255615 0.000000
0.980957 0.255615 0.000000
0.987305 0.255615 0.000000
0.993164 0.255615 0.000000
1.000000 0.255615 0.000000
0.000000 0.326904 0.000000
0.000047 0.326904 0.000000
0.000691 0.326904 0.000000
0.004299 0.326904 0.000000
0.016510 0.326904 0.000000
0.042664 0.326904 0.000000
0.083801 0.326904 0.000000
0.136230 0.326904 0.000000
0.196899 0.326904 0.000000
0.259521 0.326904 0.000000
0.323730 0.326904 0.000000
0.386475 0.326904 0.000000
0.450928 0.326904 0.000000
0.514160 0.326904 0.000000
0.576172 0.326904 0.000000
0.634277 0.326904 0.000000
0.685547 0.326904 0.000000
0.732422 0.326904 0.000000
0.773926 0.326904 0.000000
0.811523 0.326904 0.000000
0.843750 0.326904 0.000000
0.871094 0.326904 0.000000
0.894043 0.326904 0.000000
0.914063 0.326904 0.000000
0.933105 0.326904 0.000000
0.950195 0.326904 0.000000
0.964355 0.326904 0.000000
0.974609 0.326904 0.000000
0.980957 0.326904 0.000000
0.987305 0.326904 0.000000
0.993164 0.326904 0.000000
1.000000 0.326904 0.000000
0.000000 0.395508 0.000000
0.000047 0.395508 0.000000
0.000691 0.395508 0.000000
0.004299 0.395508 0.000000
0.016510 0.395508 0.000000
0.042664 0.395508 0.000000
0.083801 0.395508 0.000000
0.136230 0.395508 0.000000
0.196899 0.395508 0.000000
0.259521 0.395508 0.000000
0.323730 0.395508 0.000000
0.386475 0.395508 0.000000
0.450928 0.395508 0.000000
0.514160 0.395508 0.000000
0.576172 0.395508 0.000000
0.634277 0.395508 0.000000
0.685547 0.395508 0.000000
0.732422 0.395508 0.000000
0.773926 0.395508 0.000000
0.811523 0.395508 0.000000
0.843750 0.395508 0.000000
0.871094 0.395508 0.000000
0.894043 0.395508 0.000000
0.914063 0.395508 0.000000
0.933105 0.395508 0.000000
0.950195 0.395508 0.000000
0.964355 0.395508 0.000000
0.974609 0.395508 0.000000
0.980957 0.395508 0.000000
0.987305 0.395508 0.000000
0.993164 0.395508 0.000000
1.000000 0.395752 0.000000
0.000000 0.462402 0.000000
0.000047 0.462402 0.000000
0.000691 0.462402 0.000000
0.004299 0.462402 0.000000
0.016510 0.462402 0.000000
0.042664 0.462402 0.000000
0.083801 0.462402 0.000000
0.136230 0.462402 0.000000
0.196899 0.462402 0.000000
0.259521 0.462402 0.000000
0.323730 0.462402 0.000000
0.386475 0.462402 0.000000
0.450928 0.462402 0.000000
0.514160 0.462646 0.000000
0.576172 0.462646 0.000000
0.634277 0.462646 0.000000
0.685547 0.462646 0.000000
0.732422 0.462646 0.000000
0.773926 0.462646 0.000000
0.811523 0.462646 0.000000
0.843750 0.462646 0.000000
0.871094 0.462646 0.000000
0.894043 0.462646 0.000000
0.914063 0.462646 0.000000
0.933105 0.462646 0.000000
0.950195 0.462646 0.000000
0.964355 0.462646 0.000000
0.974609 0.462646 0.000000
0.980957 0.462646 0.000000
0.987305 0.462646 0.000000
0.993164 0.462646 0.000000
1.000000 0.462646 0.000000
0.000000 0.528809 0.000000
0.000047 0.528809 0.000000
0.000691 0.528809 0.000000
0.004299 0.528809 0.000000
0.016510 0.528809 0.000000
0.042664 0.528809 0.000000
0.083801 0.528809 0.000000
0.136230 0.528809 0.000000
0.196899 0.528809 0.000000
0.259521 0.528809 0.000000
0.323730 0.528809 0.000000
0.386475 0.528809 0.000000
0.450928 0.528809 0.000000
0.514160 0.528809 0.000000
0.576172 0.528809 0.000000
0.634277 0.528809 0.000000
0.685547 0.528809 0.000000
0.732422 0.528809 0.000000
0.773926 0.528809 0.000000
0.811523 0.528809 0.000000
0.843750 0.528809 0.000000
0.871094 0.528809 0.000000
0.894043 0.528809 0.000000
0.914063 0.528809 0.000000
0.933105 0.528809 0.000000
0.950195 0.528809 0.000000
0.964355 0.528809 0.000000
0.974609 0.528809 0.000000
0.980957 0.528809 0.000000
0.987305 0.528809 0.000000
0.993164 0.528809 0.000000
1.000000 0.528809 0.000000
0.000000 0.591797 0.000000
0.000047 0.591797 0.000000
0.000691 0.591797 0.000000
0.004299 0.591797 0.000000
0.016510 0.591797 0.000000
0.042664 0.591797 0.000000
0.083801 0.591797 0.000000
0.136230 0.591797 0.000000
0.196899 0.591797 0.000000
0.259521 0.591797 0.000000
0.323730 0.591797 0.000000
0.386475 0.591797 0.000000
0.450928 0.591797 0.000000
0.514160 0.591797 0.000000
0.576172 0.591797 0.000000
0.634277 0.591797 0.000000
0.685547 0.591797 0.000000
0.732422 0.591797 0.000000
0.773926 0.591797 0.000000
0.811523 0.591797 0.000000
0.843750 0.591797 0.000000
0.871094 0.591797 0.000000
0.894043 0.591797 0.000000
0.914063 0.591797 0.000000
0.933105 0.591797 0.000000
0.950195 0.591797 0.000000
0.964355 0.591797 0.000000
0.974609 0.591797 0.000000
0.980957 0.591797 0.000000
0.987305 0.591797 0.000000
0.993164 0.591797 0.000000
1.000000 0.591797 0.000000
0.000000 0.650391 0.000000
0.000047 0.650391 0.000000
0.000691 0.650391 0.000000
0.004299 0.650391 0.000000
0.016510 0.650391 0.000000
0.042664 0.650391 0.000000
0.083801 0.650391 0.000000
0.136230 0.650391 0.000000
0.196899 0.650391 0.000000
0.259521 0.650391 0.000000
0.323730 0.650391 0.000000
0.386475 0.650391 0.000000
0.450928 0.650391 0.000000
0.514160 0.650391 0.000000
0.576172 0.650391 0.000000
0.634277 0.650391 0.000000
0.685547 0.650391 0.000000
0.732422 0.650391 0.000000
0.773926 0.650391 0.000000
0.811523 0.650391 0.000000
0.843750 0.650391 0.000000
0.871094 0.650391 0.000000
0.894043 0.650391 0.000000
0.914063 0.650391 0.000000
0.933105 0.650391 0.000000
0.950195 0.650391 0.000000
0.964355 0.650391 0.000000
0.974609 0.650391 0.000000
0.980957 0.650391 0.000000
0.987305 0.650391 0.000000
0.993164 0.650391 0.000000
1.000000 0.650391 0.000000
0.000000 0.703125 0.000000
0.000047 0.703125 0.000000
0.000691 0.703125 0.000000
0.004299 0.703125 0.000000
0.016510 0.703125 0.000000
0.042664 0.703125 0.000000
0.083801 0.703125 0.000000
0.136230 0.703125 0.000000
0.196899 0.703125 0.000000
0.259521 0.703125 0.000000
0.323730 0.703125 0.000000
0.386475 0.703125 0.000000
0.450928 0.703125 0.000000
0.514160 0.703125 0.000000
0.576172 0.703125 0.000000
0.634277 0.703125 0.000000
0.685547 0.703125 0.000000
0.732422 0.703125 0.000000
0.773926 0.703125 0.000000
0.811523 0.703125 0.000000
0.843750 0.703125 0.000000
0.871094 0.703125 0.000000
0.894043 0.703125 0.000000
0.914063 0.703125 0.000000
0.933105 0.703125 0.000000
0.950195 0.703125 0.000000
0.964355 0.703125 0.000000
0.974609 0.703125 0.000000
0.980957 0.703125 0.000000
0.987305 0.703125 0.000000
0.993164 0.703125 0.000000
1.000000 0.703125 0.000000
0.000000 0.749512 0.000000
0.000047 0.749512 0.000000
0.000691 0.749512 0.000000
0.004299 0.749512 0.000000
0.016510 0.749512 0.000000
0.042664 0.749512 0.000000
0.083801 0.749512 0.000000
0.136230 0.749512 0.000000
0.196899 0.749512 0.000000
0.259521 0.749512 0.000000
0.323730 0.749512 0.000000
0.386475 0.749512 0.000000
0.450928 0.749512 0.000000
0.514160 0.749512 0.000000
0.576172 0.749512 0.000000
0.634277 0.749512 0.000000
0.685547 0.749512 0.000000
0.732422 0.749512 0.000000
0.773926 0.749512 0.000000
0.811523 0.749512 0.000000
0.843750 0.749512 0.000000
0.871094 0.749512 0.000000
0.894043 0.749512 0.000000
0.914063 0.749512 0.000000
0.933105 0.749512 0.000000
0.950195 0.749512 0.000000
0.964355 0.749512 0.000000
0.974609 0.749512 0.000000
0.980957 0.749512 0.000000
0.987305 0.749512 0.000000
0.993164 0.749512 0.000000
1.000000 0.749512 0.000000
0.000000 0.790039 0.000000
0.000047 0.790039 0.000000
0.000691 0.790039 0.000000
0.004299 0.790039 0.000000
0.016510 0.790039 0.000000
0.042664 0.790039 0.000000
0.083801 0.790039 0.000000
0.136230 0.790039 0.000000
0.196899 0.790039 0.000000
0.259521 0.790039 0.000000
0.323730 0.790039 0.000000
0.386475 0.790039 0.000000
0.450928 0.790039 0.000000
0.514160 0.790039 0.000000
0.576172 0.790039 0.000000
0.634277 0.790039 0.000000
0.685547 0.790039 0.000000
0.732422 0.790039 0.000000
0.773926 0.790039 0.000000
0.811523 0.790039 0.000000
0.843750 0.790039 0.000000
0.871094 0.790039 0.000000
0.894043 0.790039 0.000000
0.914063 0.790039 0.000000
0.933105 0.790039 0.000000
0.950195 0.790039 0.000000
0.964355 0.790039 0.000000
0.974609 0.790039 0.000000
0.980957 0.790039 0.000000
0.987305 0.790039 0.000000
0.993164 0.790039 0.000000
1.000000 0.790039 0.000000
0.000000 0.826172 0.000000
0.000047 0.826172 0.000000
0.000691 0.826172 0.000000
0.004299 0.826172 0.000000
0.016510 0.826172 0.000000
0.042664 0.826172 0.000000
0.083801 0.826172 0.000000
0.136230 0.826172 0.000000
0.196899 0.826172 0.000000
0.259521 0.826172 0.000000
0.323730 0.826172 0.000000
0.386475 0.826172 0.000000
0.450928 0.826172 0.000000
0.514160 0.826172 0.000000
0.576172 0.826172 0.000000
0.634277 0.826172 0.000000
0.685547 0.826172 0.000000
0.732422 0.826172 0.000000
0.773926 0.826172 0.000000
0.811523 0.826172 0.000000
0.843750 0.826172 0.000000
0.871094 0.826172 0.000000
0.894043 0.826172 0.000000
0.914063 0.826172 0.000000
0.933105 0.826172 0.000000
0.950195 0.826172 0.000000
0.964355 0.826172 0.000000
0.974609 0.826172 0.000000
0.980957 0.826172 0.000000
0.987305 0.826172 0.000000
0.993164 0.826172 0.000000
1.000000 0.826172 0.000000
0.000000 0.858398 0.000000
0.000047 0.858398 0.000000
0.000691 0.858398 0.000000
0.004299 0.858398 0.000000
0.016510 0.858398 0.000000
0.042664 0.858398 0.000000
0.083801 0.858398 0.000000
0.136230 0.858398 0.000000
0.196899 0.858398 0.000000
0.259521 0.858398 0.000000
0.323730 0.858398 0.000000
0.386475 0.858398 0.000000
0.450928 0.858398 0.000000
0.514160 0.858398 0.000000
0.576172 0.858398 0.000000
0.634277 0.858398 0.000000
0.685547 0.858398 0.000000
0.732422 0.858398 0.000000
0.773926 0.858398 0.000000
0.811523 0.858398 0.000000
0.843750 0.858398 0.000000
0.871094 0.858398 0.000000
0.894043 0.858398 0.000000
0.914063 0.858398 0.000000
0.933105 0.858398 0.000000
0.950195 0.858398 0.000000
0.964355 0.858398 0.000000
0.974609 0.858398 0.000000
0.980957 0.858398 0.000000
0.987305 0.858398 0.000000
0.993164 0.858398 0.000000
1.000000 0.858398 0.000000
0.000000 0.884766 0.000000
0.000047 0.884766 0.000000
0.000691 0.884766 0.000000
0.004299 0.884766 0.000000
0.016510 0.884766 0.000000
0.042664 0.884766 0.000000
0.083801 0.884766 0.000000
0.136230 0.884766 0.000000
0.196899 0.884766 0.000000
0.259521 0.884766 0.000000
0.323730 0.884766 0.000000
0.386475 0.884766 0.000000
0.450928 0.884766 0.000000
0.514160 0.884766 0.000000
0.576172 0.884766 0.000000
0.634277 0.884766 0.000000
0.685547 0.884766 0.000000
0.732422 0.884766 0.000000
0.773926 0.884766 0.000000
0.811523 0.884766 0.000000
0.843750 0.884766 0.000000
0.871094 0.884766 0.000000
0.894043 0.884766 0.000000
0.914063 0.884766 0.000000
0.933105 0.884766 0.000000
0.950195 0.884766 0.000000
0.964355 0.884766 0.000000
0.974609 0.884766 0.000000
0.980957 0.884766 0.000000
0.987305 0.884766 0.000000
0.993164 0.884766 0.000000
1.000000 0.884766 0.000000
0.000000 0.906738 0.000000
0.000047 0.906738 0.000000
0.000691 0.906738 0.000000
0.004299 0.906738 0.000000
0.016510 0.906738 0.000000
0.042664 0.906738 0.000000
0.083801 0.906738 0.000000
0.136230 0.906738 0.000000
0.196899 0.906738 0.000000
0.259521 0.906738 0.000000
0.323730 0.906738 0.000000
0.386475 0.906738 0.000000
0.450928 0.906738 0.000000
0.514160 0.906738 0.000000
0.576172 0.906738 0.000000
0.634277 0.906738 0.000000
0.685547 0.906738 0.000000
0.732422 0.906738 0.000000
0.773926 0.906738 0.000000
0.811523 0.906738 0.000000
0.843750 0.906738 0.000000
0.871094 0.906738 0.000000
0.894043 0.906738 0.000000
0.914063 0.906738 0.000000
0.933105 0.906738 0.000000
0.950195 0.906738 0.000000
0.964355 0.906738 0.000000
0.974609 0.906738 0.000000
0.980957 0.906738 0.000000
0.987305 0.906738 0.000000
0.993164 0.906738 0.000000
1.000000 0.906738 0.000000
0.000000 0.925781 0.000000
0.000047 0.925781 0.000000
0.000691 0.925781 0.000000
0.004299 0.925781 0.000000
0.016510 0.925781 0.000000
0.042664 0.925781 0.000000
0.083801 0.925781 0.000000
0.136230 0.925781 0.000000
0.196899 0.925781 0.000000
0.259521 0.925781 0.000000
0.323730 0.925781 0.000000
0.386475 0.925781 0.000000
0.450928 0.925781 0.000000
0.514160 0.925781 0.000000
0.576172 0.925781 0.000000
0.634277 0.925781 0.000000
0.685547 0.925781 0.000000
0.732422 0.925781 0.000000
0.773926 0.925781 0.000000
0.811523 0.925781 0.000000
0.843750 0.925781 0.000000
0.871094 0.925781 0.000000
0.894043 0.925781 0.000000
0.914063 0.925781 0.000000
0.933105 0.925781 0.000000
0.950195 0.925781 0.000000
0.964355 0.925781 0.000000
0.974609 0.925781 0.000000
0.980957 0.925781 0.000000
0.987305 0.925781 0.000000
0.993164 0.925781 0.000000
1.000000 0.925781 0.000000
0.000000 0.943848 0.000000
0.000047 0.943848 0.000000
0.000691 0.943848 0.000000
0.004299 0.943848 0.000000
0.016510 0.943848 0.000000
0.042664 0.943848 0.000000
0.083801 0.943848 0.000000
0.136230 0.943848 0.000000
0.196899 0.943848 0.000000
0.259521 0.943848 0.000000
0.323730 0.943848 0.000000
0.386475 0.943848 0.000000
0.450928 0.943848 0.000000
0.514160 0.943848 0.000000
0.576172 0.943848 0.000000
0.634277 0.943848 0.000000
0.685547 0.943848 0.000000
0.732422 0.943848 0.000000
0.773926 0.943848 0.000000
0.811523 0.943848 0.000000
0.843750 0.943848 0.000000
0.871094 0.943848 0.000000
0.894043 0.943848 0.000000
0.914063 0.943848 0.000000
0.933105 0.943848 0.000000
0.950195 0.943848 0.000000
0.964355 0.943848 0.000000
0.974609 0.943848 0.000000
0.980957 0.943848 0.000000
0.987305 0.943848 0.000000
0.993164 0.943848 0.000000
1.000000 0.943848 0.000000
0.000000 0.958496 0.000000
0.000047 0.958496 0.000000
0.000691 0.958496 0.000000
0.004299 0.958496 0.000000
0.016510 0.958496 0.000000
0.042664 0.958496 0.000000
0.083801 0.958496 0.000000
0.136230 0.958496 0.000000
0.196899 0.958496 0.000000
0.259521 0.958496 0.000000
0.323730 0.958496 0.000000
0.386475 0.958496 0.000000
0.450928 0.958496 0.000000
0.514160 0.958496 0.000000
0.576172 0.958496 0.000000
0.634277 0.958496 0.000000
0.685547 0.958496 0.000000
0.732422 0.958496 0.000000
0.773926 0.958496 0.000000
0.811523 0.958496 0.000000
0.843750 0.958496 0.000000
0.871094 0.958496 0.000000
0.894043 0.958496 0.000000
0.914063 0.958496 0.000000
0.933105 0.958496 0.000000
0.950195 0.958496 0.000000
0.964355 0.958496 0.000000
0.974609 0.958496 0.000000
0.980957 0.958496 0.000000
0.987305 0.958496 0.000000
0.993164 0.958496 0.000000
1.000000 0.958496 0.000000
0.000000 0.970215 0.000000
0.000047 0.970215 0.000000
0.000691 0.970215 0.000000
0.004299 0.970215 0.000000
0.016510 0.970215 0.000000
0.042664 0.970215 0.000000
0.083801 0.970215 0.000000
0.136230 0.970215 0.000000
0.196899 0.970215 0.000000
0.259521 0.970215 0.000000
0.323730 0.970215 0.000000
0.386475 0.970215 0.000000
0.450928 0.970215 0.000000
0.514160 0.970215 0.000000
0.576172 0.970215 0.000000
0.634277 0.970215 0.000000
0.685547 0.970215 0.000000
0.732422 0.970215 0.000000
0.773926 0.970215 0.000000
0.811523 0.970215 0.000000
0.843750 0.970215 0.000000
0.871094 0.970215 0.000000
0.894043 0.970215 0.000000
0.914063 0.970215 0.000000
0.933105 0.970215 0.000000
0.950195 0.970215 0.000000
0.964355 0.970215 0.000000
0.974609 0.970215 0.000000
0.980957 0.970215 0.000000
0.987305 0.970215 0.000000
0.993164 0.970215 0.000000
1.000000 0.970215 0.000000
0.000000 0.977539 0.000000
0.000047 0.977539 0.000000
0.000691 0.977539 0.000000
0.004299 0.977539 0.000000
0.016510 0.977539 0.000000
0.042664 0.977539 0.000000
0.083801 0.977539 0.000000
0.136230 0.977539 0.000000
0.196899 0.977539 0.000000
0.259521 0.977539 0.000000
0.323730 0.977539 0.000000
0.386475 0.977539 0.000000
0.450928 0.977539 0.000000
0.514160 0.977539 0.000000
0.576172 0.977539 0.000000
0.634277 0.977539 0.000000
0.685547 0.977539 0.000000
0.732422 0.977539 0.000000
0.773926 0.977539 0.000000
0.811523 0.977539 0.000000
0.843750 0.977539 0.000000
0.871094 0.977539 0.000000
0.894043 0.977539 0.000000
