cubelut/Adanmq_F125.cube
TITLE "Generated by Foundry::LUT"
LUT_3D_SIZE 32
0.000000 0.000000 0.000000
0.038086 0.000000 0.000000
0.084839 0.000000 0.000000
0.132324 0.000000 0.000000
0.179565 0.000000 0.000000
0.224976 0.000000 0.000000
0.268066 0.000000 0.000000
0.309570 0.000000 0.000000
0.348877 0.000000 0.000000
0.386230 0.000000 0.000000
0.422119 0.000000 0.000000
0.456787 0.000000 0.000000
0.490967 0.000000 0.000000
0.523926 0.000000 0.000000
0.555664 0.000000 0.000000
0.586914 0.000000 0.000000
0.617188 0.000000 0.000000
0.646973 0.000000 0.000000
0.676270 0.000000 0.000000
0.705566 0.000000 0.000000
0.734375 0.000000 0.000000
0.761719 0.000000 0.000000
0.788086 0.000000 0.000000
0.813965 0.000000 0.000000
0.839355 0.000000 0.000000
0.864258 0.000000 0.000000
0.888184 0.000000 0.000000
0.912109 0.000000 0.000000
0.935059 0.000000 0.000000
0.957520 0.000000 0.000000
0.979492 0.000000 0.000000
1.000000 0.000000 0.000000
0.000000 0.024185 0.000000
0.038086 0.024185 0.000000
0.084839 0.024185 0.000000
0.132324 0.024185 0.000000
0.179565 0.024185 0.000000
0.224976 0.024185 0.000000
0.268066 0.024185 0.000000
0.309570 0.024185 0.000000
0.348877 0.024185 0.000000
0.386230 0.024185 0.000000
0.422119 0.024185 0.000000
0.456787 0.024185 0.000000
0.490967 0.024185 0.000000
0.523926 0.024200 0.000000
0.555664 0.024200 0.000000
0.586914 0.024200 0.000000
0.617188 0.024200 0.000000
0.646973 0.024200 0.000000
0.676270 0.024200 0.000000
0.705566 0.024200 0.000000
0.734375 0.024200 0.000000
0.761719 0.024200 0.000000
0.788086 0.024200 0.000000
0.813965 0.024200 0.000000
0.839355 0.024200 0.000000
0.864258 0.024200 0.000000
0.888184 0.024200 0.000000
0.912109 0.024200 0.000000
0.935059 0.024200 0.000000
0.957520 0.024200 0.000000
0.979492 0.024200 0.000000
1.000000 0.024200 0.000000
0.000000 0.059326 0.000000
0.038086 0.059326 0.000000
0.084839 0.059326 0.000000
0.132324 0.059326 0.000000
0.179565 0.059326 0.000000
0.224976 0.059326 0.000000
0.268066 0.059326 0.000000
0.309570 0.059326 0.000000
0.348877 0.059357 0.000000
0.386230 0.059357 0.000000
0.422119 0.059357 0.000000
0.456787 0.059357 0.000000
0.490967 0.059357 0.000000
0.523926 0.059357 0.000000
0.555664 0.059357 0.000000
0.586914 0.059357 0.000000
0.617188 0.059357 0.000000
0.646973 0.059357 0.000000
0.676270 0.059357 0.000000
0.705566 0.059357 0.000000
0.734375 0.059357 0.000000
0.761719 0.059357 0.000000
0.788086 0.059357 0.000000
0.813965 0.059357 0.000000
0.839355 0.059357 0.000000
0.864258 0.059357 0.000000
0.888184 0.059357 0.000000
0.912109 0.059357 0.000000
0.935059 0.059357 0.000000
0.957520 0.059357 0.000000
0.979492 0.059357 0.000000
1.000000 0.059357 0.000000
0.000000 0.097656 0.000000
0.038086 0.097656 0.000000
0.084839 0.097656 0.000000
0.132324 0.097656 0.000000
0.179565 0.097656 0.000000
0.224976 0.097656 0.000000
0.268066 0.097656 0.000000
0.309570 0.097656 0.000000
0.348877 0.097656 0.000000
0.386230 0.097656 0.000000
0.422119 0.097656 0.000000
0.456787 0.097656 0.000000
0.490967 0.097656 0.000000
0.523926 0.097656 0.000000
0.555664 0.097656 0.000000
0.586914 0.097656 0.000000
0.617188 0.097656 0.000000
0.646973 0.097656 0.000000
0.676270 0.097656 0.000000
0.705566 0.097656 0.000000
0.734375 0.097656 0.000000
0.761719 0.097656 0.000000
0.788086 0.097656 0.000000
0.813965 0.097656 0.000000
0.839355 0.097656 0.000000
0.864258 0.097656 0.000000
0.888184 0.097656 0.000000
0.912109 0.097656 0.000000
0.935059 0.097656 0.000000
0.957520 0.097656 0.000000
0.979492 0.097656 0.000000
1.000000 0.097656 0.000000
0.000000 0.136597 0.000000
0.038086 0.136597 0.000000
0.084839 0.136597 0.000000
0.132324 0.136597 0.000000
0.179565 0.136597 0.000000
0.224976 0.136597 0.000000
0.268066 0.136597 0.000000
0.309570 0.136597 0.000000
0.348877 0.136597 0.000000
0.386230 0.136597 0.000000
0.422119 0.136597 0.000000
0.456787 0.136597 0.000000
0.490967 0.136597 0.000000
0.523926 0.136597 0.000000
0.555664 0.136597 0.000000
0.586914 0.136597 0.000000
0.617188 0.136597 0.000000
0.646973 0.136597 0.000000
0.676270 0.136597 0.000000
0.705566 0.136597 0.000000
0.734375 0.136597 0.000000
0.761719 0.136597 0.000000
0.788086 0.136597 0.000000
0.813965 0.136597 0.000000
0.839355 0.136597 0.000000
0.864258 0.136597 0.000000
0.888184 0.136597 0.000000
0.912109 0.136597 0.000000
0.935059 0.136597 0.000000
0.957520 0.136597 0.000000
0.979492 0.136597 0.000000
1.000000 0.136597 0.000000
0.000000 0.175903 0.000000
0.038086 0.175903 0.000000
0.084839 0.175903 0.000000
0.132324 0.175903 0.000000
0.179565 0.175903 0.000000
0.224976 0.175903 0.000000
0.268066 0.175903 0.000000
0.309570 0.175903 0.000000
0.348877 0.175903 0.000000
0.386230 0.175903 0.000000
0.422119 0.175903 0.000000
0.456787 0.175903 0.000000
0.490967 0.175903 0.000000
0.523926 0.175903 0.000000
0.555664 0.175903 0.000000
0.586914 0.175903 0.000000
0.617188 0.175903 0.000000
0.646973 0.175903 0.000000
0.676270 0.175903 0.000000
0.705566 0.175903 0.000000
0.734375 0.175903 0.000000
0.761719 0.175903 0.000000
0.788086 0.175903 0.000000
0.813965 0.175903 0.000000
0.839355 0.175903 0.000000
0.864258 0.175903 0.000000
0.888184 0.175903 0.000000
0.912109 0.175903 0.000000
0.935059 0.175903 0.000000
0.957520 0.175903 0.000000
0.979492 0.175903 0.000000
1.000000 0.175903 0.000000
0.000000 0.214844 0.000000
0.038086 0.214844 0.000000
0.084839 0.214844 0.000000
0.132324 0.214844 0.000000
0.179565 0.214844 0.000000
0.224976 0.214844 0.000000
0.268066 0.214844 0.000000
0.309570 0.214844 0.000000
0.348877 0.214844 0.000000
0.386230 0.214844 0.000000
0.422119 0.214844 0.000000
0.456787 0.214844 0.000000
0.490967 0.214844 0.000000
0.523926 0.214844 0.000000
0.555664 0.214844 0.000000
0.586914 0.214844 0.000000
0.617188 0.214844 0.000000
0.646973 0.214844 0.000000
0.676270 0.214844 0.000000
0.705566 0.214844 0.000000
0.734375 0.214844 0.000000
0.761719 0.214844 0.000000
0.788086 0.214844 0.000000
0.813965 0.214844 0.000000
0.839355 0.214844 0.000000
0.864258 0.214844 0.000000
0.888184 0.214844 0.000000
0.912109 0.214844 0.000000
0.935059 0.214844 0.000000
0.957520 0.214844 0.000000
0.979492 0.214844 0.000000
1.000000 0.214844 0.000000
0.000000 0.253662 0.000000
0.038086 0.253662 0.000000
0.084839 0.253662 0.000000
0.132324 0.253662 0.000000
0.179565 0.253662 0.000000
0.224976 0.253662 0.000000
0.268066 0.253662 0.000000
0.309570 0.253662 0.000000
0.348877 0.253662 0.000000
0.386230 0.253662 0.000000
0.422119 0.253662 0.000000
0.456787 0.253662 0.000000
0.490967 0.253662 0.000000
0.523926 0.253662 0.000000
0.555664 0.253662 0.000000
0.586914 0.253662 0.000000
0.617188 0.253662 0.000000
0.646973 0.253662 0.000000
0.676270 0.253662 0.000000
0.705566 0.253662 0.000000
0.734375 0.253662 0.000000
0.761719 0.253662 0.000000
0.788086 0.253662 0.000000
0.813965 0.253662 0.000000
0.839355 0.253662 0.000000
0.864258 0.253662 0.000000
0.888184 0.253662 0.000000
0.912109 0.253662 0.000000
0.935059 0.253662 0.000000
0.957520 0.253662 0.000000
0.979492 0.253662 0.000000
1.000000 0.253662 0.000000
0.000000 0.292480 0.000000
0.038086 0.292480 0.000000
0.084839 0.292480 0.000000
0.132324 0.292480 0.000000
0.179565 0.292480 0.000000
0.224976 0.292480 0.000000
0.268066 0.292480 0.000000
0.309570 0.292480 0.000000
0.348877 0.292480 0.000000
0.386230 0.292480 0.000000
0.422119 0.292480 0.000000
0.456787 0.292480 0.000000
0.490967 0.292480 0.000000
0.523926 0.292480 0.000000
0.555664 0.292480 0.000000
0.586914 0.292480 0.000000
0.617188 0.292480 0.000000
0.646973 0.292480 0.000000
0.676270 0.292480 0.000000
0.705566 0.292480 0.000000
0.734375 0.292480 0.000000
0.761719 0.292480 0.000000
0.788086 0.292480 0.000000
0.813965 0.292480 0.000000
0.839355 0.292480 0.000000
0.864258 0.292480 0.000000
0.888184 0.292480 0.000000
0.912109 0.292480 0.000000
0.935059 0.292480 0.000000
0.957520 0.292480 0.000000
0.979492 0.292480 0.000000
1.000000 0.292480 0.000000
0.000000 0.330078 0.000000
0.038086 0.330078 0.000000
0.084839 0.330078 0.000000
0.132324 0.330078 0.000000
0.179565 0.330078 0.000000
0.224976 0.330078 0.000000
0.268066 0.330078 0.000000
0.309570 0.330078 0.000000
0.348877 0.330078 0.000000
0.386230 0.330078 0.000000
0.422119 0.330078 0.000000
0.456787 0.330078 0.000000
0.490967 0.330078 0.000000
0.523926 0.330078 0.000000
0.555664 0.330078 0.000000
0.586914 0.330078 0.000000
0.617188 0.330078 0.000000
0.646973 0.330078 0.000000
0.676270 0.330078 0.000000
0.705566 0.330078 0.000000
0.734375 0.330078 0.000000
0.761719 0.330078 0.000000
0.788086 0.330078 0.000000
0.813965 0.330078 0.000000
0.839355 0.330078 0.000000
0.864258 0.330078 0.000000
0.888184 0.330078 0.000000
0.912109 0.330078 0.000000
0.935059 0.330078 0.000000
0.957520 0.330078 0.000000
0.979492 0.330078 0.000000
1.000000 0.330078 0.000000
0.000000 0.367188 0.000000
0.038086 0.367188 0.000000
0.084839 0.367188 0.000000
0.132324 0.367188 0.000000
0.179565 0.367188 0.000000
0.224976 0.367188 0.000000
0.268066 0.367188 0.000000
0.309570 0.367188 0.000000
0.348877 0.367188 0.000000
0.386230 0.367188 0.000000
0.422119 0.367188 0.000000
0.456787 0.367188 0.000000
0.490967 0.367188 0.000000
0.523926 0.367188 0.000000
0.555664 0.367188 0.000000
0.586914 0.367188 0.000000
0.617188 0.367188 0.000000
0.646973 0.367188 0.000000
0.676270 0.367188 0.000000
0.705566 0.367188 0.000000
0.734375 0.367188 0.000000
0.761719 0.367188 0.000000
0.788086 0.367188 0.000000
0.813965 0.367188 0.000000
0.839355 0.367188 0.000000
0.864258 0.367188 0.000000
0.888184 0.367188 0.000000
0.912109 0.367188 0.000000
0.935059 0.367188 0.000000
0.957520 0.367188 0.000000
0.979492 0.367188 0.000000
1.000000 0.367188 0.000000
0.000000 0.404297 0.000000
0.038086 0.404297 0.000000
0.084839 0.404297 0.000000
0.132324 0.404297 0.000000
0.179565 0.404297 0.000000
0.224976 0.404297 0.000000
0.268066 0.404297 0.000000
0.309570 0.404297 0.000000
0.348877 0.404297 0.000000
0.386230 0.404297 0.000000
0.422119 0.404297 0.000000
0.456787 0.404297 0.000000
0.490967 0.404297 0.000000
0.523926 0.404297 0.000000
0.555664 0.404297 0.000000
0.586914 0.404297 0.000000
0.617188 0.404297 0.000000
0.646973 0.404297 0.000000
0.676270 0.404297 0.000000
0.705566 0.404297 0.000000
0.734375 0.404297 0.000000
0.761719 0.404297 0.000000
0.788086 0.404297 0.000000
0.813965 0.404297 0.000000
0.839355 0.404297 0.000000
0.864258 0.404297 0.000000
0.888184 0.404297 0.000000
0.912109 0.404297 0.000000
0.935059 0.404297 0.000000
0.957520 0.404297 0.000000
0.979492 0.404297 0.000000
1.000000 0.404297 0.000000
0.000000 0.440918 0.000000
0.038086 0.440918 0.000000
0.084839 0.440918 0.000000
0.132324 0.440918 0.000000
0.179565 0.440918 0.000000
0.224976 0.440918 0.000000
0.268066 0.440918 0.000000
0.309570 0.440918 0.000000
0.348877 0.440918 0.000000
0.386230 0.440918 0.000000
0.422119 0.440918 0.000000
0.456787 0.440918 0.000000
0.490967 0.440918 0.000000
0.523926 0.440918 0.000000
0.555664 0.440918 0.000000
0.586914 0.440918 0.000000
0.617188 0.440918 0.000000
0.646973 0.440918 0.000000
0.676270 0.440918 0.000000
0.705566 0.440918 0.000000
0.734375 0.440918 0.000000
0.761719 0.440918 0.000000
0.788086 0.440918 0.000000
0.813965 0.440918 0.000000
0.839355 0.440918 0.000000
0.864258 0.440918 0.000000
0.888184 0.440918 0.000000
0.912109 0.440918 0.000000
0.935059 0.440918 0.000000
0.957520 0.440918 0.000000
0.979492 0.440918 0.000000
1.000000 0.440918 0.000000
0.000000 0.476563 0.000000
0.038086 0.476563 0.000000
0.084839 0.476563 0.000000
0.132324 0.476563 0.000000
0.179565 0.476563 0.000000
0.224976 0.476563 0.000000
0.268066 0.476563 0.000000
0.309570 0.476563 0.000000
0.348877 0.476563 0.000000
0.386230 0.476563 0.000000
0.422119 0.476563 0.000000
0.456787 0.476563 0.000000
0.490967 0.476563 0.000000
0.523926 0.476563 0.000000
0.555664 0.476563 0.000000
0.586914 0.476563 0.000000
0.617188 0.476563 0.000000
0.646973 0.476563 0.000000
0.676270 0.476563 0.000000
0.705566 0.476563 0.000000
0.734375 0.476563 0.000000
0.761719 0.476563 0.000000
0.788086 0.476563 0.000000
0.813965 0.476563 0.000000
0.839355 0.476563 0.000000
0.864258 0.476563 0.000000
0.888184 0.476563 0.000000
0.912109 0.476563 0.000000
0.935059 0.476563 0.000000
0.957520 0.476563 0.000000
0.979492 0.476563 0.000000
1.000000 0.476563 0.000000
0.000000 0.511719 0.000000
0.038086 0.511719 0.000000
0.084839 0.511719 0.000000
0.132324 0.511719 0.000000
0.179565 0.511719 0.000000
0.224976 0.511719 0.000000
0.268066 0.511719 0.000000
0.309570 0.511719 0.000000
0.348877 0.511719 0.000000
0.386230 0.511719 0.000000
0.422119 0.511719 0.000000
0.456787 0.511719 0.000000
0.490967 0.511719 0.000000
0.523926 0.511719 0.000000
0.555664 0.511719 0.000000
0.586914 0.511719 0.000000
0.617188 0.511719 0.000000
0.646973 0.511719 0.000000
0.676270 0.511719 0.000000
0.705566 0.511719 0.000000
0.734375 0.511719 0.000000
0.761719 0.511719 0.000000
0.788086 0.511719 0.000000
0.813965 0.511719 0.000000
0.839355 0.511719 0.000000
0.864258 0.511719 0.000000
0.888184 0.511719 0.000000
0.912109 0.511719 0.000000
0.935059 0.511719 0.000000
0.957520 0.511719 0.000000
0.979492 0.511719 0.000000
1.000000 0.511719 0.000000
0.000000 0.545898 0.000000
0.038086 0.545898 0.000000
0.084839 0.545898 0.000000
0.132324 0.545898 0.000000
0.179565 0.545898 0.000000
0.224976 0.545898 0.000000
0.268066 0.545898 0.000000
0.309570 0.545898 0.000000
0.348877 0.545898 0.000000
0.386230 0.545898 0.000000
0.422119 0.545898 0.000000
0.456787 0.545898 0.000000
0.490967 0.545898 0.000000
0.523926 0.545898 0.000000
0.555664 0.545898 0.000000
0.586914 0.545898 0.000000
0.617188 0.545898 0.000000
0.646973 0.545898 0.000000
0.676270 0.545898 0.000000
0.705566 0.545898 0.000000
0.734375 0.545898 0.000000
0.761719 0.545898 0.000000
0.788086 0.545898 0.000000
0.813965 0.545898 0.000000
0.839355 0.545898 0.000000
0.864258 0.545898 0.000000
0.888184 0.545898 0.000000
0.912109 0.545898 0.000000
0.935059 0.545898 0.000000
0.957520 0.545898 0.000000
0.979492 0.545898 0.000000
1.000000 0.545898 0.000000
0.000000 0.578613 0.000000
0.038086 0.578613 0.000000
0.084839 0.578613 0.000000
0.132324 0.578613 0.000000
0.179565 0.578613 0.000000
0.224976 0.578613 0.000000
0.268066 0.578613 0.000000
0.309570 0.578613 0.000000
0.348877 0.578613 0.000000
0.386230 0.578613 0.000000
0.422119 0.578613 0.000000
0.456787 0.578613 0.000000
0.490967 0.578613 0.000000
0.523926 0.578613 0.000000
0.555664 0.578613 0.000000
0.586914 0.578613 0.000000
0.617188 0.578613 0.000000
0.646973 0.578613 0.000000
0.676270 0.578613 0.000000
0.705566 0.578613 0.000000
0.734375 0.578613 0.000000
0.761719 0.578613 0.000000
0.788086 0.578613 0.000000
0.813965 0.578613 0.000000
0.839355 0.578613 0.000000
0.864258 0.578613 0.000000
0.888184 0.578613 0.000000
0.912109 0.578613 0.000000
0.935059 0.579102 0.000000
0.957520 0.579102 0.000000
0.979492 0.579102 0.000000
1.000000 0.579102 0.000000
0.000000 0.611328 0.000000
0.038086 0.611328 0.000000
0.084839 0.611328 0.000000
0.132324 0.611328 0.000000
0.179565 0.611328 0.000000
0.224976 0.611328 0.000000
0.268066 0.611328 0.000000
0.309570 0.611328 0.000000
0.348877 0.611328 0.000000
0.386230 0.611328 0.000000
0.422119 0.611328 0.000000
0.456787 0.611328 0.000000
0.490967 0.611328 0.000000
0.523926 0.611328 0.000000
0.555664 0.611328 0.000000
0.586914 0.611328 0.000000
0.617188 0.611328 0.000000
0.646973 0.611328 0.000000
0.676270 0.611328 0.000000
0.705566 0.611328 0.000000
0.734375 0.611328 0.000000
0.761719 0.611328 0.000000
0.788086 0.611328 0.000000
0.813965 0.611328 0.000000
0.839355 0.611328 0.000000
0.864258 0.611328 0.000000
0.888184 0.611328 0.000000
0.912109 0.611328 0.000000
0.935059 0.611328 0.000000
0.957520 0.611328 0.000000
0.979492 0.611328 0.000000
1.000000 0.611328 0.000000
0.000000 0.643555 0.000000
0.038086 0.643555 0.000000
0.084839 0.644043 0.000000
0.132324 0.644043 0.000000
0.179565 0.644043 0.000000
0.224976 0.644043 0.000000
0.268066 0.644043 0.000000
0.309570 0.644043 0.000000
0.348877 0.644043 0.000000
0.386230 0.644043 0.000000
0.422119 0.644043 0.000000
0.456787 0.644043 0.000000
0.490967 0.644043 0.000000
0.523926 0.644043 0.000000
0.555664 0.644043 0.000000
0.586914 0.644043 0.000000
0.617188 0.644043 0.000000
0.646973 0.644043 0.000000
0.676270 0.644043 0.000000
0.705566 0.644043 0.000000
0.734375 0.644043 0.000000
0.761719 0.644043 0.000000
0.788086 0.644043 0.000000
0.813965 0.644043 0.000000
0.839355 0.644043 0.000000
0.864258 0.644043 0.000000
0.888184 0.644043 0.000000
0.912109 0.644043 0.000000
0.935059 0.644043 0.000000
0.957520 0.644043 0.000000
0.979492 0.644043 0.000000
1.000000 0.644043 0.000000
0.000000 0.675781 0.000000
0.038086 0.675781 0.000000
0.084839 0.675781 0.000000
0.132324 0.675781 0.000000
0.179565 0.675781 0.000000
0.224976 0.675781 0.000000
0.268066 0.675781 0.000000
0.309570 0.675781 0.000000
0.348877 0.675781 0.000000
0.386230 0.675781 0.000000
0.422119 0.675781 0.000000
0.456787 0.675781 0.000000
0.490967 0.675781 0.000000
0.523926 0.675781 0.000000
0.555664 0.675781 0.000000
0.586914 0.675781 0.000000
0.617188 0.675781 0.000000
0.646973 0.675781 0.000000
0.676270 0.675781 0.000000
0.705566 0.675781 0.000000
0.734375 0.675781 0.000000
0.761719 0.675781 0.000000
0.788086 0.675781 0.000000
0.813965 0.675781 0.000000
0.839355 0.675781 0.000000
0.864258 0.675781 0.000000
0.888184 0.675781 0.000000
0.912109 0.675781 0.000000
0.935059 0.675781 0.000000
0.957520 0.675781 0.000000
0.979492 0.675781 0.000000
1.000000 0.675781 0.000000
0.000000 0.707520 0.000000
0.038086 0.707520 0.000000
0.084839 0.707520 0.000000
0.132324 0.707520 0.000000
0.179565 0.707520 0.000000
0.224976 0.707520 0.000000
0.268066 0.707520 0.000000
0.309570 0.707520 0.000000
0.348877 0.707520 0.000000
0.386230 0.707520 0.000000
0.422119 0.707520 0.000000
0.456787 0.707520 0.000000
0.490967 0.707520 0.000000
0.523926 0.707520 0.000000
0.555664 0.707520 0.000000
0.586914 0.707520 0.000000
0.617188 0.707520 0.000000
0.646973 0.707520 0.000000
0.676270 0.707520 0.000000
0.705566 0.707520 0.000000
0.734375 0.707520 0.000000
0.761719 0.707520 0.000000
0.788086 0.707520 0.000000
0.813965 0.707520 0.000000
0.839355 0.707520 0.000000
0.864258 0.707520 0.000000
0.888184 0.707520 0.000000
0.912109 0.707520 0.000000
0.935059 0.707520 0.000000
0.957520 0.707520 0.000000
0.979492 0.707520 0.000000
1.000000 0.707520 0.000000
0.000000 0.738281 0.000000
0.038086 0.738281 0.000000
0.084839 0.738281 0.000000
0.132324 0.738281 0.000000
0.179565 0.738281 0.000000
0.224976 0.738281 0.000000
0.268066 0.738281 0.000000
0.309570 0.738281 0.000000
0.348877 0.738281 0.000000
0.386230 0.738281 0.000000
0.422119 0.738281 0.000000
0.456787 0.738281 0.000000
0.490967 0.738281 0.000000
0.523926 0.738281 0.000000
0.555664 0.738281 0.000000
0.586914 0.738281 0.000000
0.617188 0.738281 0.000000
0.646973 0.738281 0.000000
0.676270 0.738281 0.000000
0.705566 0.738281 0.000000
0.734375 0.738281 0.000000
0.761719 0.738281 0.000000
0.788086 0.738281 0.000000
0.813965 0.738281 0.000000
0.839355 0.738281 0.000000
0.864258 0.738281 0.000000
0.888184 0.738281 0.000000
0.912109 0.738281 0.000000
0.935059 0.738281 0.000000
0.957520 0.738281 0.000000
0.979492 0.738281 0.000000
1.000000 0.738281 0.000000
0.000000 0.768555 0.000000
0.038086 0.768555 0.000000
0.084839 0.768555 0.000000
0.132324 0.768555 0.000000
0.179565 0.768555 0.000000
0.224976 0.768555 0.000000
0.268066 0.768555 0.000000
0.309570 0.768555 0.000000
0.348877 0.768555 0.000000
0.386230 0.768555 0.000000
0.422119 0.768555 0.000000
0.456787 0.768555 0.000000
0.490967 0.768555 0.000000
0.523926 0.768555 0.000000
0.555664 0.768555 0.000000
0.586914 0.768555 0.000000
0.617188 0.768555 0.000000
0.646973 0.768555 0.000000
0.676270 0.768555 0.000000
0.705566 0.768555 0.000000
0.734375 0.768555 0.000000
0.761719 0.768555 0.000000
0.788086 0.768555 0.000000
0.813965 0.768555 0.000000
0.839355 0.768555 0.000000
0.864258 0.768555 0.000000
0.888184 0.768555 0.000000
0.912109 0.768555 0.000000
0.935059 0.768555 0.000000
0.957520 0.768555 0.000000
0.979492 0.768555 0.000000
1.000000 0.768555 0.000000
0.000000 0.797852 0.000000
0.038086 0.797852 0.000000
0.084839 0.797852 0.000000
0.132324 0.797852 0.000000
0.179565 0.797852 0.000000
0.224976 0.797852 0.000000
0.268066 0.797852 0.000000
0.309570 0.797852 0.000000
0.348877 0.797852 0.000000
0.386230 0.797852 0.000000
0.422119 0.797852 0.000000
0.456787 0.797852 0.000000
0.490967 0.797852 0.000000
0.523926 0.797852 0.000000
0.555664 0.797852 0.000000
0.586914 0.797852 0.000000
0.617188 0.797852 0.000000
0.646973 0.797852 0.000000
0.676270 0.797852 0.000000
0.705566 0.797852 0.000000
0.734375 0.797852 0.000000
0.761719 0.797852 0.000000
0.788086 0.797852 0.000000
0.813965 0.797852 0.000000
0.839355 0.797852 0.000000
0.864258 0.798340 0.000000
0.888184 0.798340 0.000000
0.912109 0.798340 0.000000
0.935059 0.798340 0.000000
0.957520 0.798340 0.000000
0.979492 0.798340 0.000000
1.000000 0.798340 0.000000
0.000000 0.827637 0.000000
0.038086 0.827637 0.000000
0.084839 0.827637 0.000000
0.132324 0.827637 0.000000
0.179565 0.827637 0.000000
0.224976 0.827637 0.000000
0.268066 0.827637 0.000000
0.309570 0.827637 0.000000
0.348877 0.827637 0.000000
0.386230 0.827637 0.000000
0.422119 0.827637 0.000000
0.456787 0.827637 0.000000
0.490967 0.827637 0.000000
0.523926 0.827637 0.000000
0.555664 0.827637 0.000000
0.586914 0.827637 0.000000
0.617188 0.827637 0.000000
0.646973 0.827637 0.000000
0.676270 0.827637 0.000000
0.705566 0.827637 0.000000
0.734375 0.827637 0.000000
0.761719 0.827637 0.000000
0.788086 0.827637 0.000000
0.813965 0.827637 0.000000
0.839355 0.827637 0.000000
0.864258 0.827637 0.000000
0.888184 0.827637 0.000000
0.912109 0.827637 0.000000
0.935059 0.827637 0.000000
0.957520 0.827637 0.000000
0.979492 0.827637 0.000000
1.000000 0.827637 0.000000
0.000000 0.855957 0.000000
0.038086 0.855957 0.000000
0.084839 0.855957 0.000000
0.132324 0.855957 0.000000
0.179565 0.855957 0.000000
0.224976 0.855957 0.000000
0.268066 0.855957 0.000000
0.309570 0.855957 0.000000
0.348877 0.855957 0.000000
0.386230 0.855957 0.000000
0.422119 0.855957 0.000000
0.456787 0.855957 0.000000
0.490967 0.855957 0.000000
0.523926 0.855957 0.000000
0.555664 0.855957 0.000000
0.586914 0.855957 0.000000
0.617188 0.855957 0.000000
0.646973 0.855957 0.000000
0.676270 0.855957 0.000000
0.705566 0.855957 0.000000
0.734375 0.855957 0.000000
0.761719 0.855957 0.000000
0.788086 0.855957 0.000000
0.813965 0.855957 0.000000
0.839355 0.855957 0.000000
0.864258 0.855957 0.000000
0.888184 0.855957 0.000000
0.912109 0.855957 0.000000
0.935059 0.855957 0.000000
0.957520 0.855957 0.000000
0.979492 0.855957 0.000000
1.000000 0.855957 0.000000
0.000000 0.882813 0.000000
0.038086 0.882813 0.000000
0.084839 0.882813 0.000000
0.132324 0.882813 0.000000
0.179565 0.882813 0.000000
0.224976 0.882813 0.000000
0.268066 0.882813 0.000000
0.309570 0.882813 0.000000
0.348877 0.882813 0.000000
0.386230 0.882813 0.000000
0.422119 0.882813 0.000000
0.456787 0.882813 0.000000
0.490967 0.882813 0.000000
0.523926 0.882813 0.000000
0.555664 0.882813 0.000000
0.586914 0.882813 0.000000
0.617188 0.882813 0.000000
0.646973 0.882813 0.000000
0.676270 0.882813 0.000000
0.705566 0.882813 0.000000
0.734375 0.882813 0.000000
0.761719 0.882813 0.000000
0.788086 0.882813 0.000000
0.813965 0.882813 0.000000
0.839355 0.882813 0.000000
0.864258 0.882813 0.000000
0.888184 0.882813 0.000000
0.912109 0.882813 0.000000
0.935059 0.882813 0.000000
0.957520 0.882813 0.000000
0.979492 0.882813 0.000000
1.000000 0.882813 0.000000
0.000000 0.908691 0.000000
0.038086 0.908691 0.000000
0.084839 0.908691 0.000000
0.132324 0.908691 0.000000
0.179565 0.908691 0.000000
0.224976 0.908691 0.000000
0.268066 0.908691 0.000000
0.309570 0.908691 0.000000
0.348877 0.908691 0.000000
0.386230 0.908691 0.000000
0.422119 0.908691 0.000000
0.456787 0.908691 0.000000
0.490967 0.908691 0.000000
0.523926 0.908691 0.000000
0.555664 0.908691 0.000000
0.586914 0.908691 0.000000
0.617188 0.908691 0.000000
0.646973 0.908691 0.000000
0.676270 0.908691 0.000000
0.705566 0.908691 0.000000
0.734375 0.908691 0.000000
0.761719 0.908691 0.000000
0.788086 0.908691 0.000000
