cubelut/Adanmq_F125.cube
TITLE "Generated by Foundry::LUT"
LUT_3D_SIZE 5
DOMAIN_MIN 0.000000 0.000000 0.000000
DOMAIN_MAX 0.903226 0.903226 0.903226
0.000000 0.000000 0.000000
0.309570 0.000000 0.000000
0.555664 0.000000 0.000000
0.761719 0.000000 0.000000
0.935059 0.000000 0.000000
0.000000 0.253662 0.000000
0.309570 0.253662 0.000000
0.555664 0.253662 0.000000
0.761719 0.253662 0.000000
0.935059 0.253662 0.000000
0.000000 0.511719 0.000000
0.309570 0.511719 0.000000
0.555664 0.511719 0.000000
0.761719 0.511719 0.000000
0.935059 0.511719 0.000000
0.000000 0.738281 0.000000
0.309570 0.738281 0.000000
0.555664 0.738281 0.000000
0.761719 0.738281 0.000000
0.935059 0.738281 0.000000
0.000000 0.933594 0.000000
0.309570 0.933594 0.000000
0.555664 0.933594 0.000000
0.761719 0.933594 0.000000
0.935059 0.933594 0.000000
0.000000 0.000000 0.224243
0.309570 0.000000 0.224243
0.555664 0.000000 0.224243
0.761719 0.000000 0.224243
0.935059 0.000000 0.224243
0.000000 0.253662 0.224243
0.309570 0.253662 0.224243
0.555664 0.253662 0.224243
0.761719 0.253662 0.224243
0.935059 0.253662 0.224243
0.000000 0.511719 0.224243
0.309570 0.511719 0.224243
0.555664 0.511719 0.224243
0.761719 0.511719 0.224243
0.935059 0.511719 0.224243
0.000000 0.738281 0.224243
0.309570 0.738281 0.224243
0.555664 0.738281 0.224243
0.761719 0.738281 0.224243
0.935059 0.738281 0.224243
0.000000 0.933594 0.224243
0.309570 0.933594 0.224243
0.555664 0.933594 0.224243
0.761719 0.933594 0.224243
0.935059 0.933594 0.224243
0.000001 0.000000 0.469727
0.309570 0.000000 0.469727
0.555664 0.000000 0.469727
0.761719 0.000000 0.469727
0.935059 0.000000 0.469727
0.000001 0.253662 0.469727
0.309570 0.253662 0.469727
0.555664 0.253662 0.469727
0.761719 0.253662 0.469727
0.935059 0.253662 0.469727
0.000001 0.511719 0.469727
0.309570 0.511719 0.469727
0.555664 0.511719 0.469727
0.761719 0.511719 0.469727
0.935059 0.511719 0.469727
0.000001 0.738281 0.469727
0.309570 0.738281 0.469727
0.555664 0.738281 0.469727
0.761719 0.738281 0.469727
0.935059 0.738281 0.469727
0.000001 0.933594 0.469727
0.309570 0.933594 0.469727
0.555664 0.933594 0.469727
0.761719 0.933594 0.469727
0.935059 0.933594 0.469727
0.000001 0.000000 0.706055
0.309814 0.000000 0.706055
0.555664 0.000000 0.706055
0.761719 0.000000 0.706055
0.935059 0.000000 0.706055
0.000001 0.253662 0.706055
0.309814 0.253662 0.706055
0.555664 0.253662 0.706055
0.761719 0.253662 0.706055
0.935059 0.253662 0.706055
0.000001 0.511719 0.706055
0.309814 0.511719 0.706055
0.555664 0.511719 0.706055
0.761719 0.511719 0.706055
0.935059 0.511719 0.706055
0.000001 0.738281 0.706055
0.309814 0.738281 0.706055
0.555664 0.738281 0.706055
0.761719 0.738281 0.706055
0.935059 0.738281 0.706055
0.000001 0.933594 0.706055
0.309814 0.933594 0.706055
0.555664 0.933594 0.706055
0.761719 0.933594 0.706055
0.935059 0.933594 0.706055
0.000002 0.000000 0.922363
0.309814 0.000000 0.922363
0.555664 0.000000 0.922363
0.761719 0.000000 0.922363
0.935059 0.000000 0.922363
0.000002 0.253662 0.922363
0.309814 0.253662 0.922363
0.555664 0.253662 0.922363
0.761719 0.253662 0.922363
0.935059 0.253662 0.922363
0.000002 0.511719 0.922363
0.309814 0.511719 0.922363
0.555664 0.511719 0.922363
0.761719 0.511719 0.922363
0.935059 0.511719 0.922363
0.000002 0.738281 0.922363
0.309814 0.738281 0.922363
0.555664 0.738281 0.922363
0.761719 0.738281 0.922363
0.935059 0.738281 0.922363
0.000002 0.933594 0.922363
0.309814 0.933594 0.922363
0.555664 0.933594 0.922363
0.761719 0.933594 0.922363
0.935059 0.933594 0.922363
