cubelut/Adanmq_Advantix 200.cube
TITLE "Generated by Foundry::LUT"
LUT_3D_SIZE 5
DOMAIN_MIN 0.000000 0.000000 0.000000
DOMAIN_MAX 0.903226 0.903226 0.903226
0.000000 0.000000 0.000000
0.231445 0.000000 0.000000
0.477539 0.000000 0.000000
0.707520 0.000000 0.000000
0.923340 0.000000 0.000000
0.000000 0.218750 0.000000
0.231445 0.218750 0.000000
0.477539 0.218872 0.000000
0.707520 0.218872 0.000000
0.923340 0.218872 0.000000
0.000000 0.475830 0.000000
0.231445 0.475830 0.000000
0.477539 0.475830 0.000000
0.707520 0.475830 0.000000
0.923340 0.475830 0.000000
0.000000 0.709473 0.000000
0.231445 0.709473 0.000000
0.477539 0.709473 0.000000
0.707520 0.709473 0.000000
0.923340 0.709473 0.000000
0.000000 0.920410 0.000000
0.231445 0.920410 0.000000
0.477539 0.920410 0.000000
0.707520 0.920410 0.000000
0.923340 0.920410 0.000000
0.000000 0.000000 0.197876
0.231445 0.000000 0.197876
0.477539 0.000000 0.197876
0.707520 0.000000 0.197876
0.923340 0.000000 0.197876
0.000000 0.218750 0.197876
0.231445 0.218750 0.197876
0.477539 0.218750 0.197876
0.707520 0.218872 0.197876
0.923340 0.218872 0.197876
0.000000 0.475830 0.197876
0.231445 0.475830 0.197876
0.477539 0.475830 0.197876
0.707520 0.475830 0.197876
0.923340 0.475830 0.197876
0.000000 0.709473 0.197876
0.231445 0.709473 0.197876
0.477539 0.709473 0.197876
0.707520 0.709473 0.197876
0.923340 0.709473 0.197876
0.000000 0.920410 0.197876
0.231445 0.920410 0.197876
0.477539 0.920410 0.197876
0.707520 0.920410 0.197876
0.923340 0.920410 0.197876
0.000000 0.000000 0.437500
0.231567 0.000000 0.437500
0.477539 0.000000 0.437500
0.707520 0.000000 0.437500
0.923340 0.000000 0.437500
0.000000 0.218750 0.437500
0.231567 0.218750 0.437500
0.477539 0.218750 0.437500
0.707520 0.218750 0.437500
0.923340 0.218872 0.437500
0.000000 0.475830 0.437500
0.231567 0.475830 0.437500
0.477539 0.475830 0.437500
0.707520 0.475830 0.437500
0.923340 0.475830 0.437500
0.000000 0.709473 0.437500
0.231567 0.709473 0.437500
0.477539 0.709473 0.437500
0.707520 0.709473 0.437500
0.923340 0.709473 0.437500
0.000000 0.920410 0.437500
0.231567 0.920410 0.437500
0.477539 0.920410 0.437500
0.707520 0.920410 0.437500
0.923340 0.920410 0.437500
0.000000 0.000000 0.676758
0.231567 0.000000 0.676758
0.477539 0.000000 0.676758
0.707520 0.000000 0.676758
0.923340 0.000000 0.676758
0.000000 0.218750 0.676758
0.231567 0.218750 0.676758
0.477539 0.218750 0.676758
0.707520 0.218750 0.676758
0.923340 0.218750 0.676758
0.000000 0.475830 0.676758
0.231567 0.475830 0.676758
0.477539 0.475830 0.676758
0.707520 0.475830 0.676758
0.923340 0.475830 0.676758
0.000000 0.709473 0.676758
0.231567 0.709473 0.676758
0.477539 0.709473 0.676758
0.707520 0.709473 0.676758
0.923340 0.709473 0.676758
0.000000 0.920410 0.676758
0.231567 0.920410 0.676758
0.477539 0.920410 0.676758
0.707520 0.920410 0.676758
0.923340 0.920410 0.676758
0.000001 0.000000 0.908203
0.231567 0.000000 0.908203
0.477539 0.000000 0.908203
0.707520 0.000000 0.908203
0.923340 0.000000 0.908203
0.000001 0.218750 0.908203
0.231567 0.218750 0.908203
0.477539 0.218750 0.908203
0.707520 0.218750 0.908203
0.923340 0.218750 0.908203
0.000001 0.475830 0.908203
0.231567 0.475830 0.908203
0.477539 0.475830 0.908203
0.707520 0.475830 0.908203
0.923340 0.475830 0.908203
0.000001 0.709473 0.908203
0.231567 0.709473 0.908203
0.477539 0.709473 0.908203
0.707520 0.709473 0.908203
0.923340 0.709473 0.908203
0.000001 0.920410 0.908203
0.231567 0.920410 0.908203
0.477539 0.920410 0.908203
0.707520 0.920410 0.908203
0.923340 0.920410 0.908203
