cubelut/Adanmq_AgfaColor Futura 400.cube
TITLE "Generated by Foundry::LUT"
LUT_3D_SIZE 8
DOMAIN_MIN 0.000000 0.000000 0.000000
DOMAIN_MAX 0.903226 0.903226 0.903226
0.000000 0.000000 0.000000
0.202515 0.000000 0.000000
0.387451 0.000000 0.000000
0.532227 0.000000 0.000000
0.653320 0.000000 0.000000
0.759766 0.000000 0.000000
0.856934 0.000000 0.000000
0.944824 0.000000 0.000000
0.000000 0.206299 0.000000
0.202515 0.206299 0.000000
0.387451 0.206299 0.000000
0.532227 0.206299 0.000000
0.653320 0.206299 0.000000
0.759766 0.206299 0.000000
0.856934 0.206299 0.000000
0.944824 0.206299 0.000000
0.000000 0.397461 0.000000
0.202515 0.397461 0.000000
0.387451 0.397461 0.000000
0.532227 0.397461 0.000000
0.653320 0.397461 0.000000
0.759766 0.397461 0.000000
0.856934 0.397461 0.000000
0.944824 0.397461 0.000000
0.000000 0.548828 0.000000
0.202515 0.548828 0.000000
0.387451 0.548828 0.000000
0.532227 0.548828 0.000000
0.653320 0.548828 0.000000
0.759766 0.548828 0.000000
0.856934 0.548828 0.000000
0.944824 0.548828 0.000000
0.000000 0.670410 0.000000
0.202515 0.670410 0.000000
0.387451 0.670410 0.000000
0.532227 0.670410 0.000000
0.653320 0.670410 0.000000
0.759766 0.670410 0.000000
0.856934 0.670410 0.000000
0.944824 0.670410 0.000000
0.000000 0.773926 0.000000
0.202515 0.773926 0.000000
0.387451 0.773926 0.000000
0.532227 0.773926 0.000000
0.653320 0.773926 0.000000
0.759766 0.773926 0.000000
0.856934 0.773926 0.000000
0.944824 0.773926 0.000000
0.000000 0.866211 0.000000
0.202515 0.866211 0.000000
0.387451 0.866211 0.000000
0.532227 0.866211 0.000000
0.653320 0.866211 0.000000
0.759766 0.866211 0.000000
0.856934 0.866211 0.000000
0.944824 0.866211 0.000000
0.000000 0.949219 0.000000
0.202515 0.949219 0.000000
0.387451 0.949219 0.000000
0.532227 0.949219 0.000000
0.653320 0.949219 0.000000
0.759766 0.949219 0.000000
0.856934 0.949219 0.000000
0.944824 0.949219 0.000000
0.000000 0.000000 0.162964
0.202515 0.000000 0.162964
0.387695 0.000000 0.162964
0.532227 0.000000 0.162964
0.653320 0.000000 0.162964
0.759766 0.000000 0.162964
0.856934 0.000000 0.162964
0.944824 0.000000 0.162964
0.000000 0.206299 0.162964
0.202515 0.206299 0.162964
0.387695 0.206299 0.162964
0.532227 0.206299 0.162964
0.653320 0.206299 0.162964
0.759766 0.206299 0.162964
0.856934 0.206299 0.162964
0.944824 0.206299 0.162964
0.000000 0.397461 0.162964
0.202515 0.397461 0.162964
0.387695 0.397461 0.162964
0.532227 0.397461 0.162964
0.653320 0.397461 0.162964
0.759766 0.397461 0.162964
0.856934 0.397461 0.162964
0.944824 0.397461 0.162964
0.000000 0.548828 0.162964
0.202515 0.548828 0.162964
0.387695 0.548828 0.162964
0.532227 0.548828 0.162964
0.653320 0.548828 0.162964
0.759766 0.548828 0.162964
0.856934 0.548828 0.162964
0.944824 0.548828 0.162964
0.000000 0.670410 0.162964
0.202515 0.670410 0.162964
0.387695 0.670410 0.162964
0.532227 0.670410 0.162964
0.653320 0.670410 0.162964
0.759766 0.670410 0.162964
0.856934 0.670410 0.163086
0.944824 0.670410 0.163086
0.000000 0.773926 0.163086
0.202515 0.773926 0.163086
0.387695 0.773926 0.163086
0.532227 0.773926 0.163086
0.653320 0.773926 0.163086
0.759766 0.773926 0.163086
0.856934 0.773926 0.163086
0.944824 0.773926 0.163086
0.000000 0.866211 0.163086
0.202515 0.866211 0.163086
0.387695 0.866211 0.163086
0.532227 0.866211 0.163086
0.653320 0.866211 0.163086
0.759766 0.866211 0.163086
0.856934 0.866211 0.163086
0.944824 0.866211 0.163086
0.000000 0.949219 0.163086
0.202515 0.949219 0.163086
0.387695 0.949219 0.163086
0.532227 0.949219 0.163086
0.653320 0.949219 0.163086
0.759766 0.949219 0.163086
0.856934 0.949219 0.163086
0.944824 0.949219 0.163086
0.000000 0.000000 0.335449
0.202637 0.000000 0.335449
0.387695 0.000000 0.335449
0.532227 0.000000 0.335449
0.653320 0.000000 0.335449
0.759766 0.000000 0.335449
0.856934 0.000000 0.335449
0.944824 0.000000 0.335449
0.000000 0.206299 0.335449
0.202637 0.206299 0.335449
0.387695 0.206299 0.335449
0.532227 0.206299 0.335449
0.653320 0.206299 0.335449
0.759766 0.206299 0.335449
0.856934 0.206299 0.335449
0.944824 0.206299 0.335449
0.000000 0.397461 0.335449
0.202637 0.397461 0.335449
0.387695 0.397461 0.335449
0.532227 0.397461 0.335449
0.653320 0.397461 0.335449
0.759766 0.397461 0.335449
0.856934 0.397461 0.335449
0.944824 0.397461 0.335449
0.000000 0.548828 0.335449
0.202637 0.548828 0.335449
0.387695 0.548828 0.335449
0.532227 0.548828 0.335449
0.653320 0.548828 0.335449
0.759766 0.548828 0.335449
0.856934 0.548828 0.335449
0.944824 0.548828 0.335449
0.000000 0.670410 0.335449
0.202637 0.670410 0.335449
0.387695 0.670410 0.335449
0.532227 0.670410 0.335449
0.653320 0.670410 0.335449
0.759766 0.670410 0.335449
0.856934 0.670410 0.335449
0.944824 0.670410 0.335449
0.000000 0.773926 0.335449
0.202637 0.773926 0.335449
0.387695 0.773926 0.335449
0.532227 0.773926 0.335449
0.653320 0.773926 0.335449
0.759766 0.773926 0.335449
0.856934 0.773926 0.335449
0.944824 0.773926 0.335449
0.000000 0.866211 0.335449
0.202637 0.866211 0.335449
0.387695 0.866211 0.335449
0.532227 0.866211 0.335449
0.653320 0.866211 0.335449
0.759766 0.866211 0.335449
0.856934 0.866211 0.335449
0.944824 0.866211 0.335449
0.000000 0.949219 0.335449
0.202637 0.949219 0.335449
0.387695 0.949219 0.335449
0.532227 0.949219 0.335449
0.653320 0.949219 0.335449
0.759766 0.949219 0.335449
0.856934 0.949219 0.335449
0.944824 0.949219 0.335449
0.000000 0.000000 0.482910
0.202637 0.000000 0.482910
0.387695 0.000000 0.482910
0.532227 0.000000 0.482910
0.653320 0.000000 0.482910
0.759766 0.000000 0.482910
0.856934 0.000000 0.482910
0.944824 0.000000 0.482910
0.000000 0.206299 0.482910
0.202637 0.206299 0.482910
0.387695 0.206299 0.482910
0.532227 0.206299 0.482910
0.653320 0.206299 0.482910
0.759766 0.206299 0.482910
0.856934 0.206299 0.482910
0.944824 0.206299 0.482910
0.000000 0.397461 0.482910
0.202637 0.397461 0.482910
0.387695 0.397461 0.482910
0.532227 0.397461 0.482910
0.653320 0.397461 0.482910
0.759766 0.397461 0.482910
0.856934 0.397461 0.482910
0.944824 0.397461 0.482910
0.000000 0.548828 0.482910
0.202637 0.548828 0.482910
0.387695 0.548828 0.482910
0.532227 0.548828 0.482910
0.653320 0.548828 0.482910
0.759766 0.548828 0.482910
0.856934 0.548828 0.482910
0.944824 0.548828 0.482910
0.000000 0.670410 0.482910
0.202637 0.670410 0.482910
0.387695 0.670410 0.482910
0.532227 0.670410 0.482910
0.653320 0.670410 0.482910
0.759766 0.670410 0.482910
0.856934 0.670410 0.482910
0.944824 0.670410 0.482910
0.000000 0.773926 0.482910
0.202637 0.773926 0.482910
0.387695 0.773926 0.482910
0.532227 0.773926 0.482910
0.653320 0.773926 0.482910
0.759766 0.773926 0.482910
0.856934 0.773926 0.482910
0.944824 0.773926 0.482910
0.000000 0.866211 0.482910
0.202637 0.866211 0.482910
0.387695 0.866211 0.482910
0.532227 0.866211 0.482910
0.653320 0.866211 0.482910
0.759766 0.866211 0.482910
0.856934 0.866211 0.482910
0.944824 0.866211 0.482910
0.000000 0.949219 0.482910
0.202637 0.949219 0.482910
0.387695 0.949219 0.482910
0.532227 0.949219 0.482910
0.653320 0.949219 0.482910
0.759766 0.949219 0.482910
0.856934 0.949219 0.482910
0.944824 0.949219 0.482910
0.000001 0.000000 0.607910
0.202637 0.000000 0.607910
0.387695 0.000000 0.607910
0.532227 0.000000 0.607910
0.653320 0.000000 0.607910
0.759766 0.000000 0.607910
0.856934 0.000000 0.607910
0.944824 0.000000 0.607910
0.000001 0.206299 0.607910
0.202637 0.206299 0.607910
0.387695 0.206299 0.607910
0.532227 0.206299 0.607910
0.653320 0.206299 0.607910
0.759766 0.206299 0.607910
0.856934 0.206299 0.607910
0.944824 0.206299 0.607910
0.000001 0.397461 0.607910
0.202637 0.397461 0.607910
0.387695 0.397461 0.607910
0.532227 0.397461 0.607910
0.653320 0.397461 0.607910
0.759766 0.397461 0.607910
0.856934 0.397461 0.607910
0.944824 0.397461 0.607910
0.000001 0.548828 0.607910
0.202637 0.548828 0.607910
0.387695 0.548828 0.607910
0.532227 0.548828 0.607910
0.653320 0.548828 0.607910
0.759766 0.548828 0.607910
0.856934 0.548828 0.607910
0.944824 0.548828 0.607910
0.000001 0.670410 0.607910
0.202637 0.670410 0.607910
0.387695 0.670410 0.607910
0.532227 0.670410 0.607910
0.653320 0.670410 0.607910
0.759766 0.670410 0.607910
0.856934 0.670410 0.607910
0.944824 0.670410 0.607910
0.000001 0.773926 0.607910
0.202637 0.773926 0.607910
0.387695 0.773926 0.607910
0.532227 0.773926 0.607910
0.653320 0.773926 0.607910
0.759766 0.773926 0.607910
0.856934 0.773926 0.607910
0.944824 0.773926 0.607910
0.000001 0.866211 0.607910
0.202637 0.866211 0.607910
0.387695 0.866211 0.607910
0.532227 0.866211 0.607910
0.653320 0.866211 0.607910
0.759766 0.866211 0.607910
0.856934 0.866211 0.607910
0.944824 0.866211 0.607910
0.000001 0.949219 0.607910
0.202637 0.949219 0.607910
0.387695 0.949219 0.607910
0.532227 0.949219 0.607910
0.653320 0.949219 0.607910
0.759766 0.949219 0.607910
0.856934 0.949219 0.607910
0.944824 0.949219 0.607910
0.000001 0.000000 0.720215
0.202759 0.000000 0.720215
0.387695 0.000000 0.720215
0.532227 0.000000 0.720215
0.653320 0.000000 0.720215
0.760254 0.000000 0.720215
0.857422 0.000000 0.720215
0.944824 0.000000 0.720215
0.000001 0.206299 0.720215
0.202759 0.206299 0.720215
0.387695 0.206299 0.720215
0.532227 0.206299 0.720215
0.653320 0.206299 0.720215
0.760254 0.206299 0.720215
0.857422 0.206299 0.720215
0.944824 0.206299 0.720215
0.000001 0.397461 0.720215
0.202759 0.397461 0.720215
0.387695 0.397461 0.720215
0.532227 0.397461 0.720215
0.653320 0.397461 0.720215
0.760254 0.397461 0.720215
0.857422 0.397461 0.720215
0.944824 0.397461 0.720215
0.000001 0.548828 0.720215
0.202759 0.548828 0.720215
0.387695 0.548828 0.720215
0.532227 0.548828 0.720215
0.653320 0.548828 0.720215
0.760254 0.548828 0.720215
0.857422 0.548828 0.720215
0.944824 0.548828 0.720215
0.000001 0.670410 0.720215
0.202759 0.670410 0.720215
0.387695 0.670410 0.720215
0.532227 0.670410 0.720215
0.653320 0.670410 0.720215
0.760254 0.670410 0.720215
0.857422 0.670410 0.720215
0.944824 0.670410 0.720215
0.000001 0.773926 0.720215
0.202759 0.773926 0.720215
0.387695 0.773926 0.720215
0.532227 0.773926 0.720215
0.653320 0.773926 0.720215
0.760254 0.773926 0.720215
0.857422 0.773926 0.720215
0.944824 0.773926 0.720215
0.000001 0.866211 0.720215
0.202759 0.866211 0.720215
0.387695 0.866211 0.720215
0.532227 0.866211 0.720215
0.653320 0.866211 0.720215
0.760254 0.866211 0.720215
0.857422 0.866211 0.720215
0.944824 0.866211 0.720215
0.000001 0.949219 0.720215
0.202759 0.949219 0.720215
0.387695 0.949219 0.720215
0.532227 0.949219 0.720215
0.653320 0.949219 0.720215
0.760254 0.949219 0.720215
0.857422 0.949219 0.720215
0.944824 0.949219 0.720215
0.000002 0.000000 0.828613
0.202759 0.000000 0.828613
0.387695 0.000000 0.828613
0.532227 0.000000 0.828613
0.653320 0.000000 0.828613
0.760254 0.000000 0.828613
0.857422 0.000000 0.828613
0.944824 0.000000 0.828613
0.000002 0.206299 0.828613
0.202759 0.206299 0.828613
0.387695 0.206299 0.828613
0.532227 0.206299 0.828613
0.653320 0.206299 0.828613
0.760254 0.206299 0.828613
0.857422 0.206299 0.828613
0.944824 0.206299 0.828613
0.000002 0.397461 0.828613
0.202759 0.397461 0.828613
0.387695 0.397461 0.828613
0.532227 0.397461 0.828613
0.653320 0.397461 0.828613
0.760254 0.397461 0.828613
0.857422 0.397461 0.828613
0.944824 0.397461 0.828613
0.000002 0.548828 0.828613
0.202759 0.548828 0.828613
0.387695 0.548828 0.828613
0.532227 0.548828 0.828613
0.653320 0.548828 0.828613
0.760254 0.548828 0.828613
0.857422 0.548828 0.828613
0.944824 0.548828 0.828613
0.000002 0.670410 0.828613
0.202759 0.670410 0.828613
0.387695 0.670410 0.828613
0.532227 0.670410 0.828613
0.653320 0.670410 0.828613
0.760254 0.670410 0.828613
0.857422 0.670410 0.828613
0.944824 0.670410 0.828613
0.000002 0.773926 0.828613
0.202759 0.773926 0.828613
0.387695 0.773926 0.828613
0.532227 0.773926 0.828613
0.653320 0.773926 0.828613
0.760254 0.773926 0.828613
0.857422 0.773926 0.828613
0.944824 0.773926 0.828613
0.000002 0.866211 0.828613
0.202759 0.866211 0.828613
0.387695 0.866211 0.828613
0.532227 0.866211 0.828613
0.653320 0.866211 0.828613
0.760254 0.866211 0.828613
0.857422 0.866211 0.828613
0.944824 0.866211 0.828613
0.000002 0.949219 0.828613
0.202759 0.949219 0.828613
0.387695 0.949219 0.828613
0.532227 0.949219 0.828613
0.653320 0.949219 0.828613
0.760254 0.949219 0.828613
0.857422 0.949219 0.828613
0.944824 0.949219 0.828613
0.000003 0.000000 0.934082
0.202759 0.000000 0.934082
0.387695 0.000000 0.934082
0.532227 0.000000 0.934082
0.653320 0.000000 0.934082
0.760254 0.000000 0.934082
0.857422 0.000000 0.934082
0.944824 0.000000 0.934082
0.000003 0.206299 0.934082
0.202759 0.206299 0.934082
0.387695 0.206299 0.934082
0.532227 0.206299 0.934082
0.653320 0.206299 0.934082
0.760254 0.206299 0.934082
0.857422 0.206299 0.934082
0.944824 0.206299 0.934082
0.000003 0.397461 0.934082
0.202759 0.397461 0.934082
0.387695 0.397461 0.934082
0.532227 0.397461 0.934082
0.653320 0.397461 0.934082
0.760254 0.397461 0.934082
0.857422 0.397461 0.934082
0.944824 0.397461 0.934082
0.000003 0.548828 0.934082
0.202759 0.548828 0.934082
0.387695 0.548828 0.934082
0.532227 0.548828 0.934082
0.653320 0.548828 0.934082
0.760254 0.548828 0.934082
0.857422 0.548828 0.934082
0.944824 0.548828 0.934082
0.000003 0.670410 0.934082
0.202759 0.670410 0.934082
0.387695 0.670410 0.934082
0.532227 0.670410 0.934082
0.653320 0.670410 0.934082
0.760254 0.670410 0.934082
0.857422 0.670410 0.934082
0.944824 0.670410 0.934082
0.000003 0.773926 0.934082
0.202759 0.773926 0.934082
0.387695 0.773926 0.934082
0.532227 0.773926 0.934082
0.653320 0.773926 0.934082
0.760254 0.773926 0.934082
0.857422 0.773926 0.934082
0.944824 0.773926 0.934082
0.000003 0.866211 0.934082
0.202759 0.866211 0.934082
0.387695 0.866211 0.934082
0.532227 0.866211 0.934082
0.653320 0.866211 0.934082
0.760254 0.866211 0.934082
0.857422 0.866211 0.934082
0.944824 0.866211 0.934082
0.000003 0.949219 0.934082
0.202759 0.949219 0.934082
0.387695 0.949219 0.934082
0.532227 0.949219 0.934082
0.653320 0.949219 0.934082
0.760254 0.949219 0.934082
0.857422 0.949219 0.934082
0.944824 0.949219 0.934082
