cubelut/Adanmq_AgfaColor Optima II 200.cube
TITLE "Generated by Foundry::LUT"
LUT_3D_SIZE 5
DOMAIN_MIN 0.000000 0.000000 0.000000
DOMAIN_MAX 0.903226 0.903226 0.903226
0.000000 0.000000 0.000000
0.245361 0.000000 0.000000
0.515625 0.000000 0.000000
0.746582 0.000000 0.000000
0.936523 0.000000 0.000000
0.000000 0.272217 0.000000
0.245361 0.272217 0.000000
0.515625 0.272217 0.000000
0.746582 0.272217 0.000000
0.936523 0.272217 0.000000
0.000000 0.546875 0.000000
0.245361 0.546875 0.000000
0.515625 0.546875 0.000000
0.746582 0.546875 0.000000
0.936523 0.546875 0.000000
0.000000 0.762695 0.000000
0.245361 0.762695 0.000000
0.515625 0.762695 0.000000
0.746582 0.762695 0.000000
0.936523 0.762695 0.000000
0.000000 0.939453 0.000000
0.245361 0.939453 0.000000
0.515625 0.939453 0.000000
0.746582 0.939453 0.000000
0.936523 0.939453 0.000000
0.000000 0.000000 0.271973
0.245361 0.000000 0.271973
0.515625 0.000000 0.271973
0.746582 0.000000 0.271973
0.936523 0.000000 0.271973
0.000000 0.272217 0.271973
0.245361 0.272217 0.271973
0.515625 0.272217 0.271973
0.746582 0.272217 0.271973
0.936523 0.272217 0.271973
0.000000 0.546875 0.271973
0.245361 0.546875 0.271973
0.515625 0.546875 0.271973
0.746582 0.546875 0.271973
0.936523 0.546875 0.271973
0.000000 0.762695 0.271973
0.245361 0.762695 0.271973
0.515625 0.762695 0.271973
0.746582 0.762695 0.271973
0.936523 0.762695 0.271973
0.000000 0.939453 0.271973
0.245361 0.939453 0.271973
0.515625 0.939453 0.271973
0.746582 0.939453 0.271973
0.936523 0.939453 0.271973
0.000000 0.000000 0.546387
0.245483 0.000000 0.546387
0.515625 0.000000 0.546387
0.746582 0.000000 0.546387
0.936523 0.000000 0.546387
0.000000 0.272217 0.546387
0.245483 0.272217 0.546387
0.515625 0.272217 0.546387
0.746582 0.272217 0.546387
0.936523 0.272217 0.546387
0.000000 0.546875 0.546387
0.245483 0.546875 0.546387
0.515625 0.546875 0.546387
0.746582 0.546875 0.546387
0.936523 0.546875 0.546387
0.000000 0.762695 0.546387
0.245483 0.762695 0.546387
0.515625 0.762695 0.546387
0.746582 0.762695 0.546387
0.936523 0.762695 0.546387
0.000000 0.939453 0.546387
0.245483 0.939453 0.546387
0.515625 0.939453 0.546387
0.746582 0.939453 0.546387
0.936523 0.939453 0.546387
0.000000 0.000000 0.762207
0.245483 0.000000 0.762207
0.515625 0.000000 0.762207
0.747070 0.000000 0.762207
0.936523 0.000000 0.762207
0.000000 0.272217 0.762207
0.245483 0.272217 0.762207
0.515625 0.272217 0.762207
0.747070 0.272217 0.762207
0.936523 0.272217 0.762207
0.000000 0.546875 0.762207
0.245483 0.546875 0.762207
0.515625 0.546875 0.762207
0.747070 0.546875 0.762207
0.936523 0.546875 0.762207
0.000000 0.762695 0.762207
0.245483 0.762695 0.762207
0.515625 0.762695 0.762207
0.747070 0.762695 0.762207
0.936523 0.762695 0.762207
0.000000 0.939453 0.762207
0.245483 0.939453 0.762207
0.515625 0.939453 0.762207
0.747070 0.939453 0.762207
0.936523 0.939453 0.762207
0.000001 0.000000 0.939453
0.245605 0.000000 0.939453
0.515625 0.000000 0.939453
0.747070 0.000000 0.939453
0.936523 0.000000 0.939453
0.000001 0.272217 0.939453
0.245605 0.272217 0.939453
0.515625 0.272217 0.939453
0.747070 0.272217 0.939453
0.936523 0.272217 0.939453
0.000001 0.546875 0.939453
0.245605 0.546875 0.939453
0.515625 0.546875 0.939453
0.747070 0.546875 0.939453
0.936523 0.546875 0.939453
0.000001 0.762695 0.939453
0.245605 0.762695 0.939453
0.515625 0.762695 0.939453
0.747070 0.762695 0.939453
0.936523 0.762695 0.939453
0.000001 0.939453 0.939453
0.245605 0.939453 0.939453
0.515625 0.939453 0.939453
0.747070 0.939453 0.939453
0.936523 0.939453 0.939453
