cubelut/Adanmq_Advantix 400.cube
TITLE "Generated by Foundry::LUT"
LUT_3D_SIZE 32
0.000000 0.000000 0.000000
0.009590 0.000000 0.000000
0.025299 0.000000 0.000000
0.044281 0.000000 0.000000
0.065613 0.000000 0.000000
0.089111 0.000000 0.000000
0.113831 0.000000 0.000000
0.140015 0.000000 0.000000
0.167847 0.000000 0.000000
0.196167 0.000000 0.000000
0.225586 0.000000 0.000000
0.256348 0.000000 0.000000
0.287842 0.000000 0.000000
0.319824 0.000000 0.000000
0.352295 0.000000 0.000000
0.385986 0.000000 0.000000
0.420898 0.000000 0.000000
0.456543 0.000000 0.000000
0.492432 0.000000 0.000000
0.528809 0.000000 0.000000
0.565918 0.000000 0.000000
0.604004 0.000000 0.000000
0.643555 0.000000 0.000000
0.683105 0.000000 0.000000
0.724121 0.000000 0.000000
0.764648 0.000000 0.000000
0.806152 0.000000 0.000000
0.848145 0.000000 0.000000
0.890137 0.000000 0.000000
0.931152 0.000000 0.000000
0.969727 0.000000 0.000000
1.000000 0.000000 0.000000
0.000000 0.008446 0.000000
0.009590 0.008446 0.000000
0.025299 0.008453 0.000000
0.044281 0.008453 0.000000
0.065613 0.008453 0.000000
0.089111 0.008453 0.000000
0.113831 0.008453 0.000000
0.140015 0.008453 0.000000
0.167847 0.008453 0.000000
0.196167 0.008453 0.000000
0.225586 0.008453 0.000000
0.256348 0.008453 0.000000
0.287842 0.008453 0.000000
0.319824 0.008453 0.000000
0.352295 0.008453 0.000000
0.385986 0.008453 0.000000
0.420898 0.008453 0.000000
0.456543 0.008453 0.000000
0.492432 0.008453 0.000000
0.528809 0.008453 0.000000
0.565918 0.008453 0.000000
0.604004 0.008453 0.000000
0.643555 0.008453 0.000000
0.683105 0.008453 0.000000
0.724121 0.008453 0.000000
0.764648 0.008453 0.000000
0.806152 0.008453 0.000000
0.848145 0.008453 0.000000
0.890137 0.008453 0.000000
0.931152 0.008453 0.000000
0.969727 0.008461 0.000000
1.000000 0.008461 0.000000
0.000000 0.022873 0.000000
0.009590 0.022873 0.000000
0.025299 0.022873 0.000000
0.044281 0.022873 0.000000
0.065613 0.022873 0.000000
0.089111 0.022873 0.000000
0.113831 0.022873 0.000000
0.140015 0.022873 0.000000
0.167847 0.022873 0.000000
0.196167 0.022873 0.000000
0.225586 0.022873 0.000000
0.256348 0.022873 0.000000
0.287842 0.022873 0.000000
0.319824 0.022873 0.000000
0.352295 0.022873 0.000000
0.385986 0.022873 0.000000
0.420898 0.022873 0.000000
0.456543 0.022873 0.000000
0.492432 0.022873 0.000000
0.528809 0.022873 0.000000
0.565918 0.022873 0.000000
0.604004 0.022873 0.000000
0.643555 0.022873 0.000000
0.683105 0.022873 0.000000
0.724121 0.022873 0.000000
0.764648 0.022873 0.000000
0.806152 0.022873 0.000000
0.848145 0.022873 0.000000
0.890137 0.022873 0.000000
0.931152 0.022873 0.000000
0.969727 0.022873 0.000000
1.000000 0.022873 0.000000
0.000000 0.040405 0.000000
0.009590 0.040405 0.000000
0.025299 0.040405 0.000000
0.044281 0.040405 0.000000
0.065613 0.040405 0.000000
0.089111 0.040405 0.000000
0.113831 0.040405 0.000000
0.140015 0.040405 0.000000
0.167847 0.040405 0.000000
0.196167 0.040405 0.000000
0.225586 0.040405 0.000000
0.256348 0.040405 0.000000
0.287842 0.040405 0.000000
0.319824 0.040405 0.000000
0.352295 0.040405 0.000000
0.385986 0.040405 0.000000
0.420898 0.040405 0.000000
0.456543 0.040405 0.000000
0.492432 0.040405 0.000000
0.528809 0.040405 0.000000
0.565918 0.040405 0.000000
0.604004 0.040405 0.000000
0.643555 0.040405 0.000000
0.683105 0.040405 0.000000
0.724121 0.040405 0.000000
0.764648 0.040405 0.000000
0.806152 0.040405 0.000000
0.848145 0.040405 0.000000
0.890137 0.040405 0.000000
0.931152 0.040405 0.000000
0.969727 0.040405 0.000000
1.000000 0.040405 0.000000
0.000000 0.060577 0.000000
0.009590 0.060577 0.000000
0.025299 0.060577 0.000000
0.044281 0.060577 0.000000
0.065613 0.060577 0.000000
0.089111 0.060577 0.000000
0.113831 0.060577 0.000000
0.140015 0.060577 0.000000
0.167847 0.060577 0.000000
0.196167 0.060577 0.000000
0.225586 0.060577 0.000000
0.256348 0.060577 0.000000
0.287842 0.060577 0.000000
0.319824 0.060577 0.000000
0.352295 0.060577 0.000000
0.385986 0.060577 0.000000
0.420898 0.060577 0.000000
0.456543 0.060577 0.000000
0.492432 0.060577 0.000000
0.528809 0.060577 0.000000
0.565918 0.060608 0.000000
0.604004 0.060608 0.000000
0.643555 0.060608 0.000000
0.683105 0.060608 0.000000
0.724121 0.060608 0.000000
0.764648 0.060608 0.000000
0.806152 0.060608 0.000000
0.848145 0.060608 0.000000
0.890137 0.060608 0.000000
0.931152 0.060608 0.000000
0.969727 0.060608 0.000000
1.000000 0.060608 0.000000
0.000000 0.082886 0.000000
0.009590 0.082886 0.000000
0.025299 0.082886 0.000000
0.044281 0.082886 0.000000
0.065613 0.082886 0.000000
0.089111 0.082886 0.000000
0.113831 0.082886 0.000000
0.140015 0.082886 0.000000
0.167847 0.082886 0.000000
0.196167 0.082886 0.000000
0.225586 0.082886 0.000000
0.256348 0.082886 0.000000
0.287842 0.082886 0.000000
0.319824 0.082886 0.000000
0.352295 0.082886 0.000000
0.385986 0.082886 0.000000
0.420898 0.082886 0.000000
0.456543 0.082886 0.000000
0.492432 0.082886 0.000000
0.528809 0.082886 0.000000
0.565918 0.082886 0.000000
0.604004 0.082886 0.000000
0.643555 0.082886 0.000000
0.683105 0.082886 0.000000
0.724121 0.082886 0.000000
0.764648 0.082886 0.000000
0.806152 0.082886 0.000000
0.848145 0.082886 0.000000
0.890137 0.082886 0.000000
0.931152 0.082886 0.000000
0.969727 0.082886 0.000000
1.000000 0.082886 0.000000
0.000000 0.107117 0.000000
0.009590 0.107117 0.000000
0.025299 0.107117 0.000000
0.044281 0.107117 0.000000
0.065613 0.107117 0.000000
0.089111 0.107117 0.000000
0.113831 0.107117 0.000000
0.140015 0.107117 0.000000
0.167847 0.107117 0.000000
0.196167 0.107117 0.000000
0.225586 0.107117 0.000000
0.256348 0.107117 0.000000
0.287842 0.107117 0.000000
0.319824 0.107117 0.000000
0.352295 0.107117 0.000000
0.385986 0.107117 0.000000
0.420898 0.107117 0.000000
0.456543 0.107117 0.000000
0.492432 0.107117 0.000000
0.528809 0.107117 0.000000
0.565918 0.107117 0.000000
0.604004 0.107117 0.000000
0.643555 0.107117 0.000000
0.683105 0.107117 0.000000
0.724121 0.107117 0.000000
0.764648 0.107117 0.000000
0.806152 0.107117 0.000000
0.848145 0.107117 0.000000
0.890137 0.107117 0.000000
0.931152 0.107117 0.000000
0.969727 0.107117 0.000000
1.000000 0.107117 0.000000
0.000000 0.133179 0.000000
0.009590 0.133179 0.000000
0.025299 0.133179 0.000000
0.044281 0.133179 0.000000
0.065613 0.133179 0.000000
0.089111 0.133179 0.000000
0.113831 0.133179 0.000000
0.140015 0.133179 0.000000
0.167847 0.133179 0.000000
0.196167 0.133179 0.000000
0.225586 0.133179 0.000000
0.256348 0.133179 0.000000
0.287842 0.133179 0.000000
0.319824 0.133179 0.000000
0.352295 0.133179 0.000000
0.385986 0.133179 0.000000
0.420898 0.133179 0.000000
0.456543 0.133179 0.000000
0.492432 0.133179 0.000000
0.528809 0.133179 0.000000
0.565918 0.133179 0.000000
0.604004 0.133179 0.000000
0.643555 0.133179 0.000000
0.683105 0.133179 0.000000
0.724121 0.133179 0.000000
0.764648 0.133179 0.000000
0.806152 0.133179 0.000000
0.848145 0.133179 0.000000
0.890137 0.133179 0.000000
0.931152 0.133179 0.000000
0.969727 0.133179 0.000000
1.000000 0.133179 0.000000
0.000000 0.160278 0.000000
0.009590 0.160278 0.000000
0.025299 0.160278 0.000000
0.044281 0.160278 0.000000
0.065613 0.160278 0.000000
0.089111 0.160278 0.000000
0.113831 0.160278 0.000000
0.140015 0.160278 0.000000
0.167847 0.160278 0.000000
0.196167 0.160278 0.000000
0.225586 0.160278 0.000000
0.256348 0.160278 0.000000
0.287842 0.160278 0.000000
0.319824 0.160278 0.000000
0.352295 0.160278 0.000000
0.385986 0.160278 0.000000
0.420898 0.160278 0.000000
0.456543 0.160278 0.000000
0.492432 0.160278 0.000000
0.528809 0.160278 0.000000
0.565918 0.160278 0.000000
0.604004 0.160278 0.000000
0.643555 0.160278 0.000000
0.683105 0.160278 0.000000
0.724121 0.160278 0.000000
0.764648 0.160278 0.000000
0.806152 0.160278 0.000000
0.848145 0.160278 0.000000
0.890137 0.160278 0.000000
0.931152 0.160278 0.000000
0.969727 0.160278 0.000000
1.000000 0.160278 0.000000
0.000000 0.188843 0.000000
0.009590 0.188843 0.000000
0.025299 0.188843 0.000000
0.044281 0.188843 0.000000
0.065613 0.188843 0.000000
0.089111 0.188843 0.000000
0.113831 0.188843 0.000000
0.140015 0.188843 0.000000
0.167847 0.188843 0.000000
0.196167 0.188843 0.000000
0.225586 0.188843 0.000000
0.256348 0.188843 0.000000
0.287842 0.188843 0.000000
0.319824 0.188843 0.000000
0.352295 0.188843 0.000000
0.385986 0.188843 0.000000
0.420898 0.188843 0.000000
0.456543 0.188843 0.000000
0.492432 0.188843 0.000000
0.528809 0.188843 0.000000
0.565918 0.188843 0.000000
0.604004 0.188843 0.000000
0.643555 0.188843 0.000000
0.683105 0.188843 0.000000
0.724121 0.188843 0.000000
0.764648 0.188843 0.000000
0.806152 0.188843 0.000000
0.848145 0.188843 0.000000
0.890137 0.188843 0.000000
0.931152 0.188843 0.000000
0.969727 0.188843 0.000000
1.000000 0.188843 0.000000
0.000000 0.218628 0.000000
0.009590 0.218628 0.000000
0.025299 0.218628 0.000000
0.044281 0.218628 0.000000
0.065613 0.218628 0.000000
0.089111 0.218628 0.000000
0.113831 0.218628 0.000000
0.140015 0.218628 0.000000
0.167847 0.218628 0.000000
0.196167 0.218628 0.000000
0.225586 0.218628 0.000000
0.256348 0.218628 0.000000
0.287842 0.218628 0.000000
0.319824 0.218628 0.000000
0.352295 0.218628 0.000000
0.385986 0.218628 0.000000
0.420898 0.218628 0.000000
0.456543 0.218628 0.000000
0.492432 0.218628 0.000000
0.528809 0.218628 0.000000
0.565918 0.218628 0.000000
0.604004 0.218628 0.000000
0.643555 0.218628 0.000000
0.683105 0.218628 0.000000
0.724121 0.218628 0.000000
0.764648 0.218628 0.000000
0.806152 0.218628 0.000000
0.848145 0.218628 0.000000
0.890137 0.218628 0.000000
0.931152 0.218628 0.000000
0.969727 0.218628 0.000000
1.000000 0.218628 0.000000
0.000000 0.249146 0.000000
0.009590 0.249146 0.000000
0.025299 0.249146 0.000000
0.044281 0.249146 0.000000
0.065613 0.249146 0.000000
0.089111 0.249146 0.000000
0.113831 0.249146 0.000000
0.140015 0.249146 0.000000
0.167847 0.249146 0.000000
0.196167 0.249146 0.000000
0.225586 0.249146 0.000000
0.256348 0.249146 0.000000
0.287842 0.249146 0.000000
0.319824 0.249146 0.000000
0.352295 0.249146 0.000000
0.385986 0.249146 0.000000
0.420898 0.249146 0.000000
0.456543 0.249146 0.000000
0.492432 0.249146 0.000000
0.528809 0.249146 0.000000
0.565918 0.249146 0.000000
0.604004 0.249146 0.000000
0.643555 0.249146 0.000000
0.683105 0.249146 0.000000
0.724121 0.249146 0.000000
0.764648 0.249146 0.000000
0.806152 0.249146 0.000000
0.848145 0.249146 0.000000
0.890137 0.249146 0.000000
0.931152 0.249146 0.000000
0.969727 0.249146 0.000000
1.000000 0.249146 0.000000
0.000000 0.281250 0.000000
0.009590 0.281250 0.000000
0.025299 0.281250 0.000000
0.044281 0.281250 0.000000
0.065613 0.281250 0.000000
0.089111 0.281250 0.000000
0.113831 0.281250 0.000000
0.140015 0.281250 0.000000
0.167847 0.281250 0.000000
0.196167 0.281250 0.000000
0.225586 0.281250 0.000000
0.256348 0.281250 0.000000
0.287842 0.281250 0.000000
0.319824 0.281250 0.000000
0.352295 0.281250 0.000000
0.385986 0.281250 0.000000
0.420898 0.281250 0.000000
0.456543 0.281250 0.000000
0.492432 0.281250 0.000000
0.528809 0.281250 0.000000
0.565918 0.281250 0.000000
0.604004 0.281250 0.000000
0.643555 0.281250 0.000000
0.683105 0.281250 0.000000
0.724121 0.281250 0.000000
0.764648 0.281250 0.000000
0.806152 0.281250 0.000000
0.848145 0.281250 0.000000
0.890137 0.281250 0.000000
0.931152 0.281250 0.000000
0.969727 0.281250 0.000000
1.000000 0.281250 0.000000
0.000000 0.314209 0.000000
0.009590 0.314209 0.000000
0.025299 0.314209 0.000000
0.044281 0.314209 0.000000
0.065613 0.314209 0.000000
0.089111 0.314209 0.000000
0.113831 0.314209 0.000000
0.140015 0.314209 0.000000
0.167847 0.314209 0.000000
0.196167 0.314209 0.000000
0.225586 0.314209 0.000000
0.256348 0.314209 0.000000
0.287842 0.314209 0.000000
0.319824 0.314209 0.000000
0.352295 0.314209 0.000000
0.385986 0.314209 0.000000
0.420898 0.314209 0.000000
0.456543 0.314209 0.000000
0.492432 0.314209 0.000000
0.528809 0.314209 0.000000
0.565918 0.314209 0.000000
0.604004 0.314209 0.000000
0.643555 0.314209 0.000000
0.683105 0.314209 0.000000
0.724121 0.314209 0.000000
0.764648 0.314209 0.000000
0.806152 0.314209 0.000000
0.848145 0.314209 0.000000
0.890137 0.314209 0.000000
0.931152 0.314209 0.000000
0.969727 0.314209 0.000000
1.000000 0.314209 0.000000
0.000000 0.347412 0.000000
0.009590 0.347412 0.000000
0.025299 0.347412 0.000000
0.044281 0.347412 0.000000
0.065613 0.347412 0.000000
0.089111 0.347412 0.000000
0.113831 0.347412 0.000000
0.140015 0.347412 0.000000
0.167847 0.347412 0.000000
0.196167 0.347412 0.000000
0.225586 0.347412 0.000000
0.256348 0.347412 0.000000
0.287842 0.347412 0.000000
0.319824 0.347412 0.000000
0.352295 0.347412 0.000000
0.385986 0.347412 0.000000
0.420898 0.347412 0.000000
0.456543 0.347412 0.000000
0.492432 0.347412 0.000000
0.528809 0.347412 0.000000
0.565918 0.347412 0.000000
0.604004 0.347412 0.000000
0.643555 0.347412 0.000000
0.683105 0.347412 0.000000
0.724121 0.347412 0.000000
0.764648 0.347412 0.000000
0.806152 0.347412 0.000000
0.848145 0.347412 0.000000
0.890137 0.347412 0.000000
0.931152 0.347412 0.000000
0.969727 0.347412 0.000000
1.000000 0.347412 0.000000
0.000000 0.381104 0.000000
0.009590 0.381104 0.000000
0.025299 0.381104 0.000000
0.044281 0.381104 0.000000
0.065613 0.381104 0.000000
0.089111 0.381104 0.000000
0.113831 0.381104 0.000000
0.140015 0.381104 0.000000
0.167847 0.381104 0.000000
0.196167 0.381104 0.000000
0.225586 0.381104 0.000000
0.256348 0.381104 0.000000
0.287842 0.381104 0.000000
0.319824 0.381348 0.000000
0.352295 0.381348 0.000000
0.385986 0.381348 0.000000
0.420898 0.381348 0.000000
0.456543 0.381348 0.000000
0.492432 0.381348 0.000000
0.528809 0.381348 0.000000
0.565918 0.381348 0.000000
0.604004 0.381348 0.000000
0.643555 0.381348 0.000000
0.683105 0.381348 0.000000
0.724121 0.381348 0.000000
0.764648 0.381348 0.000000
0.806152 0.381348 0.000000
0.848145 0.381348 0.000000
0.890137 0.381348 0.000000
0.931152 0.381348 0.000000
0.969727 0.381348 0.000000
1.000000 0.381348 0.000000
0.000000 0.416016 0.000000
0.009590 0.416016 0.000000
0.025299 0.416016 0.000000
0.044281 0.416016 0.000000
0.065613 0.416016 0.000000
0.089111 0.416016 0.000000
0.113831 0.416016 0.000000
0.140015 0.416016 0.000000
0.167847 0.416016 0.000000
0.196167 0.416016 0.000000
0.225586 0.416016 0.000000
0.256348 0.416016 0.000000
0.287842 0.416016 0.000000
0.319824 0.416016 0.000000
0.352295 0.416016 0.000000
0.385986 0.416016 0.000000
0.420898 0.416016 0.000000
0.456543 0.416016 0.000000
0.492432 0.416016 0.000000
0.528809 0.416016 0.000000
0.565918 0.416016 0.000000
0.604004 0.416016 0.000000
0.643555 0.416016 0.000000
0.683105 0.416016 0.000000
0.724121 0.416016 0.000000
0.764648 0.416016 0.000000
0.806152 0.416016 0.000000
0.848145 0.416016 0.000000
0.890137 0.416016 0.000000
0.931152 0.416016 0.000000
0.969727 0.416016 0.000000
1.000000 0.416016 0.000000
0.000000 0.451660 0.000000
0.009590 0.451660 0.000000
0.025299 0.451660 0.000000
0.044281 0.451660 0.000000
0.065613 0.451660 0.000000
0.089111 0.451660 0.000000
0.113831 0.451660 0.000000
0.140015 0.451660 0.000000
0.167847 0.451660 0.000000
0.196167 0.451660 0.000000
0.225586 0.451660 0.000000
0.256348 0.451660 0.000000
0.287842 0.451660 0.000000
0.319824 0.451660 0.000000
0.352295 0.451660 0.000000
0.385986 0.451660 0.000000
0.420898 0.451660 0.000000
0.456543 0.451660 0.000000
0.492432 0.451660 0.000000
0.528809 0.451660 0.000000
0.565918 0.451660 0.000000
0.604004 0.451660 0.000000
0.643555 0.451660 0.000000
0.683105 0.451660 0.000000
0.724121 0.451660 0.000000
0.764648 0.451660 0.000000
0.806152 0.451660 0.000000
0.848145 0.451660 0.000000
0.890137 0.451660 0.000000
0.931152 0.451660 0.000000
0.969727 0.451660 0.000000
1.000000 0.451660 0.000000
0.000000 0.487793 0.000000
0.009590 0.487793 0.000000
0.025299 0.487793 0.000000
0.044281 0.487793 0.000000
0.065613 0.487793 0.000000
0.089111 0.487793 0.000000
0.113831 0.487793 0.000000
0.140015 0.487793 0.000000
0.167847 0.487793 0.000000
0.196167 0.487793 0.000000
0.225586 0.487793 0.000000
0.256348 0.487793 0.000000
0.287842 0.487793 0.000000
0.319824 0.487793 0.000000
0.352295 0.487793 0.000000
0.385986 0.487793 0.000000
0.420898 0.487793 0.000000
0.456543 0.487793 0.000000
0.492432 0.487793 0.000000
0.528809 0.487793 0.000000
0.565918 0.487793 0.000000
0.604004 0.487793 0.000000
0.643555 0.487793 0.000000
0.683105 0.487793 0.000000
0.724121 0.487793 0.000000
0.764648 0.487793 0.000000
0.806152 0.487793 0.000000
0.848145 0.488037 0.000000
0.890137 0.488037 0.000000
0.931152 0.488037 0.000000
0.969727 0.488037 0.000000
1.000000 0.488037 0.000000
0.000000 0.524414 0.000000
0.009590 0.524414 0.000000
0.025299 0.524414 0.000000
0.044281 0.524414 0.000000
0.065613 0.524414 0.000000
0.089111 0.524414 0.000000
0.113831 0.524414 0.000000
0.140015 0.524414 0.000000
0.167847 0.524414 0.000000
0.196167 0.524414 0.000000
0.225586 0.524414 0.000000
0.256348 0.524414 0.000000
0.287842 0.524414 0.000000
0.319824 0.524414 0.000000
0.352295 0.524414 0.000000
0.385986 0.524414 0.000000
0.420898 0.524414 0.000000
0.456543 0.524414 0.000000
0.492432 0.524414 0.000000
0.528809 0.524414 0.000000
0.565918 0.524414 0.000000
0.604004 0.524414 0.000000
0.643555 0.524414 0.000000
0.683105 0.524414 0.000000
0.724121 0.524414 0.000000
0.764648 0.524414 0.000000
0.806152 0.524414 0.000000
0.848145 0.524414 0.000000
0.890137 0.524414 0.000000
0.931152 0.524414 0.000000
0.969727 0.524414 0.000000
1.000000 0.524414 0.000000
0.000000 0.561523 0.000000
0.009590 0.561523 0.000000
0.025299 0.561523 0.000000
0.044281 0.561523 0.000000
0.065613 0.561523 0.000000
0.089111 0.561523 0.000000
0.113831 0.561523 0.000000
0.140015 0.561523 0.000000
0.167847 0.561523 0.000000
0.196167 0.561523 0.000000
0.225586 0.561523 0.000000
0.256348 0.561523 0.000000
0.287842 0.561523 0.000000
0.319824 0.561523 0.000000
0.352295 0.561523 0.000000
0.385986 0.561523 0.000000
0.420898 0.561523 0.000000
0.456543 0.561523 0.000000
0.492432 0.561523 0.000000
0.528809 0.561523 0.000000
0.565918 0.561523 0.000000
0.604004 0.561523 0.000000
0.643555 0.561523 0.000000
0.683105 0.561523 0.000000
0.724121 0.561523 0.000000
0.764648 0.561523 0.000000
0.806152 0.561523 0.000000
0.848145 0.561523 0.000000
0.890137 0.561523 0.000000
0.931152 0.561523 0.000000
0.969727 0.561523 0.000000
1.000000 0.561523 0.000000
0.000000 0.600098 0.000000
0.009590 0.600098 0.000000
0.025299 0.600098 0.000000
0.044281 0.600098 0.000000
0.065613 0.600098 0.000000
0.089111 0.600098 0.000000
0.113831 0.600098 0.000000
0.140015 0.600098 0.000000
0.167847 0.600098 0.000000
0.196167 0.600098 0.000000
0.225586 0.600098 0.000000
0.256348 0.600098 0.000000
0.287842 0.600098 0.000000
0.319824 0.600098 0.000000
0.352295 0.600098 0.000000
0.385986 0.600098 0.000000
0.420898 0.600098 0.000000
0.456543 0.600098 0.000000
0.492432 0.600098 0.000000
0.528809 0.600098 0.000000
0.565918 0.600098 0.000000
0.604004 0.600098 0.000000
0.643555 0.600098 0.000000
0.683105 0.600098 0.000000
0.724121 0.600098 0.000000
0.764648 0.600098 0.000000
0.806152 0.600098 0.000000
0.848145 0.600098 0.000000
0.890137 0.600098 0.000000
0.931152 0.600098 0.000000
0.969727 0.600098 0.000000
1.000000 0.600098 0.000000
0.000000 0.638672 0.000000
0.009590 0.638672 0.000000
0.025299 0.638672 0.000000
0.044281 0.638672 0.000000
0.065613 0.638672 0.000000
0.089111 0.638672 0.000000
0.113831 0.638672 0.000000
0.140015 0.638672 0.000000
0.167847 0.638672 0.000000
0.196167 0.638672 0.000000
0.225586 0.638672 0.000000
0.256348 0.638672 0.000000
0.287842 0.638672 0.000000
0.319824 0.638672 0.000000
0.352295 0.638672 0.000000
0.385986 0.638672 0.000000
0.420898 0.638672 0.000000
0.456543 0.638672 0.000000
0.492432 0.638672 0.000000
0.528809 0.638672 0.000000
0.565918 0.638672 0.000000
0.604004 0.638672 0.000000
0.643555 0.638672 0.000000
0.683105 0.638672 0.000000
0.724121 0.638672 0.000000
0.764648 0.638672 0.000000
0.806152 0.638672 0.000000
0.848145 0.638672 0.000000
0.890137 0.638672 0.000000
0.931152 0.638672 0.000000
0.969727 0.638672 0.000000
1.000000 0.638672 0.000000
0.000000 0.677734 0.000000
0.009590 0.677734 0.000000
0.025299 0.677734 0.000000
0.044281 0.677734 0.000000
0.065613 0.677734 0.000000
0.089111 0.677734 0.000000
0.113831 0.677734 0.000000
0.140015 0.677734 0.000000
0.167847 0.677734 0.000000
0.196167 0.677734 0.000000
0.225586 0.677734 0.000000
0.256348 0.677734 0.000000
0.287842 0.677734 0.000000
0.319824 0.677734 0.000000
0.352295 0.677734 0.000000
0.385986 0.677734 0.000000
0.420898 0.677734 0.000000
0.456543 0.677734 0.000000
0.492432 0.677734 0.000000
0.528809 0.677734 0.000000
0.565918 0.677734 0.000000
0.604004 0.677734 0.000000
0.643555 0.677734 0.000000
0.683105 0.677734 0.000000
0.724121 0.677734 0.000000
0.764648 0.677734 0.000000
0.806152 0.677734 0.000000
0.848145 0.677734 0.000000
0.890137 0.677734 0.000000
0.931152 0.677734 0.000000
0.969727 0.677734 0.000000
1.000000 0.677734 0.000000
0.000000 0.717773 0.000000
0.009590 0.717773 0.000000
0.025299 0.717773 0.000000
0.044281 0.717773 0.000000
0.065613 0.717773 0.000000
0.089111 0.717773 0.000000
0.113831 0.717773 0.000000
0.140015 0.717773 0.000000
0.167847 0.717773 0.000000
0.196167 0.717773 0.000000
0.225586 0.717773 0.000000
0.256348 0.717773 0.000000
0.287842 0.717773 0.000000
0.319824 0.717773 0.000000
0.352295 0.717773 0.000000
0.385986 0.717773 0.000000
0.420898 0.717773 0.000000
0.456543 0.717773 0.000000
0.492432 0.717773 0.000000
0.528809 0.717773 0.000000
0.565918 0.717773 0.000000
0.604004 0.717773 0.000000
0.643555 0.717773 0.000000
0.683105 0.717773 0.000000
0.724121 0.717773 0.000000
0.764648 0.717773 0.000000
0.806152 0.717773 0.000000
0.848145 0.717773 0.000000
0.890137 0.717773 0.000000
0.931152 0.717773 0.000000
0.969727 0.717773 0.000000
1.000000 0.717773 0.000000
0.000000 0.757324 0.000000
0.009590 0.757324 0.000000
0.025299 0.757324 0.000000
0.044281 0.757324 0.000000
0.065613 0.757324 0.000000
0.089111 0.757324 0.000000
0.113831 0.757324 0.000000
0.140015 0.757324 0.000000
0.167847 0.757324 0.000000
0.196167 0.757324 0.000000
0.225586 0.757324 0.000000
0.256348 0.757324 0.000000
0.287842 0.757324 0.000000
0.319824 0.757324 0.000000
0.352295 0.757324 0.000000
0.385986 0.757324 0.000000
0.420898 0.757324 0.000000
0.456543 0.757324 0.000000
0.492432 0.757324 0.000000
0.528809 0.757324 0.000000
0.565918 0.757324 0.000000
0.604004 0.757324 0.000000
0.643555 0.757324 0.000000
0.683105 0.757324 0.000000
0.724121 0.757324 0.000000
0.764648 0.757324 0.000000
0.806152 0.757324 0.000000
0.848145 0.757324 0.000000
0.890137 0.757324 0.000000
0.931152 0.757324 0.000000
0.969727 0.757324 0.000000
1.000000 0.757324 0.000000
0.000000 0.798340 0.000000
0.009590 0.798340 0.000000
0.025299 0.798340 0.000000
0.044281 0.798340 0.000000
0.065613 0.798340 0.000000
0.089111 0.798340 0.000000
0.113831 0.798340 0.000000
0.140015 0.798340 0.000000
0.167847 0.798340 0.000000
0.196167 0.798340 0.000000
0.225586 0.798340 0.000000
0.256348 0.798340 0.000000
0.287842 0.798340 0.000000
0.319824 0.798340 0.000000
0.352295 0.798340 0.000000
0.385986 0.798340 0.000000
0.420898 0.798340 0.000000
0.456543 0.798340 0.000000
0.492432 0.798340 0.000000
0.528809 0.798340 0.000000
0.565918 0.798340 0.000000
0.604004 0.798340 0.000000
0.643555 0.798340 0.000000
0.683105 0.798340 0.000000
0.724121 0.798340 0.000000
0.764648 0.798340 0.000000
0.806152 0.798340 0.000000
0.848145 0.798340 0.000000
0.890137 0.798340 0.000000
0.931152 0.798340 0.000000
0.969727 0.798340 0.000000
1.000000 0.798340 0.000000
0.000000 0.839844 0.000000
0.009590 0.839844 0.000000
0.025299 0.839844 0.000000
0.044281 0.839844 0.000000
0.065613 0.839844 0.000000
0.089111 0.839844 0.000000
0.113831 0.839844 0.000000
0.140015 0.839844 0.000000
0.167847 0.839844 0.000000
0.196167 0.839844 0.000000
0.225586 0.839844 0.000000
0.256348 0.839844 0.000000
0.287842 0.839844 0.000000
0.319824 0.839844 0.000000
0.352295 0.839844 0.000000
0.385986 0.839844 0.000000
0.420898 0.839844 0.000000
0.456543 0.839844 0.000000
0.492432 0.839844 0.000000
0.528809 0.839844 0.000000
0.565918 0.839844 0.000000
0.604004 0.839844 0.000000
0.643555 0.839844 0.000000
