cubelut/Adanmq_AgfaColor HDC 400+.cube
TITLE "Generated by Foundry::LUT"
LUT_3D_SIZE 32
0.000000 0.000000 0.000000
0.041870 0.000000 0.000000
0.093445 0.000000 0.000000
0.147095 0.000000 0.000000
0.202881 0.000000 0.000000
0.255127 0.000000 0.000000
0.302979 0.000000 0.000000
0.346924 0.000000 0.000000
0.387939 0.000000 0.000000
0.426758 0.000000 0.000000
0.463623 0.000000 0.000000
0.499023 0.000000 0.000000
0.532715 0.000000 0.000000
0.563965 0.000000 0.000000
0.594727 0.000000 0.000000
0.624512 0.000000 0.000000
0.653809 0.000000 0.000000
0.681641 0.000000 0.000000
0.708496 0.000000 0.000000
0.734863 0.000000 0.000000
0.760742 0.000000 0.000000
0.785645 0.000000 0.000000
0.810059 0.000000 0.000000
0.834473 0.000000 0.000000
0.858398 0.000000 0.000000
0.881348 0.000000 0.000000
0.904297 0.000000 0.000000
0.926270 0.000000 0.000000
0.946777 0.000000 0.000000
0.966797 0.000000 0.000000
0.984863 0.000000 0.000000
1.000000 0.000000 0.000000
0.000000 0.043182 0.000000
0.041870 0.043182 0.000000
0.093445 0.043182 0.000000
0.147095 0.043182 0.000000
0.202881 0.043182 0.000000
0.255127 0.043182 0.000000
0.302979 0.043182 0.000000
0.346924 0.043182 0.000000
0.387939 0.043182 0.000000
0.426758 0.043182 0.000000
0.463623 0.043182 0.000000
0.499023 0.043182 0.000000
0.532715 0.043182 0.000000
0.563965 0.043182 0.000000
0.594727 0.043182 0.000000
0.624512 0.043182 0.000000
0.653809 0.043182 0.000000
0.681641 0.043213 0.000000
0.708496 0.043213 0.000000
0.734863 0.043213 0.000000
0.760742 0.043213 0.000000
0.785645 0.043213 0.000000
0.810059 0.043213 0.000000
0.834473 0.043213 0.000000
0.858398 0.043213 0.000000
0.881348 0.043213 0.000000
0.904297 0.043213 0.000000
0.926270 0.043213 0.000000
0.946777 0.043213 0.000000
0.966797 0.043213 0.000000
0.984863 0.043213 0.000000
1.000000 0.043213 0.000000
0.000000 0.097351 0.000000
0.041870 0.097351 0.000000
0.093445 0.097351 0.000000
0.147095 0.097351 0.000000
0.202881 0.097351 0.000000
0.255127 0.097351 0.000000
0.302979 0.097351 0.000000
0.346924 0.097351 0.000000
0.387939 0.097351 0.000000
0.426758 0.097351 0.000000
0.463623 0.097351 0.000000
0.499023 0.097351 0.000000
0.532715 0.097351 0.000000
0.563965 0.097351 0.000000
0.594727 0.097351 0.000000
0.624512 0.097351 0.000000
0.653809 0.097351 0.000000
0.681641 0.097351 0.000000
0.708496 0.097351 0.000000
0.734863 0.097351 0.000000
0.760742 0.097351 0.000000
0.785645 0.097351 0.000000
0.810059 0.097351 0.000000
0.834473 0.097351 0.000000
0.858398 0.097351 0.000000
0.881348 0.097351 0.000000
0.904297 0.097351 0.000000
0.926270 0.097351 0.000000
0.946777 0.097351 0.000000
0.966797 0.097351 0.000000
0.984863 0.097351 0.000000
1.000000 0.097351 0.000000
0.000000 0.151733 0.000000
0.041870 0.151733 0.000000
0.093445 0.151733 0.000000
0.147095 0.151733 0.000000
0.202881 0.151733 0.000000
0.255127 0.151733 0.000000
0.302979 0.151733 0.000000
0.346924 0.151733 0.000000
0.387939 0.151733 0.000000
0.426758 0.151733 0.000000
0.463623 0.151733 0.000000
0.499023 0.151733 0.000000
0.532715 0.151733 0.000000
0.563965 0.151733 0.000000
0.594727 0.151733 0.000000
0.624512 0.151733 0.000000
0.653809 0.151733 0.000000
0.681641 0.151733 0.000000
0.708496 0.151733 0.000000
0.734863 0.151733 0.000000
0.760742 0.151733 0.000000
0.785645 0.151733 0.000000
0.810059 0.151733 0.000000
0.834473 0.151733 0.000000
0.858398 0.151733 0.000000
0.881348 0.151733 0.000000
0.904297 0.151733 0.000000
0.926270 0.151733 0.000000
0.946777 0.151733 0.000000
0.966797 0.151733 0.000000
0.984863 0.151733 0.000000
1.000000 0.151733 0.000000
0.000000 0.205688 0.000000
0.041870 0.205688 0.000000
0.093445 0.205688 0.000000
0.147095 0.205688 0.000000
0.202881 0.205688 0.000000
0.255127 0.205688 0.000000
0.302979 0.205688 0.000000
0.346924 0.205688 0.000000
0.387939 0.205688 0.000000
0.426758 0.205688 0.000000
0.463623 0.205688 0.000000
0.499023 0.205688 0.000000
0.532715 0.205688 0.000000
0.563965 0.205688 0.000000
0.594727 0.205688 0.000000
0.624512 0.205688 0.000000
0.653809 0.205688 0.000000
0.681641 0.205688 0.000000
0.708496 0.205688 0.000000
0.734863 0.205688 0.000000
0.760742 0.205688 0.000000
0.785645 0.205688 0.000000
0.810059 0.205688 0.000000
0.834473 0.205688 0.000000
0.858398 0.205688 0.000000
0.881348 0.205688 0.000000
0.904297 0.205688 0.000000
0.926270 0.205688 0.000000
0.946777 0.205688 0.000000
0.966797 0.205688 0.000000
0.984863 0.205688 0.000000
1.000000 0.205688 0.000000
0.000000 0.257568 0.000000
0.041870 0.257568 0.000000
0.093445 0.257568 0.000000
0.147095 0.257568 0.000000
0.202881 0.257568 0.000000
0.255127 0.257568 0.000000
0.302979 0.257568 0.000000
0.346924 0.257568 0.000000
0.387939 0.257568 0.000000
0.426758 0.257568 0.000000
0.463623 0.257568 0.000000
0.499023 0.257568 0.000000
0.532715 0.257568 0.000000
0.563965 0.257568 0.000000
0.594727 0.257568 0.000000
0.624512 0.257568 0.000000
0.653809 0.257568 0.000000
0.681641 0.257568 0.000000
0.708496 0.257568 0.000000
0.734863 0.257568 0.000000
0.760742 0.257568 0.000000
0.785645 0.257568 0.000000
0.810059 0.257568 0.000000
0.834473 0.257568 0.000000
0.858398 0.257568 0.000000
0.881348 0.257568 0.000000
0.904297 0.257568 0.000000
0.926270 0.257568 0.000000
0.946777 0.257568 0.000000
0.966797 0.257568 0.000000
0.984863 0.257568 0.000000
1.000000 0.257568 0.000000
0.000000 0.306641 0.000000
0.041870 0.306641 0.000000
0.093445 0.306641 0.000000
0.147095 0.306641 0.000000
0.202881 0.306641 0.000000
0.255127 0.306641 0.000000
0.302979 0.306641 0.000000
0.346924 0.306641 0.000000
0.387939 0.306641 0.000000
0.426758 0.306641 0.000000
0.463623 0.306641 0.000000
0.499023 0.306641 0.000000
0.532715 0.306641 0.000000
0.563965 0.306641 0.000000
0.594727 0.306641 0.000000
0.624512 0.306641 0.000000
0.653809 0.306641 0.000000
0.681641 0.306641 0.000000
0.708496 0.306641 0.000000
0.734863 0.306641 0.000000
0.760742 0.306641 0.000000
0.785645 0.306641 0.000000
0.810059 0.306641 0.000000
0.834473 0.306641 0.000000
0.858398 0.306641 0.000000
0.881348 0.306885 0.000000
0.904297 0.306885 0.000000
0.926270 0.306885 0.000000
0.946777 0.306885 0.000000
0.966797 0.306885 0.000000
0.984863 0.306885 0.000000
1.000000 0.306885 0.000000
0.000000 0.352783 0.000000
0.041870 0.352783 0.000000
0.093445 0.352783 0.000000
0.147095 0.352783 0.000000
0.202881 0.352783 0.000000
0.255127 0.352783 0.000000
0.302979 0.352783 0.000000
0.346924 0.352783 0.000000
0.387939 0.352783 0.000000
0.426758 0.352783 0.000000
0.463623 0.352783 0.000000
0.499023 0.352783 0.000000
0.532715 0.352783 0.000000
0.563965 0.352783 0.000000
0.594727 0.352783 0.000000
0.624512 0.352783 0.000000
0.653809 0.352783 0.000000
0.681641 0.352783 0.000000
0.708496 0.352783 0.000000
0.734863 0.352783 0.000000
0.760742 0.352783 0.000000
0.785645 0.352783 0.000000
0.810059 0.352783 0.000000
0.834473 0.352783 0.000000
0.858398 0.352783 0.000000
0.881348 0.352783 0.000000
0.904297 0.352783 0.000000
0.926270 0.352783 0.000000
0.946777 0.352783 0.000000
0.966797 0.352783 0.000000
0.984863 0.352783 0.000000
1.000000 0.352783 0.000000
0.000000 0.396240 0.000000
0.041870 0.396240 0.000000
0.093445 0.396240 0.000000
0.147095 0.396240 0.000000
0.202881 0.396240 0.000000
0.255127 0.396240 0.000000
0.302979 0.396240 0.000000
0.346924 0.396240 0.000000
0.387939 0.396240 0.000000
0.426758 0.396240 0.000000
0.463623 0.396240 0.000000
0.499023 0.396240 0.000000
0.532715 0.396240 0.000000
0.563965 0.396240 0.000000
0.594727 0.396240 0.000000
0.624512 0.396240 0.000000
0.653809 0.396240 0.000000
0.681641 0.396240 0.000000
0.708496 0.396240 0.000000
0.734863 0.396240 0.000000
0.760742 0.396240 0.000000
0.785645 0.396240 0.000000
0.810059 0.396240 0.000000
0.834473 0.396240 0.000000
0.858398 0.396240 0.000000
0.881348 0.396240 0.000000
0.904297 0.396240 0.000000
0.926270 0.396240 0.000000
0.946777 0.396240 0.000000
0.966797 0.396240 0.000000
0.984863 0.396240 0.000000
1.000000 0.396240 0.000000
0.000000 0.437012 0.000000
0.041870 0.437012 0.000000
0.093445 0.437012 0.000000
0.147095 0.437012 0.000000
0.202881 0.437012 0.000000
0.255127 0.437012 0.000000
0.302979 0.437012 0.000000
0.346924 0.437012 0.000000
0.387939 0.437012 0.000000
0.426758 0.437012 0.000000
0.463623 0.437012 0.000000
0.499023 0.437012 0.000000
0.532715 0.437012 0.000000
0.563965 0.437012 0.000000
0.594727 0.437012 0.000000
0.624512 0.437012 0.000000
0.653809 0.437012 0.000000
0.681641 0.437012 0.000000
0.708496 0.437012 0.000000
0.734863 0.437012 0.000000
0.760742 0.437012 0.000000
0.785645 0.437012 0.000000
0.810059 0.437012 0.000000
0.834473 0.437012 0.000000
0.858398 0.437012 0.000000
0.881348 0.437012 0.000000
0.904297 0.437012 0.000000
0.926270 0.437012 0.000000
0.946777 0.437012 0.000000
0.966797 0.437012 0.000000
0.984863 0.437012 0.000000
1.000000 0.437012 0.000000
0.000000 0.475098 0.000000
0.041870 0.475098 0.000000
0.093445 0.475098 0.000000
0.147095 0.475098 0.000000
0.202881 0.475098 0.000000
0.255127 0.475098 0.000000
0.302979 0.475098 0.000000
0.346924 0.475098 0.000000
0.387939 0.475098 0.000000
0.426758 0.475098 0.000000
0.463623 0.475098 0.000000
0.499023 0.475098 0.000000
0.532715 0.475098 0.000000
0.563965 0.475098 0.000000
0.594727 0.475098 0.000000
0.624512 0.475098 0.000000
0.653809 0.475098 0.000000
0.681641 0.475098 0.000000
0.708496 0.475098 0.000000
0.734863 0.475098 0.000000
0.760742 0.475098 0.000000
0.785645 0.475098 0.000000
0.810059 0.475098 0.000000
0.834473 0.475098 0.000000
0.858398 0.475098 0.000000
0.881348 0.475098 0.000000
0.904297 0.475098 0.000000
0.926270 0.475098 0.000000
0.946777 0.475342 0.000000
0.966797 0.475342 0.000000
0.984863 0.475342 0.000000
1.000000 0.475342 0.000000
0.000000 0.511230 0.000000
0.041870 0.511230 0.000000
0.093445 0.511230 0.000000
0.147095 0.511230 0.000000
0.202881 0.511230 0.000000
0.255127 0.511230 0.000000
0.302979 0.511230 0.000000
0.346924 0.511230 0.000000
0.387939 0.511230 0.000000
0.426758 0.511230 0.000000
0.463623 0.511230 0.000000
0.499023 0.511230 0.000000
0.532715 0.511230 0.000000
0.563965 0.511230 0.000000
0.594727 0.511230 0.000000
0.624512 0.511230 0.000000
0.653809 0.511230 0.000000
0.681641 0.511230 0.000000
0.708496 0.511230 0.000000
0.734863 0.511230 0.000000
0.760742 0.511230 0.000000
0.785645 0.511230 0.000000
0.810059 0.511230 0.000000
0.834473 0.511230 0.000000
0.858398 0.511230 0.000000
0.881348 0.511230 0.000000
0.904297 0.511230 0.000000
0.926270 0.511230 0.000000
0.946777 0.511230 0.000000
0.966797 0.511230 0.000000
0.984863 0.511230 0.000000
1.000000 0.511230 0.000000
0.000000 0.545898 0.000000
0.041870 0.545898 0.000000
0.093445 0.545898 0.000000
0.147095 0.545898 0.000000
0.202881 0.545898 0.000000
0.255127 0.545898 0.000000
0.302979 0.545898 0.000000
0.346924 0.545898 0.000000
0.387939 0.545898 0.000000
0.426758 0.545898 0.000000
0.463623 0.545898 0.000000
0.499023 0.545898 0.000000
0.532715 0.545898 0.000000
0.563965 0.545898 0.000000
0.594727 0.545898 0.000000
0.624512 0.545898 0.000000
0.653809 0.545898 0.000000
0.681641 0.545898 0.000000
0.708496 0.545898 0.000000
0.734863 0.545898 0.000000
0.760742 0.545898 0.000000
0.785645 0.545898 0.000000
0.810059 0.545898 0.000000
0.834473 0.545898 0.000000
0.858398 0.545898 0.000000
0.881348 0.545898 0.000000
0.904297 0.545898 0.000000
0.926270 0.545898 0.000000
0.946777 0.545898 0.000000
0.966797 0.545898 0.000000
0.984863 0.545898 0.000000
1.000000 0.545898 0.000000
0.000000 0.578613 0.000000
0.041870 0.578613 0.000000
0.093445 0.578613 0.000000
0.147095 0.578613 0.000000
0.202881 0.578613 0.000000
0.255127 0.578613 0.000000
0.302979 0.578613 0.000000
0.346924 0.578613 0.000000
0.387939 0.578613 0.000000
0.426758 0.578613 0.000000
0.463623 0.578613 0.000000
0.499023 0.578613 0.000000
0.532715 0.578613 0.000000
0.563965 0.578613 0.000000
0.594727 0.578613 0.000000
0.624512 0.578613 0.000000
0.653809 0.578613 0.000000
0.681641 0.578613 0.000000
0.708496 0.578613 0.000000
0.734863 0.578613 0.000000
0.760742 0.578613 0.000000
0.785645 0.578613 0.000000
0.810059 0.578613 0.000000
0.834473 0.578613 0.000000
0.858398 0.578613 0.000000
0.881348 0.578613 0.000000
0.904297 0.578613 0.000000
0.926270 0.578613 0.000000
0.946777 0.578613 0.000000
0.966797 0.578613 0.000000
0.984863 0.578613 0.000000
1.000000 0.578613 0.000000
0.000000 0.609863 0.000000
0.041870 0.609863 0.000000
0.093445 0.609863 0.000000
0.147095 0.609863 0.000000
0.202881 0.609863 0.000000
0.255127 0.609863 0.000000
0.302979 0.609863 0.000000
0.346924 0.609863 0.000000
0.387939 0.609863 0.000000
0.426758 0.609863 0.000000
0.463623 0.609863 0.000000
0.499023 0.609863 0.000000
0.532715 0.609863 0.000000
0.563965 0.609863 0.000000
0.594727 0.609863 0.000000
0.624512 0.609863 0.000000
0.653809 0.609863 0.000000
0.681641 0.609863 0.000000
0.708496 0.609863 0.000000
0.734863 0.609863 0.000000
0.760742 0.609863 0.000000
0.785645 0.609863 0.000000
0.810059 0.609863 0.000000
0.834473 0.609863 0.000000
0.858398 0.609863 0.000000
0.881348 0.609863 0.000000
0.904297 0.609863 0.000000
0.926270 0.609863 0.000000
0.946777 0.609863 0.000000
0.966797 0.609863 0.000000
0.984863 0.609863 0.000000
1.000000 0.609863 0.000000
0.000000 0.639648 0.000000
0.041870 0.639648 0.000000
0.093445 0.639648 0.000000
0.147095 0.639648 0.000000
0.202881 0.639648 0.000000
0.255127 0.639648 0.000000
0.302979 0.639648 0.000000
0.346924 0.639648 0.000000
0.387939 0.639648 0.000000
0.426758 0.639648 0.000000
0.463623 0.639648 0.000000
0.499023 0.639648 0.000000
0.532715 0.639648 0.000000
0.563965 0.639648 0.000000
0.594727 0.639648 0.000000
0.624512 0.639648 0.000000
0.653809 0.639648 0.000000
0.681641 0.639648 0.000000
0.708496 0.639648 0.000000
0.734863 0.639648 0.000000
0.760742 0.639648 0.000000
0.785645 0.639648 0.000000
0.810059 0.639648 0.000000
0.834473 0.639648 0.000000
0.858398 0.639648 0.000000
0.881348 0.639648 0.000000
0.904297 0.639648 0.000000
0.926270 0.639648 0.000000
0.946777 0.639648 0.000000
0.966797 0.639648 0.000000
0.984863 0.639648 0.000000
1.000000 0.639648 0.000000
0.000000 0.667969 0.000000
0.041870 0.667969 0.000000
0.093445 0.667969 0.000000
0.147095 0.667969 0.000000
0.202881 0.667969 0.000000
0.255127 0.667969 0.000000
0.302979 0.667969 0.000000
0.346924 0.667969 0.000000
0.387939 0.667969 0.000000
0.426758 0.667969 0.000000
0.463623 0.667969 0.000000
0.499023 0.667969 0.000000
0.532715 0.667969 0.000000
0.563965 0.667969 0.000000
0.594727 0.667969 0.000000
0.624512 0.667969 0.000000
0.653809 0.667969 0.000000
0.681641 0.667969 0.000000
0.708496 0.667969 0.000000
0.734863 0.667969 0.000000
0.760742 0.667969 0.000000
0.785645 0.667969 0.000000
0.810059 0.667969 0.000000
0.834473 0.667969 0.000000
0.858398 0.667969 0.000000
0.881348 0.667969 0.000000
0.904297 0.667969 0.000000
0.926270 0.667969 0.000000
0.946777 0.667969 0.000000
0.966797 0.667969 0.000000
0.984863 0.667969 0.000000
1.000000 0.667969 0.000000
0.000000 0.694824 0.000000
0.041870 0.694824 0.000000
0.093445 0.694824 0.000000
0.147095 0.694824 0.000000
0.202881 0.694824 0.000000
0.255127 0.694824 0.000000
0.302979 0.694824 0.000000
0.346924 0.694824 0.000000
0.387939 0.694824 0.000000
0.426758 0.694824 0.000000
0.463623 0.694824 0.000000
0.499023 0.694824 0.000000
0.532715 0.694824 0.000000
0.563965 0.695313 0.000000
0.594727 0.695313 0.000000
0.624512 0.695313 0.000000
0.653809 0.695313 0.000000
0.681641 0.695313 0.000000
0.708496 0.695313 0.000000
0.734863 0.695313 0.000000
0.760742 0.695313 0.000000
0.785645 0.695313 0.000000
0.810059 0.695313 0.000000
0.834473 0.695313 0.000000
0.858398 0.695313 0.000000
0.881348 0.695313 0.000000
0.904297 0.695313 0.000000
0.926270 0.695313 0.000000
0.946777 0.695313 0.000000
0.966797 0.695313 0.000000
0.984863 0.695313 0.000000
1.000000 0.695313 0.000000
0.000000 0.721191 0.000000
0.041870 0.721191 0.000000
0.093445 0.721191 0.000000
0.147095 0.721191 0.000000
0.202881 0.721191 0.000000
0.255127 0.721191 0.000000
0.302979 0.721191 0.000000
0.346924 0.721191 0.000000
0.387939 0.721191 0.000000
0.426758 0.721191 0.000000
0.463623 0.721191 0.000000
0.499023 0.721191 0.000000
0.532715 0.721191 0.000000
0.563965 0.721191 0.000000
0.594727 0.721191 0.000000
0.624512 0.721191 0.000000
0.653809 0.721191 0.000000
0.681641 0.721191 0.000000
0.708496 0.721191 0.000000
0.734863 0.721191 0.000000
0.760742 0.721191 0.000000
0.785645 0.721191 0.000000
0.810059 0.721191 0.000000
0.834473 0.721191 0.000000
0.858398 0.721191 0.000000
0.881348 0.721191 0.000000
0.904297 0.721191 0.000000
0.926270 0.721191 0.000000
0.946777 0.721191 0.000000
0.966797 0.721191 0.000000
0.984863 0.721191 0.000000
1.000000 0.721191 0.000000
0.000000 0.746582 0.000000
0.041870 0.746582 0.000000
0.093445 0.746582 0.000000
0.147095 0.746582 0.000000
0.202881 0.746582 0.000000
0.255127 0.746582 0.000000
0.302979 0.746582 0.000000
0.346924 0.746582 0.000000
0.387939 0.746582 0.000000
0.426758 0.746582 0.000000
0.463623 0.746582 0.000000
0.499023 0.746582 0.000000
0.532715 0.746582 0.000000
0.563965 0.746582 0.000000
0.594727 0.746582 0.000000
0.624512 0.746582 0.000000
0.653809 0.746582 0.000000
0.681641 0.746582 0.000000
0.708496 0.746582 0.000000
0.734863 0.746582 0.000000
0.760742 0.746582 0.000000
0.785645 0.746582 0.000000
0.810059 0.746582 0.000000
0.834473 0.746582 0.000000
0.858398 0.746582 0.000000
0.881348 0.746582 0.000000
0.904297 0.746582 0.000000
0.926270 0.746582 0.000000
0.946777 0.746582 0.000000
0.966797 0.746582 0.000000
0.984863 0.746582 0.000000
1.000000 0.746582 0.000000
0.000000 0.770996 0.000000
0.041870 0.770996 0.000000
0.093445 0.770996 0.000000
0.147095 0.770996 0.000000
0.202881 0.770996 0.000000
0.255127 0.770996 0.000000
0.302979 0.770996 0.000000
0.346924 0.770996 0.000000
0.387939 0.770996 0.000000
0.426758 0.770996 0.000000
0.463623 0.770996 0.000000
0.499023 0.770996 0.000000
0.532715 0.770996 0.000000
0.563965 0.770996 0.000000
0.594727 0.770996 0.000000
0.624512 0.770996 0.000000
0.653809 0.770996 0.000000
0.681641 0.770996 0.000000
0.708496 0.770996 0.000000
0.734863 0.770996 0.000000
0.760742 0.770996 0.000000
0.785645 0.770996 0.000000
0.810059 0.770996 0.000000
0.834473 0.770996 0.000000
0.858398 0.770996 0.000000
0.881348 0.770996 0.000000
0.904297 0.770996 0.000000
0.926270 0.770996 0.000000
0.946777 0.770996 0.000000
0.966797 0.770996 0.000000
0.984863 0.770996 0.000000
1.000000 0.770996 0.000000
0.000000 0.794922 0.000000
0.041870 0.794922 0.000000
0.093445 0.794922 0.000000
0.147095 0.794922 0.000000
0.202881 0.794922 0.000000
0.255127 0.794922 0.000000
0.302979 0.794922 0.000000
0.346924 0.794922 0.000000
0.387939 0.794922 0.000000
0.426758 0.794922 0.000000
0.463623 0.794922 0.000000
0.499023 0.794922 0.000000
0.532715 0.794922 0.000000
0.563965 0.794922 0.000000
0.594727 0.794922 0.000000
0.624512 0.794922 0.000000
0.653809 0.794922 0.000000
0.681641 0.794922 0.000000
0.708496 0.794922 0.000000
0.734863 0.794922 0.000000
0.760742 0.794922 0.000000
0.785645 0.794922 0.000000
0.810059 0.794922 0.000000
0.834473 0.794922 0.000000
0.858398 0.794922 0.000000
0.881348 0.794922 0.000000
0.904297 0.794922 0.000000
0.926270 0.794922 0.000000
0.946777 0.794922 0.000000
0.966797 0.794922 0.000000
0.984863 0.794922 0.000000
1.000000 0.794922 0.000000
0.000000 0.818359 0.000000
0.041870 0.818359 0.000000
0.093445 0.818359 0.000000
0.147095 0.818359 0.000000
0.202881 0.818359 0.000000
0.255127 0.818359 0.000000
0.302979 0.818359 0.000000
0.346924 0.818359 0.000000
0.387939 0.818359 0.000000
0.426758 0.818359 0.000000
0.463623 0.818359 0.000000
0.499023 0.818359 0.000000
0.532715 0.818359 0.000000
0.563965 0.818359 0.000000
0.594727 0.818359 0.000000
0.624512 0.818359 0.000000
0.653809 0.818359 0.000000
0.681641 0.818359 0.000000
0.708496 0.818359 0.000000
0.734863 0.818359 0.000000
0.760742 0.818359 0.000000
0.785645 0.818359 0.000000
0.810059 0.818359 0.000000
0.834473 0.818359 0.000000
0.858398 0.818359 0.000000
0.881348 0.818359 0.000000
0.904297 0.818359 0.000000
0.926270 0.818359 0.000000
0.946777 0.818359 0.000000
0.966797 0.818359 0.000000
0.984863 0.818359 0.000000
1.000000 0.818359 0.000000
0.000000 0.840820 0.000000
0.041870 0.840820 0.000000
0.093445 0.840820 0.000000
0.147095 0.840820 0.000000
0.202881 0.840820 0.000000
0.255127 0.840820 0.000000
0.302979 0.840820 0.000000
0.346924 0.840820 0.000000
0.387939 0.840820 0.000000
0.426758 0.840820 0.000000
0.463623 0.840820 0.000000
0.499023 0.840820 0.000000
0.532715 0.840820 0.000000
0.563965 0.840820 0.000000
0.594727 0.840820 0.000000
0.624512 0.840820 0.000000
0.653809 0.840820 0.000000
0.681641 0.840820 0.000000
0.708496 0.840820 0.000000
0.734863 0.840820 0.000000
0.760742 0.840820 0.000000
0.785645 0.840820 0.000000
0.810059 0.840820 0.000000
0.834473 0.840820 0.000000
0.858398 0.840820 0.000000
0.881348 0.840820 0.000000
0.904297 0.840820 0.000000
0.926270 0.840820 0.000000
0.946777 0.840820 0.000000
0.966797 0.840820 0.000000
0.984863 0.840820 0.000000
1.000000 0.840820 0.000000
0.000000 0.863770 0.000000
0.041870 0.863770 0.000000
0.093445 0.863770 0.000000
0.147095 0.863770 0.000000
0.202881 0.863770 0.000000
0.255127 0.863770 0.000000
0.302979 0.863770 0.000000
0.346924 0.863770 0.000000
0.387939 0.863770 0.000000
0.426758 0.863770 0.000000
0.463623 0.863770 0.000000
0.499023 0.863770 0.000000
0.532715 0.863770 0.000000
0.563965 0.863770 0.000000
0.594727 0.863770 0.000000
0.624512 0.863770 0.000000
0.653809 0.863770 0.000000
0.681641 0.863770 0.000000
0.708496 0.863770 0.000000
0.734863 0.863770 0.000000
0.760742 0.863770 0.000000
0.785645 0.863770 0.000000
0.810059 0.863770 0.000000
0.834473 0.863770 0.000000
0.858398 0.863770 0.000000
0.881348 0.863770 0.000000
0.904297 0.863770 0.000000
0.926270 0.863770 0.000000
0.946777 0.863770 0.000000
0.966797 0.863770 0.000000
0.984863 0.863770 0.000000
1.000000 0.863770 0.000000
0.000000 0.885254 0.000000
0.041870 0.885254 0.000000
0.093445 0.885254 0.000000
0.147095 0.885254 0.000000
0.202881 0.885254 0.000000
0.255127 0.885254 0.000000
0.302979 0.885254 0.000000
0.346924 0.885254 0.000000
0.387939 0.885254 0.000000
0.426758 0.885254 0.000000
0.463623 0.885254 0.000000
0.499023 0.885254 0.000000
0.532715 0.885254 0.000000
0.563965 0.885254 0.000000
0.594727 0.885254 0.000000
0.624512 0.885254 0.000000
0.653809 0.885254 0.000000
0.681641 0.885254 0.000000
0.708496 0.885254 0.000000
0.734863 0.885254 0.000000
0.760742 0.885254 0.000000
0.785645 0.885254 0.000000
0.810059 0.885254 0.000000
0.834473 0.885254 0.000000
0.858398 0.885254 0.000000
0.881348 0.885254 0.000000
0.904297 0.885254 0.000000
0.926270 0.885254 0.000000
0.946777 0.885254 0.000000
0.966797 0.885254 0.000000
0.984863 0.885254 0.000000
1.000000 0.885254 0.000000
0.000000 0.906738 0.000000
0.041870 0.906738 0.000000
0.093445 0.906738 0.000000
0.147095 0.906738 0.000000
0.202881 0.906738 0.000000
0.255127 0.906738 0.000000
0.302979 0.906738 0.000000
0.346924 0.906738 0.000000
0.387939 0.906738 0.000000
0.426758 0.906738 0.000000
0.463623 0.906738 0.000000
0.499023 0.906738 0.000000
0.532715 0.906738 0.000000
0.563965 0.906738 0.000000
0.594727 0.906738 0.000000
0.624512 0.906738 0.000000
0.653809 0.906738 0.000000
0.681641 0.906738 0.000000
0.708496 0.906738 0.000000
0.734863 0.906738 0.000000
0.760742 0.906738 0.000000
0.785645 0.906738 0.000000
0.810059 0.906738 0.000000
0.834473 0.906738 0.000000
0.858398 0.906738 0.000000
0.881348 0.906738 0.000000
0.904297 0.906738 0.000000
0.926270 0.906738 0.000000
0.946777 0.906738 0.000000
0.966797 0.906738 0.000000
0.984863 0.906738 0.000000
1.000000 0.906738 0.000000
0.000000 0.927246 0.000000
0.041870 0.927246 0.000000
0.093445 0.927246 0.000000
0.147095 0.927246 0.000000
0.202881 0.927246 0.000000
0.255127 0.927246 0.000000
0.302979 0.927246 0.000000
0.346924 0.927246 0.000000
0.387939 0.927246 0.000000
0.426758 0.927246 0.000000
0.463623 0.927246 0.000000
0.499023 0.927246 0.000000
0.532715 0.927246 0.000000
0.563965 0.927246 0.000000
0.594727 0.927246 0.000000
0.624512 0.927246 0.000000
0.653809 0.927246 0.000000
0.681641 0.927246 0.000000
0.708496 0.927246 0.000000
0.734863 0.927246 0.000000
0.760742 0.927246 0.000000
0.785645 0.927246 0.000000
0.810059 0.927246 0.000000
