cubelut/Adanmq_Ektachrome 320t.cube
TITLE "Generated by Foundry::LUT"
LUT_3D_SIZE 5
DOMAIN_MIN 0.000000 0.000000 0.000000
DOMAIN_MAX 0.903226 0.903226 0.903226
0.000000 0.000000 0.000000
0.208374 0.000000 0.000000
0.674316 0.000000 0.000000
0.890625 0.000000 0.000000
0.978027 0.000000 0.000000
0.000000 0.152710 0.000000
0.208374 0.152710 0.000000
0.674316 0.152710 0.000000
0.890625 0.152710 0.000000
0.978027 0.152710 0.000000
0.000000 0.606934 0.000000
0.208374 0.606934 0.000000
0.674316 0.606934 0.000000
0.890625 0.606934 0.000000
0.978027 0.606934 0.000000
0.000000 0.858887 0.000000
0.208374 0.858887 0.000000
0.674316 0.858887 0.000000
0.890625 0.858887 0.000000
0.978027 0.858887 0.000000
0.000000 0.977539 0.000000
0.208374 0.977539 0.000000
0.674316 0.977539 0.000000
0.890625 0.977539 0.000000
0.978027 0.977539 0.000000
0.000000 0.000000 0.096985
0.208496 0.000000 0.096985
0.674316 0.000000 0.096985
0.890625 0.000000 0.096985
0.978027 0.000000 0.096985
0.000000 0.152710 0.096985
0.208496 0.152710 0.096985
0.674316 0.152710 0.096985
0.890625 0.152710 0.096985
0.978027 0.152710 0.096985
0.000000 0.606934 0.096985
0.208496 0.606934 0.096985
0.674316 0.606934 0.096985
0.890625 0.606934 0.096985
0.978027 0.606934 0.096985
0.000000 0.858887 0.096985
0.208496 0.858887 0.096985
0.674316 0.858887 0.096985
0.890625 0.858887 0.096985
0.978027 0.858887 0.096985
0.000000 0.977539 0.097046
0.208496 0.977539 0.097046
0.674316 0.977539 0.097046
0.890625 0.977539 0.097046
0.978027 0.977539 0.097046
0.000000 0.000000 0.514160
0.208618 0.000000 0.514160
0.674316 0.000000 0.514160
0.890625 0.000000 0.514160
0.978027 0.000000 0.514160
0.000000 0.152710 0.514160
0.208618 0.152710 0.514160
0.674316 0.152710 0.514160
0.890625 0.152710 0.514160
0.978027 0.152710 0.514160
0.000000 0.606934 0.514160
0.208618 0.606934 0.514160
0.674316 0.606934 0.514160
0.890625 0.606934 0.514160
0.978027 0.606934 0.514160
0.000000 0.858887 0.514160
0.208618 0.858887 0.514160
0.674316 0.858887 0.514160
0.890625 0.858887 0.514160
0.978027 0.858887 0.514160
0.000000 0.977539 0.514160
0.208618 0.977539 0.514160
0.674316 0.977539 0.514160
0.890625 0.977539 0.514160
0.978027 0.977539 0.514160
0.000000 0.000000 0.816406
0.208740 0.000000 0.816406
0.674316 0.000000 0.816406
0.890625 0.000000 0.816406
0.978027 0.000000 0.816406
0.000000 0.152710 0.816406
0.208740 0.152710 0.816406
0.674316 0.152710 0.816406
0.890625 0.152710 0.816406
0.978027 0.152710 0.816406
0.000000 0.606934 0.816406
0.208740 0.606934 0.816406
0.674316 0.606934 0.816406
0.890625 0.606934 0.816406
0.978027 0.606934 0.816406
0.000000 0.858887 0.816406
0.208740 0.858887 0.816406
0.674316 0.858887 0.816406
0.890625 0.858887 0.816406
0.978027 0.858887 0.816406
0.000000 0.977539 0.816406
0.208740 0.977539 0.816406
0.674316 0.977539 0.816406
0.890625 0.977539 0.816406
0.978027 0.977539 0.816406
0.000000 0.000000 0.971191
0.208740 0.000000 0.971191
0.674316 0.000000 0.971191
0.890625 0.000000 0.971191
0.978027 0.000000 0.971191
0.000000 0.152710 0.971191
0.208740 0.152710 0.971191
0.674316 0.152710 0.971191
0.890625 0.152710 0.971191
0.978027 0.152710 0.971191
0.000000 0.606934 0.971191
0.208740 0.606934 0.971191
0.674316 0.606934 0.971191
0.890625 0.606934 0.971191
0.978027 0.606934 0.971191
0.000000 0.858887 0.971191
0.208740 0.858887 0.971191
0.674316 0.858887 0.971191
0.890625 0.858887 0.971191
0.978027 0.858887 0.971191
0.000000 0.977539 0.971191
0.208740 0.977539 0.971191
0.674316 0.977539 0.971191
0.890625 0.977539 0.971191
0.978027 0.977539 0.971191
