cubelut/Adanmq_F125.cube
TITLE "Generated by Foundry::LUT"
LUT_3D_SIZE 8
DOMAIN_MIN 0.000000 0.000000 0.000000
DOMAIN_MAX 0.903226 0.903226 0.903226
0.000000 0.000000 0.000000
0.179565 0.000000 0.000000
0.348877 0.000000 0.000000
0.490967 0.000000 0.000000
0.617188 0.000000 0.000000
0.734375 0.000000 0.000000
0.839355 0.000000 0.000000
0.935059 0.000000 0.000000
0.000000 0.136597 0.000000
0.179565 0.136597 0.000000
0.348877 0.136597 0.000000
0.490967 0.136597 0.000000
0.617188 0.136597 0.000000
0.734375 0.136597 0.000000
0.839355 0.136597 0.000000
0.935059 0.136597 0.000000
0.000000 0.292480 0.000000
0.179565 0.292480 0.000000
0.348877 0.292480 0.000000
0.490967 0.292480 0.000000
0.617188 0.292480 0.000000
0.734375 0.292480 0.000000
0.839355 0.292480 0.000000
0.935059 0.292480 0.000000
0.000000 0.440918 0.000000
0.179565 0.440918 0.000000
0.348877 0.440918 0.000000
0.490967 0.440918 0.000000
0.617188 0.440918 0.000000
0.734375 0.440918 0.000000
0.839355 0.440918 0.000000
0.935059 0.440918 0.000000
0.000000 0.578613 0.000000
0.179565 0.578613 0.000000
0.348877 0.578613 0.000000
0.490967 0.578613 0.000000
0.617188 0.578613 0.000000
0.734375 0.578613 0.000000
0.839355 0.578613 0.000000
0.935059 0.579102 0.000000
0.000000 0.707520 0.000000
0.179565 0.707520 0.000000
0.348877 0.707520 0.000000
0.490967 0.707520 0.000000
0.617188 0.707520 0.000000
0.734375 0.707520 0.000000
0.839355 0.707520 0.000000
0.935059 0.707520 0.000000
0.000000 0.827637 0.000000
0.179565 0.827637 0.000000
0.348877 0.827637 0.000000
0.490967 0.827637 0.000000
0.617188 0.827637 0.000000
0.734375 0.827637 0.000000
0.839355 0.827637 0.000000
0.935059 0.827637 0.000000
0.000000 0.933594 0.000000
0.179565 0.933594 0.000000
0.348877 0.933594 0.000000
0.490967 0.933594 0.000000
0.617188 0.933594 0.000000
0.734375 0.933594 0.000000
0.839355 0.933594 0.000000
0.935059 0.933594 0.000000
0.000000 0.000000 0.120056
0.179565 0.000000 0.120056
0.348877 0.000000 0.120056
0.491211 0.000000 0.120056
0.617188 0.000000 0.120056
0.734375 0.000000 0.120056
0.839355 0.000000 0.120056
0.935059 0.000000 0.120056
0.000000 0.136597 0.120056
0.179565 0.136597 0.120056
0.348877 0.136597 0.120056
0.491211 0.136597 0.120056
0.617188 0.136597 0.120056
0.734375 0.136597 0.120056
0.839355 0.136597 0.120056
0.935059 0.136597 0.120056
0.000000 0.292480 0.120056
0.179565 0.292480 0.120056
0.348877 0.292480 0.120056
0.491211 0.292480 0.120056
0.617188 0.292480 0.120056
0.734375 0.292480 0.120056
0.839355 0.292480 0.120056
0.935059 0.292480 0.120056
0.000000 0.440918 0.120056
0.179565 0.440918 0.120056
0.348877 0.440918 0.120056
0.491211 0.440918 0.120056
0.617188 0.440918 0.120056
0.734375 0.440918 0.120056
0.839355 0.440918 0.120056
0.935059 0.440918 0.120056
0.000000 0.578613 0.120056
0.179565 0.578613 0.120056
0.348877 0.578613 0.120056
0.491211 0.578613 0.120056
0.617188 0.578613 0.120056
0.734375 0.578613 0.120056
0.839355 0.578613 0.120056
0.935059 0.578613 0.120056
0.000000 0.707520 0.120056
0.179565 0.707520 0.120056
0.348877 0.707520 0.120056
0.491211 0.707520 0.120056
0.617188 0.707520 0.120056
0.734375 0.707520 0.120056
0.839355 0.707520 0.120056
0.935059 0.707520 0.120056
0.000000 0.827637 0.120056
0.179565 0.827637 0.120056
0.348877 0.827637 0.120056
0.491211 0.827637 0.120056
0.617188 0.827637 0.120056
0.734375 0.827637 0.120056
0.839355 0.827637 0.120056
0.935059 0.827637 0.120056
0.000000 0.933594 0.120056
0.179565 0.933594 0.120056
0.348877 0.933594 0.120056
0.491211 0.933594 0.120056
0.617188 0.933594 0.120056
0.734375 0.933594 0.120056
0.839355 0.933594 0.120056
0.935059 0.933594 0.120056
0.000000 0.000000 0.259277
0.179565 0.000000 0.259277
0.348877 0.000000 0.259277
0.491211 0.000000 0.259277
0.617188 0.000000 0.259277
0.734375 0.000000 0.259277
0.839355 0.000000 0.259277
0.935059 0.000000 0.259277
0.000000 0.136597 0.259277
0.179565 0.136597 0.259277
0.348877 0.136597 0.259277
0.491211 0.136597 0.259277
0.617188 0.136597 0.259277
0.734375 0.136597 0.259277
0.839355 0.136597 0.259277
0.935059 0.136597 0.259277
0.000000 0.292480 0.259277
0.179565 0.292480 0.259277
0.348877 0.292480 0.259277
0.491211 0.292480 0.259277
0.617188 0.292480 0.259277
0.734375 0.292480 0.259277
0.839355 0.292480 0.259277
0.935059 0.292480 0.259277
0.000000 0.440918 0.259277
0.179565 0.440918 0.259277
0.348877 0.440918 0.259277
0.491211 0.440918 0.259277
0.617188 0.440918 0.259277
0.734375 0.440918 0.259277
0.839355 0.440918 0.259277
0.935059 0.440918 0.259277
0.000000 0.578613 0.259277
0.179565 0.578613 0.259277
0.348877 0.578613 0.259277
0.491211 0.578613 0.259277
0.617188 0.578613 0.259277
0.734375 0.578613 0.259277
0.839355 0.578613 0.259277
0.935059 0.578613 0.259277
0.000000 0.707520 0.259277
0.179565 0.707520 0.259277
0.348877 0.707520 0.259277
0.491211 0.707520 0.259277
0.617188 0.707520 0.259277
0.734375 0.707520 0.259277
0.839355 0.707520 0.259277
0.935059 0.707520 0.259277
0.000000 0.827637 0.259277
0.179565 0.827637 0.259277
0.348877 0.827637 0.259277
0.491211 0.827637 0.259277
0.617188 0.827637 0.259277
0.734375 0.827637 0.259277
0.839355 0.827637 0.259277
0.935059 0.827637 0.259277
0.000000 0.933594 0.259277
0.179565 0.933594 0.259277
0.348877 0.933594 0.259277
0.491211 0.933594 0.259277
0.617188 0.933594 0.259277
0.734375 0.933594 0.259277
0.839355 0.933594 0.259277
0.935059 0.933594 0.259277
0.000000 0.000000 0.400146
0.179688 0.000000 0.400146
0.348877 0.000000 0.400146
0.491211 0.000000 0.400146
0.617188 0.000000 0.400146
0.734375 0.000000 0.400146
0.839355 0.000000 0.400146
0.935059 0.000000 0.400146
0.000000 0.136597 0.400146
0.179688 0.136597 0.400146
0.348877 0.136597 0.400146
0.491211 0.136597 0.400146
0.617188 0.136597 0.400146
0.734375 0.136597 0.400146
0.839355 0.136597 0.400146
0.935059 0.136597 0.400146
0.000000 0.292480 0.400146
0.179688 0.292480 0.400146
0.348877 0.292480 0.400146
0.491211 0.292480 0.400146
0.617188 0.292480 0.400146
0.734375 0.292480 0.400146
0.839355 0.292480 0.400146
0.935059 0.292480 0.400146
0.000000 0.440918 0.400146
0.179688 0.440918 0.400146
0.348877 0.440918 0.400146
0.491211 0.440918 0.400146
0.617188 0.440918 0.400146
0.734375 0.440918 0.400146
0.839355 0.440918 0.400146
0.935059 0.440918 0.400146
0.000000 0.578613 0.400146
0.179688 0.578613 0.400146
0.348877 0.578613 0.400146
0.491211 0.578613 0.400146
0.617188 0.578613 0.400146
0.734375 0.578613 0.400146
0.839355 0.578613 0.400146
0.935059 0.578613 0.400146
0.000000 0.707520 0.400146
0.179688 0.707520 0.400146
0.348877 0.707520 0.400146
0.491211 0.707520 0.400146
0.617188 0.707520 0.400146
0.734375 0.707520 0.400146
0.839355 0.707520 0.400146
0.935059 0.707520 0.400146
0.000000 0.827637 0.400146
0.179688 0.827637 0.400146
0.348877 0.827637 0.400146
0.491211 0.827637 0.400146
0.617188 0.827637 0.400146
0.734375 0.827637 0.400146
0.839355 0.827637 0.400146
0.935059 0.827637 0.400146
0.000000 0.933594 0.400146
0.179688 0.933594 0.400146
0.348877 0.933594 0.400146
0.491211 0.933594 0.400146
0.617188 0.933594 0.400146
0.734375 0.933594 0.400146
0.839355 0.933594 0.400146
0.935059 0.933594 0.400146
0.000001 0.000000 0.539063
0.179688 0.000000 0.539063
0.348877 0.000000 0.539063
0.491211 0.000000 0.539063
0.617676 0.000000 0.539063
0.734375 0.000000 0.539063
0.839355 0.000000 0.539063
0.935059 0.000000 0.539063
0.000001 0.136475 0.539063
0.179688 0.136597 0.539063
0.348877 0.136597 0.539063
0.491211 0.136597 0.539063
0.617676 0.136597 0.539063
0.734375 0.136597 0.539063
0.839355 0.136597 0.539063
0.935059 0.136597 0.539063
0.000001 0.292480 0.539063
0.179688 0.292480 0.539063
0.348877 0.292480 0.539063
0.491211 0.292480 0.539063
0.617676 0.292480 0.539063
0.734375 0.292480 0.539063
0.839355 0.292480 0.539063
0.935059 0.292480 0.539063
0.000001 0.440918 0.539063
0.179688 0.440918 0.539063
0.348877 0.440918 0.539063
0.491211 0.440918 0.539063
0.617676 0.440918 0.539063
0.734375 0.440918 0.539063
0.839355 0.440918 0.539063
0.935059 0.440918 0.539063
0.000001 0.578613 0.539063
0.179688 0.578613 0.539063
0.348877 0.578613 0.539063
0.491211 0.578613 0.539063
0.617676 0.578613 0.539063
0.734375 0.578613 0.539063
0.839355 0.578613 0.539063
0.935059 0.578613 0.539063
0.000001 0.707520 0.539063
0.179688 0.707520 0.539063
0.348877 0.707520 0.539063
0.491211 0.707520 0.539063
0.617676 0.707520 0.539063
0.734375 0.707520 0.539063
0.839355 0.707520 0.539063
0.935059 0.707520 0.539063
0.000001 0.827637 0.539063
0.179688 0.827637 0.539063
0.348877 0.827637 0.539063
0.491211 0.827637 0.539063
0.617676 0.827637 0.539063
0.734375 0.827637 0.539063
0.839355 0.827637 0.539063
0.935059 0.827637 0.539063
0.000001 0.933594 0.539063
0.179688 0.933594 0.539063
0.348877 0.933594 0.539063
0.491211 0.933594 0.539063
0.617676 0.933594 0.539063
0.734375 0.933594 0.539063
0.839355 0.933594 0.539063
0.935059 0.933594 0.539063
0.000001 0.000000 0.673340
0.179688 0.000000 0.673340
0.348877 0.000000 0.673340
0.491211 0.000000 0.673340
0.617676 0.000000 0.673340
0.734375 0.000000 0.673340
0.839355 0.000000 0.673340
0.935059 0.000000 0.673340
0.000001 0.136475 0.673340
0.179688 0.136475 0.673340
0.348877 0.136597 0.673340
0.491211 0.136597 0.673340
0.617676 0.136597 0.673340
0.734375 0.136597 0.673340
0.839355 0.136597 0.673340
0.935059 0.136597 0.673340
0.000001 0.292480 0.673340
0.179688 0.292480 0.673340
0.348877 0.292480 0.673340
0.491211 0.292480 0.673340
0.617676 0.292480 0.673340
0.734375 0.292480 0.673340
0.839355 0.292480 0.673340
0.935059 0.292480 0.673340
0.000001 0.440918 0.673340
0.179688 0.440918 0.673340
0.348877 0.440918 0.673340
0.491211 0.440918 0.673340
0.617676 0.440918 0.673340
0.734375 0.440918 0.673340
0.839355 0.440918 0.673340
0.935059 0.440918 0.673340
0.000001 0.578613 0.673340
0.179688 0.578613 0.673340
0.348877 0.578613 0.673340
0.491211 0.578613 0.673340
0.617676 0.578613 0.673340
0.734375 0.578613 0.673340
0.839355 0.578613 0.673340
0.935059 0.578613 0.673340
0.000001 0.707520 0.673340
0.179688 0.707520 0.673340
0.348877 0.707520 0.673340
0.491211 0.707520 0.673340
0.617676 0.707520 0.673340
0.734375 0.707520 0.673340
0.839355 0.707520 0.673340
0.935059 0.707520 0.673340
0.000001 0.827637 0.673340
0.179688 0.827637 0.673340
0.348877 0.827637 0.673340
0.491211 0.827637 0.673340
0.617676 0.827637 0.673340
0.734375 0.827637 0.673340
0.839355 0.827637 0.673340
0.935059 0.827637 0.673340
0.000001 0.933594 0.673340
0.179688 0.933594 0.673340
0.348877 0.933594 0.673340
0.491211 0.933594 0.673340
0.617676 0.933594 0.673340
0.734375 0.933594 0.673340
0.839355 0.933594 0.673340
0.935059 0.933594 0.673340
0.000002 0.000000 0.801270
0.179688 0.000000 0.801270
0.348877 0.000000 0.801270
0.491211 0.000000 0.801270
0.617676 0.000000 0.801270
0.734375 0.000000 0.801270
0.839355 0.000000 0.801270
0.935059 0.000000 0.801270
0.000002 0.136475 0.801270
0.179810 0.136475 0.801270
0.348877 0.136475 0.801270
0.491211 0.136597 0.801270
0.617676 0.136597 0.801270
0.734375 0.136597 0.801270
0.839355 0.136597 0.801270
0.935059 0.136597 0.801270
0.000002 0.292480 0.801270
0.179810 0.292480 0.801270
0.348877 0.292480 0.801270
0.491211 0.292480 0.801270
0.617676 0.292480 0.801270
0.734375 0.292480 0.801270
0.839355 0.292480 0.801270
0.935059 0.292480 0.801270
0.000002 0.440918 0.801270
0.179810 0.440918 0.801270
0.348877 0.440918 0.801270
0.491211 0.440918 0.801270
0.617676 0.440918 0.801270
0.734375 0.440918 0.801270
0.839355 0.440918 0.801270
0.935059 0.440918 0.801270
0.000002 0.578613 0.801270
0.179810 0.578613 0.801270
0.348877 0.578613 0.801270
0.491211 0.578613 0.801270
0.617676 0.578613 0.801270
0.734375 0.578613 0.801270
0.839355 0.578613 0.801270
0.935059 0.578613 0.801270
0.000002 0.707520 0.801270
0.179810 0.707520 0.801270
0.348877 0.707520 0.801270
0.491211 0.707520 0.801270
0.617676 0.707520 0.801270
0.734375 0.707520 0.801270
0.839355 0.707520 0.801270
0.935059 0.707520 0.801270
0.000002 0.827637 0.801270
0.179810 0.827637 0.801270
0.348877 0.827637 0.801270
0.491211 0.827637 0.801270
0.617676 0.827637 0.801270
0.734375 0.827637 0.801270
0.839355 0.827637 0.801270
0.935059 0.827637 0.801270
0.000002 0.933594 0.801270
0.179810 0.933594 0.801270
0.348877 0.933594 0.801270
0.491211 0.933594 0.801270
0.617676 0.933594 0.801270
0.734375 0.933594 0.801270
0.839355 0.933594 0.801270
0.935059 0.933594 0.801270
0.000002 0.000000 0.922363
0.179810 0.000000 0.922363
0.348877 0.000000 0.922363
0.491211 0.000000 0.922363
0.617676 0.000000 0.922363
0.734375 0.000000 0.922363
0.839355 0.000000 0.922363
0.935059 0.000000 0.922363
0.000002 0.136475 0.922363
0.179810 0.136475 0.922363
0.348877 0.136475 0.922363
0.491211 0.136475 0.922363
0.617676 0.136597 0.922363
0.734375 0.136597 0.922363
0.839355 0.136597 0.922363
0.935059 0.136597 0.922363
0.000002 0.292480 0.922363
0.179810 0.292480 0.922363
0.348877 0.292480 0.922363
0.491211 0.292480 0.922363
0.617676 0.292480 0.922363
0.734375 0.292480 0.922363
0.839355 0.292480 0.922363
0.935059 0.292480 0.922363
0.000002 0.440918 0.922363
0.179810 0.440918 0.922363
0.348877 0.440918 0.922363
0.491211 0.440918 0.922363
0.617676 0.440918 0.922363
0.734375 0.440918 0.922363
0.839355 0.440918 0.922363
0.935059 0.440918 0.922363
0.000002 0.578613 0.922363
0.179810 0.578613 0.922363
0.348877 0.578613 0.922363
0.491211 0.578613 0.922363
0.617676 0.578613 0.922363
0.734375 0.578613 0.922363
0.839355 0.578613 0.922363
0.935059 0.578613 0.922363
0.000002 0.707520 0.922363
0.179810 0.707520 0.922363
0.348877 0.707520 0.922363
0.491211 0.707520 0.922363
0.617676 0.707520 0.922363
0.734375 0.707520 0.922363
0.839355 0.707520 0.922363
0.935059 0.707520 0.922363
0.000002 0.827637 0.922363
0.179810 0.827637 0.922363
0.348877 0.827637 0.922363
0.491211 0.827637 0.922363
0.617676 0.827637 0.922363
0.734375 0.827637 0.922363
0.839355 0.827637 0.922363
0.935059 0.827637 0.922363
0.000002 0.933594 0.922363
0.179810 0.933594 0.922363
0.348877 0.933594 0.922363
0.491211 0.933594 0.922363
0.617676 0.933594 0.922363
0.734375 0.933594 0.922363
0.839355 0.933594 0.922363
0.935059 0.933594 0.922363
