cubelut/Adanmq_Ektachrome 320t.cube
TITLE "Generated by Foundry::LUT"
LUT_3D_SIZE 8
DOMAIN_MIN 0.000000 0.000000 0.000000
DOMAIN_MAX 0.903226 0.903226 0.903226
0.000000 0.000000 0.000000
0.032043 0.000000 0.000000
0.285400 0.000000 0.000000
0.562500 0.000000 0.000000
0.762695 0.000000 0.000000
0.872559 0.000000 0.000000
0.934082 0.000000 0.000000
0.978027 0.000000 0.000000
0.000000 0.018494 0.000000
0.032043 0.018494 0.000000
0.285400 0.018494 0.000000
0.562500 0.018494 0.000000
0.762695 0.018494 0.000000
0.872559 0.018494 0.000000
0.934082 0.018494 0.000000
0.978027 0.018509 0.000000
0.000000 0.220825 0.000000
0.032043 0.220825 0.000000
0.285400 0.220825 0.000000
0.562500 0.220825 0.000000
0.762695 0.220825 0.000000
0.872559 0.220825 0.000000
0.934082 0.220825 0.000000
0.978027 0.220825 0.000000
0.000000 0.496582 0.000000
0.032043 0.496582 0.000000
0.285400 0.496582 0.000000
0.562500 0.496582 0.000000
0.762695 0.496582 0.000000
0.872559 0.496582 0.000000
0.934082 0.496582 0.000000
0.978027 0.496582 0.000000
0.000000 0.697754 0.000000
0.032043 0.697754 0.000000
0.285400 0.697754 0.000000
0.562500 0.697754 0.000000
0.762695 0.697754 0.000000
0.872559 0.697754 0.000000
0.934082 0.697754 0.000000
0.978027 0.697754 0.000000
0.000000 0.833984 0.000000
0.032043 0.833984 0.000000
0.285400 0.833984 0.000000
0.562500 0.833984 0.000000
0.762695 0.833984 0.000000
0.872559 0.833984 0.000000
0.934082 0.833984 0.000000
0.978027 0.833984 0.000000
0.000000 0.922852 0.000000
0.032043 0.922852 0.000000
0.285400 0.922852 0.000000
0.562500 0.922852 0.000000
0.762695 0.922852 0.000000
0.872559 0.922852 0.000000
0.934082 0.922852 0.000000
0.978027 0.922852 0.000000
0.000000 0.977539 0.000000
0.032043 0.977539 0.000000
0.285400 0.977539 0.000000
0.562500 0.977539 0.000000
0.762695 0.977539 0.000000
0.872559 0.977539 0.000000
0.934082 0.977539 0.000000
0.978027 0.977539 0.000000
0.000000 0.000000 0.009476
0.032074 0.000000 0.009476
0.285400 0.000000 0.009476
0.562500 0.000000 0.009476
0.762695 0.000000 0.009476
0.872559 0.000000 0.009476
0.934082 0.000000 0.009476
0.978027 0.000000 0.009476
0.000000 0.018494 0.009476
0.032074 0.018494 0.009476
0.285400 0.018494 0.009476
0.562500 0.018494 0.009476
0.762695 0.018494 0.009476
0.872559 0.018494 0.009476
0.934082 0.018494 0.009476
0.978027 0.018509 0.009476
0.000000 0.220825 0.009476
0.032074 0.220825 0.009476
0.285400 0.220825 0.009476
0.562500 0.220825 0.009476
0.762695 0.220825 0.009476
0.872559 0.220825 0.009476
0.934082 0.220825 0.009476
0.978027 0.220825 0.009476
0.000000 0.496582 0.009476
0.032074 0.496582 0.009476
0.285400 0.496582 0.009476
0.562500 0.496582 0.009476
0.762695 0.496582 0.009476
0.872559 0.496582 0.009476
0.934082 0.496582 0.009476
0.978027 0.496582 0.009476
0.000000 0.697754 0.009476
0.032074 0.697754 0.009476
0.285400 0.697754 0.009476
0.562500 0.697754 0.009476
0.762695 0.697754 0.009483
0.872559 0.697754 0.009483
0.934082 0.697754 0.009483
0.978027 0.697754 0.009483
0.000000 0.833984 0.009483
0.032074 0.833984 0.009483
0.285400 0.833984 0.009483
0.562500 0.833984 0.009483
0.762695 0.833984 0.009483
0.872559 0.833984 0.009483
0.934082 0.833984 0.009483
0.978027 0.833984 0.009483
0.000000 0.922852 0.009483
0.032074 0.922852 0.009483
0.285400 0.922852 0.009483
0.562500 0.922852 0.009483
0.762695 0.922852 0.009483
0.872559 0.922852 0.009483
0.934082 0.922852 0.009483
0.978027 0.922852 0.009483
0.000000 0.977539 0.009483
0.032074 0.977539 0.009483
0.285400 0.977539 0.009483
0.562500 0.977539 0.009483
0.762695 0.977539 0.009483
0.872559 0.977539 0.009483
0.934082 0.977539 0.009483
0.978027 0.977539 0.009483
0.000000 0.000000 0.147949
0.032104 0.000000 0.147949
0.285645 0.000000 0.147949
0.562500 0.000000 0.147949
0.762695 0.000000 0.147949
0.872559 0.000000 0.147949
0.934082 0.000000 0.147949
0.978027 0.000000 0.147949
0.000000 0.018494 0.147949
0.032104 0.018494 0.147949
0.285645 0.018494 0.147949
0.562500 0.018494 0.147949
0.762695 0.018494 0.147949
0.872559 0.018494 0.147949
0.934082 0.018494 0.147949
0.978027 0.018494 0.147949
0.000000 0.220825 0.148071
0.032104 0.220825 0.148071
0.285645 0.220825 0.148071
0.562500 0.220825 0.148071
0.762695 0.220825 0.148071
0.872559 0.220825 0.148071
0.934082 0.220825 0.148071
0.978027 0.220825 0.148071
0.000000 0.496582 0.148071
0.032104 0.496582 0.148071
0.285645 0.496582 0.148071
0.562500 0.496582 0.148071
0.762695 0.496582 0.148071
0.872559 0.496582 0.148071
0.934082 0.496582 0.148071
0.978027 0.496582 0.148071
0.000000 0.697754 0.148071
0.032104 0.697754 0.148071
0.285645 0.697754 0.148071
0.562500 0.697754 0.148071
0.762695 0.697754 0.148071
0.872559 0.697754 0.148071
0.934082 0.697754 0.148071
0.978027 0.697754 0.148071
0.000000 0.833984 0.148071
0.032104 0.833984 0.148071
0.285645 0.833984 0.148071
0.562500 0.833984 0.148071
0.762695 0.833984 0.148071
0.872559 0.833984 0.148071
0.934082 0.833984 0.148071
0.978027 0.833984 0.148071
0.000000 0.922852 0.148071
0.032104 0.922852 0.148071
0.285645 0.922852 0.148071
0.562500 0.922852 0.148071
0.762695 0.922852 0.148071
0.872559 0.922852 0.148071
0.934082 0.922852 0.148071
0.978027 0.922852 0.148071
0.000000 0.977539 0.148071
0.032104 0.977539 0.148071
0.285645 0.977539 0.148071
0.562500 0.977539 0.148071
0.762695 0.977539 0.148071
0.872559 0.977539 0.148071
0.934082 0.977539 0.148071
0.978027 0.977539 0.148071
0.000000 0.000000 0.393555
0.032104 0.000000 0.393555
0.285645 0.000000 0.393555
0.562500 0.000000 0.393555
0.762695 0.000000 0.393555
0.872559 0.000000 0.393555
0.934082 0.000000 0.393555
0.978027 0.000000 0.393555
0.000000 0.018478 0.393555
0.032104 0.018494 0.393555
0.285645 0.018494 0.393555
0.562500 0.018494 0.393555
0.762695 0.018494 0.393555
0.872559 0.018494 0.393555
0.934082 0.018494 0.393555
0.978027 0.018494 0.393555
0.000000 0.220825 0.393555
0.032104 0.220825 0.393555
0.285645 0.220825 0.393555
0.562500 0.220825 0.393555
0.762695 0.220825 0.393555
0.872559 0.220825 0.393555
0.934082 0.220825 0.393555
0.978027 0.220825 0.393555
0.000000 0.496582 0.393555
0.032104 0.496582 0.393555
0.285645 0.496582 0.393555
0.562500 0.496582 0.393555
0.762695 0.496582 0.393555
0.872559 0.496582 0.393555
0.934082 0.496582 0.393555
0.978027 0.496582 0.393555
0.000000 0.697754 0.393555
0.032104 0.697754 0.393555
0.285645 0.697754 0.393555
0.562500 0.697754 0.393555
0.762695 0.697754 0.393555
0.872559 0.697754 0.393555
0.934082 0.697754 0.393555
0.978027 0.697754 0.393555
0.000000 0.833984 0.393555
0.032104 0.833984 0.393555
0.285645 0.833984 0.393555
0.562500 0.833984 0.393555
0.762695 0.833984 0.393555
0.872559 0.833984 0.393555
0.934082 0.833984 0.393555
0.978027 0.833984 0.393555
0.000000 0.922852 0.393555
0.032104 0.922852 0.393555
0.285645 0.922852 0.393555
0.562500 0.922852 0.393555
0.762695 0.922852 0.393555
0.872559 0.922852 0.393555
0.934082 0.922852 0.393555
0.978027 0.922852 0.393555
0.000000 0.977539 0.393555
0.032104 0.977539 0.393555
0.285645 0.977539 0.393555
0.562500 0.977539 0.393555
0.762695 0.977539 0.393555
0.872559 0.977539 0.393555
0.934082 0.977539 0.393555
0.978027 0.977539 0.393555
0.000000 0.000000 0.623047
0.032135 0.000000 0.623047
0.285645 0.000000 0.623047
0.562500 0.000000 0.623047
0.762695 0.000000 0.623047
0.872559 0.000000 0.623047
0.934082 0.000000 0.623047
0.978027 0.000000 0.623047
0.000000 0.018478 0.623047
0.032135 0.018478 0.623047
0.285645 0.018494 0.623047
0.562500 0.018494 0.623047
0.762695 0.018494 0.623047
0.872559 0.018494 0.623047
0.934082 0.018494 0.623047
0.978027 0.018494 0.623047
0.000000 0.220825 0.623047
0.032135 0.220825 0.623047
0.285645 0.220825 0.623047
0.562500 0.220825 0.623047
0.762695 0.220825 0.623047
0.872559 0.220825 0.623047
0.934082 0.220825 0.623047
0.978027 0.220825 0.623047
0.000000 0.496582 0.623047
0.032135 0.496582 0.623047
0.285645 0.496582 0.623047
0.562500 0.496582 0.623047
0.762695 0.496582 0.623047
0.872559 0.496582 0.623047
0.934082 0.496582 0.623047
0.978027 0.496582 0.623047
0.000000 0.697754 0.623047
0.032135 0.697754 0.623047
0.285645 0.697754 0.623047
0.562500 0.697754 0.623047
0.762695 0.697754 0.623047
0.872559 0.697754 0.623047
0.934082 0.697754 0.623047
0.978027 0.697754 0.623047
0.000000 0.833984 0.623047
0.032135 0.833984 0.623047
0.285645 0.833984 0.623047
0.562500 0.833984 0.623047
0.762695 0.833984 0.623047
0.872559 0.833984 0.623047
0.934082 0.833984 0.623047
0.978027 0.833984 0.623047
0.000000 0.922852 0.623047
0.032135 0.922852 0.623047
0.285645 0.922852 0.623047
0.562500 0.922852 0.623047
0.762695 0.922852 0.623047
0.872559 0.922852 0.623047
0.934082 0.922852 0.623047
0.978027 0.922852 0.623047
0.000000 0.977539 0.623047
0.032135 0.977539 0.623047
0.285645 0.977539 0.623047
0.562500 0.977539 0.623047
0.762695 0.977539 0.623047
0.872559 0.977539 0.623047
0.934082 0.977539 0.623047
0.978027 0.977539 0.623047
0.000000 0.000000 0.783691
0.032166 0.000000 0.783691
0.285645 0.000000 0.783691
0.562500 0.000000 0.783691
0.762695 0.000000 0.783691
0.872559 0.000000 0.783691
0.934082 0.000000 0.783691
0.978027 0.000000 0.783691
0.000000 0.018478 0.783691
0.032166 0.018478 0.783691
0.285645 0.018478 0.783691
0.562500 0.018494 0.783691
0.762695 0.018494 0.783691
0.872559 0.018494 0.783691
0.934082 0.018494 0.783691
0.978027 0.018494 0.783691
0.000000 0.220825 0.783691
0.032166 0.220825 0.783691
0.285645 0.220825 0.783691
0.562500 0.220825 0.783691
0.762695 0.220825 0.783691
0.872559 0.220825 0.783691
0.934082 0.220825 0.783691
0.978027 0.220825 0.783691
0.000000 0.496582 0.783691
0.032166 0.496582 0.783691
0.285645 0.496582 0.783691
0.562500 0.496582 0.783691
0.762695 0.496582 0.783691
0.872559 0.496582 0.783691
0.934082 0.496582 0.783691
0.978027 0.496582 0.783691
0.000000 0.697754 0.783691
0.032166 0.697754 0.783691
0.285645 0.697754 0.783691
0.562500 0.697754 0.783691
0.762695 0.697754 0.783691
0.872559 0.697754 0.783691
0.934082 0.697754 0.783691
0.978027 0.697754 0.783691
0.000000 0.833984 0.783691
0.032166 0.833984 0.783691
0.285645 0.833984 0.783691
0.562500 0.833984 0.783691
0.762695 0.833984 0.783691
0.872559 0.833984 0.783691
0.934082 0.833984 0.783691
0.978027 0.833984 0.783691
0.000000 0.922852 0.783691
0.032166 0.922852 0.783691
0.285645 0.922852 0.783691
0.562500 0.922852 0.783691
0.762695 0.922852 0.783691
0.872559 0.922852 0.783691
0.934082 0.922852 0.783691
0.978027 0.922852 0.783691
0.000000 0.977539 0.783691
0.032166 0.977539 0.783691
0.285645 0.977539 0.783691
0.562500 0.977539 0.783691
0.762695 0.977539 0.783691
0.872559 0.977539 0.783691
0.934082 0.977539 0.783691
0.978027 0.977539 0.783691
0.000000 0.000000 0.897461
0.032196 0.000000 0.897461
0.285645 0.000000 0.897461
0.562988 0.000000 0.897461
0.763184 0.000000 0.897461
0.872559 0.000000 0.897461
0.934082 0.000000 0.897461
0.978027 0.000000 0.897461
0.000000 0.018478 0.897461
0.032196 0.018478 0.897461
0.285645 0.018478 0.897461
0.562988 0.018478 0.897461
0.763184 0.018494 0.897461
0.872559 0.018494 0.897461
0.934082 0.018494 0.897461
0.978027 0.018494 0.897461
0.000000 0.220825 0.897461
0.032196 0.220825 0.897461
0.285645 0.220825 0.897461
0.562988 0.220825 0.897461
0.763184 0.220825 0.897461
0.872559 0.220825 0.897461
0.934082 0.220825 0.897461
0.978027 0.220825 0.897461
0.000000 0.496582 0.897461
0.032196 0.496582 0.897461
0.285645 0.496582 0.897461
0.562988 0.496582 0.897461
0.763184 0.496582 0.897461
0.872559 0.496582 0.897461
0.934082 0.496582 0.897461
0.978027 0.496582 0.897461
0.000000 0.697754 0.897461
0.032196 0.697754 0.897461
0.285645 0.697754 0.897461
0.562988 0.697754 0.897461
0.763184 0.697754 0.897461
0.872559 0.697754 0.897461
0.934082 0.697754 0.897461
0.978027 0.697754 0.897461
0.000000 0.833984 0.897461
0.032196 0.833984 0.897461
0.285645 0.833984 0.897461
0.562988 0.833984 0.897461
0.763184 0.833984 0.897461
0.872559 0.833984 0.897461
0.934082 0.833984 0.897461
0.978027 0.833984 0.897461
0.000000 0.922852 0.897461
0.032196 0.922852 0.897461
0.285645 0.922852 0.897461
0.562988 0.922852 0.897461
0.763184 0.922852 0.897461
0.872559 0.922852 0.897461
0.934082 0.922852 0.897461
0.978027 0.922852 0.897461
0.000000 0.977539 0.897461
0.032196 0.977539 0.897461
0.285645 0.977539 0.897461
0.562988 0.977539 0.897461
0.763184 0.977539 0.897461
0.872559 0.977539 0.897461
0.934082 0.977539 0.897461
0.978027 0.977539 0.897461
0.000000 0.000000 0.971191
0.032196 0.000000 0.971191
0.285889 0.000000 0.971191
0.562988 0.000000 0.971191
0.763184 0.000000 0.971191
0.872559 0.000000 0.971191
0.934082 0.000000 0.971191
0.978027 0.000000 0.971191
0.000000 0.018478 0.971191
0.032196 0.018478 0.971191
0.285889 0.018478 0.971191
0.562988 0.018478 0.971191
0.763184 0.018478 0.971191
0.872559 0.018494 0.971191
0.934082 0.018494 0.971191
0.978027 0.018494 0.971191
0.000000 0.220825 0.971191
0.032196 0.220825 0.971191
0.285889 0.220825 0.971191
0.562988 0.220825 0.971191
0.763184 0.220825 0.971191
0.872559 0.220825 0.971191
0.934082 0.220825 0.971191
0.978027 0.220825 0.971191
0.000000 0.496582 0.971191
0.032196 0.496582 0.971191
0.285889 0.496582 0.971191
0.562988 0.496582 0.971191
0.763184 0.496582 0.971191
0.872559 0.496582 0.971191
0.934082 0.496582 0.971191
0.978027 0.496582 0.971191
0.000000 0.697754 0.971191
0.032196 0.697754 0.971191
0.285889 0.697754 0.971191
0.562988 0.697754 0.971191
0.763184 0.697754 0.971191
0.872559 0.697754 0.971191
0.934082 0.697754 0.971191
0.978027 0.697754 0.971191
0.000000 0.833984 0.971191
0.032196 0.833984 0.971191
0.285889 0.833984 0.971191
0.562988 0.833984 0.971191
0.763184 0.833984 0.971191
0.872559 0.833984 0.971191
0.934082 0.833984 0.971191
0.978027 0.833984 0.971191
0.000000 0.922852 0.971191
0.032196 0.922852 0.971191
0.285889 0.922852 0.971191
0.562988 0.922852 0.971191
0.763184 0.922852 0.971191
0.872559 0.922852 0.971191
0.934082 0.922852 0.971191
0.978027 0.922852 0.971191
0.000000 0.977539 0.971191
0.032196 0.977539 0.971191
0.285889 0.977539 0.971191
0.562988 0.977539 0.971191
0.763184 0.977539 0.971191
0.872559 0.977539 0.971191
0.934082 0.977539 0.971191
0.978027 0.977539 0.971191
