cubelut/Adanmq_Kodachrome 25.cube
TITLE "Generated by Foundry::LUT"
LUT_3D_SIZE 8
DOMAIN_MIN 0.000000 0.000000 0.000000
DOMAIN_MAX 0.903226 0.903226 0.903226
0.000000 0.000000 0.000000
0.003187 0.000000 0.000000
0.051575 0.000000 0.000000
0.211548 0.000000 0.000000
0.464600 0.000000 0.000000
0.678223 0.000000 0.000000
0.832520 0.000000 0.000000
0.942383 0.000000 0.000000
0.000000 0.002880 0.000000
0.003187 0.002880 0.000000
0.051575 0.002880 0.000000
0.211548 0.002880 0.000000
0.464600 0.002882 0.000000
0.678223 0.002882 0.000000
0.832520 0.002882 0.000000
0.942383 0.002882 0.000000
0.000000 0.041931 0.000000
0.003187 0.041931 0.000000
0.051575 0.041931 0.000000
0.211548 0.041931 0.000000
0.464600 0.041931 0.000000
0.678223 0.041931 0.000000
0.832520 0.041931 0.000000
0.942383 0.041931 0.000000
0.000000 0.166504 0.000000
0.003187 0.166504 0.000000
0.051575 0.166504 0.000000
0.211548 0.166504 0.000000
0.464600 0.166504 0.000000
0.678223 0.166504 0.000000
0.832520 0.166504 0.000000
0.942383 0.166504 0.000000
0.000000 0.377930 0.000000
0.003187 0.377930 0.000000
0.051575 0.377930 0.000000
0.211548 0.377930 0.000000
0.464600 0.377930 0.000000
0.678223 0.377930 0.000000
0.832520 0.377930 0.000000
0.942383 0.377930 0.000000
0.000000 0.587402 0.000000
0.003187 0.587402 0.000000
0.051575 0.587402 0.000000
0.211548 0.587402 0.000000
0.464600 0.587402 0.000000
0.678223 0.587402 0.000000
0.832520 0.587402 0.000000
0.942383 0.587402 0.000000
0.000000 0.765137 0.000000
0.003187 0.765137 0.000000
0.051575 0.765137 0.000000
0.211548 0.765137 0.000000
0.464600 0.765137 0.000000
0.678223 0.765137 0.000000
0.832520 0.765137 0.000000
0.942383 0.765137 0.000000
0.000000 0.912109 0.000000
0.003187 0.912109 0.000000
0.051575 0.912109 0.000000
0.211548 0.912109 0.000000
0.464600 0.912109 0.000000
0.678223 0.912109 0.000000
0.832520 0.912109 0.000000
0.942383 0.912109 0.000000
0.000000 0.000000 0.001966
0.003189 0.000000 0.001966
0.051605 0.000000 0.001966
0.211548 0.000000 0.001966
0.464600 0.000000 0.001966
0.678223 0.000000 0.001966
0.832520 0.000000 0.001966
0.942383 0.000000 0.001966
0.000000 0.002880 0.001966
0.003189 0.002880 0.001966
0.051605 0.002880 0.001966
0.211548 0.002880 0.001966
0.464600 0.002880 0.001966
0.678223 0.002882 0.001966
0.832520 0.002882 0.001966
0.942383 0.002882 0.001966
0.000000 0.041931 0.001966
0.003189 0.041931 0.001966
0.051605 0.041931 0.001966
0.211548 0.041931 0.001966
0.464600 0.041931 0.001966
0.678223 0.041931 0.001966
0.832520 0.041931 0.001966
0.942383 0.041931 0.001966
0.000000 0.166504 0.001968
0.003189 0.166504 0.001968
0.051605 0.166504 0.001968
0.211548 0.166504 0.001968
0.464600 0.166504 0.001968
0.678223 0.166504 0.001968
0.832520 0.166504 0.001968
0.942383 0.166504 0.001968
0.000000 0.377930 0.001968
0.003189 0.377930 0.001968
0.051605 0.377930 0.001968
0.211548 0.377930 0.001968
0.464600 0.377930 0.001968
0.678223 0.377930 0.001968
0.832520 0.377930 0.001968
0.942383 0.377930 0.001968
0.000000 0.587402 0.001968
0.003189 0.587402 0.001968
0.051605 0.587402 0.001968
0.211548 0.587402 0.001968
0.464600 0.587402 0.001968
0.678223 0.587402 0.001968
0.832520 0.587402 0.001968
0.942383 0.587402 0.001968
0.000000 0.765137 0.001968
0.003189 0.765137 0.001968
0.051605 0.765137 0.001968
0.211548 0.765137 0.001968
0.464600 0.765137 0.001968
0.678223 0.765137 0.001968
0.832520 0.765137 0.001968
0.942383 0.765137 0.001968
0.000000 0.912109 0.001968
0.003189 0.912109 0.001968
0.051605 0.912109 0.001968
0.211548 0.912109 0.001968
0.464600 0.912109 0.001968
0.678223 0.912109 0.001968
0.832520 0.912109 0.001968
0.942383 0.912109 0.001968
0.000000 0.000000 0.033142
0.003193 0.000000 0.033142
0.051605 0.000000 0.033142
0.211548 0.000000 0.033142
0.464600 0.000000 0.033142
0.678223 0.000000 0.033142
0.832520 0.000000 0.033142
0.942383 0.000000 0.033142
0.000000 0.002880 0.033142
0.003193 0.002880 0.033142
0.051605 0.002880 0.033142
0.211548 0.002880 0.033142
0.464600 0.002880 0.033142
0.678223 0.002880 0.033142
0.832520 0.002882 0.033142
0.942383 0.002882 0.033142
0.000000 0.041931 0.033142
0.003193 0.041931 0.033142
0.051605 0.041931 0.033142
0.211548 0.041931 0.033142
0.464600 0.041931 0.033142
0.678223 0.041931 0.033142
0.832520 0.041931 0.033142
0.942383 0.041931 0.033142
0.000000 0.166504 0.033142
0.003193 0.166504 0.033142
0.051605 0.166504 0.033142
0.211548 0.166504 0.033142
0.464600 0.166504 0.033142
0.678223 0.166504 0.033142
0.832520 0.166504 0.033142
0.942383 0.166504 0.033142
0.000000 0.377930 0.033142
0.003193 0.377930 0.033142
0.051605 0.377930 0.033142
0.211548 0.377930 0.033142
0.464600 0.377930 0.033142
0.678223 0.377930 0.033142
0.832520 0.377930 0.033142
0.942383 0.377930 0.033142
0.000000 0.587402 0.033142
0.003193 0.587402 0.033142
0.051605 0.587402 0.033142
0.211548 0.587402 0.033142
0.464600 0.587402 0.033142
0.678223 0.587402 0.033142
0.832520 0.587402 0.033142
0.942383 0.587402 0.033142
0.000000 0.765137 0.033142
0.003193 0.765137 0.033142
0.051605 0.765137 0.033142
0.211548 0.765137 0.033142
0.464600 0.765137 0.033142
0.678223 0.765137 0.033142
0.832520 0.765137 0.033142
0.942383 0.765137 0.033142
0.000000 0.912109 0.033142
0.003193 0.912109 0.033142
0.051605 0.912109 0.033142
0.211548 0.912109 0.033142
0.464600 0.912109 0.033142
0.678223 0.912109 0.033142
0.832520 0.912109 0.033142
0.942383 0.912109 0.033142
0.000000 0.000000 0.160400
0.003195 0.000000 0.160400
0.051636 0.000000 0.160400
0.211670 0.000000 0.160400
0.464600 0.000000 0.160400
0.678223 0.000000 0.160400
0.833008 0.000000 0.160400
0.942383 0.000000 0.160400
0.000000 0.002880 0.160400
0.003195 0.002880 0.160400
0.051636 0.002880 0.160400
0.211670 0.002880 0.160400
0.464600 0.002880 0.160400
0.678223 0.002880 0.160400
0.833008 0.002880 0.160400
0.942383 0.002882 0.160400
0.000000 0.041931 0.160400
0.003195 0.041931 0.160400
0.051636 0.041931 0.160400
0.211670 0.041931 0.160400
0.464600 0.041931 0.160400
0.678223 0.041931 0.160400
0.833008 0.041931 0.160400
0.942383 0.041931 0.160400
0.000000 0.166504 0.160400
0.003195 0.166504 0.160400
0.051636 0.166504 0.160400
0.211670 0.166504 0.160400
0.464600 0.166504 0.160400
0.678223 0.166504 0.160400
0.833008 0.166504 0.160400
0.942383 0.166504 0.160400
0.000000 0.377930 0.160400
0.003195 0.377930 0.160400
0.051636 0.377930 0.160400
0.211670 0.377930 0.160400
0.464600 0.377930 0.160400
0.678223 0.377930 0.160400
0.833008 0.377930 0.160400
0.942383 0.377930 0.160400
0.000000 0.587402 0.160400
0.003195 0.587402 0.160400
0.051636 0.587402 0.160400
0.211670 0.587402 0.160400
0.464600 0.587402 0.160400
0.678223 0.587402 0.160400
0.833008 0.587402 0.160400
0.942383 0.587402 0.160400
0.000000 0.765137 0.160400
0.003195 0.765137 0.160400
0.051636 0.765137 0.160400
0.211670 0.765137 0.160400
0.464600 0.765137 0.160400
0.678223 0.765137 0.160400
0.833008 0.765137 0.160400
0.942383 0.765137 0.160400
0.000000 0.912109 0.160400
0.003195 0.912109 0.160400
0.051636 0.912109 0.160400
0.211670 0.912109 0.160400
0.464600 0.912109 0.160400
0.678223 0.912109 0.160400
0.833008 0.912109 0.160400
0.942383 0.912109 0.160400
0.000000 0.000000 0.382813
0.003197 0.000000 0.382813
0.051636 0.000000 0.382813
0.211670 0.000000 0.382813
0.464600 0.000000 0.382813
0.678223 0.000000 0.382813
0.833008 0.000000 0.382813
0.942383 0.000000 0.382813
0.000000 0.002880 0.382813
0.003197 0.002880 0.382813
0.051636 0.002880 0.382813
0.211670 0.002880 0.382813
0.464600 0.002880 0.382813
0.678223 0.002880 0.382813
0.833008 0.002880 0.382813
0.942383 0.002880 0.382813
0.000000 0.041931 0.382813
0.003197 0.041931 0.382813
0.051636 0.041931 0.382813
0.211670 0.041931 0.382813
0.464600 0.041931 0.382813
0.678223 0.041931 0.383057
0.833008 0.041931 0.383057
0.942383 0.041931 0.383057
0.000000 0.166504 0.383057
0.003197 0.166504 0.383057
0.051636 0.166504 0.383057
0.211670 0.166504 0.383057
0.464600 0.166504 0.383057
0.678223 0.166504 0.383057
0.833008 0.166504 0.383057
0.942383 0.166504 0.383057
0.000000 0.377930 0.383057
0.003197 0.377930 0.383057
0.051636 0.377930 0.383057
0.211670 0.377930 0.383057
0.464600 0.377930 0.383057
0.678223 0.377930 0.383057
0.833008 0.377930 0.383057
0.942383 0.377930 0.383057
0.000000 0.587402 0.383057
0.003197 0.587402 0.383057
0.051636 0.587402 0.383057
0.211670 0.587402 0.383057
0.464600 0.587402 0.383057
0.678223 0.587402 0.383057
0.833008 0.587402 0.383057
0.942383 0.587402 0.383057
0.000000 0.765137 0.383057
0.003197 0.765137 0.383057
0.051636 0.765137 0.383057
0.211670 0.765137 0.383057
0.464600 0.765137 0.383057
0.678223 0.765137 0.383057
0.833008 0.765137 0.383057
0.942383 0.765137 0.383057
0.000000 0.912109 0.383057
0.003197 0.912109 0.383057
0.051636 0.912109 0.383057
0.211670 0.912109 0.383057
0.464600 0.912109 0.383057
0.678223 0.912109 0.383057
0.833008 0.912109 0.383057
0.942383 0.912109 0.383057
0.000000 0.000000 0.596680
0.003199 0.000000 0.596680
0.051666 0.000000 0.596680
0.211670 0.000000 0.596680
0.464600 0.000000 0.596680
0.678223 0.000000 0.596680
0.833008 0.000000 0.596680
0.942383 0.000000 0.596680
0.000000 0.002878 0.596680
0.003199 0.002880 0.596680
0.051666 0.002880 0.596680
0.211670 0.002880 0.596680
0.464600 0.002880 0.596680
0.678223 0.002880 0.596680
0.833008 0.002880 0.596680
0.942383 0.002880 0.596680
0.000000 0.041931 0.596680
0.003199 0.041931 0.596680
0.051666 0.041931 0.596680
0.211670 0.041931 0.596680
0.464600 0.041931 0.596680
0.678223 0.041931 0.596680
0.833008 0.041931 0.596680
0.942383 0.041931 0.596680
0.000000 0.166382 0.596680
0.003199 0.166504 0.596680
0.051666 0.166504 0.596680
0.211670 0.166504 0.596680
0.464600 0.166504 0.596680
0.678223 0.166504 0.596680
0.833008 0.166504 0.596680
0.942383 0.166504 0.596680
0.000000 0.377930 0.596680
0.003199 0.377930 0.596680
0.051666 0.377930 0.596680
0.211670 0.377930 0.596680
0.464600 0.377930 0.596680
0.678223 0.377930 0.596680
0.833008 0.377930 0.596680
0.942383 0.377930 0.596680
0.000000 0.587402 0.596680
0.003199 0.587402 0.596680
0.051666 0.587402 0.596680
0.211670 0.587402 0.596680
0.464600 0.587402 0.596680
0.678223 0.587402 0.596680
0.833008 0.587402 0.596680
0.942383 0.587402 0.596680
0.000000 0.765137 0.596680
0.003199 0.765137 0.596680
0.051666 0.765137 0.596680
0.211670 0.765137 0.596680
0.464600 0.765137 0.596680
0.678223 0.765137 0.596680
0.833008 0.765137 0.596680
0.942383 0.765137 0.596680
0.000000 0.912109 0.596680
0.003199 0.912109 0.596680
0.051666 0.912109 0.596680
0.211670 0.912109 0.596680
0.464600 0.912109 0.596680
0.678223 0.912109 0.596680
0.833008 0.912109 0.596680
0.942383 0.912109 0.596680
0.000000 0.000000 0.773926
0.003201 0.000000 0.773926
0.051666 0.000000 0.773926
0.211792 0.000000 0.773926
0.464844 0.000000 0.773926
0.678223 0.000000 0.773926
0.833008 0.000000 0.773926
0.942383 0.000000 0.773926
0.000000 0.002878 0.774414
0.003201 0.002878 0.774414
0.051666 0.002880 0.774414
0.211792 0.002880 0.774414
0.464844 0.002880 0.774414
0.678223 0.002880 0.774414
0.833008 0.002880 0.774414
0.942383 0.002880 0.774414
0.000000 0.041931 0.774414
0.003201 0.041931 0.774414
0.051666 0.041931 0.774414
0.211792 0.041931 0.774414
0.464844 0.041931 0.774414
0.678223 0.041931 0.774414
0.833008 0.041931 0.774414
0.942383 0.041931 0.774414
0.000000 0.166382 0.774414
0.003201 0.166382 0.774414
0.051666 0.166504 0.774414
0.211792 0.166504 0.774414
0.464844 0.166504 0.774414
0.678223 0.166504 0.774414
0.833008 0.166504 0.774414
0.942383 0.166504 0.774414
0.000000 0.377930 0.774414
0.003201 0.377930 0.774414
0.051666 0.377930 0.774414
0.211792 0.377930 0.774414
0.464844 0.377930 0.774414
0.678223 0.377930 0.774414
0.833008 0.377930 0.774414
0.942383 0.377930 0.774414
0.000000 0.587402 0.774414
0.003201 0.587402 0.774414
0.051666 0.587402 0.774414
0.211792 0.587402 0.774414
0.464844 0.587402 0.774414
0.678223 0.587402 0.774414
0.833008 0.587402 0.774414
0.942383 0.587402 0.774414
0.000000 0.765137 0.774414
0.003201 0.765137 0.774414
0.051666 0.765137 0.774414
0.211792 0.765137 0.774414
0.464844 0.765137 0.774414
0.678223 0.765137 0.774414
0.833008 0.765137 0.774414
0.942383 0.765137 0.774414
0.000000 0.912109 0.774414
0.003201 0.912109 0.774414
0.051666 0.912109 0.774414
0.211792 0.912109 0.774414
0.464844 0.912109 0.774414
0.678223 0.912109 0.774414
0.833008 0.912109 0.774414
0.942383 0.912109 0.774414
0.000000 0.000000 0.913086
0.003204 0.000000 0.913086
0.051697 0.000000 0.913086
0.211792 0.000000 0.913086
0.464844 0.000000 0.913086
0.678223 0.000000 0.913086
0.833008 0.000000 0.913086
0.942383 0.000000 0.913086
0.000000 0.002878 0.913086
0.003204 0.002878 0.913086
0.051697 0.002878 0.913086
0.211792 0.002880 0.913086
0.464844 0.002880 0.913086
0.678223 0.002880 0.913086
0.833008 0.002880 0.913086
0.942383 0.002880 0.913086
0.000000 0.041931 0.913086
0.003204 0.041931 0.913086
0.051697 0.041931 0.913086
0.211792 0.041931 0.913086
0.464844 0.041931 0.913086
0.678223 0.041931 0.913086
0.833008 0.041931 0.913086
0.942383 0.041931 0.913086
0.000000 0.166382 0.913086
0.003204 0.166382 0.913086
0.051697 0.166504 0.913086
0.211792 0.166504 0.913086
0.464844 0.166504 0.913086
0.678223 0.166504 0.913086
0.833008 0.166504 0.913086
0.942383 0.166504 0.913086
0.000000 0.377930 0.913086
0.003204 0.377930 0.913086
0.051697 0.377930 0.913086
0.211792 0.377930 0.913086
0.464844 0.377930 0.913086
0.678223 0.377930 0.913086
0.833008 0.377930 0.913086
0.942383 0.377930 0.913086
0.000000 0.587402 0.913086
0.003204 0.587402 0.913086
0.051697 0.587402 0.913086
0.211792 0.587402 0.913086
0.464844 0.587402 0.913086
0.678223 0.587402 0.913086
0.833008 0.587402 0.913086
0.942383 0.587402 0.913086
0.000000 0.765137 0.913086
0.003204 0.765137 0.913086
0.051697 0.765137 0.913086
0.211792 0.765137 0.913086
0.464844 0.765137 0.913086
0.678223 0.765137 0.913086
0.833008 0.765137 0.913086
0.942383 0.765137 0.913086
0.000000 0.912109 0.913086
0.003204 0.912109 0.913086
0.051697 0.912109 0.913086
0.211792 0.912109 0.913086
0.464844 0.912109 0.913086
0.678223 0.912109 0.913086
0.833008 0.912109 0.913086
0.942383 0.912109 0.913086
