cubelut/Adanmq_Ektachrome 64.cube
TITLE "Generated by Foundry::LUT"
LUT_3D_SIZE 32
0.000000 0.000000 0.000000
0.000215 0.000000 0.000000
0.003750 0.000000 0.000000
0.020401 0.000000 0.000000
0.060913 0.000000 0.000000
0.127197 0.000000 0.000000
0.209595 0.000000 0.000000
0.295654 0.000000 0.000000
0.379639 0.000000 0.000000
0.456299 0.000000 0.000000
0.525391 0.000000 0.000000
0.585938 0.000000 0.000000
0.637695 0.000000 0.000000
0.681641 0.000000 0.000000
0.719238 0.000000 0.000000
0.750488 0.000000 0.000000
0.778320 0.000000 0.000000
0.803711 0.000000 0.000000
0.826172 0.000000 0.000000
0.845215 0.000000 0.000000
0.863281 0.000000 0.000000
0.881348 0.000000 0.000000
0.898438 0.000000 0.000000
0.914063 0.000000 0.000000
0.927246 0.000000 0.000000
0.938477 0.000000 0.000000
0.949707 0.000000 0.000000
0.960449 0.000000 0.000000
0.971191 0.000000 0.000000
0.980957 0.000000 0.000000
0.990723 0.000000 0.000000
1.000000 0.000000 0.000000
0.000000 0.000072 0.000000
0.000215 0.000072 0.000000
0.003750 0.000072 0.000000
0.020401 0.000072 0.000000
0.060913 0.000072 0.000000
0.127197 0.000072 0.000000
0.209595 0.000072 0.000000
0.295654 0.000072 0.000000
0.379639 0.000072 0.000000
0.456299 0.000072 0.000000
0.525391 0.000072 0.000000
0.585938 0.000072 0.000000
0.637695 0.000072 0.000000
0.681641 0.000072 0.000000
0.719238 0.000072 0.000000
0.750488 0.000072 0.000000
0.778320 0.000072 0.000000
0.803711 0.000072 0.000000
0.826172 0.000072 0.000000
0.845215 0.000072 0.000000
0.863281 0.000072 0.000000
0.881348 0.000072 0.000000
0.898438 0.000072 0.000000
0.914063 0.000072 0.000000
0.927246 0.000072 0.000000
0.938477 0.000072 0.000000
0.949707 0.000072 0.000000
0.960449 0.000072 0.000000
0.971191 0.000072 0.000000
0.980957 0.000072 0.000000
0.990723 0.000072 0.000000
1.000000 0.000072 0.000000
0.000000 0.001409 0.000000
0.000215 0.001409 0.000000
0.003750 0.001409 0.000000
0.020401 0.001409 0.000000
0.060913 0.001409 0.000000
0.127197 0.001410 0.000000
0.209595 0.001410 0.000000
0.295654 0.001410 0.000000
0.379639 0.001410 0.000000
0.456299 0.001410 0.000000
0.525391 0.001410 0.000000
0.585938 0.001410 0.000000
0.637695 0.001410 0.000000
0.681641 0.001410 0.000000
0.719238 0.001410 0.000000
0.750488 0.001410 0.000000
0.778320 0.001410 0.000000
0.803711 0.001410 0.000000
0.826172 0.001410 0.000000
0.845215 0.001410 0.000000
0.863281 0.001410 0.000000
0.881348 0.001410 0.000000
0.898438 0.001410 0.000000
0.914063 0.001410 0.000000
0.927246 0.001410 0.000000
0.938477 0.001410 0.000000
0.949707 0.001410 0.000000
0.960449 0.001410 0.000000
0.971191 0.001410 0.000000
0.980957 0.001410 0.000000
0.990723 0.001410 0.000000
1.000000 0.001410 0.000000
0.000000 0.008965 0.000000
0.000215 0.008965 0.000000
0.003750 0.008965 0.000000
0.020401 0.008965 0.000000
0.060913 0.008965 0.000000
0.127197 0.008965 0.000000
0.209595 0.008965 0.000000
0.295654 0.008965 0.000000
0.379639 0.008965 0.000000
0.456299 0.008965 0.000000
0.525391 0.008972 0.000000
0.585938 0.008972 0.000000
0.637695 0.008972 0.000000
0.681641 0.008972 0.000000
0.719238 0.008972 0.000000
0.750488 0.008972 0.000000
0.778320 0.008972 0.000000
0.803711 0.008972 0.000000
0.826172 0.008972 0.000000
0.845215 0.008972 0.000000
0.863281 0.008972 0.000000
0.881348 0.008972 0.000000
0.898438 0.008972 0.000000
0.914063 0.008972 0.000000
0.927246 0.008972 0.000000
0.938477 0.008972 0.000000
0.949707 0.008972 0.000000
0.960449 0.008972 0.000000
0.971191 0.008972 0.000000
0.980957 0.008972 0.000000
0.990723 0.008972 0.000000
1.000000 0.008972 0.000000
0.000000 0.031143 0.000000
0.000215 0.031143 0.000000
0.003750 0.031143 0.000000
0.020401 0.031143 0.000000
0.060913 0.031158 0.000000
0.127197 0.031158 0.000000
0.209595 0.031158 0.000000
0.295654 0.031158 0.000000
0.379639 0.031158 0.000000
0.456299 0.031158 0.000000
0.525391 0.031158 0.000000
0.585938 0.031158 0.000000
0.637695 0.031158 0.000000
0.681641 0.031158 0.000000
0.719238 0.031158 0.000000
0.750488 0.031158 0.000000
0.778320 0.031158 0.000000
0.803711 0.031158 0.000000
0.826172 0.031158 0.000000
0.845215 0.031158 0.000000
0.863281 0.031158 0.000000
0.881348 0.031158 0.000000
0.898438 0.031158 0.000000
0.914063 0.031158 0.000000
0.927246 0.031158 0.000000
0.938477 0.031158 0.000000
0.949707 0.031174 0.000000
0.960449 0.031174 0.000000
0.971191 0.031174 0.000000
0.980957 0.031174 0.000000
0.990723 0.031174 0.000000
1.000000 0.031174 0.000000
0.000000 0.073608 0.000000
0.000215 0.073608 0.000000
0.003750 0.073669 0.000000
0.020401 0.073669 0.000000
0.060913 0.073669 0.000000
0.127197 0.073669 0.000000
0.209595 0.073669 0.000000
0.295654 0.073669 0.000000
0.379639 0.073669 0.000000
0.456299 0.073669 0.000000
0.525391 0.073669 0.000000
0.585938 0.073669 0.000000
0.637695 0.073669 0.000000
0.681641 0.073669 0.000000
0.719238 0.073669 0.000000
0.750488 0.073669 0.000000
0.778320 0.073669 0.000000
0.803711 0.073669 0.000000
0.826172 0.073669 0.000000
0.845215 0.073669 0.000000
0.863281 0.073669 0.000000
0.881348 0.073669 0.000000
0.898438 0.073669 0.000000
0.914063 0.073669 0.000000
0.927246 0.073669 0.000000
0.938477 0.073669 0.000000
0.949707 0.073669 0.000000
0.960449 0.073669 0.000000
0.971191 0.073669 0.000000
0.980957 0.073669 0.000000
0.990723 0.073669 0.000000
1.000000 0.073669 0.000000
0.000000 0.133545 0.000000
0.000215 0.133545 0.000000
0.003750 0.133545 0.000000
0.020401 0.133545 0.000000
0.060913 0.133545 0.000000
0.127197 0.133545 0.000000
0.209595 0.133545 0.000000
0.295654 0.133545 0.000000
0.379639 0.133545 0.000000
0.456299 0.133545 0.000000
0.525391 0.133545 0.000000
0.585938 0.133545 0.000000
0.637695 0.133545 0.000000
0.681641 0.133545 0.000000
0.719238 0.133545 0.000000
0.750488 0.133545 0.000000
0.778320 0.133545 0.000000
0.803711 0.133545 0.000000
0.826172 0.133545 0.000000
0.845215 0.133545 0.000000
0.863281 0.133545 0.000000
0.881348 0.133545 0.000000
0.898438 0.133545 0.000000
0.914063 0.133545 0.000000
0.927246 0.133545 0.000000
0.938477 0.133545 0.000000
0.949707 0.133545 0.000000
0.960449 0.133545 0.000000
0.971191 0.133545 0.000000
0.980957 0.133545 0.000000
0.990723 0.133545 0.000000
1.000000 0.133545 0.000000
0.000000 0.204468 0.000000
0.000215 0.204468 0.000000
0.003750 0.204468 0.000000
0.020401 0.204468 0.000000
0.060913 0.204468 0.000000
0.127197 0.204468 0.000000
0.209595 0.204468 0.000000
0.295654 0.204468 0.000000
0.379639 0.204468 0.000000
0.456299 0.204468 0.000000
0.525391 0.204468 0.000000
0.585938 0.204468 0.000000
0.637695 0.204468 0.000000
0.681641 0.204468 0.000000
0.719238 0.204468 0.000000
0.750488 0.204468 0.000000
0.778320 0.204468 0.000000
0.803711 0.204468 0.000000
0.826172 0.204468 0.000000
0.845215 0.204468 0.000000
0.863281 0.204468 0.000000
0.881348 0.204468 0.000000
0.898438 0.204468 0.000000
0.914063 0.204468 0.000000
0.927246 0.204468 0.000000
0.938477 0.204468 0.000000
0.949707 0.204468 0.000000
0.960449 0.204468 0.000000
0.971191 0.204468 0.000000
0.980957 0.204468 0.000000
0.990723 0.204468 0.000000
1.000000 0.204468 0.000000
0.000000 0.278076 0.000000
0.000215 0.278076 0.000000
0.003750 0.278076 0.000000
0.020401 0.278076 0.000000
0.060913 0.278076 0.000000
0.127197 0.278076 0.000000
0.209595 0.278076 0.000000
0.295654 0.278076 0.000000
0.379639 0.278076 0.000000
0.456299 0.278076 0.000000
0.525391 0.278076 0.000000
0.585938 0.278076 0.000000
0.637695 0.278076 0.000000
0.681641 0.278076 0.000000
0.719238 0.278076 0.000000
0.750488 0.278076 0.000000
0.778320 0.278076 0.000000
0.803711 0.278076 0.000000
0.826172 0.278076 0.000000
0.845215 0.278076 0.000000
0.863281 0.278076 0.000000
0.881348 0.278076 0.000000
0.898438 0.278076 0.000000
0.914063 0.278076 0.000000
0.927246 0.278076 0.000000
0.938477 0.278076 0.000000
0.949707 0.278076 0.000000
0.960449 0.278076 0.000000
0.971191 0.278076 0.000000
0.980957 0.278076 0.000000
0.990723 0.278076 0.000000
1.000000 0.278076 0.000000
0.000000 0.352539 0.000000
0.000215 0.352539 0.000000
0.003750 0.352539 0.000000
0.020401 0.352539 0.000000
0.060913 0.352539 0.000000
0.127197 0.352539 0.000000
0.209595 0.352539 0.000000
0.295654 0.352539 0.000000
0.379639 0.352539 0.000000
0.456299 0.352539 0.000000
0.525391 0.352539 0.000000
0.585938 0.352539 0.000000
0.637695 0.352539 0.000000
0.681641 0.352539 0.000000
0.719238 0.352539 0.000000
0.750488 0.352539 0.000000
0.778320 0.352539 0.000000
0.803711 0.352539 0.000000
0.826172 0.352539 0.000000
0.845215 0.352539 0.000000
0.863281 0.352539 0.000000
0.881348 0.352539 0.000000
0.898438 0.352539 0.000000
0.914063 0.352539 0.000000
0.927246 0.352539 0.000000
0.938477 0.352539 0.000000
0.949707 0.352539 0.000000
0.960449 0.352539 0.000000
0.971191 0.352539 0.000000
0.980957 0.352539 0.000000
0.990723 0.352539 0.000000
1.000000 0.352539 0.000000
0.000000 0.422852 0.000000
0.000215 0.422852 0.000000
0.003750 0.422852 0.000000
0.020401 0.422852 0.000000
0.060913 0.422852 0.000000
0.127197 0.422852 0.000000
0.209595 0.422852 0.000000
0.295654 0.422852 0.000000
0.379639 0.422852 0.000000
0.456299 0.422852 0.000000
0.525391 0.422852 0.000000
0.585938 0.422852 0.000000
0.637695 0.422852 0.000000
0.681641 0.422852 0.000000
0.719238 0.422852 0.000000
0.750488 0.422852 0.000000
0.778320 0.422852 0.000000
0.803711 0.422852 0.000000
0.826172 0.422852 0.000000
0.845215 0.422852 0.000000
0.863281 0.422852 0.000000
0.881348 0.422852 0.000000
0.898438 0.422852 0.000000
0.914063 0.422852 0.000000
0.927246 0.422852 0.000000
0.938477 0.422852 0.000000
0.949707 0.422852 0.000000
0.960449 0.422852 0.000000
0.971191 0.422852 0.000000
0.980957 0.422852 0.000000
0.990723 0.422852 0.000000
1.000000 0.422852 0.000000
0.000000 0.489502 0.000000
0.000215 0.489502 0.000000
0.003750 0.489502 0.000000
0.020401 0.489502 0.000000
0.060913 0.489502 0.000000
0.127197 0.489502 0.000000
0.209595 0.489502 0.000000
0.295654 0.489502 0.000000
0.379639 0.489502 0.000000
0.456299 0.489502 0.000000
0.525391 0.489502 0.000000
0.585938 0.489502 0.000000
0.637695 0.489502 0.000000
0.681641 0.489502 0.000000
0.719238 0.489502 0.000000
0.750488 0.489502 0.000000
0.778320 0.489502 0.000000
0.803711 0.489502 0.000000
0.826172 0.489502 0.000000
0.845215 0.489502 0.000000
0.863281 0.489502 0.000000
0.881348 0.489502 0.000000
0.898438 0.489502 0.000000
0.914063 0.489502 0.000000
0.927246 0.489502 0.000000
0.938477 0.489502 0.000000
0.949707 0.489502 0.000000
0.960449 0.489502 0.000000
0.971191 0.489502 0.000000
0.980957 0.489502 0.000000
0.990723 0.489502 0.000000
1.000000 0.489502 0.000000
0.000000 0.550293 0.000000
0.000215 0.550293 0.000000
0.003750 0.550293 0.000000
0.020401 0.550293 0.000000
0.060913 0.550293 0.000000
0.127197 0.550293 0.000000
0.209595 0.550293 0.000000
0.295654 0.550293 0.000000
0.379639 0.550293 0.000000
0.456299 0.550293 0.000000
0.525391 0.550293 0.000000
0.585938 0.550293 0.000000
0.637695 0.550293 0.000000
0.681641 0.550293 0.000000
0.719238 0.550293 0.000000
0.750488 0.550293 0.000000
0.778320 0.550293 0.000000
0.803711 0.550293 0.000000
0.826172 0.550293 0.000000
0.845215 0.550293 0.000000
0.863281 0.550293 0.000000
0.881348 0.550293 0.000000
0.898438 0.550293 0.000000
0.914063 0.550293 0.000000
0.927246 0.550293 0.000000
0.938477 0.550293 0.000000
0.949707 0.550293 0.000000
0.960449 0.550293 0.000000
0.971191 0.550293 0.000000
0.980957 0.550293 0.000000
0.990723 0.550293 0.000000
1.000000 0.550293 0.000000
0.000000 0.604980 0.000000
0.000215 0.604980 0.000000
0.003750 0.604980 0.000000
0.020401 0.604980 0.000000
0.060913 0.604980 0.000000
0.127197 0.604980 0.000000
0.209595 0.604980 0.000000
0.295654 0.604980 0.000000
0.379639 0.604980 0.000000
0.456299 0.604980 0.000000
0.525391 0.604980 0.000000
0.585938 0.604980 0.000000
0.637695 0.604980 0.000000
0.681641 0.604980 0.000000
0.719238 0.604980 0.000000
0.750488 0.604980 0.000000
0.778320 0.604980 0.000000
0.803711 0.604980 0.000000
0.826172 0.604980 0.000000
0.845215 0.604980 0.000000
0.863281 0.604980 0.000000
0.881348 0.604980 0.000000
0.898438 0.604980 0.000000
0.914063 0.604980 0.000000
0.927246 0.604980 0.000000
0.938477 0.604980 0.000000
0.949707 0.604980 0.000000
0.960449 0.604980 0.000000
0.971191 0.604980 0.000000
0.980957 0.604980 0.000000
0.990723 0.604980 0.000000
1.000000 0.604980 0.000000
0.000000 0.652832 0.000000
0.000215 0.652832 0.000000
0.003750 0.652832 0.000000
0.020401 0.652832 0.000000
0.060913 0.652832 0.000000
0.127197 0.652832 0.000000
0.209595 0.652832 0.000000
0.295654 0.652832 0.000000
0.379639 0.652832 0.000000
0.456299 0.652832 0.000000
0.525391 0.652832 0.000000
0.585938 0.652832 0.000000
0.637695 0.652832 0.000000
0.681641 0.652832 0.000000
0.719238 0.652832 0.000000
0.750488 0.652832 0.000000
0.778320 0.652832 0.000000
0.803711 0.652832 0.000000
0.826172 0.652832 0.000000
0.845215 0.652832 0.000000
0.863281 0.652832 0.000000
0.881348 0.652832 0.000000
0.898438 0.652832 0.000000
0.914063 0.652832 0.000000
0.927246 0.652832 0.000000
0.938477 0.652832 0.000000
0.949707 0.652832 0.000000
0.960449 0.652832 0.000000
0.971191 0.652832 0.000000
0.980957 0.652832 0.000000
0.990723 0.652832 0.000000
1.000000 0.652832 0.000000
0.000000 0.694824 0.000000
0.000215 0.694824 0.000000
0.003750 0.694824 0.000000
0.020401 0.694824 0.000000
0.060913 0.694824 0.000000
0.127197 0.694824 0.000000
0.209595 0.694824 0.000000
0.295654 0.694824 0.000000
0.379639 0.694824 0.000000
0.456299 0.694824 0.000000
0.525391 0.694824 0.000000
0.585938 0.694824 0.000000
0.637695 0.694824 0.000000
0.681641 0.694824 0.000000
0.719238 0.694824 0.000000
0.750488 0.694824 0.000000
0.778320 0.694824 0.000000
0.803711 0.694824 0.000000
0.826172 0.694824 0.000000
0.845215 0.694824 0.000000
0.863281 0.694824 0.000000
0.881348 0.694824 0.000000
0.898438 0.694824 0.000000
0.914063 0.694824 0.000000
0.927246 0.694824 0.000000
0.938477 0.694824 0.000000
0.949707 0.694824 0.000000
0.960449 0.694824 0.000000
0.971191 0.694824 0.000000
0.980957 0.694824 0.000000
0.990723 0.694824 0.000000
1.000000 0.694824 0.000000
0.000000 0.731934 0.000000
0.000215 0.731934 0.000000
0.003750 0.731934 0.000000
0.020401 0.731934 0.000000
0.060913 0.731934 0.000000
0.127197 0.731934 0.000000
0.209595 0.731934 0.000000
0.295654 0.731934 0.000000
0.379639 0.731934 0.000000
0.456299 0.731934 0.000000
0.525391 0.731934 0.000000
0.585938 0.731934 0.000000
0.637695 0.731934 0.000000
0.681641 0.731934 0.000000
0.719238 0.731934 0.000000
0.750488 0.731934 0.000000
0.778320 0.731934 0.000000
0.803711 0.731934 0.000000
0.826172 0.731934 0.000000
0.845215 0.731934 0.000000
0.863281 0.731934 0.000000
0.881348 0.731934 0.000000
0.898438 0.731934 0.000000
0.914063 0.731934 0.000000
0.927246 0.731934 0.000000
0.938477 0.731934 0.000000
0.949707 0.731934 0.000000
0.960449 0.731934 0.000000
0.971191 0.731934 0.000000
0.980957 0.731934 0.000000
0.990723 0.731934 0.000000
1.000000 0.731934 0.000000
0.000000 0.765625 0.000000
0.000215 0.765625 0.000000
0.003750 0.765625 0.000000
0.020401 0.765625 0.000000
0.060913 0.765625 0.000000
0.127197 0.765625 0.000000
0.209595 0.765625 0.000000
0.295654 0.765625 0.000000
0.379639 0.765625 0.000000
0.456299 0.765625 0.000000
0.525391 0.765625 0.000000
0.585938 0.765625 0.000000
0.637695 0.765625 0.000000
0.681641 0.765625 0.000000
0.719238 0.765625 0.000000
0.750488 0.765625 0.000000
0.778320 0.765625 0.000000
0.803711 0.765625 0.000000
0.826172 0.765625 0.000000
0.845215 0.765625 0.000000
0.863281 0.765625 0.000000
0.881348 0.765625 0.000000
0.898438 0.765625 0.000000
0.914063 0.765625 0.000000
0.927246 0.765625 0.000000
0.938477 0.765625 0.000000
0.949707 0.765625 0.000000
0.960449 0.765625 0.000000
0.971191 0.765625 0.000000
0.980957 0.765625 0.000000
0.990723 0.765625 0.000000
1.000000 0.765625 0.000000
0.000000 0.796387 0.000000
0.000215 0.796387 0.000000
0.003750 0.796387 0.000000
0.020401 0.796387 0.000000
0.060913 0.796387 0.000000
0.127197 0.796387 0.000000
0.209595 0.796387 0.000000
0.295654 0.796387 0.000000
0.379639 0.796387 0.000000
0.456299 0.796387 0.000000
0.525391 0.796387 0.000000
0.585938 0.796387 0.000000
0.637695 0.796387 0.000000
0.681641 0.796387 0.000000
0.719238 0.796387 0.000000
0.750488 0.796387 0.000000
0.778320 0.796387 0.000000
0.803711 0.796387 0.000000
0.826172 0.796387 0.000000
0.845215 0.796387 0.000000
0.863281 0.796387 0.000000
0.881348 0.796387 0.000000
0.898438 0.796387 0.000000
0.914063 0.796387 0.000000
0.927246 0.796387 0.000000
0.938477 0.796387 0.000000
0.949707 0.796387 0.000000
0.960449 0.796387 0.000000
0.971191 0.796387 0.000000
0.980957 0.796387 0.000000
0.990723 0.796387 0.000000
1.000000 0.796387 0.000000
0.000000 0.822754 0.000000
0.000215 0.822754 0.000000
0.003750 0.822754 0.000000
0.020401 0.822754 0.000000
0.060913 0.822754 0.000000
0.127197 0.822754 0.000000
0.209595 0.822754 0.000000
0.295654 0.822754 0.000000
0.379639 0.822754 0.000000
0.456299 0.822754 0.000000
0.525391 0.822754 0.000000
0.585938 0.822754 0.000000
0.637695 0.822754 0.000000
0.681641 0.822754 0.000000
0.719238 0.822754 0.000000
0.750488 0.822754 0.000000
0.778320 0.822754 0.000000
0.803711 0.822754 0.000000
0.826172 0.822754 0.000000
0.845215 0.822754 0.000000
0.863281 0.822754 0.000000
0.881348 0.822754 0.000000
0.898438 0.822754 0.000000
0.914063 0.822754 0.000000
0.927246 0.822754 0.000000
0.938477 0.822754 0.000000
0.949707 0.822754 0.000000
0.960449 0.822754 0.000000
0.971191 0.822754 0.000000
0.980957 0.822754 0.000000
0.990723 0.822754 0.000000
1.000000 0.822754 0.000000
0.000000 0.845215 0.000000
0.000215 0.845215 0.000000
0.003750 0.845215 0.000000
0.020401 0.845215 0.000000
0.060913 0.845215 0.000000
0.127197 0.845215 0.000000
0.209595 0.845215 0.000000
0.295654 0.845215 0.000000
0.379639 0.845215 0.000000
0.456299 0.845215 0.000000
0.525391 0.845215 0.000000
0.585938 0.845215 0.000000
0.637695 0.845215 0.000000
0.681641 0.845215 0.000000
0.719238 0.845215 0.000000
0.750488 0.845215 0.000000
0.778320 0.845215 0.000000
0.803711 0.845215 0.000000
0.826172 0.845215 0.000000
0.845215 0.845215 0.000000
0.863281 0.845215 0.000000
0.881348 0.845215 0.000000
0.898438 0.845215 0.000000
0.914063 0.845215 0.000000
0.927246 0.845215 0.000000
0.938477 0.845215 0.000000
0.949707 0.845215 0.000000
0.960449 0.845215 0.000000
0.971191 0.845215 0.000000
0.980957 0.845215 0.000000
0.990723 0.845215 0.000000
1.000000 0.845215 0.000000
0.000000 0.864746 0.000000
0.000215 0.864746 0.000000
0.003750 0.864746 0.000000
0.020401 0.864746 0.000000
0.060913 0.864746 0.000000
0.127197 0.864746 0.000000
0.209595 0.864746 0.000000
0.295654 0.864746 0.000000
0.379639 0.864746 0.000000
0.456299 0.864746 0.000000
0.525391 0.864746 0.000000
0.585938 0.864746 0.000000
0.637695 0.864746 0.000000
0.681641 0.864746 0.000000
0.719238 0.864746 0.000000
0.750488 0.864746 0.000000
0.778320 0.864746 0.000000
0.803711 0.864746 0.000000
0.826172 0.864746 0.000000
0.845215 0.864746 0.000000
0.863281 0.864746 0.000000
0.881348 0.864746 0.000000
0.898438 0.864746 0.000000
0.914063 0.864746 0.000000
0.927246 0.864746 0.000000
0.938477 0.864746 0.000000
0.949707 0.864746 0.000000
0.960449 0.864746 0.000000
0.971191 0.864746 0.000000
0.980957 0.864746 0.000000
0.990723 0.864746 0.000000
1.000000 0.864746 0.000000
0.000000 0.884277 0.000000
0.000215 0.884277 0.000000
0.003750 0.884277 0.000000
0.020401 0.884277 0.000000
0.060913 0.884277 0.000000
0.127197 0.884277 0.000000
0.209595 0.884277 0.000000
0.295654 0.884277 0.000000
0.379639 0.884277 0.000000
0.456299 0.884277 0.000000
0.525391 0.884277 0.000000
0.585938 0.884277 0.000000
0.637695 0.884277 0.000000
0.681641 0.884277 0.000000
0.719238 0.884277 0.000000
0.750488 0.884277 0.000000
0.778320 0.884277 0.000000
0.803711 0.884277 0.000000
0.826172 0.884277 0.000000
0.845215 0.884277 0.000000
0.863281 0.884277 0.000000
0.881348 0.884277 0.000000
0.898438 0.884277 0.000000
0.914063 0.884277 0.000000
0.927246 0.884277 0.000000
0.938477 0.884277 0.000000
0.949707 0.884277 0.000000
0.960449 0.884277 0.000000
0.971191 0.884277 0.000000
0.980957 0.884277 0.000000
0.990723 0.884277 0.000000
1.000000 0.884277 0.000000
0.000000 0.902344 0.000000
0.000215 0.902344 0.000000
0.003750 0.902344 0.000000
0.020401 0.902344 0.000000
0.060913 0.902344 0.000000
0.127197 0.902344 0.000000
0.209595 0.902344 0.000000
0.295654 0.902344 0.000000
0.379639 0.902344 0.000000
0.456299 0.902344 0.000000
0.525391 0.902344 0.000000
0.585938 0.902344 0.000000
0.637695 0.902344 0.000000
0.681641 0.902344 0.000000
0.719238 0.902344 0.000000
0.750488 0.902344 0.000000
0.778320 0.902344 0.000000
0.803711 0.902344 0.000000
0.826172 0.902344 0.000000
0.845215 0.902344 0.000000
0.863281 0.902344 0.000000
0.881348 0.902344 0.000000
0.898438 0.902344 0.000000
0.914063 0.902344 0.000000
0.927246 0.902344 0.000000
0.938477 0.902344 0.000000
0.949707 0.902344 0.000000
0.960449 0.902344 0.000000
0.971191 0.902344 0.000000
0.980957 0.902344 0.000000
0.990723 0.902344 0.000000
1.000000 0.902344 0.000000
0.000000 0.919434 0.000000
0.000215 0.919434 0.000000
0.003750 0.919434 0.000000
0.020401 0.919434 0.000000
0.060913 0.919434 0.000000
0.127197 0.919434 0.000000
0.209595 0.919434 0.000000
0.295654 0.919434 0.000000
0.379639 0.919434 0.000000
0.456299 0.919434 0.000000
0.525391 0.919434 0.000000
0.585938 0.919434 0.000000
0.637695 0.919434 0.000000
0.681641 0.919434 0.000000
0.719238 0.919434 0.000000
0.750488 0.919434 0.000000
0.778320 0.919434 0.000000
0.803711 0.919434 0.000000
0.826172 0.919434 0.000000
0.845215 0.919434 0.000000
0.863281 0.919434 0.000000
0.881348 0.919434 0.000000
0.898438 0.919434 0.000000
0.914063 0.919434 0.000000
0.927246 0.919434 0.000000
0.938477 0.919434 0.000000
0.949707 0.919434 0.000000
0.960449 0.919434 0.000000
0.971191 0.919434 0.000000
0.980957 0.919434 0.000000
0.990723 0.919434 0.000000
1.000000 0.919434 0.000000
0.000000 0.933594 0.000000
0.000215 0.933594 0.000000
0.003750 0.933594 0.000000
0.020401 0.933594 0.000000
0.060913 0.933594 0.000000
0.127197 0.933594 0.000000
0.209595 0.933594 0.000000
0.295654 0.933594 0.000000
0.379639 0.933594 0.000000
0.456299 0.933594 0.000000
0.525391 0.933594 0.000000
0.585938 0.933594 0.000000
0.637695 0.933594 0.000000
0.681641 0.933594 0.000000
0.719238 0.933594 0.000000
0.750488 0.933594 0.000000
0.778320 0.933594 0.000000
0.803711 0.933594 0.000000
0.826172 0.933594 0.000000
0.845215 0.933594 0.000000
0.863281 0.933594 0.000000
0.881348 0.933594 0.000000
0.898438 0.933594 0.000000
0.914063 0.933594 0.000000
0.927246 0.933594 0.000000
0.938477 0.933594 0.000000
0.949707 0.933594 0.000000
0.960449 0.933594 0.000000
0.971191 0.933594 0.000000
0.980957 0.933594 0.000000
0.990723 0.933594 0.000000
1.000000 0.933594 0.000000
0.000000 0.946289 0.000000
0.000215 0.946289 0.000000
0.003750 0.946289 0.000000
0.020401 0.946289 0.000000
0.060913 0.946289 0.000000
0.127197 0.946289 0.000000
0.209595 0.946289 0.000000
0.295654 0.946289 0.000000
0.379639 0.946289 0.000000
0.456299 0.946289 0.000000
0.525391 0.946289 0.000000
0.585938 0.946289 0.000000
0.637695 0.946289 0.000000
0.681641 0.946289 0.000000
0.719238 0.946289 0.000000
0.750488 0.946289 0.000000
0.778320 0.946289 0.000000
0.803711 0.946289 0.000000
0.826172 0.946289 0.000000
0.845215 0.946289 0.000000
0.863281 0.946289 0.000000
0.881348 0.946289 0.000000
0.898438 0.946289 0.000000
0.914063 0.946289 0.000000
0.927246 0.946289 0.000000
0.938477 0.946289 0.000000
0.949707 0.946289 0.000000
0.960449 0.946289 0.000000
0.971191 0.946289 0.000000
0.980957 0.946289 0.000000
0.990723 0.946289 0.000000
1.000000 0.946289 0.000000
0.000000 0.958008 0.000000
0.000215 0.958008 0.000000
0.003750 0.958008 0.000000
0.020401 0.958008 0.000000
0.060913 0.958008 0.000000
0.127197 0.958008 0.000000
0.209595 0.958008 0.000000
0.295654 0.958008 0.000000
0.379639 0.958008 0.000000
0.456299 0.958008 0.000000
0.525391 0.958008 0.000000
0.585938 0.958008 0.000000
0.637695 0.958008 0.000000
0.681641 0.958008 0.000000
0.719238 0.958008 0.000000
0.750488 0.958008 0.000000
0.778320 0.958008 0.000000
0.803711 0.958008 0.000000
0.826172 0.958008 0.000000
0.845215 0.958008 0.000000
0.863281 0.958008 0.000000
0.881348 0.958008 0.000000
0.898438 0.958008 0.000000
