cubelut/Adanmq_AgfaColor Futura II 100.cube
TITLE "Generated by Foundry::LUT"
LUT_3D_SIZE 32
0.000000 0.000000 0.000000
0.016510 0.000000 0.000000
0.043915 0.000000 0.000000
0.077637 0.000000 0.000000
0.115540 0.000000 0.000000
0.155396 0.000000 0.000000
0.193237 0.000000 0.000000
0.229980 0.000000 0.000000
0.267090 0.000000 0.000000
0.304932 0.000000 0.000000
0.343262 0.000000 0.000000
0.381836 0.000000 0.000000
0.421387 0.000000 0.000000
0.460449 0.000000 0.000000
0.499268 0.000000 0.000000
0.537598 0.000000 0.000000
0.574707 0.000000 0.000000
0.611816 0.000000 0.000000
0.647461 0.000000 0.000000
0.682129 0.000000 0.000000
0.715820 0.000000 0.000000
0.748047 0.000000 0.000000
0.778809 0.000000 0.000000
0.809082 0.000000 0.000000
0.837891 0.000000 0.000000
0.865723 0.000000 0.000000
0.892090 0.000000 0.000000
0.916992 0.000000 0.000000
0.940430 0.000000 0.000000
0.962402 0.000000 0.000000
0.982910 0.000000 0.000000
1.000000 0.000000 0.000000
0.000000 0.015915 0.000000
0.016510 0.015915 0.000000
0.043915 0.015915 0.000000
0.077637 0.015915 0.000000
0.115540 0.015915 0.000000
0.155396 0.015915 0.000000
0.193237 0.015915 0.000000
0.229980 0.015915 0.000000
0.267090 0.015915 0.000000
0.304932 0.015915 0.000000
0.343262 0.015915 0.000000
0.381836 0.015915 0.000000
0.421387 0.015915 0.000000
0.460449 0.015915 0.000000
0.499268 0.015915 0.000000
0.537598 0.015915 0.000000
0.574707 0.015915 0.000000
0.611816 0.015915 0.000000
0.647461 0.015915 0.000000
0.682129 0.015915 0.000000
0.715820 0.015915 0.000000
0.748047 0.015915 0.000000
0.778809 0.015930 0.000000
0.809082 0.015930 0.000000
0.837891 0.015930 0.000000
0.865723 0.015930 0.000000
0.892090 0.015930 0.000000
0.916992 0.015930 0.000000
0.940430 0.015930 0.000000
0.962402 0.015930 0.000000
0.982910 0.015930 0.000000
1.000000 0.015930 0.000000
0.000000 0.043365 0.000000
0.016510 0.043365 0.000000
0.043915 0.043365 0.000000
0.077637 0.043365 0.000000
0.115540 0.043365 0.000000
0.155396 0.043365 0.000000
0.193237 0.043365 0.000000
0.229980 0.043365 0.000000
0.267090 0.043365 0.000000
0.304932 0.043365 0.000000
0.343262 0.043365 0.000000
0.381836 0.043365 0.000000
0.421387 0.043365 0.000000
0.460449 0.043365 0.000000
0.499268 0.043365 0.000000
0.537598 0.043365 0.000000
0.574707 0.043365 0.000000
0.611816 0.043365 0.000000
0.647461 0.043365 0.000000
0.682129 0.043365 0.000000
0.715820 0.043365 0.000000
0.748047 0.043365 0.000000
0.778809 0.043365 0.000000
0.809082 0.043365 0.000000
0.837891 0.043365 0.000000
0.865723 0.043365 0.000000
0.892090 0.043365 0.000000
0.916992 0.043365 0.000000
0.940430 0.043365 0.000000
0.962402 0.043365 0.000000
0.982910 0.043365 0.000000
1.000000 0.043365 0.000000
0.000000 0.075867 0.000000
0.016510 0.075867 0.000000
0.043915 0.075867 0.000000
0.077637 0.075867 0.000000
0.115540 0.075867 0.000000
0.155396 0.075928 0.000000
0.193237 0.075928 0.000000
0.229980 0.075928 0.000000
0.267090 0.075928 0.000000
0.304932 0.075928 0.000000
0.343262 0.075928 0.000000
0.381836 0.075928 0.000000
0.421387 0.075928 0.000000
0.460449 0.075928 0.000000
0.499268 0.075928 0.000000
0.537598 0.075928 0.000000
0.574707 0.075928 0.000000
0.611816 0.075928 0.000000
0.647461 0.075928 0.000000
0.682129 0.075928 0.000000
0.715820 0.075928 0.000000
0.748047 0.075928 0.000000
0.778809 0.075928 0.000000
0.809082 0.075928 0.000000
0.837891 0.075928 0.000000
0.865723 0.075928 0.000000
0.892090 0.075928 0.000000
0.916992 0.075928 0.000000
0.940430 0.075928 0.000000
0.962402 0.075928 0.000000
0.982910 0.075928 0.000000
1.000000 0.075928 0.000000
0.000000 0.111389 0.000000
0.016510 0.111389 0.000000
0.043915 0.111389 0.000000
0.077637 0.111389 0.000000
0.115540 0.111389 0.000000
0.155396 0.111389 0.000000
0.193237 0.111389 0.000000
0.229980 0.111389 0.000000
0.267090 0.111389 0.000000
0.304932 0.111389 0.000000
0.343262 0.111389 0.000000
0.381836 0.111389 0.000000
0.421387 0.111389 0.000000
0.460449 0.111389 0.000000
0.499268 0.111389 0.000000
0.537598 0.111389 0.000000
0.574707 0.111389 0.000000
0.611816 0.111389 0.000000
0.647461 0.111389 0.000000
0.682129 0.111389 0.000000
0.715820 0.111389 0.000000
0.748047 0.111389 0.000000
0.778809 0.111389 0.000000
0.809082 0.111389 0.000000
0.837891 0.111389 0.000000
0.865723 0.111389 0.000000
0.892090 0.111389 0.000000
0.916992 0.111389 0.000000
0.940430 0.111389 0.000000
0.962402 0.111389 0.000000
0.982910 0.111389 0.000000
1.000000 0.111389 0.000000
0.000000 0.148315 0.000000
0.016510 0.148315 0.000000
0.043915 0.148315 0.000000
0.077637 0.148315 0.000000
0.115540 0.148315 0.000000
0.155396 0.148315 0.000000
0.193237 0.148315 0.000000
0.229980 0.148315 0.000000
0.267090 0.148315 0.000000
0.304932 0.148315 0.000000
0.343262 0.148315 0.000000
0.381836 0.148315 0.000000
0.421387 0.148315 0.000000
0.460449 0.148315 0.000000
0.499268 0.148315 0.000000
0.537598 0.148315 0.000000
0.574707 0.148315 0.000000
0.611816 0.148315 0.000000
0.647461 0.148315 0.000000
0.682129 0.148315 0.000000
0.715820 0.148315 0.000000
0.748047 0.148315 0.000000
0.778809 0.148315 0.000000
0.809082 0.148315 0.000000
0.837891 0.148315 0.000000
0.865723 0.148315 0.000000
0.892090 0.148315 0.000000
0.916992 0.148315 0.000000
0.940430 0.148315 0.000000
0.962402 0.148315 0.000000
0.982910 0.148315 0.000000
1.000000 0.148315 0.000000
0.000000 0.186157 0.000000
0.016510 0.186157 0.000000
0.043915 0.186157 0.000000
0.077637 0.186157 0.000000
0.115540 0.186157 0.000000
0.155396 0.186157 0.000000
0.193237 0.186157 0.000000
0.229980 0.186157 0.000000
0.267090 0.186157 0.000000
0.304932 0.186157 0.000000
0.343262 0.186157 0.000000
0.381836 0.186157 0.000000
0.421387 0.186157 0.000000
0.460449 0.186157 0.000000
0.499268 0.186157 0.000000
0.537598 0.186157 0.000000
0.574707 0.186157 0.000000
0.611816 0.186157 0.000000
0.647461 0.186157 0.000000
0.682129 0.186157 0.000000
0.715820 0.186157 0.000000
0.748047 0.186157 0.000000
0.778809 0.186157 0.000000
0.809082 0.186157 0.000000
0.837891 0.186157 0.000000
0.865723 0.186157 0.000000
0.892090 0.186157 0.000000
0.916992 0.186157 0.000000
0.940430 0.186157 0.000000
0.962402 0.186157 0.000000
0.982910 0.186157 0.000000
1.000000 0.186157 0.000000
0.000000 0.224243 0.000000
0.016510 0.224243 0.000000
0.043915 0.224243 0.000000
0.077637 0.224243 0.000000
0.115540 0.224243 0.000000
0.155396 0.224243 0.000000
0.193237 0.224243 0.000000
0.229980 0.224243 0.000000
0.267090 0.224243 0.000000
0.304932 0.224243 0.000000
0.343262 0.224243 0.000000
0.381836 0.224243 0.000000
0.421387 0.224243 0.000000
0.460449 0.224243 0.000000
0.499268 0.224243 0.000000
0.537598 0.224243 0.000000
0.574707 0.224365 0.000000
0.611816 0.224365 0.000000
0.647461 0.224365 0.000000
0.682129 0.224365 0.000000
0.715820 0.224365 0.000000
0.748047 0.224365 0.000000
0.778809 0.224365 0.000000
0.809082 0.224365 0.000000
0.837891 0.224365 0.000000
0.865723 0.224365 0.000000
0.892090 0.224365 0.000000
0.916992 0.224365 0.000000
0.940430 0.224365 0.000000
0.962402 0.224365 0.000000
0.982910 0.224365 0.000000
1.000000 0.224365 0.000000
0.000000 0.262695 0.000000
0.016510 0.262695 0.000000
0.043915 0.262695 0.000000
0.077637 0.262695 0.000000
0.115540 0.262695 0.000000
0.155396 0.262695 0.000000
0.193237 0.262695 0.000000
0.229980 0.262695 0.000000
0.267090 0.262695 0.000000
0.304932 0.262695 0.000000
0.343262 0.262695 0.000000
0.381836 0.262695 0.000000
0.421387 0.262695 0.000000
0.460449 0.262695 0.000000
0.499268 0.262695 0.000000
0.537598 0.262695 0.000000
0.574707 0.262695 0.000000
0.611816 0.262695 0.000000
0.647461 0.262695 0.000000
0.682129 0.262695 0.000000
0.715820 0.262695 0.000000
0.748047 0.262695 0.000000
0.778809 0.262695 0.000000
0.809082 0.262695 0.000000
0.837891 0.262695 0.000000
0.865723 0.262695 0.000000
0.892090 0.262695 0.000000
0.916992 0.262695 0.000000
0.940430 0.262695 0.000000
0.962402 0.262695 0.000000
0.982910 0.262695 0.000000
1.000000 0.262695 0.000000
0.000000 0.300537 0.000000
0.016510 0.300537 0.000000
0.043915 0.300537 0.000000
0.077637 0.300537 0.000000
0.115540 0.300537 0.000000
0.155396 0.300537 0.000000
0.193237 0.300537 0.000000
0.229980 0.300537 0.000000
0.267090 0.300537 0.000000
0.304932 0.300537 0.000000
0.343262 0.300537 0.000000
0.381836 0.300537 0.000000
0.421387 0.300537 0.000000
0.460449 0.300537 0.000000
0.499268 0.300537 0.000000
0.537598 0.300537 0.000000
0.574707 0.300537 0.000000
0.611816 0.300537 0.000000
0.647461 0.300537 0.000000
0.682129 0.300537 0.000000
0.715820 0.300537 0.000000
0.748047 0.300537 0.000000
0.778809 0.300537 0.000000
0.809082 0.300537 0.000000
0.837891 0.300537 0.000000
0.865723 0.300537 0.000000
0.892090 0.300537 0.000000
0.916992 0.300537 0.000000
0.940430 0.300537 0.000000
0.962402 0.300537 0.000000
0.982910 0.300537 0.000000
1.000000 0.300537 0.000000
0.000000 0.338135 0.000000
0.016510 0.338135 0.000000
0.043915 0.338135 0.000000
0.077637 0.338135 0.000000
0.115540 0.338135 0.000000
0.155396 0.338135 0.000000
0.193237 0.338135 0.000000
0.229980 0.338135 0.000000
0.267090 0.338135 0.000000
0.304932 0.338135 0.000000
0.343262 0.338135 0.000000
0.381836 0.338135 0.000000
0.421387 0.338135 0.000000
0.460449 0.338135 0.000000
0.499268 0.338135 0.000000
0.537598 0.338135 0.000000
0.574707 0.338135 0.000000
0.611816 0.338135 0.000000
0.647461 0.338135 0.000000
0.682129 0.338135 0.000000
0.715820 0.338135 0.000000
0.748047 0.338135 0.000000
0.778809 0.338135 0.000000
0.809082 0.338135 0.000000
0.837891 0.338135 0.000000
0.865723 0.338135 0.000000
0.892090 0.338135 0.000000
0.916992 0.338135 0.000000
0.940430 0.338135 0.000000
0.962402 0.338135 0.000000
0.982910 0.338135 0.000000
1.000000 0.338135 0.000000
0.000000 0.376221 0.000000
0.016510 0.376221 0.000000
0.043915 0.376221 0.000000
0.077637 0.376221 0.000000
0.115540 0.376221 0.000000
0.155396 0.376221 0.000000
0.193237 0.376221 0.000000
0.229980 0.376221 0.000000
0.267090 0.376221 0.000000
0.304932 0.376221 0.000000
0.343262 0.376221 0.000000
0.381836 0.376221 0.000000
0.421387 0.376221 0.000000
0.460449 0.376221 0.000000
0.499268 0.376221 0.000000
0.537598 0.376221 0.000000
0.574707 0.376221 0.000000
0.611816 0.376221 0.000000
0.647461 0.376221 0.000000
0.682129 0.376221 0.000000
0.715820 0.376221 0.000000
0.748047 0.376221 0.000000
0.778809 0.376221 0.000000
0.809082 0.376221 0.000000
0.837891 0.376221 0.000000
0.865723 0.376221 0.000000
0.892090 0.376221 0.000000
0.916992 0.376221 0.000000
0.940430 0.376221 0.000000
0.962402 0.376221 0.000000
0.982910 0.376221 0.000000
1.000000 0.376221 0.000000
0.000000 0.414307 0.000000
0.016510 0.414307 0.000000
0.043915 0.414307 0.000000
0.077637 0.414307 0.000000
0.115540 0.414307 0.000000
0.155396 0.414307 0.000000
0.193237 0.414307 0.000000
0.229980 0.414307 0.000000
0.267090 0.414307 0.000000
0.304932 0.414307 0.000000
0.343262 0.414307 0.000000
0.381836 0.414307 0.000000
0.421387 0.414307 0.000000
0.460449 0.414307 0.000000
0.499268 0.414307 0.000000
0.537598 0.414307 0.000000
0.574707 0.414307 0.000000
0.611816 0.414307 0.000000
0.647461 0.414307 0.000000
0.682129 0.414307 0.000000
0.715820 0.414307 0.000000
0.748047 0.414307 0.000000
0.778809 0.414307 0.000000
0.809082 0.414307 0.000000
0.837891 0.414307 0.000000
0.865723 0.414307 0.000000
0.892090 0.414307 0.000000
0.916992 0.414307 0.000000
0.940430 0.414307 0.000000
0.962402 0.414307 0.000000
0.982910 0.414307 0.000000
1.000000 0.414307 0.000000
0.000000 0.451416 0.000000
0.016510 0.451416 0.000000
0.043915 0.451416 0.000000
0.077637 0.451416 0.000000
0.115540 0.451416 0.000000
0.155396 0.451416 0.000000
0.193237 0.451660 0.000000
0.229980 0.451660 0.000000
0.267090 0.451660 0.000000
0.304932 0.451660 0.000000
0.343262 0.451660 0.000000
0.381836 0.451660 0.000000
0.421387 0.451660 0.000000
0.460449 0.451660 0.000000
0.499268 0.451660 0.000000
0.537598 0.451660 0.000000
0.574707 0.451660 0.000000
0.611816 0.451660 0.000000
0.647461 0.451660 0.000000
0.682129 0.451660 0.000000
0.715820 0.451660 0.000000
0.748047 0.451660 0.000000
0.778809 0.451660 0.000000
0.809082 0.451660 0.000000
0.837891 0.451660 0.000000
0.865723 0.451660 0.000000
0.892090 0.451660 0.000000
0.916992 0.451660 0.000000
0.940430 0.451660 0.000000
0.962402 0.451660 0.000000
0.982910 0.451660 0.000000
1.000000 0.451660 0.000000
0.000000 0.488037 0.000000
0.016510 0.488037 0.000000
0.043915 0.488037 0.000000
0.077637 0.488037 0.000000
0.115540 0.488037 0.000000
0.155396 0.488037 0.000000
0.193237 0.488037 0.000000
0.229980 0.488037 0.000000
0.267090 0.488037 0.000000
0.304932 0.488037 0.000000
0.343262 0.488037 0.000000
0.381836 0.488037 0.000000
0.421387 0.488037 0.000000
0.460449 0.488037 0.000000
0.499268 0.488037 0.000000
0.537598 0.488037 0.000000
0.574707 0.488037 0.000000
0.611816 0.488037 0.000000
0.647461 0.488037 0.000000
0.682129 0.488037 0.000000
0.715820 0.488037 0.000000
0.748047 0.488037 0.000000
0.778809 0.488037 0.000000
0.809082 0.488037 0.000000
0.837891 0.488037 0.000000
0.865723 0.488037 0.000000
0.892090 0.488037 0.000000
0.916992 0.488037 0.000000
0.940430 0.488037 0.000000
0.962402 0.488037 0.000000
0.982910 0.488037 0.000000
1.000000 0.488037 0.000000
0.000000 0.523926 0.000000
0.016510 0.523926 0.000000
0.043915 0.523926 0.000000
0.077637 0.523926 0.000000
0.115540 0.523926 0.000000
0.155396 0.523926 0.000000
0.193237 0.523926 0.000000
0.229980 0.523926 0.000000
0.267090 0.523926 0.000000
0.304932 0.523926 0.000000
0.343262 0.523926 0.000000
0.381836 0.523926 0.000000
0.421387 0.523926 0.000000
0.460449 0.523926 0.000000
0.499268 0.523926 0.000000
0.537598 0.523926 0.000000
0.574707 0.523926 0.000000
0.611816 0.523926 0.000000
0.647461 0.523926 0.000000
0.682129 0.523926 0.000000
0.715820 0.523926 0.000000
0.748047 0.523926 0.000000
0.778809 0.523926 0.000000
0.809082 0.523926 0.000000
0.837891 0.523926 0.000000
0.865723 0.523926 0.000000
0.892090 0.523926 0.000000
0.916992 0.523926 0.000000
0.940430 0.523926 0.000000
0.962402 0.523926 0.000000
0.982910 0.523926 0.000000
1.000000 0.523926 0.000000
0.000000 0.559570 0.000000
0.016510 0.559570 0.000000
0.043915 0.559570 0.000000
0.077637 0.559570 0.000000
0.115540 0.559570 0.000000
0.155396 0.559570 0.000000
0.193237 0.559570 0.000000
0.229980 0.559570 0.000000
0.267090 0.559570 0.000000
0.304932 0.559570 0.000000
0.343262 0.559570 0.000000
0.381836 0.559570 0.000000
0.421387 0.559570 0.000000
0.460449 0.559570 0.000000
0.499268 0.559570 0.000000
0.537598 0.559570 0.000000
0.574707 0.559570 0.000000
0.611816 0.559570 0.000000
0.647461 0.559570 0.000000
0.682129 0.559570 0.000000
0.715820 0.559570 0.000000
0.748047 0.559570 0.000000
0.778809 0.559570 0.000000
0.809082 0.559570 0.000000
0.837891 0.559570 0.000000
0.865723 0.559570 0.000000
0.892090 0.559570 0.000000
0.916992 0.559570 0.000000
0.940430 0.559570 0.000000
0.962402 0.559570 0.000000
0.982910 0.559570 0.000000
1.000000 0.559570 0.000000
0.000000 0.594727 0.000000
0.016510 0.594727 0.000000
0.043915 0.594727 0.000000
0.077637 0.594727 0.000000
0.115540 0.594727 0.000000
0.155396 0.594727 0.000000
0.193237 0.594727 0.000000
0.229980 0.594727 0.000000
0.267090 0.594727 0.000000
0.304932 0.594727 0.000000
0.343262 0.594727 0.000000
0.381836 0.594727 0.000000
0.421387 0.594727 0.000000
0.460449 0.594727 0.000000
0.499268 0.594727 0.000000
0.537598 0.594727 0.000000
0.574707 0.594727 0.000000
0.611816 0.594727 0.000000
0.647461 0.594727 0.000000
0.682129 0.594727 0.000000
0.715820 0.594727 0.000000
0.748047 0.594727 0.000000
0.778809 0.594727 0.000000
0.809082 0.594727 0.000000
0.837891 0.594727 0.000000
0.865723 0.594727 0.000000
0.892090 0.594727 0.000000
0.916992 0.594727 0.000000
0.940430 0.594727 0.000000
0.962402 0.594727 0.000000
0.982910 0.594727 0.000000
1.000000 0.594727 0.000000
0.000000 0.628906 0.000000
0.016510 0.628906 0.000000
0.043915 0.628906 0.000000
0.077637 0.628906 0.000000
0.115540 0.628906 0.000000
0.155396 0.628906 0.000000
0.193237 0.628906 0.000000
0.229980 0.628906 0.000000
0.267090 0.628906 0.000000
0.304932 0.628906 0.000000
0.343262 0.628906 0.000000
0.381836 0.628906 0.000000
0.421387 0.628906 0.000000
0.460449 0.628906 0.000000
0.499268 0.628906 0.000000
0.537598 0.628906 0.000000
0.574707 0.628906 0.000000
0.611816 0.628906 0.000000
0.647461 0.628906 0.000000
0.682129 0.628906 0.000000
0.715820 0.628906 0.000000
0.748047 0.628906 0.000000
0.778809 0.628906 0.000000
0.809082 0.628906 0.000000
0.837891 0.628906 0.000000
0.865723 0.628906 0.000000
0.892090 0.628906 0.000000
0.916992 0.628906 0.000000
0.940430 0.628906 0.000000
0.962402 0.628906 0.000000
0.982910 0.628906 0.000000
1.000000 0.628906 0.000000
0.000000 0.662598 0.000000
0.016510 0.662598 0.000000
0.043915 0.662598 0.000000
0.077637 0.662598 0.000000
0.115540 0.662598 0.000000
0.155396 0.662598 0.000000
0.193237 0.662598 0.000000
0.229980 0.662598 0.000000
0.267090 0.662598 0.000000
0.304932 0.662598 0.000000
0.343262 0.662598 0.000000
0.381836 0.662598 0.000000
0.421387 0.662598 0.000000
0.460449 0.662598 0.000000
0.499268 0.662598 0.000000
0.537598 0.662598 0.000000
0.574707 0.662598 0.000000
0.611816 0.662598 0.000000
0.647461 0.662598 0.000000
0.682129 0.662598 0.000000
0.715820 0.662598 0.000000
0.748047 0.662598 0.000000
0.778809 0.662598 0.000000
0.809082 0.662598 0.000000
0.837891 0.662598 0.000000
0.865723 0.662598 0.000000
0.892090 0.662598 0.000000
0.916992 0.662598 0.000000
0.940430 0.662598 0.000000
0.962402 0.662598 0.000000
0.982910 0.662598 0.000000
1.000000 0.662598 0.000000
0.000000 0.695801 0.000000
0.016510 0.695801 0.000000
0.043915 0.695801 0.000000
0.077637 0.695801 0.000000
0.115540 0.695801 0.000000
0.155396 0.695801 0.000000
0.193237 0.695801 0.000000
0.229980 0.695801 0.000000
0.267090 0.695801 0.000000
0.304932 0.695801 0.000000
0.343262 0.695801 0.000000
0.381836 0.695801 0.000000
0.421387 0.695801 0.000000
0.460449 0.695801 0.000000
0.499268 0.695801 0.000000
0.537598 0.695801 0.000000
0.574707 0.695801 0.000000
0.611816 0.695801 0.000000
0.647461 0.695801 0.000000
0.682129 0.695801 0.000000
0.715820 0.695801 0.000000
0.748047 0.695801 0.000000
0.778809 0.695801 0.000000
0.809082 0.695801 0.000000
0.837891 0.695801 0.000000
0.865723 0.695801 0.000000
0.892090 0.695801 0.000000
0.916992 0.695801 0.000000
0.940430 0.695801 0.000000
0.962402 0.695801 0.000000
0.982910 0.695801 0.000000
1.000000 0.695801 0.000000
0.000000 0.728027 0.000000
0.016510 0.728027 0.000000
0.043915 0.728027 0.000000
0.077637 0.728027 0.000000
0.115540 0.728027 0.000000
0.155396 0.728027 0.000000
0.193237 0.728027 0.000000
0.229980 0.728027 0.000000
0.267090 0.728027 0.000000
0.304932 0.728027 0.000000
0.343262 0.728027 0.000000
0.381836 0.728027 0.000000
0.421387 0.728027 0.000000
0.460449 0.728027 0.000000
0.499268 0.728027 0.000000
0.537598 0.728027 0.000000
0.574707 0.728027 0.000000
0.611816 0.728027 0.000000
0.647461 0.728027 0.000000
0.682129 0.728027 0.000000
0.715820 0.728027 0.000000
0.748047 0.728027 0.000000
0.778809 0.728027 0.000000
0.809082 0.728027 0.000000
0.837891 0.728027 0.000000
0.865723 0.728027 0.000000
0.892090 0.728027 0.000000
0.916992 0.728027 0.000000
0.940430 0.728027 0.000000
0.962402 0.728027 0.000000
0.982910 0.728027 0.000000
1.000000 0.728027 0.000000
0.000000 0.759766 0.000000
0.016510 0.759766 0.000000
0.043915 0.759766 0.000000
0.077637 0.759766 0.000000
0.115540 0.759766 0.000000
0.155396 0.759766 0.000000
0.193237 0.759766 0.000000
0.229980 0.759766 0.000000
0.267090 0.759766 0.000000
0.304932 0.759766 0.000000
0.343262 0.759766 0.000000
0.381836 0.759766 0.000000
0.421387 0.759766 0.000000
0.460449 0.759766 0.000000
0.499268 0.759766 0.000000
0.537598 0.759766 0.000000
0.574707 0.759766 0.000000
0.611816 0.759766 0.000000
0.647461 0.759766 0.000000
0.682129 0.759766 0.000000
0.715820 0.759766 0.000000
0.748047 0.759766 0.000000
0.778809 0.759766 0.000000
0.809082 0.759766 0.000000
0.837891 0.759766 0.000000
0.865723 0.759766 0.000000
0.892090 0.759766 0.000000
0.916992 0.759766 0.000000
0.940430 0.759766 0.000000
0.962402 0.759766 0.000000
0.982910 0.759766 0.000000
1.000000 0.759766 0.000000
0.000000 0.790527 0.000000
0.016510 0.790527 0.000000
0.043915 0.790527 0.000000
0.077637 0.790527 0.000000
0.115540 0.790527 0.000000
0.155396 0.790527 0.000000
0.193237 0.790527 0.000000
0.229980 0.790527 0.000000
0.267090 0.790527 0.000000
0.304932 0.790527 0.000000
0.343262 0.790527 0.000000
0.381836 0.790527 0.000000
0.421387 0.790527 0.000000
0.460449 0.790527 0.000000
0.499268 0.790527 0.000000
0.537598 0.790527 0.000000
0.574707 0.790527 0.000000
0.611816 0.790527 0.000000
0.647461 0.790527 0.000000
0.682129 0.790527 0.000000
0.715820 0.790527 0.000000
0.748047 0.790527 0.000000
0.778809 0.790527 0.000000
0.809082 0.790527 0.000000
0.837891 0.790527 0.000000
0.865723 0.790527 0.000000
0.892090 0.790527 0.000000
0.916992 0.790527 0.000000
0.940430 0.790527 0.000000
0.962402 0.790527 0.000000
0.982910 0.790527 0.000000
1.000000 0.790527 0.000000
0.000000 0.821289 0.000000
0.016510 0.821289 0.000000
0.043915 0.821289 0.000000
0.077637 0.821289 0.000000
0.115540 0.821289 0.000000
0.155396 0.821289 0.000000
0.193237 0.821289 0.000000
0.229980 0.821289 0.000000
0.267090 0.821289 0.000000
0.304932 0.821289 0.000000
0.343262 0.821289 0.000000
0.381836 0.821289 0.000000
0.421387 0.821289 0.000000
0.460449 0.821289 0.000000
0.499268 0.821289 0.000000
0.537598 0.821289 0.000000
0.574707 0.821289 0.000000
0.611816 0.821289 0.000000
0.647461 0.821289 0.000000
0.682129 0.821289 0.000000
0.715820 0.821289 0.000000
0.748047 0.821289 0.000000
0.778809 0.821289 0.000000
0.809082 0.821289 0.000000
0.837891 0.821289 0.000000
0.865723 0.821289 0.000000
0.892090 0.821289 0.000000
0.916992 0.821289 0.000000
0.940430 0.821289 0.000000
0.962402 0.821289 0.000000
0.982910 0.821289 0.000000
1.000000 0.821289 0.000000
0.000000 0.851074 0.000000
0.016510 0.851074 0.000000
0.043915 0.851074 0.000000
0.077637 0.851074 0.000000
0.115540 0.851074 0.000000
0.155396 0.851074 0.000000
0.193237 0.851074 0.000000
0.229980 0.851074 0.000000
0.267090 0.851074 0.000000
0.304932 0.851074 0.000000
0.343262 0.851074 0.000000
0.381836 0.851074 0.000000
0.421387 0.851074 0.000000
0.460449 0.851074 0.000000
0.499268 0.851074 0.000000
0.537598 0.851074 0.000000
0.574707 0.851074 0.000000
0.611816 0.851074 0.000000
0.647461 0.851074 0.000000
0.682129 0.851074 0.000000
0.715820 0.851074 0.000000
0.748047 0.851074 0.000000
0.778809 0.851074 0.000000
0.809082 0.851074 0.000000
0.837891 0.851074 0.000000
0.865723 0.851074 0.000000
0.892090 0.851074 0.000000
0.916992 0.851074 0.000000
0.940430 0.851074 0.000000
0.962402 0.851074 0.000000
0.982910 0.851074 0.000000
1.000000 0.851074 0.000000
0.000000 0.879883 0.000000
0.016510 0.879883 0.000000
0.043915 0.879883 0.000000
0.077637 0.879883 0.000000
0.115540 0.879883 0.000000
0.155396 0.879883 0.000000
0.193237 0.879883 0.000000
0.229980 0.879883 0.000000
0.267090 0.879883 0.000000
0.304932 0.879883 0.000000
0.343262 0.879883 0.000000
0.381836 0.879883 0.000000
0.421387 0.879883 0.000000
0.460449 0.879883 0.000000
0.499268 0.879883 0.000000
0.537598 0.879883 0.000000
0.574707 0.879883 0.000000
0.611816 0.879883 0.000000
0.647461 0.879883 0.000000
0.682129 0.879883 0.000000
0.715820 0.879883 0.000000
0.748047 0.879883 0.000000
0.778809 0.879883 0.000000
0.809082 0.879883 0.000000
0.837891 0.879883 0.000000
0.865723 0.879883 0.000000
0.892090 0.879883 0.000000
0.916992 0.879883 0.000000
0.940430 0.879883 0.000000
0.962402 0.879883 0.000000
0.982910 0.879883 0.000000
1.000000 0.879883 0.000000
0.000000 0.907227 0.000000
0.016510 0.907227 0.000000
0.043915 0.907227 0.000000
0.077637 0.907227 0.000000
0.115540 0.907227 0.000000
0.155396 0.907227 0.000000
0.193237 0.907227 0.000000
0.229980 0.907227 0.000000
0.267090 0.907227 0.000000
0.304932 0.907227 0.000000
0.343262 0.907227 0.000000
0.381836 0.907227 0.000000
0.421387 0.907227 0.000000
0.460449 0.907227 0.000000
0.499268 0.907227 0.000000
0.537598 0.907227 0.000000
0.574707 0.907227 0.000000
0.611816 0.907227 0.000000
0.647461 0.907227 0.000000
0.682129 0.907227 0.000000
0.715820 0.907227 0.000000
0.748047 0.907227 0.000000
0.778809 0.907227 0.000000
