cubelut/Adanmq_Ektachrome 100.cube
TITLE "Generated by Foundry::LUT"
LUT_3D_SIZE 5
DOMAIN_MIN 0.000000 0.000000 0.000000
DOMAIN_MAX 0.903226 0.903226 0.903226
0.000000 0.000000 0.000000
0.699707 0.000000 0.000000
0.936035 0.000000 0.000000
0.962891 0.000000 0.000000
0.983398 0.000000 0.000000
0.000000 0.467773 0.000000
0.699707 0.467773 0.000000
0.936035 0.467773 0.000000
0.962891 0.467773 0.000000
0.983398 0.467773 0.000000
0.000000 0.876465 0.000000
0.699707 0.876465 0.000000
0.936035 0.876465 0.000000
0.962891 0.876465 0.000000
0.983398 0.876465 0.000000
0.000000 0.967285 0.000000
0.699707 0.967285 0.000000
0.936035 0.967285 0.000000
0.962891 0.967285 0.000000
0.983398 0.967285 0.000000
0.000000 0.980957 0.000000
0.699707 0.980957 0.000000
0.936035 0.980957 0.000000
0.962891 0.980957 0.000000
0.983398 0.980957 0.000000
0.000000 0.000000 0.140991
0.699707 0.000000 0.140991
0.936035 0.000000 0.140991
0.962891 0.000000 0.140991
0.983398 0.000000 0.140991
0.000000 0.467773 0.140991
0.699707 0.467773 0.140991
0.936035 0.467773 0.140991
0.962891 0.467773 0.140991
0.983398 0.467773 0.140991
0.000000 0.876465 0.140991
0.699707 0.876465 0.140991
0.936035 0.876465 0.140991
0.962891 0.876465 0.140991
0.983398 0.876465 0.140991
0.000000 0.967285 0.140991
0.699707 0.967285 0.140991
0.936035 0.967285 0.140991
0.962891 0.967285 0.140991
0.983398 0.967285 0.140991
0.000000 0.980957 0.140991
0.699707 0.980957 0.140991
0.936035 0.980957 0.140991
0.962891 0.980957 0.140991
0.983398 0.980957 0.140991
0.000000 0.000000 0.549805
0.700195 0.000000 0.549805
0.936035 0.000000 0.549805
0.962891 0.000000 0.549805
0.983398 0.000000 0.549805
0.000000 0.467773 0.549805
0.700195 0.467773 0.549805
0.936035 0.467773 0.549805
0.962891 0.467773 0.549805
0.983398 0.467773 0.549805
0.000000 0.876465 0.549805
0.700195 0.876465 0.549805
0.936035 0.876465 0.549805
0.962891 0.876465 0.549805
0.983398 0.876465 0.549805
0.000000 0.967285 0.549805
0.700195 0.967285 0.549805
0.936035 0.967285 0.549805
0.962891 0.967285 0.549805
0.983398 0.967285 0.549805
0.000000 0.980957 0.549805
0.700195 0.980957 0.549805
0.936035 0.980957 0.549805
0.962891 0.980957 0.549805
0.983398 0.980957 0.549805
0.000000 0.000000 0.833008
0.700195 0.000000 0.833008
0.936035 0.000000 0.833008
0.962891 0.000000 0.833008
0.983398 0.000000 0.833008
0.000000 0.467773 0.833008
0.700195 0.467773 0.833008
0.936035 0.467773 0.833008
0.962891 0.467773 0.833008
0.983398 0.467773 0.833008
0.000000 0.876465 0.833008
0.700195 0.876465 0.833008
0.936035 0.876465 0.833008
0.962891 0.876465 0.833008
0.983398 0.876465 0.833008
0.000000 0.967285 0.833008
0.700195 0.967285 0.833008
0.936035 0.967285 0.833008
0.962891 0.967285 0.833008
0.983398 0.967285 0.833008
0.000000 0.980957 0.833008
0.700195 0.980957 0.833008
0.936035 0.980957 0.833008
0.962891 0.980957 0.833008
0.983398 0.980957 0.833008
0.000000 0.000000 0.968750
0.700195 0.000000 0.968750
0.936035 0.000000 0.968750
0.962891 0.000000 0.968750
0.983398 0.000000 0.968750
0.000000 0.467773 0.968750
0.700195 0.467773 0.968750
0.936035 0.467773 0.968750
0.962891 0.467773 0.968750
0.983398 0.467773 0.968750
0.000000 0.876465 0.968750
0.700195 0.876465 0.968750
0.936035 0.876465 0.968750
0.962891 0.876465 0.968750
0.983398 0.876465 0.968750
0.000000 0.967285 0.968750
0.700195 0.967285 0.968750
0.936035 0.967285 0.968750
0.962891 0.967285 0.968750
0.983398 0.967285 0.968750
0.000000 0.980957 0.968750
0.700195 0.980957 0.968750
0.936035 0.980957 0.968750
0.962891 0.980957 0.968750
0.983398 0.980957 0.968750
