cubelut/Adanmq_AgfaColor Futura 400.cube
TITLE "Generated by Foundry::LUT"
LUT_3D_SIZE 32
0.000000 0.000000 0.000000
0.041962 0.000000 0.000000
0.093506 0.000000 0.000000
0.147217 0.000000 0.000000
0.202515 0.000000 0.000000
0.254639 0.000000 0.000000
0.302246 0.000000 0.000000
0.346436 0.000000 0.000000
0.387451 0.000000 0.000000
0.426270 0.000000 0.000000
0.463135 0.000000 0.000000
0.498535 0.000000 0.000000
0.532227 0.000000 0.000000
0.563965 0.000000 0.000000
0.594727 0.000000 0.000000
0.624023 0.000000 0.000000
0.653320 0.000000 0.000000
0.681152 0.000000 0.000000
0.708008 0.000000 0.000000
0.734375 0.000000 0.000000
0.759766 0.000000 0.000000
0.785156 0.000000 0.000000
0.809570 0.000000 0.000000
0.833496 0.000000 0.000000
0.856934 0.000000 0.000000
0.879883 0.000000 0.000000
0.902344 0.000000 0.000000
0.923828 0.000000 0.000000
0.944824 0.000000 0.000000
0.964844 0.000000 0.000000
0.983398 0.000000 0.000000
1.000000 0.000000 0.000000
0.000000 0.043549 0.000000
0.041962 0.043549 0.000000
0.093506 0.043549 0.000000
0.147217 0.043549 0.000000
0.202515 0.043549 0.000000
0.254639 0.043549 0.000000
0.302246 0.043549 0.000000
0.346436 0.043549 0.000000
0.387451 0.043549 0.000000
0.426270 0.043549 0.000000
0.463135 0.043549 0.000000
0.498535 0.043549 0.000000
0.532227 0.043549 0.000000
0.563965 0.043549 0.000000
0.594727 0.043549 0.000000
0.624023 0.043549 0.000000
0.653320 0.043549 0.000000
0.681152 0.043549 0.000000
0.708008 0.043579 0.000000
0.734375 0.043579 0.000000
0.759766 0.043579 0.000000
0.785156 0.043579 0.000000
0.809570 0.043579 0.000000
0.833496 0.043579 0.000000
0.856934 0.043579 0.000000
0.879883 0.043579 0.000000
0.902344 0.043579 0.000000
0.923828 0.043579 0.000000
0.944824 0.043579 0.000000
0.964844 0.043579 0.000000
0.983398 0.043579 0.000000
1.000000 0.043579 0.000000
0.000000 0.097900 0.000000
0.041962 0.097900 0.000000
0.093506 0.097900 0.000000
0.147217 0.097900 0.000000
0.202515 0.097900 0.000000
0.254639 0.097900 0.000000
0.302246 0.097900 0.000000
0.346436 0.097961 0.000000
0.387451 0.097961 0.000000
0.426270 0.097961 0.000000
0.463135 0.097961 0.000000
0.498535 0.097961 0.000000
0.532227 0.097961 0.000000
0.563965 0.097961 0.000000
0.594727 0.097961 0.000000
0.624023 0.097961 0.000000
0.653320 0.097961 0.000000
0.681152 0.097961 0.000000
0.708008 0.097961 0.000000
0.734375 0.097961 0.000000
0.759766 0.097961 0.000000
0.785156 0.097961 0.000000
0.809570 0.097961 0.000000
0.833496 0.097961 0.000000
0.856934 0.097961 0.000000
0.879883 0.097961 0.000000
0.902344 0.097961 0.000000
0.923828 0.097961 0.000000
0.944824 0.097961 0.000000
0.964844 0.097961 0.000000
0.983398 0.097961 0.000000
1.000000 0.097961 0.000000
0.000000 0.152466 0.000000
0.041962 0.152466 0.000000
0.093506 0.152466 0.000000
0.147217 0.152466 0.000000
0.202515 0.152466 0.000000
0.254639 0.152466 0.000000
0.302246 0.152466 0.000000
0.346436 0.152466 0.000000
0.387451 0.152466 0.000000
0.426270 0.152466 0.000000
0.463135 0.152466 0.000000
0.498535 0.152466 0.000000
0.532227 0.152466 0.000000
0.563965 0.152466 0.000000
0.594727 0.152466 0.000000
0.624023 0.152466 0.000000
0.653320 0.152466 0.000000
0.681152 0.152466 0.000000
0.708008 0.152466 0.000000
0.734375 0.152466 0.000000
0.759766 0.152466 0.000000
0.785156 0.152466 0.000000
0.809570 0.152466 0.000000
0.833496 0.152466 0.000000
0.856934 0.152466 0.000000
0.879883 0.152466 0.000000
0.902344 0.152466 0.000000
0.923828 0.152466 0.000000
0.944824 0.152466 0.000000
0.964844 0.152466 0.000000
0.983398 0.152466 0.000000
1.000000 0.152466 0.000000
0.000000 0.206299 0.000000
0.041962 0.206299 0.000000
0.093506 0.206299 0.000000
0.147217 0.206299 0.000000
0.202515 0.206299 0.000000
0.254639 0.206299 0.000000
0.302246 0.206299 0.000000
0.346436 0.206299 0.000000
0.387451 0.206299 0.000000
0.426270 0.206299 0.000000
0.463135 0.206299 0.000000
0.498535 0.206299 0.000000
0.532227 0.206299 0.000000
0.563965 0.206299 0.000000
0.594727 0.206299 0.000000
0.624023 0.206299 0.000000
0.653320 0.206299 0.000000
0.681152 0.206299 0.000000
0.708008 0.206299 0.000000
0.734375 0.206299 0.000000
0.759766 0.206299 0.000000
0.785156 0.206299 0.000000
0.809570 0.206299 0.000000
0.833496 0.206299 0.000000
0.856934 0.206299 0.000000
0.879883 0.206299 0.000000
0.902344 0.206299 0.000000
0.923828 0.206299 0.000000
0.944824 0.206299 0.000000
0.964844 0.206299 0.000000
0.983398 0.206299 0.000000
1.000000 0.206299 0.000000
0.000000 0.258301 0.000000
0.041962 0.258301 0.000000
0.093506 0.258301 0.000000
0.147217 0.258301 0.000000
0.202515 0.258301 0.000000
0.254639 0.258301 0.000000
0.302246 0.258301 0.000000
0.346436 0.258301 0.000000
0.387451 0.258301 0.000000
0.426270 0.258301 0.000000
0.463135 0.258301 0.000000
0.498535 0.258301 0.000000
0.532227 0.258301 0.000000
0.563965 0.258301 0.000000
0.594727 0.258301 0.000000
0.624023 0.258301 0.000000
0.653320 0.258301 0.000000
0.681152 0.258301 0.000000
0.708008 0.258301 0.000000
0.734375 0.258301 0.000000
0.759766 0.258301 0.000000
0.785156 0.258301 0.000000
0.809570 0.258301 0.000000
0.833496 0.258301 0.000000
0.856934 0.258301 0.000000
0.879883 0.258301 0.000000
0.902344 0.258301 0.000000
0.923828 0.258301 0.000000
0.944824 0.258301 0.000000
0.964844 0.258301 0.000000
0.983398 0.258301 0.000000
1.000000 0.258301 0.000000
0.000000 0.307373 0.000000
0.041962 0.307373 0.000000
0.093506 0.307373 0.000000
0.147217 0.307373 0.000000
0.202515 0.307373 0.000000
0.254639 0.307373 0.000000
0.302246 0.307373 0.000000
0.346436 0.307373 0.000000
0.387451 0.307373 0.000000
0.426270 0.307373 0.000000
0.463135 0.307373 0.000000
0.498535 0.307373 0.000000
0.532227 0.307373 0.000000
0.563965 0.307373 0.000000
0.594727 0.307373 0.000000
0.624023 0.307373 0.000000
0.653320 0.307373 0.000000
0.681152 0.307373 0.000000
0.708008 0.307373 0.000000
0.734375 0.307373 0.000000
0.759766 0.307617 0.000000
0.785156 0.307617 0.000000
0.809570 0.307617 0.000000
0.833496 0.307617 0.000000
0.856934 0.307617 0.000000
0.879883 0.307617 0.000000
0.902344 0.307617 0.000000
0.923828 0.307617 0.000000
0.944824 0.307617 0.000000
0.964844 0.307617 0.000000
0.983398 0.307617 0.000000
1.000000 0.307617 0.000000
0.000000 0.353516 0.000000
0.041962 0.353516 0.000000
0.093506 0.353516 0.000000
0.147217 0.353516 0.000000
0.202515 0.353760 0.000000
0.254639 0.353760 0.000000
0.302246 0.353760 0.000000
0.346436 0.353760 0.000000
0.387451 0.353760 0.000000
0.426270 0.353760 0.000000
0.463135 0.353760 0.000000
0.498535 0.353760 0.000000
0.532227 0.353760 0.000000
0.563965 0.353760 0.000000
0.594727 0.353760 0.000000
0.624023 0.353760 0.000000
0.653320 0.353760 0.000000
0.681152 0.353760 0.000000
0.708008 0.353760 0.000000
0.734375 0.353760 0.000000
0.759766 0.353760 0.000000
0.785156 0.353760 0.000000
0.809570 0.353760 0.000000
0.833496 0.353760 0.000000
0.856934 0.353760 0.000000
0.879883 0.353760 0.000000
0.902344 0.353760 0.000000
0.923828 0.353760 0.000000
0.944824 0.353760 0.000000
0.964844 0.353760 0.000000
0.983398 0.353760 0.000000
1.000000 0.353760 0.000000
0.000000 0.397461 0.000000
0.041962 0.397461 0.000000
0.093506 0.397461 0.000000
0.147217 0.397461 0.000000
0.202515 0.397461 0.000000
0.254639 0.397461 0.000000
0.302246 0.397461 0.000000
0.346436 0.397461 0.000000
0.387451 0.397461 0.000000
0.426270 0.397461 0.000000
0.463135 0.397461 0.000000
0.498535 0.397461 0.000000
0.532227 0.397461 0.000000
0.563965 0.397461 0.000000
0.594727 0.397461 0.000000
0.624023 0.397461 0.000000
0.653320 0.397461 0.000000
0.681152 0.397461 0.000000
0.708008 0.397461 0.000000
0.734375 0.397461 0.000000
0.759766 0.397461 0.000000
0.785156 0.397461 0.000000
0.809570 0.397461 0.000000
0.833496 0.397461 0.000000
0.856934 0.397461 0.000000
0.879883 0.397461 0.000000
0.902344 0.397461 0.000000
0.923828 0.397461 0.000000
0.944824 0.397461 0.000000
0.964844 0.397461 0.000000
0.983398 0.397461 0.000000
1.000000 0.397461 0.000000
0.000000 0.438477 0.000000
0.041962 0.438477 0.000000
0.093506 0.438477 0.000000
0.147217 0.438477 0.000000
0.202515 0.438477 0.000000
0.254639 0.438477 0.000000
0.302246 0.438477 0.000000
0.346436 0.438477 0.000000
0.387451 0.438477 0.000000
0.426270 0.438477 0.000000
0.463135 0.438477 0.000000
0.498535 0.438477 0.000000
0.532227 0.438477 0.000000
0.563965 0.438477 0.000000
0.594727 0.438477 0.000000
0.624023 0.438477 0.000000
0.653320 0.438477 0.000000
0.681152 0.438477 0.000000
0.708008 0.438477 0.000000
0.734375 0.438477 0.000000
0.759766 0.438477 0.000000
0.785156 0.438477 0.000000
0.809570 0.438477 0.000000
0.833496 0.438477 0.000000
0.856934 0.438477 0.000000
0.879883 0.438477 0.000000
0.902344 0.438477 0.000000
0.923828 0.438477 0.000000
0.944824 0.438477 0.000000
0.964844 0.438477 0.000000
0.983398 0.438477 0.000000
1.000000 0.438477 0.000000
0.000000 0.477295 0.000000
0.041962 0.477295 0.000000
0.093506 0.477295 0.000000
0.147217 0.477295 0.000000
0.202515 0.477295 0.000000
0.254639 0.477295 0.000000
0.302246 0.477295 0.000000
0.346436 0.477295 0.000000
0.387451 0.477295 0.000000
0.426270 0.477295 0.000000
0.463135 0.477295 0.000000
0.498535 0.477295 0.000000
0.532227 0.477295 0.000000
0.563965 0.477295 0.000000
0.594727 0.477295 0.000000
0.624023 0.477295 0.000000
0.653320 0.477295 0.000000
0.681152 0.477295 0.000000
0.708008 0.477295 0.000000
0.734375 0.477295 0.000000
0.759766 0.477295 0.000000
0.785156 0.477295 0.000000
0.809570 0.477295 0.000000
0.833496 0.477295 0.000000
0.856934 0.477295 0.000000
0.879883 0.477295 0.000000
0.902344 0.477295 0.000000
0.923828 0.477295 0.000000
0.944824 0.477295 0.000000
0.964844 0.477295 0.000000
0.983398 0.477295 0.000000
1.000000 0.477295 0.000000
0.000000 0.514160 0.000000
0.041962 0.514160 0.000000
0.093506 0.514160 0.000000
0.147217 0.514160 0.000000
0.202515 0.514160 0.000000
0.254639 0.514160 0.000000
0.302246 0.514160 0.000000
0.346436 0.514160 0.000000
0.387451 0.514160 0.000000
0.426270 0.514160 0.000000
0.463135 0.514160 0.000000
0.498535 0.514160 0.000000
0.532227 0.514160 0.000000
0.563965 0.514160 0.000000
0.594727 0.514160 0.000000
0.624023 0.514160 0.000000
0.653320 0.514160 0.000000
0.681152 0.514160 0.000000
0.708008 0.514160 0.000000
0.734375 0.514160 0.000000
0.759766 0.514160 0.000000
0.785156 0.514160 0.000000
0.809570 0.514160 0.000000
0.833496 0.514160 0.000000
0.856934 0.514160 0.000000
0.879883 0.514160 0.000000
0.902344 0.514160 0.000000
0.923828 0.514160 0.000000
0.944824 0.514160 0.000000
0.964844 0.514160 0.000000
0.983398 0.514160 0.000000
1.000000 0.514160 0.000000
0.000000 0.548828 0.000000
0.041962 0.548828 0.000000
0.093506 0.548828 0.000000
0.147217 0.548828 0.000000
0.202515 0.548828 0.000000
0.254639 0.548828 0.000000
0.302246 0.548828 0.000000
0.346436 0.548828 0.000000
0.387451 0.548828 0.000000
0.426270 0.548828 0.000000
0.463135 0.548828 0.000000
0.498535 0.548828 0.000000
0.532227 0.548828 0.000000
0.563965 0.548828 0.000000
0.594727 0.548828 0.000000
0.624023 0.548828 0.000000
0.653320 0.548828 0.000000
0.681152 0.548828 0.000000
0.708008 0.548828 0.000000
0.734375 0.548828 0.000000
0.759766 0.548828 0.000000
0.785156 0.548828 0.000000
0.809570 0.548828 0.000000
0.833496 0.548828 0.000000
0.856934 0.548828 0.000000
0.879883 0.548828 0.000000
0.902344 0.548828 0.000000
0.923828 0.548828 0.000000
0.944824 0.548828 0.000000
0.964844 0.548828 0.000000
0.983398 0.548828 0.000000
1.000000 0.548828 0.000000
0.000000 0.581543 0.000000
0.041962 0.581543 0.000000
0.093506 0.581543 0.000000
0.147217 0.581543 0.000000
0.202515 0.581543 0.000000
0.254639 0.581543 0.000000
0.302246 0.581543 0.000000
0.346436 0.581543 0.000000
0.387451 0.581543 0.000000
0.426270 0.581543 0.000000
0.463135 0.581543 0.000000
0.498535 0.581543 0.000000
0.532227 0.581543 0.000000
0.563965 0.581543 0.000000
0.594727 0.581543 0.000000
0.624023 0.581543 0.000000
0.653320 0.581543 0.000000
0.681152 0.581543 0.000000
0.708008 0.581543 0.000000
0.734375 0.581543 0.000000
0.759766 0.581543 0.000000
0.785156 0.581543 0.000000
0.809570 0.581543 0.000000
0.833496 0.581543 0.000000
0.856934 0.581543 0.000000
0.879883 0.581543 0.000000
0.902344 0.581543 0.000000
0.923828 0.581543 0.000000
0.944824 0.581543 0.000000
0.964844 0.581543 0.000000
0.983398 0.581543 0.000000
1.000000 0.581543 0.000000
0.000000 0.612305 0.000000
0.041962 0.612305 0.000000
0.093506 0.612305 0.000000
0.147217 0.612305 0.000000
0.202515 0.612305 0.000000
0.254639 0.612305 0.000000
0.302246 0.612305 0.000000
0.346436 0.612305 0.000000
0.387451 0.612305 0.000000
0.426270 0.612305 0.000000
0.463135 0.612305 0.000000
0.498535 0.612305 0.000000
0.532227 0.612305 0.000000
0.563965 0.612305 0.000000
0.594727 0.612305 0.000000
0.624023 0.612305 0.000000
0.653320 0.612305 0.000000
0.681152 0.612305 0.000000
0.708008 0.612305 0.000000
0.734375 0.612305 0.000000
0.759766 0.612305 0.000000
0.785156 0.612305 0.000000
0.809570 0.612305 0.000000
0.833496 0.612305 0.000000
0.856934 0.612305 0.000000
0.879883 0.612305 0.000000
0.902344 0.612305 0.000000
0.923828 0.612305 0.000000
0.944824 0.612305 0.000000
0.964844 0.612305 0.000000
0.983398 0.612305 0.000000
1.000000 0.612305 0.000000
0.000000 0.642090 0.000000
0.041962 0.642090 0.000000
0.093506 0.642090 0.000000
0.147217 0.642090 0.000000
0.202515 0.642090 0.000000
0.254639 0.642090 0.000000
0.302246 0.642090 0.000000
0.346436 0.642090 0.000000
0.387451 0.642090 0.000000
0.426270 0.642090 0.000000
0.463135 0.642090 0.000000
0.498535 0.642090 0.000000
0.532227 0.642090 0.000000
0.563965 0.642090 0.000000
0.594727 0.642090 0.000000
0.624023 0.642090 0.000000
0.653320 0.642090 0.000000
0.681152 0.642090 0.000000
0.708008 0.642090 0.000000
0.734375 0.642090 0.000000
0.759766 0.642090 0.000000
0.785156 0.642090 0.000000
0.809570 0.642090 0.000000
0.833496 0.642090 0.000000
0.856934 0.642090 0.000000
0.879883 0.642090 0.000000
0.902344 0.642090 0.000000
0.923828 0.642090 0.000000
0.944824 0.642090 0.000000
0.964844 0.642090 0.000000
0.983398 0.642090 0.000000
1.000000 0.642090 0.000000
0.000000 0.670410 0.000000
0.041962 0.670410 0.000000
0.093506 0.670410 0.000000
0.147217 0.670410 0.000000
0.202515 0.670410 0.000000
0.254639 0.670410 0.000000
0.302246 0.670410 0.000000
0.346436 0.670410 0.000000
0.387451 0.670410 0.000000
0.426270 0.670410 0.000000
0.463135 0.670410 0.000000
0.498535 0.670410 0.000000
0.532227 0.670410 0.000000
0.563965 0.670410 0.000000
0.594727 0.670410 0.000000
0.624023 0.670410 0.000000
0.653320 0.670410 0.000000
0.681152 0.670410 0.000000
0.708008 0.670410 0.000000
0.734375 0.670410 0.000000
0.759766 0.670410 0.000000
0.785156 0.670410 0.000000
0.809570 0.670410 0.000000
0.833496 0.670410 0.000000
0.856934 0.670410 0.000000
0.879883 0.670410 0.000000
0.902344 0.670410 0.000000
0.923828 0.670410 0.000000
0.944824 0.670410 0.000000
0.964844 0.670410 0.000000
0.983398 0.670410 0.000000
1.000000 0.670410 0.000000
0.000000 0.697754 0.000000
0.041962 0.697754 0.000000
0.093506 0.697754 0.000000
0.147217 0.697754 0.000000
0.202515 0.697754 0.000000
0.254639 0.697754 0.000000
0.302246 0.697754 0.000000
0.346436 0.697754 0.000000
0.387451 0.697754 0.000000
0.426270 0.697754 0.000000
0.463135 0.697754 0.000000
0.498535 0.697754 0.000000
0.532227 0.697754 0.000000
0.563965 0.697754 0.000000
0.594727 0.697754 0.000000
0.624023 0.697754 0.000000
0.653320 0.697754 0.000000
0.681152 0.697754 0.000000
0.708008 0.697754 0.000000
0.734375 0.697754 0.000000
0.759766 0.697754 0.000000
0.785156 0.697754 0.000000
0.809570 0.697754 0.000000
0.833496 0.697754 0.000000
0.856934 0.697754 0.000000
0.879883 0.697754 0.000000
0.902344 0.697754 0.000000
0.923828 0.697754 0.000000
0.944824 0.697754 0.000000
0.964844 0.697754 0.000000
0.983398 0.697754 0.000000
1.000000 0.697754 0.000000
0.000000 0.724121 0.000000
0.041962 0.724121 0.000000
0.093506 0.724121 0.000000
0.147217 0.724121 0.000000
0.202515 0.724121 0.000000
0.254639 0.724121 0.000000
0.302246 0.724121 0.000000
0.346436 0.724121 0.000000
0.387451 0.724121 0.000000
0.426270 0.724121 0.000000
0.463135 0.724121 0.000000
0.498535 0.724121 0.000000
0.532227 0.724121 0.000000
0.563965 0.724121 0.000000
0.594727 0.724121 0.000000
0.624023 0.724121 0.000000
0.653320 0.724121 0.000000
0.681152 0.724121 0.000000
0.708008 0.724121 0.000000
0.734375 0.724121 0.000000
0.759766 0.724121 0.000000
0.785156 0.724121 0.000000
0.809570 0.724121 0.000000
0.833496 0.724121 0.000000
0.856934 0.724121 0.000000
0.879883 0.724121 0.000000
0.902344 0.724121 0.000000
0.923828 0.724121 0.000000
0.944824 0.724121 0.000000
0.964844 0.724121 0.000000
0.983398 0.724121 0.000000
1.000000 0.724121 0.000000
0.000000 0.749512 0.000000
0.041962 0.749512 0.000000
0.093506 0.749512 0.000000
0.147217 0.749512 0.000000
0.202515 0.749512 0.000000
0.254639 0.749512 0.000000
0.302246 0.749512 0.000000
0.346436 0.749512 0.000000
0.387451 0.749512 0.000000
0.426270 0.749512 0.000000
0.463135 0.749512 0.000000
0.498535 0.749512 0.000000
0.532227 0.749512 0.000000
0.563965 0.749512 0.000000
0.594727 0.749512 0.000000
0.624023 0.749512 0.000000
0.653320 0.749512 0.000000
0.681152 0.749512 0.000000
0.708008 0.749512 0.000000
0.734375 0.749512 0.000000
0.759766 0.749512 0.000000
0.785156 0.749512 0.000000
0.809570 0.749512 0.000000
0.833496 0.749512 0.000000
0.856934 0.749512 0.000000
0.879883 0.749512 0.000000
0.902344 0.749512 0.000000
0.923828 0.749512 0.000000
0.944824 0.749512 0.000000
0.964844 0.749512 0.000000
0.983398 0.749512 0.000000
1.000000 0.749512 0.000000
0.000000 0.773926 0.000000
0.041962 0.773926 0.000000
0.093506 0.773926 0.000000
0.147217 0.773926 0.000000
0.202515 0.773926 0.000000
0.254639 0.773926 0.000000
0.302246 0.773926 0.000000
0.346436 0.773926 0.000000
0.387451 0.773926 0.000000
0.426270 0.773926 0.000000
0.463135 0.773926 0.000000
0.498535 0.773926 0.000000
0.532227 0.773926 0.000000
0.563965 0.773926 0.000000
0.594727 0.773926 0.000000
0.624023 0.773926 0.000000
0.653320 0.773926 0.000000
0.681152 0.773926 0.000000
0.708008 0.773926 0.000000
0.734375 0.773926 0.000000
0.759766 0.773926 0.000000
0.785156 0.773926 0.000000
0.809570 0.773926 0.000000
0.833496 0.773926 0.000000
0.856934 0.773926 0.000000
0.879883 0.773926 0.000000
0.902344 0.773926 0.000000
0.923828 0.773926 0.000000
0.944824 0.773926 0.000000
0.964844 0.773926 0.000000
0.983398 0.773926 0.000000
1.000000 0.773926 0.000000
0.000000 0.797852 0.000000
0.041962 0.797852 0.000000
0.093506 0.797852 0.000000
0.147217 0.797852 0.000000
0.202515 0.797852 0.000000
0.254639 0.797852 0.000000
0.302246 0.797852 0.000000
0.346436 0.797852 0.000000
0.387451 0.797852 0.000000
0.426270 0.797852 0.000000
0.463135 0.797852 0.000000
0.498535 0.797852 0.000000
0.532227 0.797852 0.000000
0.563965 0.797852 0.000000
0.594727 0.797852 0.000000
0.624023 0.797852 0.000000
0.653320 0.797852 0.000000
0.681152 0.797852 0.000000
0.708008 0.797852 0.000000
0.734375 0.797852 0.000000
0.759766 0.797852 0.000000
0.785156 0.797852 0.000000
0.809570 0.797852 0.000000
0.833496 0.797852 0.000000
0.856934 0.797852 0.000000
0.879883 0.797852 0.000000
0.902344 0.797852 0.000000
0.923828 0.797852 0.000000
0.944824 0.797852 0.000000
0.964844 0.797852 0.000000
0.983398 0.797852 0.000000
1.000000 0.797852 0.000000
0.000000 0.820801 0.000000
0.041962 0.820801 0.000000
0.093506 0.820801 0.000000
0.147217 0.820801 0.000000
0.202515 0.820801 0.000000
0.254639 0.820801 0.000000
0.302246 0.820801 0.000000
0.346436 0.820801 0.000000
0.387451 0.820801 0.000000
0.426270 0.820801 0.000000
0.463135 0.820801 0.000000
0.498535 0.820801 0.000000
0.532227 0.820801 0.000000
0.563965 0.820801 0.000000
0.594727 0.820801 0.000000
0.624023 0.820801 0.000000
0.653320 0.820801 0.000000
0.681152 0.820801 0.000000
0.708008 0.820801 0.000000
0.734375 0.820801 0.000000
0.759766 0.820801 0.000000
0.785156 0.820801 0.000000
0.809570 0.820801 0.000000
0.833496 0.820801 0.000000
0.856934 0.820801 0.000000
0.879883 0.820801 0.000000
0.902344 0.820801 0.000000
0.923828 0.820801 0.000000
0.944824 0.820801 0.000000
0.964844 0.820801 0.000000
0.983398 0.820801 0.000000
1.000000 0.820801 0.000000
0.000000 0.843750 0.000000
0.041962 0.843750 0.000000
0.093506 0.843750 0.000000
0.147217 0.843750 0.000000
0.202515 0.843750 0.000000
0.254639 0.843750 0.000000
0.302246 0.843750 0.000000
0.346436 0.843750 0.000000
0.387451 0.843750 0.000000
0.426270 0.843750 0.000000
0.463135 0.843750 0.000000
0.498535 0.843750 0.000000
0.532227 0.843750 0.000000
0.563965 0.843750 0.000000
0.594727 0.843750 0.000000
0.624023 0.843750 0.000000
0.653320 0.843750 0.000000
0.681152 0.843750 0.000000
0.708008 0.843750 0.000000
0.734375 0.843750 0.000000
0.759766 0.843750 0.000000
0.785156 0.843750 0.000000
0.809570 0.843750 0.000000
0.833496 0.843750 0.000000
0.856934 0.843750 0.000000
0.879883 0.843750 0.000000
0.902344 0.843750 0.000000
0.923828 0.843750 0.000000
0.944824 0.843750 0.000000
0.964844 0.843750 0.000000
0.983398 0.843750 0.000000
1.000000 0.843750 0.000000
0.000000 0.866211 0.000000
0.041962 0.866211 0.000000
0.093506 0.866211 0.000000
0.147217 0.866211 0.000000
0.202515 0.866211 0.000000
0.254639 0.866211 0.000000
0.302246 0.866211 0.000000
0.346436 0.866211 0.000000
0.387451 0.866211 0.000000
0.426270 0.866211 0.000000
0.463135 0.866211 0.000000
0.498535 0.866211 0.000000
0.532227 0.866211 0.000000
0.563965 0.866211 0.000000
0.594727 0.866211 0.000000
0.624023 0.866211 0.000000
0.653320 0.866211 0.000000
0.681152 0.866211 0.000000
0.708008 0.866211 0.000000
0.734375 0.866211 0.000000
0.759766 0.866211 0.000000
0.785156 0.866211 0.000000
0.809570 0.866211 0.000000
0.833496 0.866211 0.000000
0.856934 0.866211 0.000000
0.879883 0.866211 0.000000
0.902344 0.866211 0.000000
0.923828 0.866211 0.000000
0.944824 0.866211 0.000000
0.964844 0.866211 0.000000
0.983398 0.866211 0.000000
1.000000 0.866211 0.000000
0.000000 0.888184 0.000000
0.041962 0.888184 0.000000
0.093506 0.888184 0.000000
0.147217 0.888184 0.000000
0.202515 0.888184 0.000000
0.254639 0.888184 0.000000
0.302246 0.888184 0.000000
0.346436 0.888184 0.000000
0.387451 0.888184 0.000000
0.426270 0.888184 0.000000
0.463135 0.888184 0.000000
0.498535 0.888184 0.000000
0.532227 0.888184 0.000000
0.563965 0.888184 0.000000
0.594727 0.888184 0.000000
0.624023 0.888184 0.000000
0.653320 0.888184 0.000000
0.681152 0.888184 0.000000
0.708008 0.888184 0.000000
0.734375 0.888184 0.000000
0.759766 0.888184 0.000000
0.785156 0.888184 0.000000
0.809570 0.888184 0.000000
0.833496 0.888184 0.000000
0.856934 0.888184 0.000000
0.879883 0.888184 0.000000
0.902344 0.888184 0.000000
0.923828 0.888184 0.000000
0.944824 0.888184 0.000000
0.964844 0.888184 0.000000
0.983398 0.888184 0.000000
1.000000 0.888184 0.000000
0.000000 0.909180 0.000000
0.041962 0.909180 0.000000
0.093506 0.909180 0.000000
0.147217 0.909180 0.000000
0.202515 0.909180 0.000000
0.254639 0.909180 0.000000
0.302246 0.909180 0.000000
0.346436 0.909180 0.000000
0.387451 0.909180 0.000000
0.426270 0.909180 0.000000
0.463135 0.909180 0.000000
0.498535 0.909180 0.000000
0.532227 0.909180 0.000000
0.563965 0.909180 0.000000
0.594727 0.909180 0.000000
0.624023 0.909180 0.000000
0.653320 0.909180 0.000000
0.681152 0.909180 0.000000
0.708008 0.909180 0.000000
0.734375 0.909180 0.000000
0.759766 0.909180 0.000000
0.785156 0.909180 0.000000
0.809570 0.909180 0.000000
0.833496 0.909180 0.000000
0.856934 0.909180 0.000000
0.879883 0.909180 0.000000
0.902344 0.909180 0.000000
0.923828 0.909180 0.000000
0.944824 0.909180 0.000000
0.964844 0.909180 0.000000
0.983398 0.909180 0.000000
1.000000 0.909180 0.000000
0.000000 0.929688 0.000000
0.041962 0.929688 0.000000
0.093506 0.929688 0.000000
0.147217 0.929688 0.000000
0.202515 0.929688 0.000000
0.254639 0.929688 0.000000
0.302246 0.929688 0.000000
0.346436 0.929688 0.000000
0.387451 0.929688 0.000000
0.426270 0.929688 0.000000
0.463135 0.929688 0.000000
0.498535 0.929688 0.000000
0.532227 0.929688 0.000000
0.563965 0.929688 0.000000
0.594727 0.929688 0.000000
0.624023 0.929688 0.000000
0.653320 0.929688 0.000000
0.681152 0.929688 0.000000
0.708008 0.929688 0.000000
0.734375 0.929688 0.000000
0.759766 0.929688 0.000000
0.785156 0.929688 0.000000
0.809570 0.929688 0.000000
