cubelut/Adanmq_AgfaColor Vista 200.cube
TITLE "Generated by Foundry::LUT"
LUT_3D_SIZE 32
0.000000 0.000000 0.000000
0.036774 0.000000 0.000000
0.090027 0.000000 0.000000
0.144287 0.000000 0.000000
0.196533 0.000000 0.000000
0.242554 0.000000 0.000000
0.285889 0.000000 0.000000
0.327637 0.000000 0.000000
0.367920 0.000000 0.000000
0.406982 0.000000 0.000000
0.444824 0.000000 0.000000
0.481445 0.000000 0.000000
0.517090 0.000000 0.000000
0.551270 0.000000 0.000000
0.583984 0.000000 0.000000
0.615723 0.000000 0.000000
0.646484 0.000000 0.000000
0.675293 0.000000 0.000000
0.703125 0.000000 0.000000
0.730469 0.000000 0.000000
0.756836 0.000000 0.000000
0.782227 0.000000 0.000000
0.806641 0.000000 0.000000
0.831055 0.000000 0.000000
0.854980 0.000000 0.000000
0.877930 0.000000 0.000000
0.900879 0.000000 0.000000
0.922363 0.000000 0.000000
0.943359 0.000000 0.000000
0.963867 0.000000 0.000000
0.982910 0.000000 0.000000
1.000000 0.000000 0.000000
0.000000 0.036530 0.000000
0.036774 0.036530 0.000000
0.090027 0.036530 0.000000
0.144287 0.036530 0.000000
0.196533 0.036530 0.000000
0.242554 0.036530 0.000000
0.285889 0.036530 0.000000
0.327637 0.036530 0.000000
0.367920 0.036530 0.000000
0.406982 0.036530 0.000000
0.444824 0.036530 0.000000
0.481445 0.036530 0.000000
0.517090 0.036530 0.000000
0.551270 0.036530 0.000000
0.583984 0.036530 0.000000
0.615723 0.036530 0.000000
0.646484 0.036530 0.000000
0.675293 0.036530 0.000000
0.703125 0.036560 0.000000
0.730469 0.036560 0.000000
0.756836 0.036560 0.000000
0.782227 0.036560 0.000000
0.806641 0.036560 0.000000
0.831055 0.036560 0.000000
0.854980 0.036560 0.000000
0.877930 0.036560 0.000000
0.900879 0.036560 0.000000
0.922363 0.036560 0.000000
0.943359 0.036560 0.000000
0.963867 0.036560 0.000000
0.982910 0.036560 0.000000
1.000000 0.036560 0.000000
0.000000 0.085754 0.000000
0.036774 0.085754 0.000000
0.090027 0.085754 0.000000
0.144287 0.085754 0.000000
0.196533 0.085754 0.000000
0.242554 0.085754 0.000000
0.285889 0.085754 0.000000
0.327637 0.085754 0.000000
0.367920 0.085754 0.000000
0.406982 0.085815 0.000000
0.444824 0.085815 0.000000
0.481445 0.085815 0.000000
0.517090 0.085815 0.000000
0.551270 0.085815 0.000000
0.583984 0.085815 0.000000
0.615723 0.085815 0.000000
0.646484 0.085815 0.000000
0.675293 0.085815 0.000000
0.703125 0.085815 0.000000
0.730469 0.085815 0.000000
0.756836 0.085815 0.000000
0.782227 0.085815 0.000000
0.806641 0.085815 0.000000
0.831055 0.085815 0.000000
0.854980 0.085815 0.000000
0.877930 0.085815 0.000000
0.900879 0.085815 0.000000
0.922363 0.085815 0.000000
0.943359 0.085815 0.000000
0.963867 0.085815 0.000000
0.982910 0.085815 0.000000
1.000000 0.085815 0.000000
0.000000 0.135864 0.000000
0.036774 0.135864 0.000000
0.090027 0.135864 0.000000
0.144287 0.135864 0.000000
0.196533 0.135864 0.000000
0.242554 0.135864 0.000000
0.285889 0.135864 0.000000
0.327637 0.135864 0.000000
0.367920 0.135864 0.000000
0.406982 0.135864 0.000000
0.444824 0.135864 0.000000
0.481445 0.135864 0.000000
0.517090 0.135864 0.000000
0.551270 0.135864 0.000000
0.583984 0.135864 0.000000
0.615723 0.135864 0.000000
0.646484 0.135864 0.000000
0.675293 0.135864 0.000000
0.703125 0.135864 0.000000
0.730469 0.135864 0.000000
0.756836 0.135864 0.000000
0.782227 0.135864 0.000000
0.806641 0.135864 0.000000
0.831055 0.135864 0.000000
0.854980 0.135864 0.000000
0.877930 0.135864 0.000000
0.900879 0.135864 0.000000
0.922363 0.135864 0.000000
0.943359 0.135864 0.000000
0.963867 0.135864 0.000000
0.982910 0.135864 0.000000
1.000000 0.135864 0.000000
0.000000 0.183716 0.000000
0.036774 0.183716 0.000000
0.090027 0.183716 0.000000
0.144287 0.183716 0.000000
0.196533 0.183716 0.000000
0.242554 0.183716 0.000000
0.285889 0.183716 0.000000
0.327637 0.183716 0.000000
0.367920 0.183716 0.000000
0.406982 0.183716 0.000000
0.444824 0.183716 0.000000
0.481445 0.183716 0.000000
0.517090 0.183716 0.000000
0.551270 0.183716 0.000000
0.583984 0.183716 0.000000
0.615723 0.183716 0.000000
0.646484 0.183716 0.000000
0.675293 0.183716 0.000000
0.703125 0.183716 0.000000
0.730469 0.183716 0.000000
0.756836 0.183716 0.000000
0.782227 0.183716 0.000000
0.806641 0.183716 0.000000
0.831055 0.183716 0.000000
0.854980 0.183716 0.000000
0.877930 0.183716 0.000000
0.900879 0.183716 0.000000
0.922363 0.183716 0.000000
0.943359 0.183716 0.000000
0.963867 0.183716 0.000000
0.982910 0.183716 0.000000
1.000000 0.183716 0.000000
0.000000 0.228882 0.000000
0.036774 0.228882 0.000000
0.090027 0.228882 0.000000
0.144287 0.228882 0.000000
0.196533 0.228882 0.000000
0.242554 0.228882 0.000000
0.285889 0.228882 0.000000
0.327637 0.228882 0.000000
0.367920 0.228882 0.000000
0.406982 0.228882 0.000000
0.444824 0.228882 0.000000
0.481445 0.228882 0.000000
0.517090 0.228882 0.000000
0.551270 0.228882 0.000000
0.583984 0.228882 0.000000
0.615723 0.228882 0.000000
0.646484 0.228882 0.000000
0.675293 0.228882 0.000000
0.703125 0.228882 0.000000
0.730469 0.228882 0.000000
0.756836 0.228882 0.000000
0.782227 0.228882 0.000000
0.806641 0.228882 0.000000
0.831055 0.228882 0.000000
0.854980 0.228882 0.000000
0.877930 0.228882 0.000000
0.900879 0.228882 0.000000
0.922363 0.228882 0.000000
0.943359 0.228882 0.000000
0.963867 0.228882 0.000000
0.982910 0.228882 0.000000
1.000000 0.228882 0.000000
0.000000 0.271484 0.000000
0.036774 0.271484 0.000000
0.090027 0.271484 0.000000
0.144287 0.271484 0.000000
0.196533 0.271484 0.000000
0.242554 0.271484 0.000000
0.285889 0.271484 0.000000
0.327637 0.271484 0.000000
0.367920 0.271484 0.000000
0.406982 0.271484 0.000000
0.444824 0.271484 0.000000
0.481445 0.271484 0.000000
0.517090 0.271484 0.000000
0.551270 0.271484 0.000000
0.583984 0.271484 0.000000
0.615723 0.271484 0.000000
0.646484 0.271484 0.000000
0.675293 0.271484 0.000000
0.703125 0.271484 0.000000
0.730469 0.271484 0.000000
0.756836 0.271484 0.000000
0.782227 0.271484 0.000000
0.806641 0.271484 0.000000
0.831055 0.271484 0.000000
0.854980 0.271484 0.000000
0.877930 0.271484 0.000000
0.900879 0.271484 0.000000
0.922363 0.271484 0.000000
0.943359 0.271484 0.000000
0.963867 0.271484 0.000000
0.982910 0.271484 0.000000
1.000000 0.271484 0.000000
0.000000 0.311768 0.000000
0.036774 0.311768 0.000000
0.090027 0.311768 0.000000
0.144287 0.311768 0.000000
0.196533 0.311768 0.000000
0.242554 0.311768 0.000000
0.285889 0.311768 0.000000
0.327637 0.311768 0.000000
0.367920 0.311768 0.000000
0.406982 0.311768 0.000000
0.444824 0.311768 0.000000
0.481445 0.311768 0.000000
0.517090 0.311768 0.000000
0.551270 0.311768 0.000000
0.583984 0.311768 0.000000
0.615723 0.311768 0.000000
0.646484 0.311768 0.000000
0.675293 0.311768 0.000000
0.703125 0.311768 0.000000
0.730469 0.311768 0.000000
0.756836 0.311768 0.000000
0.782227 0.311768 0.000000
0.806641 0.311768 0.000000
0.831055 0.311768 0.000000
0.854980 0.311768 0.000000
0.877930 0.311768 0.000000
0.900879 0.311768 0.000000
0.922363 0.311768 0.000000
0.943359 0.311768 0.000000
0.963867 0.311768 0.000000
0.982910 0.311768 0.000000
1.000000 0.311768 0.000000
0.000000 0.349854 0.000000
0.036774 0.349854 0.000000
0.090027 0.349854 0.000000
0.144287 0.349854 0.000000
0.196533 0.349854 0.000000
0.242554 0.349854 0.000000
0.285889 0.349854 0.000000
0.327637 0.349854 0.000000
0.367920 0.349854 0.000000
0.406982 0.349854 0.000000
0.444824 0.349854 0.000000
0.481445 0.349854 0.000000
0.517090 0.349854 0.000000
0.551270 0.349854 0.000000
0.583984 0.349854 0.000000
0.615723 0.349854 0.000000
0.646484 0.349854 0.000000
0.675293 0.349854 0.000000
0.703125 0.349854 0.000000
0.730469 0.349854 0.000000
0.756836 0.349854 0.000000
0.782227 0.349854 0.000000
0.806641 0.349854 0.000000
0.831055 0.349854 0.000000
0.854980 0.349854 0.000000
0.877930 0.349854 0.000000
0.900879 0.349854 0.000000
0.922363 0.349854 0.000000
0.943359 0.349854 0.000000
0.963867 0.349854 0.000000
0.982910 0.349854 0.000000
1.000000 0.349854 0.000000
0.000000 0.386475 0.000000
0.036774 0.386475 0.000000
0.090027 0.386475 0.000000
0.144287 0.386475 0.000000
0.196533 0.386475 0.000000
0.242554 0.386475 0.000000
0.285889 0.386475 0.000000
0.327637 0.386475 0.000000
0.367920 0.386475 0.000000
0.406982 0.386475 0.000000
0.444824 0.386475 0.000000
0.481445 0.386475 0.000000
0.517090 0.386475 0.000000
0.551270 0.386475 0.000000
0.583984 0.386475 0.000000
0.615723 0.386475 0.000000
0.646484 0.386475 0.000000
0.675293 0.386475 0.000000
0.703125 0.386475 0.000000
0.730469 0.386475 0.000000
0.756836 0.386475 0.000000
0.782227 0.386475 0.000000
0.806641 0.386475 0.000000
0.831055 0.386475 0.000000
0.854980 0.386475 0.000000
0.877930 0.386475 0.000000
0.900879 0.386475 0.000000
0.922363 0.386475 0.000000
0.943359 0.386475 0.000000
0.963867 0.386475 0.000000
0.982910 0.386475 0.000000
1.000000 0.386475 0.000000
0.000000 0.421631 0.000000
0.036774 0.421631 0.000000
0.090027 0.421631 0.000000
0.144287 0.421631 0.000000
0.196533 0.421631 0.000000
0.242554 0.421631 0.000000
0.285889 0.421631 0.000000
0.327637 0.421631 0.000000
0.367920 0.421631 0.000000
0.406982 0.421631 0.000000
0.444824 0.421631 0.000000
0.481445 0.421631 0.000000
0.517090 0.421631 0.000000
0.551270 0.421631 0.000000
0.583984 0.421631 0.000000
0.615723 0.421631 0.000000
0.646484 0.421631 0.000000
0.675293 0.421631 0.000000
0.703125 0.421631 0.000000
0.730469 0.421631 0.000000
0.756836 0.421631 0.000000
0.782227 0.421631 0.000000
0.806641 0.421631 0.000000
0.831055 0.421631 0.000000
0.854980 0.421631 0.000000
0.877930 0.421631 0.000000
0.900879 0.421631 0.000000
0.922363 0.421631 0.000000
0.943359 0.421631 0.000000
0.963867 0.421631 0.000000
0.982910 0.421631 0.000000
1.000000 0.421631 0.000000
0.000000 0.455566 0.000000
0.036774 0.455566 0.000000
0.090027 0.455566 0.000000
0.144287 0.455566 0.000000
0.196533 0.455566 0.000000
0.242554 0.455566 0.000000
0.285889 0.455566 0.000000
0.327637 0.455566 0.000000
0.367920 0.455566 0.000000
0.406982 0.455566 0.000000
0.444824 0.455566 0.000000
0.481445 0.455566 0.000000
0.517090 0.455566 0.000000
0.551270 0.455566 0.000000
0.583984 0.455566 0.000000
0.615723 0.455566 0.000000
0.646484 0.455566 0.000000
0.675293 0.455566 0.000000
0.703125 0.455566 0.000000
0.730469 0.455566 0.000000
0.756836 0.455566 0.000000
0.782227 0.455566 0.000000
0.806641 0.455566 0.000000
0.831055 0.455566 0.000000
0.854980 0.455566 0.000000
0.877930 0.455566 0.000000
0.900879 0.455566 0.000000
0.922363 0.455566 0.000000
0.943359 0.455566 0.000000
0.963867 0.455566 0.000000
0.982910 0.455566 0.000000
1.000000 0.455566 0.000000
0.000000 0.488770 0.000000
0.036774 0.488770 0.000000
0.090027 0.488770 0.000000
0.144287 0.488770 0.000000
0.196533 0.488770 0.000000
0.242554 0.488770 0.000000
0.285889 0.488770 0.000000
0.327637 0.488770 0.000000
0.367920 0.488770 0.000000
0.406982 0.488770 0.000000
0.444824 0.488770 0.000000
0.481445 0.488770 0.000000
0.517090 0.488770 0.000000
0.551270 0.488770 0.000000
0.583984 0.488770 0.000000
0.615723 0.488770 0.000000
0.646484 0.488770 0.000000
0.675293 0.488770 0.000000
0.703125 0.488770 0.000000
0.730469 0.488770 0.000000
0.756836 0.488770 0.000000
0.782227 0.488770 0.000000
0.806641 0.488770 0.000000
0.831055 0.488770 0.000000
0.854980 0.488770 0.000000
0.877930 0.488770 0.000000
0.900879 0.488770 0.000000
0.922363 0.488770 0.000000
0.943359 0.488770 0.000000
0.963867 0.488770 0.000000
0.982910 0.488770 0.000000
1.000000 0.488770 0.000000
0.000000 0.520996 0.000000
0.036774 0.520996 0.000000
0.090027 0.520996 0.000000
0.144287 0.520996 0.000000
0.196533 0.520996 0.000000
0.242554 0.520996 0.000000
0.285889 0.520996 0.000000
0.327637 0.520996 0.000000
0.367920 0.520996 0.000000
0.406982 0.520996 0.000000
0.444824 0.520996 0.000000
0.481445 0.520996 0.000000
0.517090 0.520996 0.000000
0.551270 0.520996 0.000000
0.583984 0.520996 0.000000
0.615723 0.520996 0.000000
0.646484 0.520996 0.000000
0.675293 0.520996 0.000000
0.703125 0.520996 0.000000
0.730469 0.520996 0.000000
0.756836 0.520996 0.000000
0.782227 0.520996 0.000000
0.806641 0.520996 0.000000
0.831055 0.520996 0.000000
0.854980 0.520996 0.000000
0.877930 0.520996 0.000000
0.900879 0.520996 0.000000
0.922363 0.520996 0.000000
0.943359 0.520996 0.000000
0.963867 0.520996 0.000000
0.982910 0.520996 0.000000
1.000000 0.520996 0.000000
0.000000 0.551758 0.000000
0.036774 0.551758 0.000000
0.090027 0.551758 0.000000
0.144287 0.551758 0.000000
0.196533 0.551758 0.000000
0.242554 0.551758 0.000000
0.285889 0.551758 0.000000
0.327637 0.551758 0.000000
0.367920 0.551758 0.000000
0.406982 0.551758 0.000000
0.444824 0.551758 0.000000
0.481445 0.551758 0.000000
0.517090 0.551758 0.000000
0.551270 0.551758 0.000000
0.583984 0.551758 0.000000
0.615723 0.551758 0.000000
0.646484 0.551758 0.000000
0.675293 0.551758 0.000000
0.703125 0.551758 0.000000
0.730469 0.551758 0.000000
0.756836 0.551758 0.000000
0.782227 0.551758 0.000000
0.806641 0.551758 0.000000
0.831055 0.551758 0.000000
0.854980 0.551758 0.000000
0.877930 0.551758 0.000000
0.900879 0.551758 0.000000
0.922363 0.551758 0.000000
0.943359 0.551758 0.000000
0.963867 0.551758 0.000000
0.982910 0.551758 0.000000
1.000000 0.551758 0.000000
0.000000 0.581543 0.000000
0.036774 0.581543 0.000000
0.090027 0.581543 0.000000
0.144287 0.581543 0.000000
0.196533 0.581543 0.000000
0.242554 0.581543 0.000000
0.285889 0.581543 0.000000
0.327637 0.581543 0.000000
0.367920 0.581543 0.000000
0.406982 0.581543 0.000000
0.444824 0.581543 0.000000
0.481445 0.581543 0.000000
0.517090 0.581543 0.000000
0.551270 0.581543 0.000000
0.583984 0.581543 0.000000
0.615723 0.581543 0.000000
0.646484 0.581543 0.000000
0.675293 0.581543 0.000000
0.703125 0.581543 0.000000
0.730469 0.581543 0.000000
0.756836 0.581543 0.000000
0.782227 0.581543 0.000000
0.806641 0.581543 0.000000
0.831055 0.581543 0.000000
0.854980 0.581543 0.000000
0.877930 0.581543 0.000000
0.900879 0.581543 0.000000
0.922363 0.581543 0.000000
0.943359 0.581543 0.000000
0.963867 0.581543 0.000000
0.982910 0.581543 0.000000
1.000000 0.581543 0.000000
0.000000 0.611328 0.000000
0.036774 0.611328 0.000000
0.090027 0.611328 0.000000
0.144287 0.611328 0.000000
0.196533 0.611328 0.000000
0.242554 0.611328 0.000000
0.285889 0.611328 0.000000
0.327637 0.611328 0.000000
0.367920 0.611328 0.000000
0.406982 0.611328 0.000000
0.444824 0.611328 0.000000
0.481445 0.611328 0.000000
0.517090 0.611328 0.000000
0.551270 0.611328 0.000000
0.583984 0.611328 0.000000
0.615723 0.611328 0.000000
0.646484 0.611328 0.000000
0.675293 0.611328 0.000000
0.703125 0.611328 0.000000
0.730469 0.611328 0.000000
0.756836 0.611328 0.000000
0.782227 0.611328 0.000000
0.806641 0.611328 0.000000
0.831055 0.611328 0.000000
0.854980 0.611328 0.000000
0.877930 0.611328 0.000000
0.900879 0.611328 0.000000
0.922363 0.611328 0.000000
0.943359 0.611328 0.000000
0.963867 0.611328 0.000000
0.982910 0.611328 0.000000
1.000000 0.611328 0.000000
0.000000 0.640625 0.000000
0.036774 0.640625 0.000000
0.090027 0.640625 0.000000
0.144287 0.640625 0.000000
0.196533 0.640625 0.000000
0.242554 0.640625 0.000000
0.285889 0.640625 0.000000
0.327637 0.640625 0.000000
0.367920 0.640625 0.000000
0.406982 0.640625 0.000000
0.444824 0.640625 0.000000
0.481445 0.640625 0.000000
0.517090 0.640625 0.000000
0.551270 0.640625 0.000000
0.583984 0.640625 0.000000
0.615723 0.640625 0.000000
0.646484 0.640625 0.000000
0.675293 0.640625 0.000000
0.703125 0.640625 0.000000
0.730469 0.640625 0.000000
0.756836 0.640625 0.000000
0.782227 0.640625 0.000000
0.806641 0.640625 0.000000
0.831055 0.640625 0.000000
0.854980 0.640625 0.000000
0.877930 0.640625 0.000000
0.900879 0.640625 0.000000
0.922363 0.640625 0.000000
0.943359 0.640625 0.000000
0.963867 0.640625 0.000000
0.982910 0.640625 0.000000
1.000000 0.640625 0.000000
0.000000 0.669434 0.000000
0.036774 0.669434 0.000000
0.090027 0.669434 0.000000
0.144287 0.669434 0.000000
0.196533 0.669434 0.000000
0.242554 0.669434 0.000000
0.285889 0.669434 0.000000
0.327637 0.669434 0.000000
0.367920 0.669434 0.000000
0.406982 0.669434 0.000000
0.444824 0.669434 0.000000
0.481445 0.669434 0.000000
0.517090 0.669434 0.000000
0.551270 0.669434 0.000000
0.583984 0.669434 0.000000
0.615723 0.669434 0.000000
0.646484 0.669434 0.000000
0.675293 0.669434 0.000000
0.703125 0.669434 0.000000
0.730469 0.669434 0.000000
0.756836 0.669434 0.000000
0.782227 0.669434 0.000000
0.806641 0.669434 0.000000
0.831055 0.669434 0.000000
0.854980 0.669434 0.000000
0.877930 0.669434 0.000000
0.900879 0.669434 0.000000
0.922363 0.669434 0.000000
0.943359 0.669434 0.000000
0.963867 0.669434 0.000000
0.982910 0.669434 0.000000
1.000000 0.669434 0.000000
0.000000 0.697754 0.000000
0.036774 0.697754 0.000000
0.090027 0.697754 0.000000
0.144287 0.697754 0.000000
0.196533 0.697754 0.000000
0.242554 0.697754 0.000000
0.285889 0.697754 0.000000
0.327637 0.697754 0.000000
0.367920 0.697754 0.000000
0.406982 0.697754 0.000000
0.444824 0.697754 0.000000
0.481445 0.697754 0.000000
0.517090 0.697754 0.000000
0.551270 0.697754 0.000000
0.583984 0.697754 0.000000
0.615723 0.697754 0.000000
0.646484 0.697754 0.000000
0.675293 0.697754 0.000000
0.703125 0.697754 0.000000
0.730469 0.697754 0.000000
0.756836 0.697754 0.000000
0.782227 0.697754 0.000000
0.806641 0.697754 0.000000
0.831055 0.697754 0.000000
0.854980 0.697754 0.000000
0.877930 0.697754 0.000000
0.900879 0.697754 0.000000
0.922363 0.697754 0.000000
0.943359 0.697754 0.000000
0.963867 0.697754 0.000000
0.982910 0.697754 0.000000
1.000000 0.697754 0.000000
0.000000 0.725586 0.000000
0.036774 0.725586 0.000000
0.090027 0.725586 0.000000
0.144287 0.725586 0.000000
0.196533 0.725586 0.000000
0.242554 0.725586 0.000000
0.285889 0.725586 0.000000
0.327637 0.725586 0.000000
0.367920 0.725586 0.000000
0.406982 0.725586 0.000000
0.444824 0.725586 0.000000
0.481445 0.725586 0.000000
0.517090 0.725586 0.000000
0.551270 0.725586 0.000000
0.583984 0.725586 0.000000
0.615723 0.725586 0.000000
0.646484 0.725586 0.000000
0.675293 0.725586 0.000000
0.703125 0.725586 0.000000
0.730469 0.725586 0.000000
0.756836 0.725586 0.000000
0.782227 0.725586 0.000000
0.806641 0.725586 0.000000
0.831055 0.725586 0.000000
0.854980 0.725586 0.000000
0.877930 0.725586 0.000000
0.900879 0.725586 0.000000
0.922363 0.725586 0.000000
0.943359 0.725586 0.000000
0.963867 0.725586 0.000000
0.982910 0.725586 0.000000
1.000000 0.725586 0.000000
0.000000 0.752441 0.000000
0.036774 0.752441 0.000000
0.090027 0.752441 0.000000
0.144287 0.752441 0.000000
0.196533 0.752441 0.000000
0.242554 0.752441 0.000000
0.285889 0.752441 0.000000
0.327637 0.752441 0.000000
0.367920 0.752441 0.000000
0.406982 0.752441 0.000000
0.444824 0.752441 0.000000
0.481445 0.752441 0.000000
0.517090 0.752441 0.000000
0.551270 0.752441 0.000000
0.583984 0.752441 0.000000
0.615723 0.752441 0.000000
0.646484 0.752441 0.000000
0.675293 0.752441 0.000000
0.703125 0.752441 0.000000
0.730469 0.752441 0.000000
0.756836 0.752441 0.000000
0.782227 0.752441 0.000000
0.806641 0.752441 0.000000
0.831055 0.752441 0.000000
0.854980 0.752441 0.000000
0.877930 0.752441 0.000000
0.900879 0.752441 0.000000
0.922363 0.752441 0.000000
0.943359 0.752441 0.000000
0.963867 0.752441 0.000000
0.982910 0.752441 0.000000
1.000000 0.752441 0.000000
0.000000 0.778809 0.000000
0.036774 0.778809 0.000000
0.090027 0.778809 0.000000
0.144287 0.778809 0.000000
0.196533 0.778809 0.000000
0.242554 0.778809 0.000000
0.285889 0.778809 0.000000
0.327637 0.778809 0.000000
0.367920 0.778809 0.000000
0.406982 0.778809 0.000000
0.444824 0.778809 0.000000
0.481445 0.778809 0.000000
0.517090 0.778809 0.000000
0.551270 0.778809 0.000000
0.583984 0.778809 0.000000
0.615723 0.778809 0.000000
0.646484 0.778809 0.000000
0.675293 0.778809 0.000000
0.703125 0.778809 0.000000
0.730469 0.778809 0.000000
0.756836 0.778809 0.000000
0.782227 0.778809 0.000000
0.806641 0.778809 0.000000
0.831055 0.778809 0.000000
0.854980 0.778809 0.000000
0.877930 0.778809 0.000000
0.900879 0.778809 0.000000
0.922363 0.778809 0.000000
0.943359 0.778809 0.000000
0.963867 0.778809 0.000000
0.982910 0.778809 0.000000
1.000000 0.778809 0.000000
0.000000 0.805176 0.000000
0.036774 0.805176 0.000000
0.090027 0.805176 0.000000
0.144287 0.805176 0.000000
0.196533 0.805176 0.000000
0.242554 0.805176 0.000000
0.285889 0.805176 0.000000
0.327637 0.805176 0.000000
0.367920 0.805176 0.000000
0.406982 0.805176 0.000000
0.444824 0.805176 0.000000
0.481445 0.805176 0.000000
0.517090 0.805176 0.000000
0.551270 0.805176 0.000000
0.583984 0.805176 0.000000
0.615723 0.805176 0.000000
0.646484 0.805176 0.000000
0.675293 0.805176 0.000000
0.703125 0.805176 0.000000
0.730469 0.805176 0.000000
0.756836 0.805176 0.000000
0.782227 0.805176 0.000000
0.806641 0.805176 0.000000
0.831055 0.805176 0.000000
0.854980 0.805176 0.000000
0.877930 0.805176 0.000000
0.900879 0.805176 0.000000
0.922363 0.805176 0.000000
0.943359 0.805176 0.000000
0.963867 0.805176 0.000000
0.982910 0.805176 0.000000
1.000000 0.805176 0.000000
0.000000 0.831543 0.000000
0.036774 0.831543 0.000000
0.090027 0.831543 0.000000
0.144287 0.831543 0.000000
0.196533 0.831543 0.000000
0.242554 0.831543 0.000000
0.285889 0.831543 0.000000
0.327637 0.831543 0.000000
0.367920 0.831543 0.000000
0.406982 0.831543 0.000000
0.444824 0.831543 0.000000
0.481445 0.831543 0.000000
0.517090 0.831543 0.000000
0.551270 0.831543 0.000000
0.583984 0.831543 0.000000
0.615723 0.831543 0.000000
0.646484 0.831543 0.000000
0.675293 0.831543 0.000000
0.703125 0.831543 0.000000
0.730469 0.831543 0.000000
0.756836 0.831543 0.000000
0.782227 0.831543 0.000000
0.806641 0.831543 0.000000
0.831055 0.831543 0.000000
0.854980 0.831543 0.000000
0.877930 0.831543 0.000000
0.900879 0.831543 0.000000
0.922363 0.831543 0.000000
0.943359 0.831543 0.000000
0.963867 0.831543 0.000000
0.982910 0.831543 0.000000
1.000000 0.831543 0.000000
0.000000 0.857910 0.000000
0.036774 0.857910 0.000000
0.090027 0.857910 0.000000
0.144287 0.857910 0.000000
0.196533 0.857910 0.000000
0.242554 0.857910 0.000000
0.285889 0.857910 0.000000
0.327637 0.857910 0.000000
0.367920 0.857910 0.000000
0.406982 0.857910 0.000000
0.444824 0.857910 0.000000
0.481445 0.857910 0.000000
0.517090 0.857910 0.000000
0.551270 0.857910 0.000000
0.583984 0.857910 0.000000
0.615723 0.857910 0.000000
0.646484 0.857910 0.000000
0.675293 0.857910 0.000000
0.703125 0.857910 0.000000
0.730469 0.857910 0.000000
0.756836 0.857910 0.000000
0.782227 0.857910 0.000000
0.806641 0.857910 0.000000
0.831055 0.857910 0.000000
0.854980 0.857910 0.000000
0.877930 0.857910 0.000000
0.900879 0.857910 0.000000
0.922363 0.857910 0.000000
0.943359 0.857910 0.000000
0.963867 0.857910 0.000000
0.982910 0.857910 0.000000
1.000000 0.857910 0.000000
0.000000 0.883789 0.000000
0.036774 0.883789 0.000000
0.090027 0.883789 0.000000
0.144287 0.883789 0.000000
0.196533 0.883789 0.000000
0.242554 0.883789 0.000000
0.285889 0.883789 0.000000
0.327637 0.883789 0.000000
0.367920 0.883789 0.000000
0.406982 0.883789 0.000000
0.444824 0.883789 0.000000
0.481445 0.883789 0.000000
0.517090 0.883789 0.000000
0.551270 0.883789 0.000000
0.583984 0.883789 0.000000
0.615723 0.883789 0.000000
0.646484 0.883789 0.000000
0.675293 0.883789 0.000000
0.703125 0.883789 0.000000
0.730469 0.883789 0.000000
0.756836 0.883789 0.000000
0.782227 0.883789 0.000000
0.806641 0.883789 0.000000
0.831055 0.883789 0.000000
0.854980 0.883789 0.000000
0.877930 0.883789 0.000000
0.900879 0.883789 0.000000
0.922363 0.883789 0.000000
0.943359 0.883789 0.000000
0.963867 0.883789 0.000000
0.982910 0.883789 0.000000
1.000000 0.883789 0.000000
0.000000 0.909180 0.000000
0.036774 0.909180 0.000000
0.090027 0.909180 0.000000
0.144287 0.909180 0.000000
0.196533 0.909180 0.000000
0.242554 0.909180 0.000000
0.285889 0.909180 0.000000
0.327637 0.909180 0.000000
0.367920 0.909180 0.000000
0.406982 0.909180 0.000000
0.444824 0.909180 0.000000
0.481445 0.909180 0.000000
0.517090 0.909180 0.000000
0.551270 0.909180 0.000000
0.583984 0.909180 0.000000
0.615723 0.909180 0.000000
0.646484 0.909180 0.000000
0.675293 0.909180 0.000000
0.703125 0.909180 0.000000
0.730469 0.909180 0.000000
0.756836 0.909180 0.000000
0.782227 0.909180 0.000000
0.806641 0.909180 0.000000
