cubelut/Adanmq_AgfaColor Vista 400.cube
TITLE "Generated by Foundry::LUT"
LUT_3D_SIZE 8
DOMAIN_MIN 0.000000 0.000000 0.000000
DOMAIN_MAX 0.903226 0.903226 0.903226
0.000000 0.000000 0.000000
0.194092 0.000000 0.000000
0.369385 0.000000 0.000000
0.509766 0.000000 0.000000
0.631348 0.000000 0.000000
0.741211 0.000000 0.000000
0.842285 0.000000 0.000000
0.936523 0.000000 0.000000
0.000000 0.181274 0.000000
0.194092 0.181274 0.000000
0.369385 0.181274 0.000000
0.509766 0.181274 0.000000
0.631348 0.181274 0.000000
0.741211 0.181274 0.000000
0.842285 0.181396 0.000000
0.936523 0.181396 0.000000
0.000000 0.368652 0.000000
0.194092 0.368652 0.000000
0.369385 0.368652 0.000000
0.509766 0.368652 0.000000
0.631348 0.368652 0.000000
0.741211 0.368652 0.000000
0.842285 0.368652 0.000000
0.936523 0.368652 0.000000
0.000000 0.520508 0.000000
0.194092 0.520508 0.000000
0.369385 0.520508 0.000000
0.509766 0.520508 0.000000
0.631348 0.520508 0.000000
0.741211 0.520508 0.000000
0.842285 0.520508 0.000000
0.936523 0.520508 0.000000
0.000000 0.645508 0.000000
0.194092 0.645508 0.000000
0.369385 0.645508 0.000000
0.509766 0.645508 0.000000
0.631348 0.645508 0.000000
0.741211 0.645508 0.000000
0.842285 0.645508 0.000000
0.936523 0.645508 0.000000
0.000000 0.752930 0.000000
0.194092 0.752930 0.000000
0.369385 0.753418 0.000000
0.509766 0.753418 0.000000
0.631348 0.753418 0.000000
0.741211 0.753418 0.000000
0.842285 0.753418 0.000000
0.936523 0.753418 0.000000
0.000000 0.850098 0.000000
0.194092 0.850098 0.000000
0.369385 0.850098 0.000000
0.509766 0.850098 0.000000
0.631348 0.850098 0.000000
0.741211 0.850098 0.000000
0.842285 0.850098 0.000000
0.936523 0.850098 0.000000
0.000000 0.939453 0.000000
0.194092 0.939453 0.000000
0.369385 0.939453 0.000000
0.509766 0.939453 0.000000
0.631348 0.939453 0.000000
0.741211 0.939453 0.000000
0.842285 0.939453 0.000000
0.936523 0.939453 0.000000
0.000000 0.000000 0.142578
0.194214 0.000000 0.142578
0.369385 0.000000 0.142578
0.509766 0.000000 0.142578
0.631348 0.000000 0.142578
0.741211 0.000000 0.142578
0.842285 0.000000 0.142578
0.936523 0.000000 0.142578
0.000000 0.181274 0.142578
0.194214 0.181274 0.142578
0.369385 0.181274 0.142578
0.509766 0.181274 0.142578
0.631348 0.181274 0.142578
0.741211 0.181274 0.142578
0.842285 0.181274 0.142578
0.936523 0.181396 0.142578
0.000000 0.368652 0.142578
0.194214 0.368652 0.142578
0.369385 0.368652 0.142578
0.509766 0.368652 0.142578
0.631348 0.368652 0.142578
0.741211 0.368652 0.142578
0.842285 0.368652 0.142578
0.936523 0.368652 0.142578
0.000000 0.520508 0.142578
0.194214 0.520508 0.142578
0.369385 0.520508 0.142700
0.509766 0.520508 0.142700
0.631348 0.520508 0.142700
0.741211 0.520508 0.142700
0.842285 0.520508 0.142700
0.936523 0.520508 0.142700
0.000000 0.645508 0.142700
0.194214 0.645508 0.142700
0.369385 0.645508 0.142700
0.509766 0.645508 0.142700
0.631348 0.645508 0.142700
0.741211 0.645508 0.142700
0.842285 0.645508 0.142700
0.936523 0.645508 0.142700
0.000000 0.752930 0.142700
0.194214 0.752930 0.142700
0.369385 0.752930 0.142700
0.509766 0.753418 0.142700
0.631348 0.753418 0.142700
0.741211 0.753418 0.142700
0.842285 0.753418 0.142700
0.936523 0.753418 0.142700
0.000000 0.850098 0.142700
0.194214 0.850098 0.142700
0.369385 0.850098 0.142700
0.509766 0.850098 0.142700
0.631348 0.850098 0.142700
0.741211 0.850098 0.142700
0.842285 0.850098 0.142700
0.936523 0.850098 0.142700
0.000000 0.939453 0.142700
0.194214 0.939453 0.142700
0.369385 0.939453 0.142700
0.509766 0.939453 0.142700
0.631348 0.939453 0.142700
0.741211 0.939453 0.142700
0.842285 0.939453 0.142700
0.936523 0.939453 0.142700
0.000000 0.000000 0.306396
0.194214 0.000000 0.306396
0.369385 0.000000 0.306396
0.509766 0.000000 0.306396
0.631348 0.000000 0.306396
0.741211 0.000000 0.306396
0.842285 0.000000 0.306396
0.936523 0.000000 0.306396
0.000000 0.181274 0.306396
0.194214 0.181274 0.306396
0.369385 0.181274 0.306396
0.509766 0.181274 0.306396
0.631348 0.181274 0.306396
0.741211 0.181274 0.306396
0.842285 0.181274 0.306396
0.936523 0.181274 0.306396
0.000000 0.368652 0.306396
0.194214 0.368652 0.306396
0.369385 0.368652 0.306396
0.509766 0.368652 0.306396
0.631348 0.368652 0.306396
0.741211 0.368652 0.306396
0.842285 0.368652 0.306396
0.936523 0.368652 0.306396
0.000000 0.520508 0.306396
0.194214 0.520508 0.306396
0.369385 0.520508 0.306396
0.509766 0.520508 0.306396
0.631348 0.520508 0.306396
0.741211 0.520508 0.306396
0.842285 0.520508 0.306396
0.936523 0.520508 0.306396
0.000000 0.645508 0.306396
0.194214 0.645508 0.306396
0.369385 0.645508 0.306396
0.509766 0.645508 0.306396
0.631348 0.645508 0.306396
0.741211 0.645508 0.306396
0.842285 0.645508 0.306396
0.936523 0.645508 0.306396
0.000000 0.752930 0.306396
0.194214 0.752930 0.306396
0.369385 0.752930 0.306396
0.509766 0.753418 0.306396
0.631348 0.753418 0.306396
0.741211 0.753418 0.306396
0.842285 0.753418 0.306396
0.936523 0.753418 0.306396
0.000000 0.850098 0.306396
0.194214 0.850098 0.306396
0.369385 0.850098 0.306396
0.509766 0.850098 0.306396
0.631348 0.850098 0.306396
0.741211 0.850098 0.306396
0.842285 0.850098 0.306396
0.936523 0.850098 0.306396
0.000000 0.939453 0.306396
0.194214 0.939453 0.306396
0.369385 0.939453 0.306396
0.509766 0.939453 0.306396
0.631348 0.939453 0.306396
0.741211 0.939453 0.306396
0.842285 0.939453 0.306396
0.936523 0.939453 0.306396
0.000000 0.000000 0.451172
0.194214 0.000000 0.451172
0.369385 0.000000 0.451172
0.509766 0.000000 0.451172
0.631348 0.000000 0.451172
0.741211 0.000000 0.451172
0.842285 0.000000 0.451172
0.936523 0.000000 0.451172
0.000000 0.181274 0.451172
0.194214 0.181274 0.451172
0.369385 0.181274 0.451172
0.509766 0.181274 0.451172
0.631348 0.181274 0.451172
0.741211 0.181274 0.451172
0.842285 0.181274 0.451172
0.936523 0.181274 0.451172
0.000000 0.368652 0.451172
0.194214 0.368652 0.451172
0.369385 0.368652 0.451172
0.509766 0.368652 0.451172
0.631348 0.368652 0.451172
0.741211 0.368652 0.451172
0.842285 0.368652 0.451172
0.936523 0.368652 0.451172
0.000000 0.520508 0.451172
0.194214 0.520508 0.451172
0.369385 0.520508 0.451172
0.509766 0.520508 0.451172
0.631348 0.520508 0.451172
0.741211 0.520508 0.451172
0.842285 0.520508 0.451172
0.936523 0.520508 0.451172
0.000000 0.645508 0.451172
0.194214 0.645508 0.451172
0.369385 0.645508 0.451172
0.509766 0.645508 0.451172
0.631348 0.645508 0.451172
0.741211 0.645508 0.451172
0.842285 0.645508 0.451172
0.936523 0.645508 0.451172
0.000000 0.752930 0.451172
0.194214 0.752930 0.451172
0.369385 0.752930 0.451172
0.509766 0.752930 0.451172
0.631348 0.753418 0.451172
0.741211 0.753418 0.451172
0.842285 0.753418 0.451172
0.936523 0.753418 0.451172
0.000000 0.850098 0.451172
0.194214 0.850098 0.451172
0.369385 0.850098 0.451172
0.509766 0.850098 0.451172
0.631348 0.850098 0.451172
0.741211 0.850098 0.451172
0.842285 0.850098 0.451172
0.936523 0.850098 0.451172
0.000000 0.939453 0.451172
0.194214 0.939453 0.451172
0.369385 0.939453 0.451172
0.509766 0.939453 0.451172
0.631348 0.939453 0.451172
0.741211 0.939453 0.451172
0.842285 0.939453 0.451172
0.936523 0.939453 0.451172
0.000001 0.000000 0.576660
0.194336 0.000000 0.576660
0.369385 0.000000 0.576660
0.509766 0.000000 0.576660
0.631836 0.000000 0.576660
0.741211 0.000000 0.576660
0.842285 0.000000 0.576660
0.936523 0.000000 0.576660
0.000001 0.181274 0.576660
0.194336 0.181274 0.576660
0.369385 0.181274 0.576660
0.509766 0.181274 0.576660
0.631836 0.181274 0.576660
0.741211 0.181274 0.576660
0.842285 0.181274 0.576660
0.936523 0.181274 0.576660
0.000001 0.368652 0.576660
0.194336 0.368652 0.576660
0.369385 0.368652 0.576660
0.509766 0.368652 0.576660
0.631836 0.368652 0.576660
0.741211 0.368652 0.576660
0.842285 0.368652 0.576660
0.936523 0.368652 0.576660
0.000001 0.520508 0.576660
0.194336 0.520508 0.576660
0.369385 0.520508 0.576660
0.509766 0.520508 0.576660
0.631836 0.520508 0.576660
0.741211 0.520508 0.576660
0.842285 0.520508 0.576660
0.936523 0.520508 0.576660
0.000001 0.645508 0.576660
0.194336 0.645508 0.576660
0.369385 0.645508 0.576660
0.509766 0.645508 0.576660
0.631836 0.645508 0.576660
0.741211 0.645508 0.576660
0.842285 0.645508 0.576660
0.936523 0.645508 0.576660
0.000001 0.752930 0.576660
0.194336 0.752930 0.576660
0.369385 0.752930 0.576660
0.509766 0.752930 0.576660
0.631836 0.752930 0.576660
0.741211 0.753418 0.576660
0.842285 0.753418 0.576660
0.936523 0.753418 0.576660
0.000001 0.850098 0.576660
0.194336 0.850098 0.576660
0.369385 0.850098 0.576660
0.509766 0.850098 0.576660
0.631836 0.850098 0.576660
0.741211 0.850098 0.576660
0.842285 0.850098 0.576660
0.936523 0.850098 0.576660
0.000001 0.939453 0.576660
0.194336 0.939453 0.576660
0.369385 0.939453 0.576660
0.509766 0.939453 0.576660
0.631836 0.939453 0.576660
0.741211 0.939453 0.576660
0.842285 0.939453 0.576660
0.936523 0.939453 0.576660
0.000001 0.000000 0.691406
0.194336 0.000000 0.691406
0.369629 0.000000 0.691406
0.510254 0.000000 0.691406
0.631836 0.000000 0.691406
0.741211 0.000000 0.691406
0.842285 0.000000 0.691406
0.936523 0.000000 0.691406
0.000001 0.181274 0.691406
0.194336 0.181274 0.691406
0.369629 0.181274 0.691406
0.510254 0.181274 0.691406
0.631836 0.181274 0.691406
0.741211 0.181274 0.691406
0.842285 0.181274 0.691406
0.936523 0.181274 0.691406
0.000001 0.368652 0.691406
0.194336 0.368652 0.691406
0.369629 0.368652 0.691406
0.510254 0.368652 0.691406
0.631836 0.368652 0.691406
0.741211 0.368652 0.691406
0.842285 0.368652 0.691406
0.936523 0.368652 0.691406
0.000001 0.520508 0.691406
0.194336 0.520508 0.691406
0.369629 0.520508 0.691406
0.510254 0.520508 0.691406
0.631836 0.520508 0.691406
0.741211 0.520508 0.691406
0.842285 0.520508 0.691406
0.936523 0.520508 0.691406
0.000001 0.645508 0.691406
0.194336 0.645508 0.691406
0.369629 0.645508 0.691406
0.510254 0.645508 0.691406
0.631836 0.645508 0.691406
0.741211 0.645508 0.691406
0.842285 0.645508 0.691406
0.936523 0.645508 0.691406
0.000001 0.752930 0.691406
0.194336 0.752930 0.691406
0.369629 0.752930 0.691406
0.510254 0.752930 0.691406
0.631836 0.752930 0.691406
0.741211 0.752930 0.691406
0.842285 0.753418 0.691406
0.936523 0.753418 0.691406
0.000001 0.850098 0.691406
0.194336 0.850098 0.691406
0.369629 0.850098 0.691406
0.510254 0.850098 0.691406
0.631836 0.850098 0.691406
0.741211 0.850098 0.691406
0.842285 0.850098 0.691406
0.936523 0.850098 0.691406
0.000001 0.939453 0.691406
0.194336 0.939453 0.691406
0.369629 0.939453 0.691406
0.510254 0.939453 0.691406
0.631836 0.939453 0.691406
0.741211 0.939453 0.691406
0.842285 0.939453 0.691406
0.936523 0.939453 0.691406
0.000002 0.000000 0.803711
0.194336 0.000000 0.803711
0.369629 0.000000 0.803711
0.510254 0.000000 0.803711
0.631836 0.000000 0.803711
0.741211 0.000000 0.803711
0.842285 0.000000 0.803711
0.936523 0.000000 0.803711
0.000002 0.181274 0.803711
0.194336 0.181274 0.803711
0.369629 0.181274 0.803711
0.510254 0.181274 0.803711
0.631836 0.181274 0.803711
0.741211 0.181274 0.803711
0.842285 0.181274 0.803711
0.936523 0.181274 0.803711
0.000002 0.368652 0.803711
0.194336 0.368652 0.803711
0.369629 0.368652 0.803711
0.510254 0.368652 0.803711
0.631836 0.368652 0.803711
0.741211 0.368652 0.803711
0.842285 0.368652 0.803711
0.936523 0.368652 0.803711
0.000002 0.520508 0.803711
0.194336 0.520508 0.803711
0.369629 0.520508 0.803711
0.510254 0.520508 0.803711
0.631836 0.520508 0.803711
0.741211 0.520508 0.803711
0.842285 0.520508 0.803711
0.936523 0.520508 0.803711
0.000002 0.645508 0.803711
0.194336 0.645508 0.803711
0.369629 0.645508 0.803711
0.510254 0.645508 0.803711
0.631836 0.645508 0.803711
0.741211 0.645508 0.803711
0.842285 0.645508 0.803711
0.936523 0.645508 0.803711
0.000002 0.752930 0.803711
0.194336 0.752930 0.803711
0.369629 0.752930 0.803711
0.510254 0.752930 0.803711
0.631836 0.752930 0.803711
0.741211 0.752930 0.803711
0.842285 0.752930 0.803711
0.936523 0.753418 0.803711
0.000002 0.850098 0.803711
0.194336 0.850098 0.803711
0.369629 0.850098 0.803711
0.510254 0.850098 0.803711
0.631836 0.850098 0.803711
0.741211 0.850098 0.803711
0.842285 0.850098 0.803711
0.936523 0.850098 0.803711
0.000002 0.939453 0.803711
0.194336 0.939453 0.803711
0.369629 0.939453 0.803711
0.510254 0.939453 0.803711
0.631836 0.939453 0.803711
0.741211 0.939453 0.803711
0.842285 0.939453 0.803711
0.936523 0.939453 0.803711
0.000002 0.000000 0.916504
0.194336 0.000000 0.916504
0.369629 0.000000 0.916504
0.510254 0.000000 0.916504
0.631836 0.000000 0.916504
0.741211 0.000000 0.916504
0.842285 0.000000 0.916504
0.936523 0.000000 0.916504
0.000002 0.181274 0.916504
0.194336 0.181274 0.916504
0.369629 0.181274 0.916504
0.510254 0.181274 0.916504
0.631836 0.181274 0.916504
0.741211 0.181274 0.916504
0.842285 0.181274 0.916504
0.936523 0.181274 0.916504
0.000002 0.368652 0.916504
0.194336 0.368652 0.916504
0.369629 0.368652 0.916504
0.510254 0.368652 0.916504
0.631836 0.368652 0.916504
0.741211 0.368652 0.916504
0.842285 0.368652 0.916504
0.936523 0.368652 0.916504
0.000002 0.520508 0.916504
0.194336 0.520508 0.916504
0.369629 0.520508 0.916504
0.510254 0.520508 0.916504
0.631836 0.520508 0.916504
0.741211 0.520508 0.916504
0.842285 0.520508 0.916504
0.936523 0.520508 0.916504
0.000002 0.645508 0.916504
0.194336 0.645508 0.916504
0.369629 0.645508 0.916504
0.510254 0.645508 0.916504
0.631836 0.645508 0.916504
0.741211 0.645508 0.916504
0.842285 0.645508 0.916504
0.936523 0.645508 0.916504
0.000002 0.752930 0.916504
0.194336 0.752930 0.916504
0.369629 0.752930 0.916504
0.510254 0.752930 0.916504
0.631836 0.752930 0.916504
0.741211 0.752930 0.916504
0.842285 0.752930 0.916504
0.936523 0.752930 0.916504
0.000002 0.850098 0.916504
0.194336 0.850098 0.916504
0.369629 0.850098 0.916504
0.510254 0.850098 0.916504
0.631836 0.850098 0.916504
0.741211 0.850098 0.916504
0.842285 0.850098 0.916504
0.936523 0.850098 0.916504
0.000002 0.939453 0.916504
0.194336 0.939453 0.916504
0.369629 0.939453 0.916504
0.510254 0.939453 0.916504
0.631836 0.939453 0.916504
0.741211 0.939453 0.916504
0.842285 0.939453 0.916504
0.936523 0.939453 0.916504
