cubelut/Adanmq_AgfaColor Ultra 050.cube
TITLE "Generated by Foundry::LUT"
LUT_3D_SIZE 8
DOMAIN_MIN 0.000000 0.000000 0.000000
DOMAIN_MAX 0.903226 0.903226 0.903226
0.000000 0.000000 0.000000
0.186768 0.000000 0.000000
0.331787 0.000000 0.000000
0.463867 0.000000 0.000000
0.587402 0.000000 0.000000
0.706055 0.000000 0.000000
0.821289 0.000000 0.000000
0.930664 0.000000 0.000000
0.000000 0.285889 0.000000
0.186768 0.285889 0.000000
0.331787 0.285889 0.000000
0.463867 0.285889 0.000000
0.587402 0.285889 0.000000
0.706055 0.285889 0.000000
0.821289 0.285889 0.000000
0.930664 0.285889 0.000000
0.000000 0.489258 0.000000
0.186768 0.489258 0.000000
0.331787 0.489258 0.000000
0.463867 0.489258 0.000000
0.587402 0.489258 0.000000
0.706055 0.489258 0.000000
0.821289 0.489258 0.000000
0.930664 0.489258 0.000000
0.000000 0.629883 0.000000
0.186768 0.629883 0.000000
0.331787 0.629883 0.000000
0.463867 0.629883 0.000000
0.587402 0.629883 0.000000
0.706055 0.629883 0.000000
0.821289 0.629883 0.000000
0.930664 0.629883 0.000000
0.000000 0.736816 0.000000
0.186768 0.736816 0.000000
0.331787 0.736816 0.000000
0.463867 0.736816 0.000000
0.587402 0.736816 0.000000
0.706055 0.736816 0.000000
0.821289 0.736816 0.000000
0.930664 0.736816 0.000000
0.000000 0.823730 0.000000
0.186768 0.823730 0.000000
0.331787 0.823730 0.000000
0.463867 0.823730 0.000000
0.587402 0.823730 0.000000
0.706055 0.823730 0.000000
0.821289 0.823730 0.000000
0.930664 0.823730 0.000000
0.000000 0.898438 0.000000
0.186768 0.898438 0.000000
0.331787 0.898438 0.000000
0.463867 0.898438 0.000000
0.587402 0.898438 0.000000
0.706055 0.898438 0.000000
0.821289 0.898438 0.000000
0.930664 0.898438 0.000000
0.000000 0.961426 0.000000
0.186768 0.961426 0.000000
0.331787 0.961426 0.000000
0.463867 0.961426 0.000000
0.587402 0.961426 0.000000
0.706055 0.961426 0.000000
0.821289 0.961426 0.000000
0.930664 0.961426 0.000000
0.000000 0.000000 0.275879
0.186890 0.000000 0.275879
0.331787 0.000000 0.275879
0.463867 0.000000 0.275879
0.587402 0.000000 0.275879
0.706055 0.000000 0.275879
0.821289 0.000000 0.275879
0.930664 0.000000 0.275879
0.000000 0.285889 0.275879
0.186890 0.285889 0.275879
0.331787 0.285889 0.275879
0.463867 0.285889 0.275879
0.587402 0.285889 0.275879
0.706055 0.285889 0.275879
0.821289 0.285889 0.275879
0.930664 0.285889 0.275879
0.000000 0.489258 0.275879
0.186890 0.489258 0.275879
0.331787 0.489258 0.275879
0.463867 0.489258 0.275879
0.587402 0.489258 0.275879
0.706055 0.489258 0.275879
0.821289 0.489258 0.275879
0.930664 0.489258 0.275879
0.000000 0.629883 0.275879
0.186890 0.629883 0.275879
0.331787 0.629883 0.275879
0.463867 0.629883 0.275879
0.587402 0.629883 0.275879
0.706055 0.629883 0.275879
0.821289 0.629883 0.275879
0.930664 0.629883 0.275879
0.000000 0.736816 0.275879
0.186890 0.736816 0.275879
0.331787 0.736816 0.275879
0.463867 0.736816 0.275879
0.587402 0.736816 0.275879
0.706055 0.736816 0.275879
0.821289 0.736816 0.275879
0.930664 0.736816 0.275879
0.000000 0.823730 0.275879
0.186890 0.823730 0.275879
0.331787 0.823730 0.275879
0.463867 0.823730 0.275879
0.587402 0.823730 0.275879
0.706055 0.823730 0.275879
0.821289 0.823730 0.275879
0.930664 0.823730 0.275879
0.000000 0.898438 0.275879
0.186890 0.898438 0.275879
0.331787 0.898438 0.275879
0.463867 0.898438 0.275879
0.587402 0.898438 0.275879
0.706055 0.898438 0.275879
0.821289 0.898438 0.275879
0.930664 0.898438 0.275879
0.000000 0.961426 0.275879
0.186890 0.961426 0.275879
0.331787 0.961426 0.275879
0.463867 0.961426 0.275879
0.587402 0.961426 0.275879
0.706055 0.961426 0.275879
0.821289 0.961426 0.275879
0.930664 0.961426 0.275879
0.000000 0.000000 0.456055
0.186890 0.000000 0.456055
0.331787 0.000000 0.456055
0.463867 0.000000 0.456055
0.587402 0.000000 0.456055
0.706055 0.000000 0.456055
0.821289 0.000000 0.456055
0.930664 0.000000 0.456055
0.000000 0.285889 0.456055
0.186890 0.285889 0.456055
0.331787 0.285889 0.456055
0.463867 0.285889 0.456055
0.587402 0.285889 0.456055
0.706055 0.285889 0.456055
0.821289 0.285889 0.456055
0.930664 0.285889 0.456055
0.000000 0.489258 0.456055
0.186890 0.489258 0.456055
0.331787 0.489258 0.456055
0.463867 0.489258 0.456055
0.587402 0.489258 0.456055
0.706055 0.489258 0.456055
0.821289 0.489258 0.456055
0.930664 0.489258 0.456055
0.000000 0.629883 0.456055
0.186890 0.629883 0.456055
0.331787 0.629883 0.456055
0.463867 0.629883 0.456055
0.587402 0.629883 0.456055
0.706055 0.629883 0.456055
0.821289 0.629883 0.456055
0.930664 0.629883 0.456055
0.000000 0.736816 0.456055
0.186890 0.736816 0.456055
0.331787 0.736816 0.456055
0.463867 0.736816 0.456055
0.587402 0.736816 0.456055
0.706055 0.736816 0.456055
0.821289 0.736816 0.456055
0.930664 0.736816 0.456055
0.000000 0.823730 0.456055
0.186890 0.823730 0.456055
0.331787 0.823730 0.456055
0.463867 0.823730 0.456055
0.587402 0.823730 0.456055
0.706055 0.823730 0.456055
0.821289 0.823730 0.456055
0.930664 0.823730 0.456055
0.000000 0.898438 0.456055
0.186890 0.898438 0.456055
0.331787 0.898438 0.456055
0.463867 0.898438 0.456055
0.587402 0.898438 0.456055
0.706055 0.898438 0.456055
0.821289 0.898438 0.456055
0.930664 0.898438 0.456055
0.000000 0.961426 0.456055
0.186890 0.961426 0.456055
0.331787 0.961426 0.456055
0.463867 0.961426 0.456055
0.587402 0.961426 0.456055
0.706055 0.961426 0.456055
0.821289 0.961426 0.456055
0.930664 0.961426 0.456055
0.000001 0.000000 0.589355
0.186890 0.000000 0.589355
0.332031 0.000000 0.589355
0.463867 0.000000 0.589355
0.587402 0.000000 0.589355
0.706055 0.000000 0.589355
0.821289 0.000000 0.589355
0.930664 0.000000 0.589355
0.000001 0.285889 0.589355
0.186890 0.285889 0.589355
0.332031 0.285889 0.589355
0.463867 0.285889 0.589355
0.587402 0.285889 0.589355
0.706055 0.285889 0.589355
0.821289 0.285889 0.589355
0.930664 0.285889 0.589355
0.000001 0.489258 0.589355
0.186890 0.489258 0.589355
0.332031 0.489258 0.589355
0.463867 0.489258 0.589355
0.587402 0.489258 0.589355
0.706055 0.489258 0.589355
0.821289 0.489258 0.589355
0.930664 0.489258 0.589355
0.000001 0.629883 0.589355
0.186890 0.629883 0.589355
0.332031 0.629883 0.589355
0.463867 0.629883 0.589355
0.587402 0.629883 0.589355
0.706055 0.629883 0.589355
0.821289 0.629883 0.589355
0.930664 0.629883 0.589355
0.000001 0.736816 0.589355
0.186890 0.736816 0.589355
0.332031 0.736816 0.589355
0.463867 0.736816 0.589355
0.587402 0.736816 0.589355
0.706055 0.736816 0.589355
0.821289 0.736816 0.589355
0.930664 0.736816 0.589355
0.000001 0.823730 0.589355
0.186890 0.823730 0.589355
0.332031 0.823730 0.589355
0.463867 0.823730 0.589355
0.587402 0.823730 0.589355
0.706055 0.823730 0.589355
0.821289 0.823730 0.589355
0.930664 0.823730 0.589355
0.000001 0.898438 0.589355
0.186890 0.898438 0.589355
0.332031 0.898438 0.589355
0.463867 0.898438 0.589355
0.587402 0.898438 0.589355
0.706055 0.898438 0.589355
0.821289 0.898438 0.589355
0.930664 0.898438 0.589355
0.000001 0.961426 0.589355
0.186890 0.961426 0.589355
0.332031 0.961426 0.589355
0.463867 0.961426 0.589355
0.587402 0.961426 0.589355
0.706055 0.961426 0.589355
0.821289 0.961426 0.589355
0.930664 0.961426 0.589355
0.000002 0.000000 0.698730
0.186890 0.000000 0.698730
0.332031 0.000000 0.698730
0.463867 0.000000 0.698730
0.587402 0.000000 0.698730
0.706055 0.000000 0.698730
0.821289 0.000000 0.698730
0.930664 0.000000 0.698730
0.000002 0.285889 0.698730
0.186890 0.285889 0.698730
0.332031 0.285889 0.698730
0.463867 0.285889 0.698730
0.587402 0.285889 0.698730
0.706055 0.285889 0.698730
0.821289 0.285889 0.698730
0.930664 0.285889 0.698730
0.000002 0.489258 0.698730
0.186890 0.489258 0.698730
0.332031 0.489258 0.698730
0.463867 0.489258 0.698730
0.587402 0.489258 0.698730
0.706055 0.489258 0.698730
0.821289 0.489258 0.698730
0.930664 0.489258 0.698730
0.000002 0.629883 0.698730
0.186890 0.629883 0.698730
0.332031 0.629883 0.698730
0.463867 0.629883 0.698730
0.587402 0.629883 0.698730
0.706055 0.629883 0.698730
0.821289 0.629883 0.698730
0.930664 0.629883 0.698730
0.000002 0.736816 0.698730
0.186890 0.736816 0.698730
0.332031 0.736816 0.698730
0.463867 0.736816 0.698730
0.587402 0.736816 0.698730
0.706055 0.736816 0.698730
0.821289 0.736816 0.698730
0.930664 0.736816 0.698730
0.000002 0.823730 0.698730
0.186890 0.823730 0.698730
0.332031 0.823730 0.698730
0.463867 0.823730 0.698730
0.587402 0.823730 0.698730
0.706055 0.823730 0.698730
0.821289 0.823730 0.698730
0.930664 0.823730 0.698730
0.000002 0.898438 0.698730
0.186890 0.898438 0.698730
0.332031 0.898438 0.698730
0.463867 0.898438 0.698730
0.587402 0.898438 0.698730
0.706055 0.898438 0.698730
0.821289 0.898438 0.698730
0.930664 0.898438 0.698730
0.000002 0.961426 0.698730
0.186890 0.961426 0.698730
0.332031 0.961426 0.698730
0.463867 0.961426 0.698730
0.587402 0.961426 0.698730
0.706055 0.961426 0.698730
0.821289 0.961426 0.698730
0.930664 0.961426 0.698730
0.000003 0.000000 0.792969
0.187012 0.000000 0.792969
0.332031 0.000000 0.792969
0.463867 0.000000 0.792969
0.587402 0.000000 0.792969
0.706055 0.000000 0.792969
0.821289 0.000000 0.792969
0.930664 0.000000 0.792969
0.000003 0.285889 0.792969
0.187012 0.285889 0.792969
0.332031 0.285889 0.792969
0.463867 0.285889 0.792969
0.587402 0.285889 0.792969
0.706055 0.285889 0.792969
0.821289 0.285889 0.792969
0.930664 0.285889 0.792969
0.000003 0.489258 0.792969
0.187012 0.489258 0.792969
0.332031 0.489258 0.792969
0.463867 0.489258 0.792969
0.587402 0.489258 0.792969
0.706055 0.489258 0.792969
0.821289 0.489258 0.792969
0.930664 0.489258 0.792969
0.000003 0.629883 0.792969
0.187012 0.629883 0.792969
0.332031 0.629883 0.792969
0.463867 0.629883 0.792969
0.587402 0.629883 0.792969
0.706055 0.629883 0.792969
0.821289 0.629883 0.792969
0.930664 0.629883 0.792969
0.000003 0.736816 0.792969
0.187012 0.736816 0.792969
0.332031 0.736816 0.792969
0.463867 0.736816 0.792969
0.587402 0.736816 0.792969
0.706055 0.736816 0.792969
0.821289 0.736816 0.792969
0.930664 0.736816 0.792969
0.000003 0.823730 0.792969
0.187012 0.823730 0.792969
0.332031 0.823730 0.792969
0.463867 0.823730 0.792969
0.587402 0.823730 0.792969
0.706055 0.823730 0.792969
0.821289 0.823730 0.792969
0.930664 0.823730 0.792969
0.000003 0.898438 0.792969
0.187012 0.898438 0.792969
0.332031 0.898438 0.792969
0.463867 0.898438 0.792969
0.587402 0.898438 0.792969
0.706055 0.898438 0.792969
0.821289 0.898438 0.792969
0.930664 0.898438 0.792969
0.000003 0.961426 0.792969
0.187012 0.961426 0.792969
0.332031 0.961426 0.792969
0.463867 0.961426 0.792969
0.587402 0.961426 0.792969
0.706055 0.961426 0.792969
0.821289 0.961426 0.792969
0.930664 0.961426 0.792969
0.000004 0.000000 0.876953
0.187012 0.000000 0.876953
0.332031 0.000000 0.876953
0.463867 0.000000 0.876953
0.587402 0.000000 0.876953
0.706055 0.000000 0.876953
0.821289 0.000000 0.876953
0.930664 0.000000 0.876953
0.000004 0.285889 0.876953
0.187012 0.285889 0.876953
0.332031 0.285889 0.876953
0.463867 0.285889 0.876953
0.587402 0.285889 0.876953
0.706055 0.285889 0.876953
0.821289 0.285889 0.876953
0.930664 0.285889 0.876953
0.000004 0.489258 0.876953
0.187012 0.489258 0.876953
0.332031 0.489258 0.876953
0.463867 0.489258 0.876953
0.587402 0.489258 0.876953
0.706055 0.489258 0.876953
0.821289 0.489258 0.876953
0.930664 0.489258 0.876953
0.000004 0.629883 0.876953
0.187012 0.629883 0.876953
0.332031 0.629883 0.876953
0.463867 0.629883 0.876953
0.587402 0.629883 0.876953
0.706055 0.629883 0.876953
0.821289 0.629883 0.876953
0.930664 0.629883 0.876953
0.000004 0.736328 0.876953
0.187012 0.736816 0.876953
0.332031 0.736816 0.876953
0.463867 0.736816 0.876953
0.587402 0.736816 0.876953
0.706055 0.736816 0.876953
0.821289 0.736816 0.876953
0.930664 0.736816 0.876953
0.000004 0.823730 0.876953
0.187012 0.823730 0.876953
0.332031 0.823730 0.876953
0.463867 0.823730 0.876953
0.587402 0.823730 0.876953
0.706055 0.823730 0.876953
0.821289 0.823730 0.876953
0.930664 0.823730 0.876953
0.000004 0.898438 0.876953
0.187012 0.898438 0.876953
0.332031 0.898438 0.876953
0.463867 0.898438 0.876953
0.587402 0.898438 0.876953
0.706055 0.898438 0.876953
0.821289 0.898438 0.876953
0.930664 0.898438 0.876953
0.000004 0.961426 0.876953
0.187012 0.961426 0.876953
0.332031 0.961426 0.876953
0.463867 0.961426 0.876953
0.587402 0.961426 0.876953
0.706055 0.961426 0.876953
0.821289 0.961426 0.876953
0.930664 0.961426 0.876953
0.000006 0.000000 0.952637
0.187012 0.000000 0.952637
0.332031 0.000000 0.952637
0.464111 0.000000 0.952637
0.587402 0.000000 0.952637
0.706055 0.000000 0.952637
0.821289 0.000000 0.952637
0.930664 0.000000 0.952637
0.000006 0.285889 0.952637
0.187012 0.285889 0.952637
0.332031 0.285889 0.952637
0.464111 0.285889 0.952637
0.587402 0.285889 0.952637
0.706055 0.285889 0.952637
0.821289 0.285889 0.952637
0.930664 0.285889 0.952637
0.000006 0.489258 0.952637
0.187012 0.489258 0.952637
0.332031 0.489258 0.952637
0.464111 0.489258 0.952637
0.587402 0.489258 0.952637
0.706055 0.489258 0.952637
0.821289 0.489258 0.952637
0.930664 0.489258 0.952637
0.000006 0.629883 0.952637
0.187012 0.629883 0.952637
0.332031 0.629883 0.952637
0.464111 0.629883 0.952637
0.587402 0.629883 0.952637
0.706055 0.629883 0.952637
0.821289 0.629883 0.952637
0.930664 0.629883 0.952637
0.000006 0.736328 0.952637
0.187012 0.736328 0.952637
0.332031 0.736816 0.952637
0.464111 0.736816 0.952637
0.587402 0.736816 0.952637
0.706055 0.736816 0.952637
0.821289 0.736816 0.952637
0.930664 0.736816 0.952637
0.000006 0.823730 0.952637
0.187012 0.823730 0.952637
0.332031 0.823730 0.952637
0.464111 0.823730 0.952637
0.587402 0.823730 0.952637
0.706055 0.823730 0.952637
0.821289 0.823730 0.952637
0.930664 0.823730 0.952637
0.000006 0.898438 0.952637
0.187012 0.898438 0.952637
0.332031 0.898438 0.952637
0.464111 0.898438 0.952637
0.587402 0.898438 0.952637
0.706055 0.898438 0.952637
0.821289 0.898438 0.952637
0.930664 0.898438 0.952637
0.000006 0.961426 0.952637
0.187012 0.961426 0.952637
0.332031 0.961426 0.952637
0.464111 0.961426 0.952637
0.587402 0.961426 0.952637
0.706055 0.961426 0.952637
0.821289 0.961426 0.952637
0.930664 0.961426 0.952637
