cubelut/Adanmq_AgfaColor Vista 100.cube
TITLE "Generated by Foundry::LUT"
LUT_3D_SIZE 5
DOMAIN_MIN 0.000000 0.000000 0.000000
DOMAIN_MAX 0.903226 0.903226 0.903226
0.000000 0.000000 0.000000
0.229980 0.000000 0.000000
0.499268 0.000000 0.000000
0.747559 0.000000 0.000000
0.939941 0.000000 0.000000
0.000000 0.222900 0.000000
0.229980 0.222900 0.000000
0.499268 0.222900 0.000000
0.747559 0.222900 0.000000
0.939941 0.222900 0.000000
0.000000 0.484863 0.000000
0.229980 0.485107 0.000000
0.499268 0.485107 0.000000
0.747559 0.485107 0.000000
0.939941 0.485107 0.000000
0.000000 0.722656 0.000000
0.229980 0.722656 0.000000
0.499268 0.722656 0.000000
0.747559 0.722656 0.000000
0.939941 0.722656 0.000000
0.000000 0.927246 0.000000
0.229980 0.927246 0.000000
0.499268 0.927246 0.000000
0.747559 0.927246 0.000000
0.939941 0.927246 0.000000
0.000000 0.000000 0.192993
0.229980 0.000000 0.192993
0.499268 0.000000 0.192993
0.747559 0.000000 0.192993
0.939941 0.000000 0.192993
0.000000 0.222900 0.192993
0.229980 0.222900 0.192993
0.499268 0.222900 0.192993
0.747559 0.222900 0.192993
0.939941 0.222900 0.192993
0.000000 0.484863 0.192993
0.229980 0.484863 0.192993
0.499268 0.485107 0.192993
0.747559 0.485107 0.192993
0.939941 0.485107 0.192993
0.000000 0.722656 0.192993
0.229980 0.722656 0.192993
0.499268 0.722656 0.192993
0.747559 0.722656 0.192993
0.939941 0.722656 0.192993
0.000000 0.927246 0.192993
0.229980 0.927246 0.192993
0.499268 0.927246 0.192993
0.747559 0.927246 0.192993
0.939941 0.927246 0.192993
0.000000 0.000000 0.449951
0.229980 0.000000 0.449951
0.499268 0.000000 0.449951
0.747559 0.000000 0.449951
0.939941 0.000000 0.449951
0.000000 0.222900 0.449951
0.229980 0.222900 0.449951
0.499268 0.222900 0.449951
0.747559 0.222900 0.449951
0.939941 0.222900 0.449951
0.000000 0.484863 0.449951
0.229980 0.484863 0.449951
0.499268 0.484863 0.449951
0.747559 0.485107 0.449951
0.939941 0.485107 0.449951
0.000000 0.722656 0.449951
0.229980 0.722656 0.449951
0.499268 0.722656 0.449951
0.747559 0.722656 0.449951
0.939941 0.722656 0.449951
0.000000 0.927246 0.449951
0.229980 0.927246 0.449951
0.499268 0.927246 0.449951
0.747559 0.927246 0.449951
0.939941 0.927246 0.449951
0.000000 0.000000 0.710449
0.230103 0.000000 0.710449
0.499268 0.000000 0.710449
0.747559 0.000000 0.710449
0.939941 0.000000 0.710449
0.000000 0.222900 0.710449
0.230103 0.222900 0.710449
0.499268 0.222900 0.710449
0.747559 0.222900 0.710449
0.939941 0.222900 0.710449
0.000000 0.484863 0.710449
0.230103 0.484863 0.710449
0.499268 0.484863 0.710449
0.747559 0.484863 0.710449
0.939941 0.485107 0.710449
0.000000 0.722656 0.710449
0.230103 0.722656 0.710449
0.499268 0.722656 0.710449
0.747559 0.722656 0.710449
0.939941 0.722656 0.710449
0.000000 0.927246 0.710449
0.230103 0.927246 0.710449
0.499268 0.927246 0.710449
0.747559 0.927246 0.710449
0.939941 0.927246 0.710449
0.000001 0.000000 0.933594
0.230103 0.000000 0.933594
0.499268 0.000000 0.933594
0.747559 0.000000 0.933594
0.939941 0.000000 0.933594
0.000001 0.222900 0.933594
0.230103 0.222900 0.933594
0.499268 0.222900 0.933594
0.747559 0.222900 0.933594
0.939941 0.222900 0.933594
0.000001 0.484863 0.933594
0.230103 0.484863 0.933594
0.499268 0.484863 0.933594
0.747559 0.484863 0.933594
0.939941 0.484863 0.933594
0.000001 0.722656 0.933594
0.230103 0.722656 0.933594
0.499268 0.722656 0.933594
0.747559 0.722656 0.933594
0.939941 0.722656 0.933594
0.000001 0.927246 0.933594
0.230103 0.927246 0.933594
0.499268 0.927246 0.933594
0.747559 0.927246 0.933594
0.939941 0.927246 0.933594
