cubelut/Adanmq_Canon DSC S315 n6.cube
TITLE "Generated by Foundry::LUT"
LUT_3D_SIZE 5
DOMAIN_MIN 0.000000 0.000000 0.000000
DOMAIN_MAX 0.903226 0.903226 0.903226
0.000000 0.000000 0.000000
0.305908 0.000000 0.000000
0.636719 0.000000 0.000000
0.825684 0.000000 0.000000
0.954590 0.000000 0.000000
0.000000 0.259033 0.000000
0.305908 0.259033 0.000000
0.636719 0.259033 0.000000
0.825684 0.259033 0.000000
0.954590 0.259033 0.000000
0.000000 0.600098 0.000000
0.305908 0.600098 0.000000
0.636719 0.600098 0.000000
0.825684 0.600098 0.000000
0.954590 0.600098 0.000000
0.000000 0.809570 0.000000
0.305908 0.809570 0.000000
0.636719 0.809570 0.000000
0.825684 0.809570 0.000000
0.954590 0.809570 0.000000
0.000000 0.950684 0.000000
0.305908 0.950684 0.000000
0.636719 0.950684 0.000000
0.825684 0.950684 0.000000
0.954590 0.950684 0.000000
0.000000 0.000000 0.122559
0.305908 0.000000 0.122559
0.636719 0.000000 0.122559
0.825684 0.000000 0.122559
0.954590 0.000000 0.122559
0.000000 0.259033 0.122559
0.305908 0.259033 0.122559
0.636719 0.259033 0.122559
0.825684 0.259033 0.122559
0.954590 0.259033 0.122559
0.000000 0.600098 0.122559
0.305908 0.600098 0.122559
0.636719 0.600098 0.122559
0.825684 0.600098 0.122559
0.954590 0.600098 0.122559
0.000000 0.809570 0.122559
0.305908 0.809570 0.122559
0.636719 0.809570 0.122559
0.825684 0.809570 0.122559
0.954590 0.809570 0.122559
0.000000 0.950684 0.122559
0.305908 0.950684 0.122559
0.636719 0.950684 0.122559
0.825684 0.950684 0.122559
0.954590 0.950684 0.122559
0.000000 0.000000 0.546387
0.306152 0.000000 0.546387
0.637207 0.000000 0.546387
0.825684 0.000000 0.546387
0.954590 0.000000 0.546387
0.000000 0.259033 0.546387
0.306152 0.259033 0.546387
0.637207 0.259033 0.546387
0.825684 0.259033 0.546387
0.954590 0.259033 0.546387
0.000000 0.600098 0.546387
0.306152 0.600098 0.546387
0.637207 0.600098 0.546387
0.825684 0.600098 0.546387
0.954590 0.600098 0.546387
0.000000 0.809570 0.546387
0.306152 0.809570 0.546387
0.637207 0.809570 0.546387
0.825684 0.809570 0.546387
0.954590 0.809570 0.546387
0.000000 0.950684 0.546387
0.306152 0.950684 0.546387
0.637207 0.950684 0.546387
0.825684 0.950684 0.546387
0.954590 0.950684 0.546387
0.000000 0.000000 0.797852
0.306152 0.000000 0.797852
0.637207 0.000000 0.797852
0.825684 0.000000 0.797852
0.954590 0.000000 0.797852
0.000000 0.259033 0.797852
0.306152 0.259033 0.797852
0.637207 0.259033 0.797852
0.825684 0.259033 0.797852
0.954590 0.259033 0.797852
0.000000 0.600098 0.797852
0.306152 0.600098 0.797852
0.637207 0.600098 0.797852
0.825684 0.600098 0.797852
0.954590 0.600098 0.797852
0.000000 0.809570 0.797852
0.306152 0.809570 0.797852
0.637207 0.809570 0.797852
0.825684 0.809570 0.797852
0.954590 0.809570 0.797852
0.000000 0.950684 0.797852
0.306152 0.950684 0.797852
0.637207 0.950684 0.797852
0.825684 0.950684 0.797852
0.954590 0.950684 0.797852
0.000000 0.000000 0.949219
0.306152 0.000000 0.949219
0.637207 0.000000 0.949219
0.825684 0.000000 0.949219
0.954590 0.000000 0.949219
0.000000 0.259033 0.949219
0.306152 0.259033 0.949219
0.637207 0.259033 0.949219
0.825684 0.259033 0.949219
0.954590 0.259033 0.949219
0.000000 0.600098 0.949219
0.306152 0.600098 0.949219
0.637207 0.600098 0.949219
0.825684 0.600098 0.949219
0.954590 0.600098 0.949219
0.000000 0.809570 0.949219
0.306152 0.809570 0.949219
0.637207 0.809570 0.949219
0.825684 0.809570 0.949219
0.954590 0.809570 0.949219
0.000000 0.950684 0.949219
0.306152 0.950684 0.949219
0.637207 0.950684 0.949219
0.825684 0.950684 0.949219
0.954590 0.950684 0.949219
