cubelut/Adanmq_MAX Zoom 800.cube
TITLE "Generated by Foundry::LUT"
LUT_3D_SIZE 8
DOMAIN_MIN 0.000000 0.000000 0.000000
DOMAIN_MAX 0.903226 0.903226 0.903226
0.000000 0.000000 0.000000
0.097412 0.000000 0.000000
0.227539 0.000000 0.000000
0.364258 0.000000 0.000000
0.499512 0.000000 0.000000
0.636230 0.000000 0.000000
0.773438 0.000000 0.000000
0.907715 0.000000 0.000000
0.000000 0.087280 0.000000
0.097412 0.087280 0.000000
0.227539 0.087280 0.000000
0.364258 0.087280 0.000000
0.499512 0.087280 0.000000
0.636230 0.087280 0.000000
0.773438 0.087280 0.000000
0.907715 0.087280 0.000000
0.000000 0.212036 0.000000
0.097412 0.212036 0.000000
0.227539 0.212036 0.000000
0.364258 0.212036 0.000000
0.499512 0.212036 0.000000
0.636230 0.212036 0.000000
0.773438 0.212036 0.000000
0.907715 0.212036 0.000000
0.000000 0.345947 0.000000
0.097412 0.345947 0.000000
0.227539 0.345947 0.000000
0.364258 0.345947 0.000000
0.499512 0.345947 0.000000
0.636230 0.345947 0.000000
0.773438 0.345947 0.000000
0.907715 0.345947 0.000000
0.000000 0.485107 0.000000
0.097412 0.485107 0.000000
0.227539 0.485107 0.000000
0.364258 0.485107 0.000000
0.499512 0.485107 0.000000
0.636230 0.485107 0.000000
0.773438 0.485107 0.000000
0.907715 0.485107 0.000000
0.000000 0.625000 0.000000
0.097412 0.625000 0.000000
0.227539 0.625000 0.000000
0.364258 0.625000 0.000000
0.499512 0.625000 0.000000
0.636230 0.625000 0.000000
0.773438 0.625000 0.000000
0.907715 0.625000 0.000000
0.000000 0.764648 0.000000
0.097412 0.764648 0.000000
0.227539 0.764648 0.000000
0.364258 0.764648 0.000000
0.499512 0.764648 0.000000
0.636230 0.764648 0.000000
0.773438 0.764648 0.000000
0.907715 0.764648 0.000000
0.000000 0.903809 0.000000
0.097412 0.903809 0.000000
0.227539 0.903809 0.000000
0.364258 0.903809 0.000000
0.499512 0.903809 0.000000
0.636230 0.903809 0.000000
0.773438 0.904297 0.000000
0.907715 0.904297 0.000000
0.000000 0.000000 0.067017
0.097473 0.000000 0.067017
0.227539 0.000000 0.067017
0.364258 0.000000 0.067017
0.499512 0.000000 0.067017
0.636230 0.000000 0.067017
0.773438 0.000000 0.067017
0.907715 0.000000 0.067017
0.000000 0.087280 0.067017
0.097473 0.087280 0.067017
0.227539 0.087280 0.067017
0.364258 0.087280 0.067017
0.499512 0.087280 0.067017
0.636230 0.087280 0.067017
0.773438 0.087280 0.067017
0.907715 0.087280 0.067017
0.000000 0.212036 0.067017
0.097473 0.212036 0.067017
0.227539 0.212036 0.067017
0.364258 0.212036 0.067017
0.499512 0.212036 0.067017
0.636230 0.212036 0.067017
0.773438 0.212036 0.067017
0.907715 0.212036 0.067017
0.000000 0.345947 0.067017
0.097473 0.345947 0.067017
0.227539 0.345947 0.067017
0.364258 0.345947 0.067017
0.499512 0.345947 0.067017
0.636230 0.345947 0.067017
0.773438 0.345947 0.067017
0.907715 0.345947 0.067017
0.000000 0.485107 0.067017
0.097473 0.485107 0.067017
0.227539 0.485107 0.067017
0.364258 0.485107 0.067017
0.499512 0.485107 0.067017
0.636230 0.485107 0.067017
0.773438 0.485107 0.067017
0.907715 0.485107 0.067017
0.000000 0.625000 0.067017
0.097473 0.625000 0.067017
0.227539 0.625000 0.067017
0.364258 0.625000 0.067017
0.499512 0.625000 0.067017
0.636230 0.625000 0.067017
0.773438 0.625000 0.067017
0.907715 0.625000 0.067017
0.000000 0.764648 0.067017
0.097473 0.764648 0.067017
0.227539 0.764648 0.067017
0.364258 0.764648 0.067017
0.499512 0.764648 0.067017
0.636230 0.764648 0.067017
0.773438 0.764648 0.067017
0.907715 0.764648 0.067017
0.000000 0.903809 0.067017
0.097473 0.903809 0.067017
0.227539 0.903809 0.067017
0.364258 0.903809 0.067017
0.499512 0.903809 0.067017
0.636230 0.903809 0.067017
0.773438 0.903809 0.067017
0.907715 0.904297 0.067017
0.000000 0.000000 0.178101
0.097473 0.000000 0.178101
0.227661 0.000000 0.178101
0.364258 0.000000 0.178101
0.499512 0.000000 0.178101
0.636230 0.000000 0.178101
0.773438 0.000000 0.178101
0.907715 0.000000 0.178101
0.000000 0.087280 0.178101
0.097473 0.087280 0.178101
0.227661 0.087280 0.178101
0.364258 0.087280 0.178101
0.499512 0.087280 0.178101
0.636230 0.087280 0.178101
0.773438 0.087280 0.178101
0.907715 0.087280 0.178101
0.000000 0.212036 0.178101
0.097473 0.212036 0.178101
0.227661 0.212036 0.178101
0.364258 0.212036 0.178101
0.499512 0.212036 0.178101
0.636230 0.212036 0.178101
0.773438 0.212036 0.178101
0.907715 0.212036 0.178101
0.000000 0.345947 0.178101
0.097473 0.345947 0.178101
0.227661 0.345947 0.178101
0.364258 0.345947 0.178101
0.499512 0.345947 0.178101
0.636230 0.345947 0.178101
0.773438 0.345947 0.178101
0.907715 0.345947 0.178101
0.000000 0.485107 0.178101
0.097473 0.485107 0.178101
0.227661 0.485107 0.178101
0.364258 0.485107 0.178101
0.499512 0.485107 0.178101
0.636230 0.485107 0.178101
0.773438 0.485107 0.178101
0.907715 0.485107 0.178101
0.000000 0.625000 0.178101
0.097473 0.625000 0.178101
0.227661 0.625000 0.178101
0.364258 0.625000 0.178101
0.499512 0.625000 0.178101
0.636230 0.625000 0.178101
0.773438 0.625000 0.178101
0.907715 0.625000 0.178101
0.000000 0.764648 0.178101
0.097473 0.764648 0.178101
0.227661 0.764648 0.178101
0.364258 0.764648 0.178101
0.499512 0.764648 0.178101
0.636230 0.764648 0.178101
0.773438 0.764648 0.178101
0.907715 0.764648 0.178101
0.000000 0.903809 0.178101
0.097473 0.903809 0.178101
0.227661 0.903809 0.178101
0.364258 0.903809 0.178101
0.499512 0.903809 0.178101
0.636230 0.903809 0.178101
0.773438 0.903809 0.178101
0.907715 0.904297 0.178101
0.000000 0.000000 0.307373
0.097473 0.000000 0.307373
0.227661 0.000000 0.307373
0.364258 0.000000 0.307373
0.499512 0.000000 0.307373
0.636230 0.000000 0.307373
0.773438 0.000000 0.307373
0.907715 0.000000 0.307373
0.000000 0.087280 0.307373
0.097473 0.087280 0.307373
0.227661 0.087280 0.307373
0.364258 0.087280 0.307373
0.499512 0.087280 0.307373
0.636230 0.087280 0.307373
0.773438 0.087280 0.307373
0.907715 0.087280 0.307373
0.000000 0.212036 0.307373
0.097473 0.212036 0.307373
0.227661 0.212036 0.307373
0.364258 0.212036 0.307373
0.499512 0.212036 0.307373
0.636230 0.212036 0.307373
0.773438 0.212036 0.307373
0.907715 0.212036 0.307373
0.000000 0.345947 0.307373
0.097473 0.345947 0.307373
0.227661 0.345947 0.307373
0.364258 0.345947 0.307373
0.499512 0.345947 0.307373
0.636230 0.345947 0.307373
0.773438 0.345947 0.307373
0.907715 0.345947 0.307373
0.000000 0.485107 0.307373
0.097473 0.485107 0.307373
0.227661 0.485107 0.307373
0.364258 0.485107 0.307373
0.499512 0.485107 0.307373
0.636230 0.485107 0.307373
0.773438 0.485107 0.307373
0.907715 0.485107 0.307373
0.000000 0.625000 0.307373
0.097473 0.625000 0.307373
0.227661 0.625000 0.307373
0.364258 0.625000 0.307373
0.499512 0.625000 0.307373
0.636230 0.625000 0.307373
0.773438 0.625000 0.307373
0.907715 0.625000 0.307373
0.000000 0.764648 0.307373
0.097473 0.764648 0.307373
0.227661 0.764648 0.307373
0.364258 0.764648 0.307373
0.499512 0.764648 0.307373
0.636230 0.764648 0.307373
0.773438 0.764648 0.307373
0.907715 0.764648 0.307373
0.000000 0.903809 0.307373
0.097473 0.903809 0.307373
0.227661 0.903809 0.307373
0.364258 0.903809 0.307373
0.499512 0.903809 0.307373
0.636230 0.903809 0.307373
0.773438 0.903809 0.307373
0.907715 0.903809 0.307373
0.000000 0.000000 0.446045
0.097534 0.000000 0.446045
0.227661 0.000000 0.446045
0.364258 0.000000 0.446045
0.499512 0.000000 0.446045
0.636230 0.000000 0.446045
0.773438 0.000000 0.446045
0.907715 0.000000 0.446045
0.000000 0.087280 0.446045
0.097534 0.087280 0.446045
0.227661 0.087280 0.446045
0.364258 0.087280 0.446045
0.499512 0.087280 0.446045
0.636230 0.087280 0.446045
0.773438 0.087280 0.446045
0.907715 0.087280 0.446045
0.000000 0.212036 0.446045
0.097534 0.212036 0.446045
0.227661 0.212036 0.446045
0.364258 0.212036 0.446045
0.499512 0.212036 0.446045
0.636230 0.212036 0.446045
0.773438 0.212036 0.446045
0.907715 0.212036 0.446045
0.000000 0.345947 0.446045
0.097534 0.345947 0.446045
0.227661 0.345947 0.446045
0.364258 0.345947 0.446045
0.499512 0.345947 0.446045
0.636230 0.345947 0.446045
0.773438 0.345947 0.446045
0.907715 0.345947 0.446045
0.000000 0.485107 0.446045
0.097534 0.485107 0.446045
0.227661 0.485107 0.446045
0.364258 0.485107 0.446045
0.499512 0.485107 0.446045
0.636230 0.485107 0.446045
0.773438 0.485107 0.446045
0.907715 0.485107 0.446045
0.000000 0.625000 0.446045
0.097534 0.625000 0.446045
0.227661 0.625000 0.446045
0.364258 0.625000 0.446045
0.499512 0.625000 0.446045
0.636230 0.625000 0.446045
0.773438 0.625000 0.446045
0.907715 0.625000 0.446045
0.000000 0.764648 0.446045
0.097534 0.764648 0.446045
0.227661 0.764648 0.446045
0.364258 0.764648 0.446045
0.499512 0.764648 0.446045
0.636230 0.764648 0.446045
0.773438 0.764648 0.446045
0.907715 0.764648 0.446045
0.000000 0.903809 0.446045
0.097534 0.903809 0.446045
0.227661 0.903809 0.446045
0.364258 0.903809 0.446045
0.499512 0.903809 0.446045
0.636230 0.903809 0.446045
0.773438 0.903809 0.446045
0.907715 0.903809 0.446045
0.000000 0.000000 0.591309
0.097534 0.000000 0.591309
0.227661 0.000000 0.591309
0.364258 0.000000 0.591309
0.499512 0.000000 0.591309
0.636230 0.000000 0.591309
0.773438 0.000000 0.591309
0.907715 0.000000 0.591309
0.000000 0.087280 0.591309
0.097534 0.087280 0.591309
0.227661 0.087280 0.591309
0.364258 0.087280 0.591309
0.499512 0.087280 0.591309
0.636230 0.087280 0.591309
0.773438 0.087280 0.591309
0.907715 0.087280 0.591309
0.000000 0.212036 0.591309
0.097534 0.212036 0.591309
0.227661 0.212036 0.591309
0.364258 0.212036 0.591309
0.499512 0.212036 0.591309
0.636230 0.212036 0.591309
0.773438 0.212036 0.591309
0.907715 0.212036 0.591309
0.000000 0.345947 0.591309
0.097534 0.345947 0.591309
0.227661 0.345947 0.591309
0.364258 0.345947 0.591309
0.499512 0.345947 0.591309
0.636230 0.345947 0.591309
0.773438 0.345947 0.591309
0.907715 0.345947 0.591309
0.000000 0.485107 0.591309
0.097534 0.485107 0.591309
0.227661 0.485107 0.591309
0.364258 0.485107 0.591309
0.499512 0.485107 0.591309
0.636230 0.485107 0.591309
0.773438 0.485107 0.591309
0.907715 0.485107 0.591309
0.000000 0.625000 0.591309
0.097534 0.625000 0.591309
0.227661 0.625000 0.591309
0.364258 0.625000 0.591309
0.499512 0.625000 0.591309
0.636230 0.625000 0.591309
0.773438 0.625000 0.591309
0.907715 0.625000 0.591309
0.000000 0.764648 0.591309
0.097534 0.764648 0.591309
0.227661 0.764648 0.591309
0.364258 0.764648 0.591309
0.499512 0.764648 0.591309
0.636230 0.764648 0.591309
0.773438 0.764648 0.591309
0.907715 0.764648 0.591309
0.000000 0.903809 0.591309
0.097534 0.903809 0.591309
0.227661 0.903809 0.591309
0.364258 0.903809 0.591309
0.499512 0.903809 0.591309
0.636230 0.903809 0.591309
0.773438 0.903809 0.591309
0.907715 0.903809 0.591309
0.000000 0.000000 0.743164
0.097534 0.000000 0.743164
0.227661 0.000000 0.743164
0.364258 0.000000 0.743164
0.499512 0.000000 0.743164
0.636230 0.000000 0.743164
0.773438 0.000000 0.743164
0.907715 0.000000 0.743164
0.000000 0.087280 0.743164
0.097534 0.087280 0.743164
0.227661 0.087280 0.743164
0.364258 0.087280 0.743164
0.499512 0.087280 0.743164
0.636230 0.087280 0.743164
0.773438 0.087280 0.743164
0.907715 0.087280 0.743164
0.000000 0.212036 0.743164
0.097534 0.212036 0.743164
0.227661 0.212036 0.743164
0.364258 0.212036 0.743164
0.499512 0.212036 0.743164
0.636230 0.212036 0.743164
0.773438 0.212036 0.743164
0.907715 0.212036 0.743164
0.000000 0.345947 0.743164
0.097534 0.345947 0.743164
0.227661 0.345947 0.743164
0.364258 0.345947 0.743164
0.499512 0.345947 0.743164
0.636230 0.345947 0.743164
0.773438 0.345947 0.743164
0.907715 0.345947 0.743164
0.000000 0.485107 0.743164
0.097534 0.485107 0.743164
0.227661 0.485107 0.743164
0.364258 0.485107 0.743164
0.499512 0.485107 0.743164
0.636230 0.485107 0.743164
0.773438 0.485107 0.743164
0.907715 0.485107 0.743164
0.000000 0.625000 0.743164
0.097534 0.625000 0.743164
0.227661 0.625000 0.743164
0.364258 0.625000 0.743164
0.499512 0.625000 0.743164
0.636230 0.625000 0.743164
0.773438 0.625000 0.743164
0.907715 0.625000 0.743164
0.000000 0.764648 0.743164
0.097534 0.764648 0.743164
0.227661 0.764648 0.743164
0.364258 0.764648 0.743164
0.499512 0.764648 0.743164
0.636230 0.764648 0.743164
0.773438 0.764648 0.743164
0.907715 0.764648 0.743164
0.000000 0.903809 0.743164
0.097534 0.903809 0.743164
0.227661 0.903809 0.743164
0.364258 0.903809 0.743164
0.499512 0.903809 0.743164
0.636230 0.903809 0.743164
0.773438 0.903809 0.743164
0.907715 0.903809 0.743164
0.000000 0.000000 0.899414
0.097595 0.000000 0.899414
0.227783 0.000000 0.899414
0.364258 0.000000 0.899414
0.499512 0.000000 0.899414
0.636230 0.000000 0.899414
0.773438 0.000000 0.899414
0.907715 0.000000 0.899414
0.000000 0.087280 0.899414
0.097595 0.087280 0.899414
0.227783 0.087280 0.899414
0.364258 0.087280 0.899414
0.499512 0.087280 0.899414
0.636230 0.087280 0.899414
0.773438 0.087280 0.899414
0.907715 0.087280 0.899414
0.000000 0.212036 0.899414
0.097595 0.212036 0.899414
0.227783 0.212036 0.899414
0.364258 0.212036 0.899414
0.499512 0.212036 0.899414
0.636230 0.212036 0.899414
0.773438 0.212036 0.899414
0.907715 0.212036 0.899414
0.000000 0.345947 0.899414
0.097595 0.345947 0.899414
0.227783 0.345947 0.899414
0.364258 0.345947 0.899414
0.499512 0.345947 0.899414
0.636230 0.345947 0.899414
0.773438 0.345947 0.899414
0.907715 0.345947 0.899414
0.000000 0.485107 0.899414
0.097595 0.485107 0.899414
0.227783 0.485107 0.899414
0.364258 0.485107 0.899414
0.499512 0.485107 0.899414
0.636230 0.485107 0.899414
0.773438 0.485107 0.899414
0.907715 0.485107 0.899414
0.000000 0.625000 0.899414
0.097595 0.625000 0.899414
0.227783 0.625000 0.899414
0.364258 0.625000 0.899414
0.499512 0.625000 0.899414
0.636230 0.625000 0.899414
0.773438 0.625000 0.899414
0.907715 0.625000 0.899414
0.000000 0.764648 0.899414
0.097595 0.764648 0.899414
0.227783 0.764648 0.899414
0.364258 0.764648 0.899414
0.499512 0.764648 0.899414
0.636230 0.764648 0.899414
0.773438 0.764648 0.899414
0.907715 0.764648 0.899414
0.000000 0.903809 0.899414
0.097595 0.903809 0.899414
0.227783 0.903809 0.899414
0.364258 0.903809 0.899414
0.499512 0.903809 0.899414
0.636230 0.903809 0.899414
0.773438 0.903809 0.899414
0.907715 0.903809 0.899414
