cubelut/Adanmq_Gold 100.cube
TITLE "Generated by Foundry::LUT"
LUT_3D_SIZE 32
0.000000 0.000000 0.000000
0.014580 0.000000 0.000000
0.040100 0.000000 0.000000
0.071472 0.000000 0.000000
0.107422 0.000000 0.000000
0.146606 0.000000 0.000000
0.188599 0.000000 0.000000
0.232178 0.000000 0.000000
0.276611 0.000000 0.000000
0.321289 0.000000 0.000000
0.365479 0.000000 0.000000
0.409180 0.000000 0.000000
0.451172 0.000000 0.000000
0.492188 0.000000 0.000000
0.532227 0.000000 0.000000
0.570801 0.000000 0.000000
0.606934 0.000000 0.000000
0.640625 0.000000 0.000000
0.672852 0.000000 0.000000
0.704590 0.000000 0.000000
0.735352 0.000000 0.000000
0.764648 0.000000 0.000000
0.791992 0.000000 0.000000
0.818359 0.000000 0.000000
0.844727 0.000000 0.000000
0.870117 0.000000 0.000000
0.895020 0.000000 0.000000
0.918457 0.000000 0.000000
0.941406 0.000000 0.000000
0.962402 0.000000 0.000000
0.982422 0.000000 0.000000
1.000000 0.000000 0.000000
0.000000 0.014580 0.000000
0.014580 0.014580 0.000000
0.040100 0.014580 0.000000
0.071472 0.014580 0.000000
0.107422 0.014580 0.000000
0.146606 0.014580 0.000000
0.188599 0.014580 0.000000
0.232178 0.014580 0.000000
0.276611 0.014580 0.000000
0.321289 0.014580 0.000000
0.365479 0.014580 0.000000
0.409180 0.014580 0.000000
0.451172 0.014580 0.000000
0.492188 0.014587 0.000000
0.532227 0.014587 0.000000
0.570801 0.014587 0.000000
0.606934 0.014587 0.000000
0.640625 0.014587 0.000000
0.672852 0.014587 0.000000
0.704590 0.014587 0.000000
0.735352 0.014587 0.000000
0.764648 0.014587 0.000000
0.791992 0.014587 0.000000
0.818359 0.014587 0.000000
0.844727 0.014587 0.000000
0.870117 0.014587 0.000000
0.895020 0.014587 0.000000
0.918457 0.014587 0.000000
0.941406 0.014587 0.000000
0.962402 0.014595 0.000000
0.982422 0.014595 0.000000
1.000000 0.014595 0.000000
0.000000 0.040100 0.000000
0.014580 0.040100 0.000000
0.040100 0.040100 0.000000
0.071472 0.040100 0.000000
0.107422 0.040100 0.000000
0.146606 0.040100 0.000000
0.188599 0.040100 0.000000
0.232178 0.040100 0.000000
0.276611 0.040100 0.000000
0.321289 0.040100 0.000000
0.365479 0.040100 0.000000
0.409180 0.040100 0.000000
0.451172 0.040100 0.000000
0.492188 0.040100 0.000000
0.532227 0.040100 0.000000
0.570801 0.040100 0.000000
0.606934 0.040100 0.000000
0.640625 0.040100 0.000000
0.672852 0.040100 0.000000
0.704590 0.040100 0.000000
0.735352 0.040100 0.000000
0.764648 0.040100 0.000000
0.791992 0.040100 0.000000
0.818359 0.040100 0.000000
0.844727 0.040100 0.000000
0.870117 0.040100 0.000000
0.895020 0.040100 0.000000
0.918457 0.040100 0.000000
0.941406 0.040131 0.000000
0.962402 0.040131 0.000000
0.982422 0.040131 0.000000
1.000000 0.040131 0.000000
0.000000 0.071472 0.000000
0.014580 0.071472 0.000000
0.040100 0.071472 0.000000
0.071472 0.071472 0.000000
0.107422 0.071472 0.000000
0.146606 0.071472 0.000000
0.188599 0.071472 0.000000
0.232178 0.071472 0.000000
0.276611 0.071472 0.000000
0.321289 0.071472 0.000000
0.365479 0.071472 0.000000
0.409180 0.071472 0.000000
0.451172 0.071472 0.000000
0.492188 0.071472 0.000000
0.532227 0.071472 0.000000
0.570801 0.071472 0.000000
0.606934 0.071533 0.000000
0.640625 0.071533 0.000000
0.672852 0.071533 0.000000
0.704590 0.071533 0.000000
0.735352 0.071533 0.000000
0.764648 0.071533 0.000000
0.791992 0.071533 0.000000
0.818359 0.071533 0.000000
0.844727 0.071533 0.000000
0.870117 0.071533 0.000000
0.895020 0.071533 0.000000
0.918457 0.071533 0.000000
0.941406 0.071533 0.000000
0.962402 0.071533 0.000000
0.982422 0.071533 0.000000
1.000000 0.071533 0.000000
0.000000 0.107422 0.000000
0.014580 0.107422 0.000000
0.040100 0.107422 0.000000
0.071472 0.107422 0.000000
0.107422 0.107422 0.000000
0.146606 0.107422 0.000000
0.188599 0.107422 0.000000
0.232178 0.107422 0.000000
0.276611 0.107422 0.000000
0.321289 0.107422 0.000000
0.365479 0.107422 0.000000
0.409180 0.107422 0.000000
0.451172 0.107422 0.000000
0.492188 0.107422 0.000000
0.532227 0.107422 0.000000
0.570801 0.107422 0.000000
0.606934 0.107422 0.000000
0.640625 0.107422 0.000000
0.672852 0.107422 0.000000
0.704590 0.107422 0.000000
0.735352 0.107422 0.000000
0.764648 0.107422 0.000000
0.791992 0.107422 0.000000
0.818359 0.107422 0.000000
0.844727 0.107422 0.000000
0.870117 0.107422 0.000000
0.895020 0.107422 0.000000
0.918457 0.107422 0.000000
0.941406 0.107422 0.000000
0.962402 0.107422 0.000000
0.982422 0.107422 0.000000
1.000000 0.107422 0.000000
0.000000 0.146606 0.000000
0.014580 0.146606 0.000000
0.040100 0.146606 0.000000
0.071472 0.146606 0.000000
0.107422 0.146606 0.000000
0.146606 0.146606 0.000000
0.188599 0.146606 0.000000
0.232178 0.146606 0.000000
0.276611 0.146606 0.000000
0.321289 0.146606 0.000000
0.365479 0.146606 0.000000
0.409180 0.146606 0.000000
0.451172 0.146606 0.000000
0.492188 0.146606 0.000000
0.532227 0.146606 0.000000
0.570801 0.146606 0.000000
0.606934 0.146606 0.000000
0.640625 0.146606 0.000000
0.672852 0.146606 0.000000
0.704590 0.146606 0.000000
0.735352 0.146606 0.000000
0.764648 0.146606 0.000000
0.791992 0.146606 0.000000
0.818359 0.146606 0.000000
0.844727 0.146606 0.000000
0.870117 0.146606 0.000000
0.895020 0.146606 0.000000
0.918457 0.146606 0.000000
0.941406 0.146606 0.000000
0.962402 0.146606 0.000000
0.982422 0.146606 0.000000
1.000000 0.146606 0.000000
0.000000 0.188599 0.000000
0.014580 0.188599 0.000000
0.040100 0.188599 0.000000
0.071472 0.188599 0.000000
0.107422 0.188599 0.000000
0.146606 0.188599 0.000000
0.188599 0.188599 0.000000
0.232178 0.188599 0.000000
0.276611 0.188599 0.000000
0.321289 0.188599 0.000000
0.365479 0.188599 0.000000
0.409180 0.188599 0.000000
0.451172 0.188599 0.000000
0.492188 0.188599 0.000000
0.532227 0.188599 0.000000
0.570801 0.188599 0.000000
0.606934 0.188599 0.000000
0.640625 0.188599 0.000000
0.672852 0.188599 0.000000
0.704590 0.188599 0.000000
0.735352 0.188599 0.000000
0.764648 0.188599 0.000000
0.791992 0.188599 0.000000
0.818359 0.188599 0.000000
0.844727 0.188599 0.000000
0.870117 0.188599 0.000000
0.895020 0.188599 0.000000
0.918457 0.188599 0.000000
0.941406 0.188599 0.000000
0.962402 0.188599 0.000000
0.982422 0.188599 0.000000
1.000000 0.188599 0.000000
0.000000 0.232178 0.000000
0.014580 0.232178 0.000000
0.040100 0.232178 0.000000
0.071472 0.232178 0.000000
0.107422 0.232178 0.000000
0.146606 0.232178 0.000000
0.188599 0.232178 0.000000
0.232178 0.232178 0.000000
0.276611 0.232178 0.000000
0.321289 0.232178 0.000000
0.365479 0.232178 0.000000
0.409180 0.232178 0.000000
0.451172 0.232178 0.000000
0.492188 0.232178 0.000000
0.532227 0.232178 0.000000
0.570801 0.232178 0.000000
0.606934 0.232178 0.000000
0.640625 0.232178 0.000000
0.672852 0.232178 0.000000
0.704590 0.232178 0.000000
0.735352 0.232178 0.000000
0.764648 0.232178 0.000000
0.791992 0.232178 0.000000
0.818359 0.232178 0.000000
0.844727 0.232178 0.000000
0.870117 0.232178 0.000000
0.895020 0.232178 0.000000
0.918457 0.232178 0.000000
0.941406 0.232300 0.000000
0.962402 0.232300 0.000000
0.982422 0.232300 0.000000
1.000000 0.232300 0.000000
0.000000 0.276855 0.000000
0.014580 0.276855 0.000000
0.040100 0.276855 0.000000
0.071472 0.276855 0.000000
0.107422 0.276855 0.000000
0.146606 0.276855 0.000000
0.188599 0.276855 0.000000
0.232178 0.276855 0.000000
0.276611 0.276855 0.000000
0.321289 0.276855 0.000000
0.365479 0.276855 0.000000
0.409180 0.276855 0.000000
0.451172 0.276855 0.000000
0.492188 0.276855 0.000000
0.532227 0.276855 0.000000
0.570801 0.276855 0.000000
0.606934 0.276855 0.000000
0.640625 0.276855 0.000000
0.672852 0.276855 0.000000
0.704590 0.276855 0.000000
0.735352 0.276855 0.000000
0.764648 0.276855 0.000000
0.791992 0.276855 0.000000
0.818359 0.276855 0.000000
0.844727 0.276855 0.000000
0.870117 0.276855 0.000000
0.895020 0.276855 0.000000
0.918457 0.276855 0.000000
0.941406 0.276855 0.000000
0.962402 0.276855 0.000000
0.982422 0.276855 0.000000
1.000000 0.276855 0.000000
0.000000 0.321289 0.000000
0.014580 0.321289 0.000000
0.040100 0.321289 0.000000
0.071472 0.321289 0.000000
0.107422 0.321289 0.000000
0.146606 0.321289 0.000000
0.188599 0.321289 0.000000
0.232178 0.321289 0.000000
0.276611 0.321289 0.000000
0.321289 0.321289 0.000000
0.365479 0.321289 0.000000
0.409180 0.321289 0.000000
0.451172 0.321289 0.000000
0.492188 0.321289 0.000000
0.532227 0.321289 0.000000
0.570801 0.321289 0.000000
0.606934 0.321289 0.000000
0.640625 0.321289 0.000000
0.672852 0.321289 0.000000
0.704590 0.321289 0.000000
0.735352 0.321289 0.000000
0.764648 0.321289 0.000000
0.791992 0.321289 0.000000
0.818359 0.321289 0.000000
0.844727 0.321289 0.000000
0.870117 0.321289 0.000000
0.895020 0.321289 0.000000
0.918457 0.321289 0.000000
0.941406 0.321289 0.000000
0.962402 0.321289 0.000000
0.982422 0.321289 0.000000
1.000000 0.321289 0.000000
0.000000 0.365479 0.000000
0.014580 0.365479 0.000000
0.040100 0.365479 0.000000
0.071472 0.365479 0.000000
0.107422 0.365479 0.000000
0.146606 0.365479 0.000000
0.188599 0.365479 0.000000
0.232178 0.365479 0.000000
0.276611 0.365723 0.000000
0.321289 0.365723 0.000000
0.365479 0.365723 0.000000
0.409180 0.365723 0.000000
0.451172 0.365723 0.000000
0.492188 0.365723 0.000000
0.532227 0.365723 0.000000
0.570801 0.365723 0.000000
0.606934 0.365723 0.000000
0.640625 0.365723 0.000000
0.672852 0.365723 0.000000
0.704590 0.365723 0.000000
0.735352 0.365723 0.000000
0.764648 0.365723 0.000000
0.791992 0.365723 0.000000
0.818359 0.365723 0.000000
0.844727 0.365723 0.000000
0.870117 0.365723 0.000000
0.895020 0.365723 0.000000
0.918457 0.365723 0.000000
0.941406 0.365723 0.000000
0.962402 0.365723 0.000000
0.982422 0.365723 0.000000
1.000000 0.365723 0.000000
0.000000 0.409180 0.000000
0.014580 0.409180 0.000000
0.040100 0.409180 0.000000
0.071472 0.409180 0.000000
0.107422 0.409180 0.000000
0.146606 0.409180 0.000000
0.188599 0.409180 0.000000
0.232178 0.409180 0.000000
0.276611 0.409180 0.000000
0.321289 0.409180 0.000000
0.365479 0.409180 0.000000
0.409180 0.409180 0.000000
0.451172 0.409180 0.000000
0.492188 0.409180 0.000000
0.532227 0.409180 0.000000
0.570801 0.409180 0.000000
0.606934 0.409180 0.000000
0.640625 0.409180 0.000000
0.672852 0.409180 0.000000
0.704590 0.409180 0.000000
0.735352 0.409180 0.000000
0.764648 0.409180 0.000000
0.791992 0.409180 0.000000
0.818359 0.409180 0.000000
0.844727 0.409180 0.000000
0.870117 0.409180 0.000000
0.895020 0.409180 0.000000
0.918457 0.409180 0.000000
0.941406 0.409180 0.000000
0.962402 0.409180 0.000000
0.982422 0.409180 0.000000
1.000000 0.409180 0.000000
0.000000 0.451172 0.000000
0.014580 0.451416 0.000000
0.040100 0.451416 0.000000
0.071472 0.451416 0.000000
0.107422 0.451416 0.000000
0.146606 0.451416 0.000000
0.188599 0.451416 0.000000
0.232178 0.451416 0.000000
0.276611 0.451416 0.000000
0.321289 0.451416 0.000000
0.365479 0.451416 0.000000
0.409180 0.451416 0.000000
0.451172 0.451416 0.000000
0.492188 0.451416 0.000000
0.532227 0.451416 0.000000
0.570801 0.451416 0.000000
0.606934 0.451416 0.000000
0.640625 0.451416 0.000000
0.672852 0.451416 0.000000
0.704590 0.451416 0.000000
0.735352 0.451416 0.000000
0.764648 0.451416 0.000000
0.791992 0.451416 0.000000
0.818359 0.451416 0.000000
0.844727 0.451416 0.000000
0.870117 0.451416 0.000000
0.895020 0.451416 0.000000
0.918457 0.451416 0.000000
0.941406 0.451416 0.000000
0.962402 0.451416 0.000000
0.982422 0.451416 0.000000
1.000000 0.451416 0.000000
0.000000 0.492188 0.000000
0.014580 0.492188 0.000000
0.040100 0.492188 0.000000
0.071472 0.492188 0.000000
0.107422 0.492188 0.000000
0.146606 0.492188 0.000000
0.188599 0.492188 0.000000
0.232178 0.492188 0.000000
0.276611 0.492188 0.000000
0.321289 0.492188 0.000000
0.365479 0.492188 0.000000
0.409180 0.492188 0.000000
0.451172 0.492188 0.000000
0.492188 0.492188 0.000000
0.532227 0.492188 0.000000
0.570801 0.492188 0.000000
0.606934 0.492188 0.000000
0.640625 0.492188 0.000000
0.672852 0.492188 0.000000
0.704590 0.492188 0.000000
0.735352 0.492188 0.000000
0.764648 0.492188 0.000000
0.791992 0.492188 0.000000
0.818359 0.492188 0.000000
0.844727 0.492188 0.000000
0.870117 0.492188 0.000000
0.895020 0.492188 0.000000
0.918457 0.492188 0.000000
0.941406 0.492188 0.000000
0.962402 0.492188 0.000000
0.982422 0.492188 0.000000
1.000000 0.492188 0.000000
0.000000 0.532227 0.000000
0.014580 0.532227 0.000000
0.040100 0.532227 0.000000
0.071472 0.532227 0.000000
0.107422 0.532227 0.000000
0.146606 0.532227 0.000000
0.188599 0.532227 0.000000
0.232178 0.532227 0.000000
0.276611 0.532227 0.000000
0.321289 0.532227 0.000000
0.365479 0.532227 0.000000
0.409180 0.532227 0.000000
0.451172 0.532227 0.000000
0.492188 0.532227 0.000000
0.532227 0.532227 0.000000
0.570801 0.532227 0.000000
0.606934 0.532227 0.000000
0.640625 0.532227 0.000000
0.672852 0.532227 0.000000
0.704590 0.532227 0.000000
0.735352 0.532227 0.000000
0.764648 0.532227 0.000000
0.791992 0.532227 0.000000
0.818359 0.532227 0.000000
0.844727 0.532227 0.000000
0.870117 0.532227 0.000000
0.895020 0.532227 0.000000
0.918457 0.532227 0.000000
0.941406 0.532227 0.000000
0.962402 0.532227 0.000000
0.982422 0.532227 0.000000
1.000000 0.532227 0.000000
0.000000 0.570801 0.000000
0.014580 0.570801 0.000000
0.040100 0.570801 0.000000
0.071472 0.570801 0.000000
0.107422 0.570801 0.000000
0.146606 0.570801 0.000000
0.188599 0.570801 0.000000
0.232178 0.570801 0.000000
0.276611 0.570801 0.000000
0.321289 0.570801 0.000000
0.365479 0.570801 0.000000
0.409180 0.570801 0.000000
0.451172 0.570801 0.000000
0.492188 0.570801 0.000000
0.532227 0.570801 0.000000
0.570801 0.570801 0.000000
0.606934 0.570801 0.000000
0.640625 0.570801 0.000000
0.672852 0.570801 0.000000
0.704590 0.570801 0.000000
0.735352 0.570801 0.000000
0.764648 0.570801 0.000000
0.791992 0.570801 0.000000
0.818359 0.570801 0.000000
0.844727 0.570801 0.000000
0.870117 0.570801 0.000000
0.895020 0.570801 0.000000
0.918457 0.570801 0.000000
0.941406 0.570801 0.000000
0.962402 0.570801 0.000000
0.982422 0.570801 0.000000
1.000000 0.570801 0.000000
0.000000 0.606934 0.000000
0.014580 0.606934 0.000000
0.040100 0.606934 0.000000
0.071472 0.606934 0.000000
0.107422 0.606934 0.000000
0.146606 0.606934 0.000000
0.188599 0.606934 0.000000
0.232178 0.606934 0.000000
0.276611 0.606934 0.000000
0.321289 0.606934 0.000000
0.365479 0.606934 0.000000
0.409180 0.606934 0.000000
0.451172 0.606934 0.000000
0.492188 0.606934 0.000000
0.532227 0.606934 0.000000
0.570801 0.606934 0.000000
0.606934 0.606934 0.000000
0.640625 0.606934 0.000000
0.672852 0.606934 0.000000
0.704590 0.606934 0.000000
0.735352 0.606934 0.000000
0.764648 0.606934 0.000000
0.791992 0.606934 0.000000
0.818359 0.606934 0.000000
0.844727 0.606934 0.000000
0.870117 0.606934 0.000000
0.895020 0.606934 0.000000
0.918457 0.606934 0.000000
0.941406 0.606934 0.000000
0.962402 0.606934 0.000000
0.982422 0.606934 0.000000
1.000000 0.606934 0.000000
0.000000 0.640625 0.000000
0.014580 0.640625 0.000000
0.040100 0.640625 0.000000
0.071472 0.640625 0.000000
0.107422 0.640625 0.000000
0.146606 0.640625 0.000000
0.188599 0.640625 0.000000
0.232178 0.640625 0.000000
0.276611 0.640625 0.000000
0.321289 0.640625 0.000000
0.365479 0.640625 0.000000
0.409180 0.640625 0.000000
0.451172 0.640625 0.000000
0.492188 0.640625 0.000000
0.532227 0.640625 0.000000
0.570801 0.640625 0.000000
0.606934 0.640625 0.000000
0.640625 0.640625 0.000000
0.672852 0.640625 0.000000
0.704590 0.640625 0.000000
0.735352 0.640625 0.000000
0.764648 0.640625 0.000000
0.791992 0.640625 0.000000
0.818359 0.640625 0.000000
0.844727 0.640625 0.000000
0.870117 0.640625 0.000000
0.895020 0.640625 0.000000
0.918457 0.640625 0.000000
0.941406 0.640625 0.000000
0.962402 0.640625 0.000000
0.982422 0.640625 0.000000
1.000000 0.640625 0.000000
0.000000 0.673340 0.000000
0.014580 0.673340 0.000000
0.040100 0.673340 0.000000
0.071472 0.673340 0.000000
0.107422 0.673340 0.000000
0.146606 0.673340 0.000000
0.188599 0.673340 0.000000
0.232178 0.673340 0.000000
0.276611 0.673340 0.000000
0.321289 0.673340 0.000000
0.365479 0.673340 0.000000
0.409180 0.673340 0.000000
0.451172 0.673340 0.000000
0.492188 0.673340 0.000000
0.532227 0.673340 0.000000
0.570801 0.673340 0.000000
0.606934 0.673340 0.000000
0.640625 0.673340 0.000000
0.672852 0.673340 0.000000
0.704590 0.673340 0.000000
0.735352 0.673340 0.000000
0.764648 0.673340 0.000000
0.791992 0.673340 0.000000
0.818359 0.673340 0.000000
0.844727 0.673340 0.000000
0.870117 0.673340 0.000000
0.895020 0.673340 0.000000
0.918457 0.673340 0.000000
0.941406 0.673340 0.000000
0.962402 0.673340 0.000000
0.982422 0.673340 0.000000
1.000000 0.673340 0.000000
0.000000 0.704590 0.000000
0.014580 0.704590 0.000000
0.040100 0.704590 0.000000
0.071472 0.704590 0.000000
0.107422 0.704590 0.000000
0.146606 0.704590 0.000000
0.188599 0.704590 0.000000
0.232178 0.704590 0.000000
0.276611 0.704590 0.000000
0.321289 0.704590 0.000000
0.365479 0.704590 0.000000
0.409180 0.704590 0.000000
0.451172 0.704590 0.000000
0.492188 0.704590 0.000000
0.532227 0.704590 0.000000
0.570801 0.704590 0.000000
0.606934 0.704590 0.000000
0.640625 0.704590 0.000000
0.672852 0.704590 0.000000
0.704590 0.704590 0.000000
0.735352 0.704590 0.000000
0.764648 0.704590 0.000000
0.791992 0.704590 0.000000
0.818359 0.704590 0.000000
0.844727 0.704590 0.000000
0.870117 0.704590 0.000000
0.895020 0.704590 0.000000
0.918457 0.704590 0.000000
0.941406 0.704590 0.000000
0.962402 0.704590 0.000000
0.982422 0.704590 0.000000
1.000000 0.704590 0.000000
0.000000 0.735352 0.000000
0.014580 0.735352 0.000000
0.040100 0.735352 0.000000
0.071472 0.735352 0.000000
0.107422 0.735352 0.000000
0.146606 0.735352 0.000000
0.188599 0.735352 0.000000
0.232178 0.735352 0.000000
0.276611 0.735352 0.000000
0.321289 0.735352 0.000000
0.365479 0.735352 0.000000
0.409180 0.735352 0.000000
0.451172 0.735352 0.000000
0.492188 0.735352 0.000000
0.532227 0.735352 0.000000
0.570801 0.735352 0.000000
0.606934 0.735352 0.000000
0.640625 0.735352 0.000000
0.672852 0.735352 0.000000
0.704590 0.735352 0.000000
0.735352 0.735352 0.000000
0.764648 0.735352 0.000000
0.791992 0.735352 0.000000
0.818359 0.735352 0.000000
0.844727 0.735352 0.000000
0.870117 0.735352 0.000000
0.895020 0.735352 0.000000
0.918457 0.735352 0.000000
0.941406 0.735352 0.000000
0.962402 0.735352 0.000000
0.982422 0.735352 0.000000
1.000000 0.735352 0.000000
0.000000 0.764648 0.000000
0.014580 0.764648 0.000000
0.040100 0.764648 0.000000
0.071472 0.764648 0.000000
0.107422 0.764648 0.000000
0.146606 0.764648 0.000000
0.188599 0.764648 0.000000
0.232178 0.764648 0.000000
0.276611 0.764648 0.000000
0.321289 0.764648 0.000000
0.365479 0.764648 0.000000
0.409180 0.764648 0.000000
0.451172 0.764648 0.000000
0.492188 0.764648 0.000000
0.532227 0.764648 0.000000
0.570801 0.764648 0.000000
0.606934 0.764648 0.000000
0.640625 0.764648 0.000000
0.672852 0.764648 0.000000
0.704590 0.764648 0.000000
0.735352 0.764648 0.000000
0.764648 0.764648 0.000000
0.791992 0.764648 0.000000
0.818359 0.764648 0.000000
0.844727 0.764648 0.000000
0.870117 0.764648 0.000000
0.895020 0.764648 0.000000
0.918457 0.764648 0.000000
0.941406 0.764648 0.000000
0.962402 0.764648 0.000000
0.982422 0.764648 0.000000
1.000000 0.764648 0.000000
0.000000 0.791992 0.000000
0.014580 0.791992 0.000000
0.040100 0.791992 0.000000
0.071472 0.791992 0.000000
0.107422 0.791992 0.000000
0.146606 0.791992 0.000000
0.188599 0.791992 0.000000
0.232178 0.791992 0.000000
0.276611 0.791992 0.000000
0.321289 0.791992 0.000000
0.365479 0.791992 0.000000
0.409180 0.791992 0.000000
0.451172 0.791992 0.000000
0.492188 0.791992 0.000000
0.532227 0.791992 0.000000
0.570801 0.791992 0.000000
0.606934 0.791992 0.000000
0.640625 0.791992 0.000000
0.672852 0.791992 0.000000
0.704590 0.791992 0.000000
0.735352 0.791992 0.000000
0.764648 0.791992 0.000000
0.791992 0.791992 0.000000
0.818359 0.791992 0.000000
0.844727 0.791992 0.000000
0.870117 0.791992 0.000000
0.895020 0.791992 0.000000
0.918457 0.791992 0.000000
0.941406 0.791992 0.000000
0.962402 0.791992 0.000000
0.982422 0.791992 0.000000
1.000000 0.791992 0.000000
0.000000 0.818848 0.000000
0.014580 0.818848 0.000000
0.040100 0.818848 0.000000
0.071472 0.818848 0.000000
0.107422 0.818848 0.000000
0.146606 0.818848 0.000000
0.188599 0.818848 0.000000
0.232178 0.818848 0.000000
0.276611 0.818848 0.000000
0.321289 0.818848 0.000000
0.365479 0.818848 0.000000
0.409180 0.818848 0.000000
0.451172 0.818848 0.000000
0.492188 0.818848 0.000000
0.532227 0.818848 0.000000
0.570801 0.818848 0.000000
0.606934 0.818848 0.000000
0.640625 0.818848 0.000000
0.672852 0.818848 0.000000
0.704590 0.818848 0.000000
0.735352 0.818848 0.000000
0.764648 0.818848 0.000000
0.791992 0.818848 0.000000
0.818359 0.818848 0.000000
0.844727 0.818848 0.000000
0.870117 0.818848 0.000000
0.895020 0.818848 0.000000
0.918457 0.818848 0.000000
0.941406 0.818848 0.000000
0.962402 0.818848 0.000000
0.982422 0.818848 0.000000
1.000000 0.818848 0.000000
0.000000 0.845215 0.000000
0.014580 0.845215 0.000000
0.040100 0.845215 0.000000
0.071472 0.845215 0.000000
0.107422 0.845215 0.000000
0.146606 0.845215 0.000000
0.188599 0.845215 0.000000
0.232178 0.845215 0.000000
0.276611 0.845215 0.000000
0.321289 0.845215 0.000000
0.365479 0.845215 0.000000
0.409180 0.845215 0.000000
0.451172 0.845215 0.000000
0.492188 0.845215 0.000000
0.532227 0.845215 0.000000
0.570801 0.845215 0.000000
0.606934 0.845215 0.000000
0.640625 0.845215 0.000000
0.672852 0.845215 0.000000
0.704590 0.845215 0.000000
0.735352 0.845215 0.000000
0.764648 0.845215 0.000000
0.791992 0.845215 0.000000
0.818359 0.845215 0.000000
0.844727 0.845215 0.000000
0.870117 0.845215 0.000000
0.895020 0.845215 0.000000
0.918457 0.845215 0.000000
0.941406 0.845215 0.000000
0.962402 0.845215 0.000000
0.982422 0.845215 0.000000
1.000000 0.845215 0.000000
0.000000 0.870117 0.000000
0.014580 0.870117 0.000000
0.040100 0.870117 0.000000
0.071472 0.870117 0.000000
0.107422 0.870117 0.000000
0.146606 0.870117 0.000000
0.188599 0.870117 0.000000
0.232178 0.870117 0.000000
0.276611 0.870117 0.000000
0.321289 0.870117 0.000000
0.365479 0.870117 0.000000
0.409180 0.870117 0.000000
0.451172 0.870117 0.000000
0.492188 0.870117 0.000000
0.532227 0.870117 0.000000
0.570801 0.870117 0.000000
0.606934 0.870117 0.000000
0.640625 0.870117 0.000000
0.672852 0.870117 0.000000
0.704590 0.870117 0.000000
0.735352 0.870117 0.000000
0.764648 0.870117 0.000000
0.791992 0.870117 0.000000
0.818359 0.870117 0.000000
0.844727 0.870117 0.000000
0.870117 0.870117 0.000000
0.895020 0.870117 0.000000
0.918457 0.870117 0.000000
0.941406 0.870117 0.000000
0.962402 0.870117 0.000000
0.982422 0.870117 0.000000
1.000000 0.870117 0.000000
0.000000 0.895020 0.000000
0.014580 0.895020 0.000000
0.040100 0.895020 0.000000
0.071472 0.895020 0.000000
0.107422 0.895020 0.000000
0.146606 0.895020 0.000000
0.188599 0.895020 0.000000
0.232178 0.895020 0.000000
0.276611 0.895020 0.000000
0.321289 0.895020 0.000000
0.365479 0.895020 0.000000
0.409180 0.895020 0.000000
0.451172 0.895020 0.000000
0.492188 0.895020 0.000000
0.532227 0.895020 0.000000
0.570801 0.895020 0.000000
0.606934 0.895020 0.000000
0.640625 0.895020 0.000000
0.672852 0.895020 0.000000
0.704590 0.895020 0.000000
0.735352 0.895020 0.000000
0.764648 0.895020 0.000000
0.791992 0.895020 0.000000
0.818359 0.895020 0.000000
0.844727 0.895020 0.000000
0.870117 0.895020 0.000000
0.895020 0.895020 0.000000
0.918457 0.895020 0.000000
0.941406 0.895020 0.000000
0.962402 0.895020 0.000000
0.982422 0.895020 0.000000
1.000000 0.895020 0.000000
0.000000 0.918457 0.000000
0.014580 0.918457 0.000000
0.040100 0.918457 0.000000
0.071472 0.918457 0.000000
0.107422 0.918457 0.000000
0.146606 0.918457 0.000000
0.188599 0.918457 0.000000
0.232178 0.918457 0.000000
0.276611 0.918457 0.000000
0.321289 0.918457 0.000000
0.365479 0.918457 0.000000
0.409180 0.918457 0.000000
0.451172 0.918457 0.000000
0.492188 0.918457 0.000000
0.532227 0.918457 0.000000
0.570801 0.918457 0.000000
0.606934 0.918457 0.000000
0.640625 0.918457 0.000000
0.672852 0.918457 0.000000
0.704590 0.918457 0.000000
0.735352 0.918457 0.000000
0.764648 0.918457 0.000000
0.791992 0.918457 0.000000
