cubelut/Adanmq_AgfaColor Futura II 400.cube
TITLE "Generated by Foundry::LUT"
LUT_3D_SIZE 8
DOMAIN_MIN 0.000000 0.000000 0.000000
DOMAIN_MAX 0.903226 0.903226 0.903226
0.000000 0.000000 0.000000
0.191528 0.000000 0.000000
0.366699 0.000000 0.000000
0.508301 0.000000 0.000000
0.631836 0.000000 0.000000
0.741699 0.000000 0.000000
0.844727 0.000000 0.000000
0.939453 0.000000 0.000000
0.000000 0.180664 0.000000
0.191528 0.180664 0.000000
0.366699 0.180664 0.000000
0.508301 0.180664 0.000000
0.631836 0.180664 0.000000
0.741699 0.180664 0.000000
0.844727 0.180664 0.000000
0.939453 0.180664 0.000000
0.000000 0.367676 0.000000
0.191528 0.367676 0.000000
0.366699 0.367676 0.000000
0.508301 0.367676 0.000000
0.631836 0.367676 0.000000
0.741699 0.367676 0.000000
0.844727 0.367676 0.000000
0.939453 0.367676 0.000000
0.000000 0.520508 0.000000
0.191528 0.520508 0.000000
0.366699 0.520508 0.000000
0.508301 0.520508 0.000000
0.631836 0.520508 0.000000
0.741699 0.520508 0.000000
0.844727 0.520508 0.000000
0.939453 0.520508 0.000000
0.000000 0.645996 0.000000
0.191528 0.645996 0.000000
0.366699 0.645996 0.000000
0.508301 0.645996 0.000000
0.631836 0.646484 0.000000
0.741699 0.646484 0.000000
0.844727 0.646484 0.000000
0.939453 0.646484 0.000000
0.000000 0.754883 0.000000
0.191528 0.754883 0.000000
0.366699 0.754883 0.000000
0.508301 0.754883 0.000000
0.631836 0.754883 0.000000
0.741699 0.754883 0.000000
0.844727 0.754883 0.000000
0.939453 0.754883 0.000000
0.000000 0.852539 0.000000
0.191528 0.852539 0.000000
0.366699 0.852539 0.000000
0.508301 0.852539 0.000000
0.631836 0.852539 0.000000
0.741699 0.852539 0.000000
0.844727 0.852539 0.000000
0.939453 0.852539 0.000000
0.000000 0.941895 0.000000
0.191528 0.941895 0.000000
0.366699 0.941895 0.000000
0.508301 0.941895 0.000000
0.631836 0.941895 0.000000
0.741699 0.941895 0.000000
0.844727 0.941895 0.000000
0.939453 0.941895 0.000000
0.000000 0.000000 0.142456
0.191650 0.000000 0.142456
0.366699 0.000000 0.142456
0.508301 0.000000 0.142456
0.631836 0.000000 0.142456
0.741699 0.000000 0.142456
0.844727 0.000000 0.142456
0.939453 0.000000 0.142456
0.000000 0.180664 0.142456
0.191650 0.180664 0.142456
0.366699 0.180664 0.142456
0.508301 0.180664 0.142456
0.631836 0.180664 0.142456
0.741699 0.180664 0.142456
0.844727 0.180664 0.142456
0.939453 0.180664 0.142456
0.000000 0.367676 0.142456
0.191650 0.367676 0.142456
0.366699 0.367676 0.142456
0.508301 0.367676 0.142456
0.631836 0.367676 0.142456
0.741699 0.367676 0.142456
0.844727 0.367676 0.142456
0.939453 0.367676 0.142456
0.000000 0.520508 0.142456
0.191650 0.520508 0.142456
0.366699 0.520508 0.142456
0.508301 0.520508 0.142456
0.631836 0.520508 0.142456
0.741699 0.520508 0.142456
0.844727 0.520508 0.142456
0.939453 0.520508 0.142456
0.000000 0.645996 0.142456
0.191650 0.645996 0.142456
0.366699 0.645996 0.142456
0.508301 0.645996 0.142456
0.631836 0.645996 0.142456
0.741699 0.646484 0.142456
0.844727 0.646484 0.142456
0.939453 0.646484 0.142456
0.000000 0.754883 0.142456
0.191650 0.754883 0.142456
0.366699 0.754883 0.142456
0.508301 0.754883 0.142456
0.631836 0.754883 0.142456
0.741699 0.754883 0.142456
0.844727 0.754883 0.142456
0.939453 0.754883 0.142456
0.000000 0.852539 0.142456
0.191650 0.852539 0.142456
0.366699 0.852539 0.142456
0.508301 0.852539 0.142456
0.631836 0.852539 0.142456
0.741699 0.852539 0.142456
0.844727 0.852539 0.142456
0.939453 0.852539 0.142456
0.000000 0.941895 0.142456
0.191650 0.941895 0.142456
0.366699 0.941895 0.142456
0.508301 0.941895 0.142456
0.631836 0.941895 0.142456
0.741699 0.941895 0.142456
0.844727 0.941895 0.142456
0.939453 0.941895 0.142456
0.000000 0.000000 0.307373
0.191650 0.000000 0.307373
0.366699 0.000000 0.307373
0.508301 0.000000 0.307373
0.631836 0.000000 0.307373
0.741699 0.000000 0.307373
0.844727 0.000000 0.307373
0.939453 0.000000 0.307373
0.000000 0.180664 0.307373
0.191650 0.180664 0.307373
0.366699 0.180664 0.307373
0.508301 0.180664 0.307373
0.631836 0.180664 0.307373
0.741699 0.180664 0.307373
0.844727 0.180664 0.307373
0.939453 0.180664 0.307373
0.000000 0.367676 0.307373
0.191650 0.367676 0.307373
0.366699 0.367676 0.307373
0.508301 0.367676 0.307373
0.631836 0.367676 0.307373
0.741699 0.367676 0.307373
0.844727 0.367676 0.307373
0.939453 0.367676 0.307373
0.000000 0.520508 0.307373
0.191650 0.520508 0.307373
0.366699 0.520508 0.307373
0.508301 0.520508 0.307373
0.631836 0.520508 0.307373
0.741699 0.520508 0.307373
0.844727 0.520508 0.307373
0.939453 0.520508 0.307373
0.000000 0.645996 0.307373
0.191650 0.645996 0.307373
0.366699 0.645996 0.307373
0.508301 0.645996 0.307373
0.631836 0.645996 0.307373
0.741699 0.645996 0.307373
0.844727 0.646484 0.307373
0.939453 0.646484 0.307373
0.000000 0.754883 0.307373
0.191650 0.754883 0.307373
0.366699 0.754883 0.307373
0.508301 0.754883 0.307373
0.631836 0.754883 0.307373
0.741699 0.754883 0.307373
0.844727 0.754883 0.307373
0.939453 0.754883 0.307373
0.000000 0.852539 0.307373
0.191650 0.852539 0.307373
0.366699 0.852539 0.307373
0.508301 0.852539 0.307373
0.631836 0.852539 0.307373
0.741699 0.852539 0.307373
0.844727 0.852539 0.307373
0.939453 0.852539 0.307373
0.000000 0.941895 0.307373
0.191650 0.941895 0.307373
0.366699 0.941895 0.307373
0.508301 0.941895 0.307373
0.631836 0.941895 0.307373
0.741699 0.941895 0.307373
0.844727 0.941895 0.307373
0.939453 0.941895 0.307373
0.000000 0.000000 0.454102
0.191650 0.000000 0.454102
0.366699 0.000000 0.454102
0.508301 0.000000 0.454102
0.631836 0.000000 0.454102
0.741699 0.000000 0.454102
0.844727 0.000000 0.454102
0.939453 0.000000 0.454102
0.000000 0.180664 0.454102
0.191650 0.180664 0.454102
0.366699 0.180664 0.454102
0.508301 0.180664 0.454102
0.631836 0.180664 0.454102
0.741699 0.180664 0.454102
0.844727 0.180664 0.454102
0.939453 0.180664 0.454102
0.000000 0.367676 0.454102
0.191650 0.367676 0.454102
0.366699 0.367676 0.454102
0.508301 0.367676 0.454102
0.631836 0.367676 0.454102
0.741699 0.367676 0.454102
0.844727 0.367676 0.454102
0.939453 0.367676 0.454102
0.000000 0.520508 0.454102
0.191650 0.520508 0.454102
0.366699 0.520508 0.454102
0.508301 0.520508 0.454102
0.631836 0.520508 0.454102
0.741699 0.520508 0.454102
0.844727 0.520508 0.454102
0.939453 0.520508 0.454102
0.000000 0.645996 0.454102
0.191650 0.645996 0.454102
0.366699 0.645996 0.454102
0.508301 0.645996 0.454102
0.631836 0.645996 0.454102
0.741699 0.645996 0.454102
0.844727 0.645996 0.454102
0.939453 0.646484 0.454102
0.000000 0.754883 0.454102
0.191650 0.754883 0.454102
0.366699 0.754883 0.454102
0.508301 0.754883 0.454102
0.631836 0.754883 0.454102
0.741699 0.754883 0.454102
0.844727 0.754883 0.454102
0.939453 0.754883 0.454102
0.000000 0.852539 0.454102
0.191650 0.852539 0.454102
0.366699 0.852539 0.454102
0.508301 0.852539 0.454102
0.631836 0.852539 0.454102
0.741699 0.852539 0.454102
0.844727 0.852539 0.454102
0.939453 0.852539 0.454102
0.000000 0.941895 0.454102
0.191650 0.941895 0.454102
0.366699 0.941895 0.454102
0.508301 0.941895 0.454102
0.631836 0.941895 0.454102
0.741699 0.941895 0.454102
0.844727 0.941895 0.454102
0.939453 0.941895 0.454102
0.000001 0.000000 0.581055
0.191772 0.000000 0.581055
0.366943 0.000000 0.581055
0.508301 0.000000 0.581055
0.631836 0.000000 0.581055
0.741699 0.000000 0.581055
0.844727 0.000000 0.581055
0.939453 0.000000 0.581055
0.000001 0.180664 0.581055
0.191772 0.180664 0.581055
0.366943 0.180664 0.581055
0.508301 0.180664 0.581055
0.631836 0.180664 0.581055
0.741699 0.180664 0.581055
0.844727 0.180664 0.581055
0.939453 0.180664 0.581055
0.000001 0.367676 0.581055
0.191772 0.367676 0.581055
0.366943 0.367676 0.581055
0.508301 0.367676 0.581055
0.631836 0.367676 0.581055
0.741699 0.367676 0.581055
0.844727 0.367676 0.581055
0.939453 0.367676 0.581055
0.000001 0.520508 0.581055
0.191772 0.520508 0.581055
0.366943 0.520508 0.581055
0.508301 0.520508 0.581055
0.631836 0.520508 0.581055
0.741699 0.520508 0.581055
0.844727 0.520508 0.581055
0.939453 0.520508 0.581055
0.000001 0.645996 0.581055
0.191772 0.645996 0.581055
0.366943 0.645996 0.581055
0.508301 0.645996 0.581055
0.631836 0.645996 0.581055
0.741699 0.645996 0.581055
0.844727 0.645996 0.581055
0.939453 0.645996 0.581055
0.000001 0.754883 0.581055
0.191772 0.754883 0.581055
0.366943 0.754883 0.581055
0.508301 0.754883 0.581055
0.631836 0.754883 0.581055
0.741699 0.754883 0.581055
0.844727 0.754883 0.581055
0.939453 0.754883 0.581055
0.000001 0.852539 0.581055
0.191772 0.852539 0.581055
0.366943 0.852539 0.581055
0.508301 0.852539 0.581055
0.631836 0.852539 0.581055
0.741699 0.852539 0.581055
0.844727 0.852539 0.581055
0.939453 0.852539 0.581055
0.000001 0.941895 0.581055
0.191772 0.941895 0.581055
0.366943 0.941895 0.581055
0.508301 0.941895 0.581055
0.631836 0.941895 0.581055
0.741699 0.941895 0.581055
0.844727 0.941895 0.581055
0.939453 0.941895 0.581055
0.000001 0.000000 0.697266
0.191772 0.000000 0.697266
0.366943 0.000000 0.697266
0.508301 0.000000 0.697266
0.631836 0.000000 0.697266
0.741699 0.000000 0.697266
0.844727 0.000000 0.697266
0.939453 0.000000 0.697266
0.000001 0.180664 0.697266
0.191772 0.180664 0.697266
0.366943 0.180664 0.697266
0.508301 0.180664 0.697266
0.631836 0.180664 0.697266
0.741699 0.180664 0.697266
0.844727 0.180664 0.697266
0.939453 0.180664 0.697266
0.000001 0.367676 0.697266
0.191772 0.367676 0.697266
0.366943 0.367676 0.697266
0.508301 0.367676 0.697266
0.631836 0.367676 0.697266
0.741699 0.367676 0.697266
0.844727 0.367676 0.697266
0.939453 0.367676 0.697266
0.000001 0.520508 0.697266
0.191772 0.520508 0.697266
0.366943 0.520508 0.697266
0.508301 0.520508 0.697266
0.631836 0.520508 0.697266
0.741699 0.520508 0.697266
0.844727 0.520508 0.697266
0.939453 0.520508 0.697266
0.000001 0.645996 0.697266
0.191772 0.645996 0.697266
0.366943 0.645996 0.697266
0.508301 0.645996 0.697266
0.631836 0.645996 0.697266
0.741699 0.645996 0.697266
0.844727 0.645996 0.697266
0.939453 0.645996 0.697266
0.000001 0.754883 0.697266
0.191772 0.754883 0.697266
0.366943 0.754883 0.697266
0.508301 0.754883 0.697266
0.631836 0.754883 0.697266
0.741699 0.754883 0.697266
0.844727 0.754883 0.697266
0.939453 0.754883 0.697266
0.000001 0.852539 0.697266
0.191772 0.852539 0.697266
0.366943 0.852539 0.697266
0.508301 0.852539 0.697266
0.631836 0.852539 0.697266
0.741699 0.852539 0.697266
0.844727 0.852539 0.697266
0.939453 0.852539 0.697266
0.000001 0.941895 0.697266
0.191772 0.941895 0.697266
0.366943 0.941895 0.697266
0.508301 0.941895 0.697266
0.631836 0.941895 0.697266
0.741699 0.941895 0.697266
0.844727 0.941895 0.697266
0.939453 0.941895 0.697266
0.000002 0.000000 0.812012
0.191772 0.000000 0.812012
0.366943 0.000000 0.812012
0.508301 0.000000 0.812012
0.632324 0.000000 0.812012
0.741699 0.000000 0.812012
0.844727 0.000000 0.812012
0.939453 0.000000 0.812012
0.000002 0.180664 0.812012
0.191772 0.180664 0.812012
0.366943 0.180664 0.812012
0.508301 0.180664 0.812012
0.632324 0.180664 0.812012
0.741699 0.180664 0.812012
0.844727 0.180664 0.812012
0.939453 0.180664 0.812012
0.000002 0.367676 0.812012
0.191772 0.367676 0.812012
0.366943 0.367676 0.812012
0.508301 0.367676 0.812012
0.632324 0.367676 0.812012
0.741699 0.367676 0.812012
0.844727 0.367676 0.812012
0.939453 0.367676 0.812012
0.000002 0.520508 0.812012
0.191772 0.520508 0.812012
0.366943 0.520508 0.812012
0.508301 0.520508 0.812012
0.632324 0.520508 0.812012
0.741699 0.520508 0.812012
0.844727 0.520508 0.812012
0.939453 0.520508 0.812012
0.000002 0.645996 0.812012
0.191772 0.645996 0.812012
0.366943 0.645996 0.812012
0.508301 0.645996 0.812012
0.632324 0.645996 0.812012
0.741699 0.645996 0.812012
0.844727 0.645996 0.812012
0.939453 0.645996 0.812012
0.000002 0.754883 0.812012
0.191772 0.754883 0.812012
0.366943 0.754883 0.812012
0.508301 0.754883 0.812012
0.632324 0.754883 0.812012
0.741699 0.754883 0.812012
0.844727 0.754883 0.812012
0.939453 0.754883 0.812012
0.000002 0.852539 0.812012
0.191772 0.852539 0.812012
0.366943 0.852539 0.812012
0.508301 0.852539 0.812012
0.632324 0.852539 0.812012
0.741699 0.852539 0.812012
0.844727 0.852539 0.812012
0.939453 0.852539 0.812012
0.000002 0.941895 0.812012
0.191772 0.941895 0.812012
0.366943 0.941895 0.812012
0.508301 0.941895 0.812012
0.632324 0.941895 0.812012
0.741699 0.941895 0.812012
0.844727 0.941895 0.812012
0.939453 0.941895 0.812012
0.000002 0.000000 0.925781
0.191772 0.000000 0.925781
0.366943 0.000000 0.925781
0.508301 0.000000 0.925781
0.632324 0.000000 0.925781
0.741699 0.000000 0.925781
0.844727 0.000000 0.925781
0.939453 0.000000 0.925781
0.000002 0.180664 0.925781
0.191772 0.180664 0.925781
0.366943 0.180664 0.925781
0.508301 0.180664 0.925781
0.632324 0.180664 0.925781
0.741699 0.180664 0.925781
0.844727 0.180664 0.925781
0.939453 0.180664 0.925781
0.000002 0.367676 0.925781
0.191772 0.367676 0.925781
0.366943 0.367676 0.925781
0.508301 0.367676 0.925781
0.632324 0.367676 0.925781
0.741699 0.367676 0.925781
0.844727 0.367676 0.925781
0.939453 0.367676 0.925781
0.000002 0.520508 0.925781
0.191772 0.520508 0.925781
0.366943 0.520508 0.925781
0.508301 0.520508 0.925781
0.632324 0.520508 0.925781
0.741699 0.520508 0.925781
0.844727 0.520508 0.925781
0.939453 0.520508 0.925781
0.000002 0.645996 0.925781
0.191772 0.645996 0.925781
0.366943 0.645996 0.925781
0.508301 0.645996 0.925781
0.632324 0.645996 0.925781
0.741699 0.645996 0.925781
0.844727 0.645996 0.925781
0.939453 0.645996 0.925781
0.000002 0.754883 0.925781
0.191772 0.754883 0.925781
0.366943 0.754883 0.925781
0.508301 0.754883 0.925781
0.632324 0.754883 0.925781
0.741699 0.754883 0.925781
0.844727 0.754883 0.925781
0.939453 0.754883 0.925781
0.000002 0.852539 0.925781
0.191772 0.852539 0.925781
0.366943 0.852539 0.925781
0.508301 0.852539 0.925781
0.632324 0.852539 0.925781
0.741699 0.852539 0.925781
0.844727 0.852539 0.925781
0.939453 0.852539 0.925781
0.000002 0.941895 0.925781
0.191772 0.941895 0.925781
0.366943 0.941895 0.925781
0.508301 0.941895 0.925781
0.632324 0.941895 0.925781
0.741699 0.941895 0.925781
0.844727 0.941895 0.925781
0.939453 0.941895 0.925781
