cubelut/Adanmq_AgfaColor Vista 400.cube
TITLE "Generated by Foundry::LUT"
LUT_3D_SIZE 32
0.000000 0.000000 0.000000
0.035828 0.000000 0.000000
0.087463 0.000000 0.000000
0.141357 0.000000 0.000000
0.194092 0.000000 0.000000
0.242920 0.000000 0.000000
0.288086 0.000000 0.000000
0.330078 0.000000 0.000000
0.369385 0.000000 0.000000
0.406738 0.000000 0.000000
0.442627 0.000000 0.000000
0.476807 0.000000 0.000000
0.509766 0.000000 0.000000
0.541992 0.000000 0.000000
0.572754 0.000000 0.000000
0.602539 0.000000 0.000000
0.631348 0.000000 0.000000
0.659668 0.000000 0.000000
0.687500 0.000000 0.000000
0.714355 0.000000 0.000000
0.741211 0.000000 0.000000
0.767090 0.000000 0.000000
0.792480 0.000000 0.000000
0.817383 0.000000 0.000000
0.842285 0.000000 0.000000
0.866211 0.000000 0.000000
0.890137 0.000000 0.000000
0.913574 0.000000 0.000000
0.936523 0.000000 0.000000
0.958496 0.000000 0.000000
0.979980 0.000000 0.000000
1.000000 0.000000 0.000000
0.000000 0.033691 0.000000
0.035828 0.033691 0.000000
0.087463 0.033691 0.000000
0.141357 0.033691 0.000000
0.194092 0.033691 0.000000
0.242920 0.033691 0.000000
0.288086 0.033691 0.000000
0.330078 0.033691 0.000000
0.369385 0.033722 0.000000
0.406738 0.033722 0.000000
0.442627 0.033722 0.000000
0.476807 0.033722 0.000000
0.509766 0.033722 0.000000
0.541992 0.033722 0.000000
0.572754 0.033722 0.000000
0.602539 0.033722 0.000000
0.631348 0.033722 0.000000
0.659668 0.033722 0.000000
0.687500 0.033722 0.000000
0.714355 0.033722 0.000000
0.741211 0.033722 0.000000
0.767090 0.033722 0.000000
0.792480 0.033722 0.000000
0.817383 0.033722 0.000000
0.842285 0.033722 0.000000
0.866211 0.033722 0.000000
0.890137 0.033722 0.000000
0.913574 0.033722 0.000000
0.936523 0.033722 0.000000
0.958496 0.033722 0.000000
0.979980 0.033722 0.000000
1.000000 0.033722 0.000000
0.000000 0.081177 0.000000
0.035828 0.081177 0.000000
0.087463 0.081177 0.000000
0.141357 0.081177 0.000000
0.194092 0.081177 0.000000
0.242920 0.081177 0.000000
0.288086 0.081177 0.000000
0.330078 0.081177 0.000000
0.369385 0.081177 0.000000
0.406738 0.081177 0.000000
0.442627 0.081177 0.000000
0.476807 0.081177 0.000000
0.509766 0.081177 0.000000
0.541992 0.081177 0.000000
0.572754 0.081177 0.000000
0.602539 0.081177 0.000000
0.631348 0.081177 0.000000
0.659668 0.081177 0.000000
0.687500 0.081177 0.000000
0.714355 0.081177 0.000000
0.741211 0.081177 0.000000
0.767090 0.081177 0.000000
0.792480 0.081177 0.000000
0.817383 0.081177 0.000000
0.842285 0.081177 0.000000
0.866211 0.081238 0.000000
0.890137 0.081238 0.000000
0.913574 0.081238 0.000000
0.936523 0.081238 0.000000
0.958496 0.081238 0.000000
0.979980 0.081238 0.000000
1.000000 0.081238 0.000000
0.000000 0.131226 0.000000
0.035828 0.131226 0.000000
0.087463 0.131226 0.000000
0.141357 0.131226 0.000000
0.194092 0.131226 0.000000
0.242920 0.131226 0.000000
0.288086 0.131226 0.000000
0.330078 0.131226 0.000000
0.369385 0.131226 0.000000
0.406738 0.131226 0.000000
0.442627 0.131226 0.000000
0.476807 0.131226 0.000000
0.509766 0.131226 0.000000
0.541992 0.131226 0.000000
0.572754 0.131226 0.000000
0.602539 0.131226 0.000000
0.631348 0.131226 0.000000
0.659668 0.131226 0.000000
0.687500 0.131226 0.000000
0.714355 0.131226 0.000000
0.741211 0.131226 0.000000
0.767090 0.131226 0.000000
0.792480 0.131226 0.000000
0.817383 0.131226 0.000000
0.842285 0.131226 0.000000
0.866211 0.131226 0.000000
0.890137 0.131226 0.000000
0.913574 0.131226 0.000000
0.936523 0.131226 0.000000
0.958496 0.131226 0.000000
0.979980 0.131226 0.000000
1.000000 0.131226 0.000000
0.000000 0.181274 0.000000
0.035828 0.181274 0.000000
0.087463 0.181274 0.000000
0.141357 0.181274 0.000000
0.194092 0.181274 0.000000
0.242920 0.181274 0.000000
0.288086 0.181274 0.000000
0.330078 0.181274 0.000000
0.369385 0.181274 0.000000
0.406738 0.181274 0.000000
0.442627 0.181274 0.000000
0.476807 0.181274 0.000000
0.509766 0.181274 0.000000
0.541992 0.181274 0.000000
0.572754 0.181274 0.000000
0.602539 0.181274 0.000000
0.631348 0.181274 0.000000
0.659668 0.181274 0.000000
0.687500 0.181274 0.000000
0.714355 0.181274 0.000000
0.741211 0.181274 0.000000
0.767090 0.181274 0.000000
0.792480 0.181274 0.000000
0.817383 0.181274 0.000000
0.842285 0.181396 0.000000
0.866211 0.181396 0.000000
0.890137 0.181396 0.000000
0.913574 0.181396 0.000000
0.936523 0.181396 0.000000
0.958496 0.181396 0.000000
0.979980 0.181396 0.000000
1.000000 0.181396 0.000000
0.000000 0.231689 0.000000
0.035828 0.231689 0.000000
0.087463 0.231689 0.000000
0.141357 0.231689 0.000000
0.194092 0.231689 0.000000
0.242920 0.231689 0.000000
0.288086 0.231689 0.000000
0.330078 0.231689 0.000000
0.369385 0.231689 0.000000
0.406738 0.231689 0.000000
0.442627 0.231689 0.000000
0.476807 0.231689 0.000000
0.509766 0.231689 0.000000
0.541992 0.231689 0.000000
0.572754 0.231689 0.000000
0.602539 0.231689 0.000000
0.631348 0.231689 0.000000
0.659668 0.231689 0.000000
0.687500 0.231689 0.000000
0.714355 0.231689 0.000000
0.741211 0.231689 0.000000
0.767090 0.231689 0.000000
0.792480 0.231689 0.000000
0.817383 0.231689 0.000000
0.842285 0.231689 0.000000
0.866211 0.231689 0.000000
0.890137 0.231689 0.000000
0.913574 0.231689 0.000000
0.936523 0.231689 0.000000
0.958496 0.231689 0.000000
0.979980 0.231689 0.000000
1.000000 0.231689 0.000000
0.000000 0.279785 0.000000
0.035828 0.279785 0.000000
0.087463 0.279785 0.000000
0.141357 0.279785 0.000000
0.194092 0.279785 0.000000
0.242920 0.279785 0.000000
0.288086 0.279785 0.000000
0.330078 0.279785 0.000000
0.369385 0.279785 0.000000
0.406738 0.279785 0.000000
0.442627 0.279785 0.000000
0.476807 0.279785 0.000000
0.509766 0.279785 0.000000
0.541992 0.279785 0.000000
0.572754 0.279785 0.000000
0.602539 0.279785 0.000000
0.631348 0.279785 0.000000
0.659668 0.279785 0.000000
0.687500 0.279785 0.000000
0.714355 0.279785 0.000000
0.741211 0.279785 0.000000
0.767090 0.279785 0.000000
0.792480 0.279785 0.000000
0.817383 0.279785 0.000000
0.842285 0.279785 0.000000
0.866211 0.279785 0.000000
0.890137 0.279785 0.000000
0.913574 0.279785 0.000000
0.936523 0.279785 0.000000
0.958496 0.279785 0.000000
0.979980 0.279785 0.000000
1.000000 0.279785 0.000000
0.000000 0.325439 0.000000
0.035828 0.325439 0.000000
0.087463 0.325439 0.000000
0.141357 0.325439 0.000000
0.194092 0.325439 0.000000
0.242920 0.325439 0.000000
0.288086 0.325439 0.000000
0.330078 0.325439 0.000000
0.369385 0.325439 0.000000
0.406738 0.325439 0.000000
0.442627 0.325439 0.000000
0.476807 0.325439 0.000000
0.509766 0.325439 0.000000
0.541992 0.325439 0.000000
0.572754 0.325439 0.000000
0.602539 0.325439 0.000000
0.631348 0.325439 0.000000
0.659668 0.325439 0.000000
0.687500 0.325439 0.000000
0.714355 0.325439 0.000000
0.741211 0.325439 0.000000
0.767090 0.325439 0.000000
0.792480 0.325439 0.000000
0.817383 0.325439 0.000000
0.842285 0.325439 0.000000
0.866211 0.325439 0.000000
0.890137 0.325439 0.000000
0.913574 0.325439 0.000000
0.936523 0.325439 0.000000
0.958496 0.325439 0.000000
0.979980 0.325439 0.000000
1.000000 0.325439 0.000000
0.000000 0.368652 0.000000
0.035828 0.368652 0.000000
0.087463 0.368652 0.000000
0.141357 0.368652 0.000000
0.194092 0.368652 0.000000
0.242920 0.368652 0.000000
0.288086 0.368652 0.000000
0.330078 0.368652 0.000000
0.369385 0.368652 0.000000
0.406738 0.368652 0.000000
0.442627 0.368652 0.000000
0.476807 0.368652 0.000000
0.509766 0.368652 0.000000
0.541992 0.368652 0.000000
0.572754 0.368652 0.000000
0.602539 0.368652 0.000000
0.631348 0.368652 0.000000
0.659668 0.368652 0.000000
0.687500 0.368652 0.000000
0.714355 0.368652 0.000000
0.741211 0.368652 0.000000
0.767090 0.368652 0.000000
0.792480 0.368652 0.000000
0.817383 0.368652 0.000000
0.842285 0.368652 0.000000
0.866211 0.368652 0.000000
0.890137 0.368652 0.000000
0.913574 0.368652 0.000000
0.936523 0.368652 0.000000
0.958496 0.368652 0.000000
0.979980 0.368652 0.000000
1.000000 0.368652 0.000000
0.000000 0.409424 0.000000
0.035828 0.409424 0.000000
0.087463 0.409424 0.000000
0.141357 0.409424 0.000000
0.194092 0.409424 0.000000
0.242920 0.409424 0.000000
0.288086 0.409424 0.000000
0.330078 0.409424 0.000000
0.369385 0.409424 0.000000
0.406738 0.409424 0.000000
0.442627 0.409424 0.000000
0.476807 0.409424 0.000000
0.509766 0.409424 0.000000
0.541992 0.409424 0.000000
0.572754 0.409424 0.000000
0.602539 0.409424 0.000000
0.631348 0.409424 0.000000
0.659668 0.409424 0.000000
0.687500 0.409424 0.000000
0.714355 0.409424 0.000000
0.741211 0.409424 0.000000
0.767090 0.409424 0.000000
0.792480 0.409424 0.000000
0.817383 0.409424 0.000000
0.842285 0.409424 0.000000
0.866211 0.409424 0.000000
0.890137 0.409424 0.000000
0.913574 0.409424 0.000000
0.936523 0.409424 0.000000
0.958496 0.409424 0.000000
0.979980 0.409424 0.000000
1.000000 0.409424 0.000000
0.000000 0.448242 0.000000
0.035828 0.448242 0.000000
0.087463 0.448242 0.000000
0.141357 0.448242 0.000000
0.194092 0.448242 0.000000
0.242920 0.448242 0.000000
0.288086 0.448242 0.000000
0.330078 0.448242 0.000000
0.369385 0.448242 0.000000
0.406738 0.448242 0.000000
0.442627 0.448242 0.000000
0.476807 0.448242 0.000000
0.509766 0.448242 0.000000
0.541992 0.448242 0.000000
0.572754 0.448242 0.000000
0.602539 0.448242 0.000000
0.631348 0.448242 0.000000
0.659668 0.448242 0.000000
0.687500 0.448242 0.000000
0.714355 0.448242 0.000000
0.741211 0.448242 0.000000
0.767090 0.448242 0.000000
0.792480 0.448242 0.000000
0.817383 0.448242 0.000000
0.842285 0.448242 0.000000
0.866211 0.448242 0.000000
0.890137 0.448242 0.000000
0.913574 0.448242 0.000000
0.936523 0.448242 0.000000
0.958496 0.448242 0.000000
0.979980 0.448242 0.000000
1.000000 0.448242 0.000000
0.000000 0.485107 0.000000
0.035828 0.485107 0.000000
0.087463 0.485107 0.000000
0.141357 0.485107 0.000000
0.194092 0.485107 0.000000
0.242920 0.485107 0.000000
0.288086 0.485107 0.000000
0.330078 0.485107 0.000000
0.369385 0.485107 0.000000
0.406738 0.485107 0.000000
0.442627 0.485107 0.000000
0.476807 0.485107 0.000000
0.509766 0.485107 0.000000
0.541992 0.485107 0.000000
0.572754 0.485107 0.000000
0.602539 0.485107 0.000000
0.631348 0.485107 0.000000
0.659668 0.485107 0.000000
0.687500 0.485107 0.000000
0.714355 0.485107 0.000000
0.741211 0.485107 0.000000
0.767090 0.485107 0.000000
0.792480 0.485107 0.000000
0.817383 0.485107 0.000000
0.842285 0.485107 0.000000
0.866211 0.485107 0.000000
0.890137 0.485107 0.000000
0.913574 0.485107 0.000000
0.936523 0.485107 0.000000
0.958496 0.485107 0.000000
0.979980 0.485107 0.000000
1.000000 0.485107 0.000000
0.000000 0.520508 0.000000
0.035828 0.520508 0.000000
0.087463 0.520508 0.000000
0.141357 0.520508 0.000000
0.194092 0.520508 0.000000
0.242920 0.520508 0.000000
0.288086 0.520508 0.000000
0.330078 0.520508 0.000000
0.369385 0.520508 0.000000
0.406738 0.520508 0.000000
0.442627 0.520508 0.000000
0.476807 0.520508 0.000000
0.509766 0.520508 0.000000
0.541992 0.520508 0.000000
0.572754 0.520508 0.000000
0.602539 0.520508 0.000000
0.631348 0.520508 0.000000
0.659668 0.520508 0.000000
0.687500 0.520508 0.000000
0.714355 0.520508 0.000000
0.741211 0.520508 0.000000
0.767090 0.520508 0.000000
0.792480 0.520508 0.000000
0.817383 0.520508 0.000000
0.842285 0.520508 0.000000
0.866211 0.520508 0.000000
0.890137 0.520508 0.000000
0.913574 0.520508 0.000000
0.936523 0.520508 0.000000
0.958496 0.520508 0.000000
0.979980 0.520508 0.000000
1.000000 0.520508 0.000000
0.000000 0.554199 0.000000
0.035828 0.554199 0.000000
0.087463 0.554199 0.000000
0.141357 0.554199 0.000000
0.194092 0.554199 0.000000
0.242920 0.554199 0.000000
0.288086 0.554199 0.000000
0.330078 0.554199 0.000000
0.369385 0.554199 0.000000
0.406738 0.554199 0.000000
0.442627 0.554199 0.000000
0.476807 0.554199 0.000000
0.509766 0.554199 0.000000
0.541992 0.554199 0.000000
0.572754 0.554199 0.000000
0.602539 0.554199 0.000000
0.631348 0.554199 0.000000
0.659668 0.554199 0.000000
0.687500 0.554199 0.000000
0.714355 0.554199 0.000000
0.741211 0.554199 0.000000
0.767090 0.554199 0.000000
0.792480 0.554199 0.000000
0.817383 0.554199 0.000000
0.842285 0.554199 0.000000
0.866211 0.554199 0.000000
0.890137 0.554199 0.000000
0.913574 0.554199 0.000000
0.936523 0.554199 0.000000
0.958496 0.554199 0.000000
0.979980 0.554199 0.000000
1.000000 0.554199 0.000000
0.000000 0.585938 0.000000
0.035828 0.585938 0.000000
0.087463 0.585938 0.000000
0.141357 0.585938 0.000000
0.194092 0.585938 0.000000
0.242920 0.585938 0.000000
0.288086 0.585938 0.000000
0.330078 0.585938 0.000000
0.369385 0.585938 0.000000
0.406738 0.585938 0.000000
0.442627 0.585938 0.000000
0.476807 0.585938 0.000000
0.509766 0.585938 0.000000
0.541992 0.585938 0.000000
0.572754 0.585938 0.000000
0.602539 0.585938 0.000000
0.631348 0.585938 0.000000
0.659668 0.585938 0.000000
0.687500 0.585938 0.000000
0.714355 0.585938 0.000000
0.741211 0.585938 0.000000
0.767090 0.585938 0.000000
0.792480 0.585938 0.000000
0.817383 0.585938 0.000000
0.842285 0.585938 0.000000
0.866211 0.585938 0.000000
0.890137 0.585938 0.000000
0.913574 0.585938 0.000000
0.936523 0.585938 0.000000
0.958496 0.585938 0.000000
0.979980 0.585938 0.000000
1.000000 0.585938 0.000000
0.000000 0.616211 0.000000
0.035828 0.616211 0.000000
0.087463 0.616211 0.000000
0.141357 0.616211 0.000000
0.194092 0.616211 0.000000
0.242920 0.616211 0.000000
0.288086 0.616211 0.000000
0.330078 0.616211 0.000000
0.369385 0.616211 0.000000
0.406738 0.616211 0.000000
0.442627 0.616211 0.000000
0.476807 0.616211 0.000000
0.509766 0.616211 0.000000
0.541992 0.616211 0.000000
0.572754 0.616211 0.000000
0.602539 0.616211 0.000000
0.631348 0.616211 0.000000
0.659668 0.616211 0.000000
0.687500 0.616211 0.000000
0.714355 0.616211 0.000000
0.741211 0.616211 0.000000
0.767090 0.616211 0.000000
0.792480 0.616211 0.000000
0.817383 0.616211 0.000000
0.842285 0.616211 0.000000
0.866211 0.616211 0.000000
0.890137 0.616211 0.000000
0.913574 0.616211 0.000000
0.936523 0.616211 0.000000
0.958496 0.616211 0.000000
0.979980 0.616211 0.000000
1.000000 0.616211 0.000000
0.000000 0.645508 0.000000
0.035828 0.645508 0.000000
0.087463 0.645508 0.000000
0.141357 0.645508 0.000000
0.194092 0.645508 0.000000
0.242920 0.645508 0.000000
0.288086 0.645508 0.000000
0.330078 0.645508 0.000000
0.369385 0.645508 0.000000
0.406738 0.645508 0.000000
0.442627 0.645508 0.000000
0.476807 0.645508 0.000000
0.509766 0.645508 0.000000
0.541992 0.645508 0.000000
0.572754 0.645508 0.000000
0.602539 0.645508 0.000000
0.631348 0.645508 0.000000
0.659668 0.645508 0.000000
0.687500 0.645508 0.000000
0.714355 0.645508 0.000000
0.741211 0.645508 0.000000
0.767090 0.645508 0.000000
0.792480 0.645508 0.000000
0.817383 0.645508 0.000000
0.842285 0.645508 0.000000
0.866211 0.645508 0.000000
0.890137 0.645508 0.000000
0.913574 0.645508 0.000000
0.936523 0.645508 0.000000
0.958496 0.645996 0.000000
0.979980 0.645996 0.000000
1.000000 0.645996 0.000000
0.000000 0.673828 0.000000
0.035828 0.673828 0.000000
0.087463 0.673828 0.000000
0.141357 0.673828 0.000000
0.194092 0.673828 0.000000
0.242920 0.673828 0.000000
0.288086 0.673828 0.000000
0.330078 0.673828 0.000000
0.369385 0.673828 0.000000
0.406738 0.673828 0.000000
0.442627 0.673828 0.000000
0.476807 0.673828 0.000000
0.509766 0.673828 0.000000
0.541992 0.673828 0.000000
0.572754 0.673828 0.000000
0.602539 0.673828 0.000000
0.631348 0.673828 0.000000
0.659668 0.673828 0.000000
0.687500 0.673828 0.000000
0.714355 0.673828 0.000000
0.741211 0.673828 0.000000
0.767090 0.673828 0.000000
0.792480 0.673828 0.000000
0.817383 0.673828 0.000000
0.842285 0.673828 0.000000
0.866211 0.673828 0.000000
0.890137 0.673828 0.000000
0.913574 0.673828 0.000000
0.936523 0.673828 0.000000
0.958496 0.673828 0.000000
0.979980 0.673828 0.000000
1.000000 0.673828 0.000000
0.000000 0.701172 0.000000
0.035828 0.701172 0.000000
0.087463 0.701172 0.000000
0.141357 0.701172 0.000000
0.194092 0.701172 0.000000
0.242920 0.701172 0.000000
0.288086 0.701172 0.000000
0.330078 0.701172 0.000000
0.369385 0.701172 0.000000
0.406738 0.701172 0.000000
0.442627 0.701172 0.000000
0.476807 0.701172 0.000000
0.509766 0.701172 0.000000
0.541992 0.701172 0.000000
0.572754 0.701172 0.000000
0.602539 0.701172 0.000000
0.631348 0.701172 0.000000
0.659668 0.701172 0.000000
0.687500 0.701172 0.000000
0.714355 0.701172 0.000000
0.741211 0.701172 0.000000
0.767090 0.701172 0.000000
0.792480 0.701172 0.000000
0.817383 0.701172 0.000000
0.842285 0.701172 0.000000
0.866211 0.701172 0.000000
0.890137 0.701172 0.000000
0.913574 0.701172 0.000000
0.936523 0.701172 0.000000
0.958496 0.701172 0.000000
0.979980 0.701172 0.000000
1.000000 0.701172 0.000000
0.000000 0.727539 0.000000
0.035828 0.727539 0.000000
0.087463 0.727539 0.000000
0.141357 0.727539 0.000000
0.194092 0.727539 0.000000
0.242920 0.727539 0.000000
0.288086 0.727539 0.000000
0.330078 0.727539 0.000000
0.369385 0.727539 0.000000
0.406738 0.727539 0.000000
0.442627 0.727539 0.000000
0.476807 0.727539 0.000000
0.509766 0.727539 0.000000
0.541992 0.727539 0.000000
0.572754 0.727539 0.000000
0.602539 0.727539 0.000000
0.631348 0.727539 0.000000
0.659668 0.727539 0.000000
0.687500 0.727539 0.000000
0.714355 0.727539 0.000000
0.741211 0.727539 0.000000
0.767090 0.727539 0.000000
0.792480 0.727539 0.000000
0.817383 0.727539 0.000000
0.842285 0.727539 0.000000
0.866211 0.727539 0.000000
0.890137 0.727539 0.000000
0.913574 0.727539 0.000000
0.936523 0.727539 0.000000
0.958496 0.727539 0.000000
0.979980 0.727539 0.000000
1.000000 0.727539 0.000000
0.000000 0.752930 0.000000
0.035828 0.752930 0.000000
0.087463 0.752930 0.000000
0.141357 0.752930 0.000000
0.194092 0.752930 0.000000
0.242920 0.753418 0.000000
0.288086 0.753418 0.000000
0.330078 0.753418 0.000000
0.369385 0.753418 0.000000
0.406738 0.753418 0.000000
0.442627 0.753418 0.000000
0.476807 0.753418 0.000000
0.509766 0.753418 0.000000
0.541992 0.753418 0.000000
0.572754 0.753418 0.000000
0.602539 0.753418 0.000000
0.631348 0.753418 0.000000
0.659668 0.753418 0.000000
0.687500 0.753418 0.000000
0.714355 0.753418 0.000000
0.741211 0.753418 0.000000
0.767090 0.753418 0.000000
0.792480 0.753418 0.000000
0.817383 0.753418 0.000000
0.842285 0.753418 0.000000
0.866211 0.753418 0.000000
0.890137 0.753418 0.000000
0.913574 0.753418 0.000000
0.936523 0.753418 0.000000
0.958496 0.753418 0.000000
0.979980 0.753418 0.000000
1.000000 0.753418 0.000000
0.000000 0.778320 0.000000
0.035828 0.778320 0.000000
0.087463 0.778320 0.000000
0.141357 0.778320 0.000000
0.194092 0.778320 0.000000
0.242920 0.778320 0.000000
0.288086 0.778320 0.000000
0.330078 0.778320 0.000000
0.369385 0.778320 0.000000
0.406738 0.778320 0.000000
0.442627 0.778320 0.000000
0.476807 0.778320 0.000000
0.509766 0.778320 0.000000
0.541992 0.778320 0.000000
0.572754 0.778320 0.000000
0.602539 0.778320 0.000000
0.631348 0.778320 0.000000
0.659668 0.778320 0.000000
0.687500 0.778320 0.000000
0.714355 0.778320 0.000000
0.741211 0.778320 0.000000
0.767090 0.778320 0.000000
0.792480 0.778320 0.000000
0.817383 0.778320 0.000000
0.842285 0.778320 0.000000
0.866211 0.778320 0.000000
0.890137 0.778320 0.000000
0.913574 0.778320 0.000000
0.936523 0.778320 0.000000
0.958496 0.778320 0.000000
0.979980 0.778320 0.000000
1.000000 0.778320 0.000000
0.000000 0.802734 0.000000
0.035828 0.802734 0.000000
0.087463 0.802734 0.000000
0.141357 0.802734 0.000000
0.194092 0.802734 0.000000
0.242920 0.802734 0.000000
0.288086 0.802734 0.000000
0.330078 0.802734 0.000000
0.369385 0.802734 0.000000
0.406738 0.802734 0.000000
0.442627 0.802734 0.000000
0.476807 0.802734 0.000000
0.509766 0.802734 0.000000
0.541992 0.802734 0.000000
0.572754 0.802734 0.000000
0.602539 0.802734 0.000000
0.631348 0.802734 0.000000
0.659668 0.802734 0.000000
0.687500 0.802734 0.000000
0.714355 0.802734 0.000000
0.741211 0.802734 0.000000
0.767090 0.802734 0.000000
0.792480 0.802734 0.000000
0.817383 0.802734 0.000000
0.842285 0.802734 0.000000
0.866211 0.802734 0.000000
0.890137 0.802734 0.000000
0.913574 0.802734 0.000000
0.936523 0.802734 0.000000
0.958496 0.802734 0.000000
0.979980 0.802734 0.000000
1.000000 0.802734 0.000000
0.000000 0.826172 0.000000
0.035828 0.826172 0.000000
0.087463 0.826172 0.000000
0.141357 0.826172 0.000000
0.194092 0.826172 0.000000
0.242920 0.826172 0.000000
0.288086 0.826172 0.000000
0.330078 0.826172 0.000000
0.369385 0.826172 0.000000
0.406738 0.826172 0.000000
0.442627 0.826172 0.000000
0.476807 0.826172 0.000000
0.509766 0.826172 0.000000
0.541992 0.826172 0.000000
0.572754 0.826172 0.000000
0.602539 0.826172 0.000000
0.631348 0.826172 0.000000
0.659668 0.826172 0.000000
0.687500 0.826172 0.000000
0.714355 0.826172 0.000000
0.741211 0.826172 0.000000
0.767090 0.826172 0.000000
0.792480 0.826172 0.000000
0.817383 0.826172 0.000000
0.842285 0.826172 0.000000
0.866211 0.826172 0.000000
0.890137 0.826172 0.000000
0.913574 0.826172 0.000000
0.936523 0.826172 0.000000
0.958496 0.826172 0.000000
0.979980 0.826172 0.000000
1.000000 0.826172 0.000000
0.000000 0.850098 0.000000
0.035828 0.850098 0.000000
0.087463 0.850098 0.000000
0.141357 0.850098 0.000000
0.194092 0.850098 0.000000
0.242920 0.850098 0.000000
0.288086 0.850098 0.000000
0.330078 0.850098 0.000000
0.369385 0.850098 0.000000
0.406738 0.850098 0.000000
0.442627 0.850098 0.000000
0.476807 0.850098 0.000000
0.509766 0.850098 0.000000
0.541992 0.850098 0.000000
0.572754 0.850098 0.000000
0.602539 0.850098 0.000000
0.631348 0.850098 0.000000
0.659668 0.850098 0.000000
0.687500 0.850098 0.000000
0.714355 0.850098 0.000000
0.741211 0.850098 0.000000
0.767090 0.850098 0.000000
0.792480 0.850098 0.000000
0.817383 0.850098 0.000000
0.842285 0.850098 0.000000
0.866211 0.850098 0.000000
0.890137 0.850098 0.000000
0.913574 0.850098 0.000000
0.936523 0.850098 0.000000
0.958496 0.850098 0.000000
0.979980 0.850098 0.000000
1.000000 0.850098 0.000000
0.000000 0.873047 0.000000
0.035828 0.873047 0.000000
0.087463 0.873047 0.000000
0.141357 0.873047 0.000000
0.194092 0.873047 0.000000
0.242920 0.873047 0.000000
0.288086 0.873047 0.000000
0.330078 0.873047 0.000000
0.369385 0.873047 0.000000
0.406738 0.873047 0.000000
0.442627 0.873047 0.000000
0.476807 0.873047 0.000000
0.509766 0.873047 0.000000
0.541992 0.873047 0.000000
0.572754 0.873047 0.000000
0.602539 0.873047 0.000000
0.631348 0.873047 0.000000
0.659668 0.873047 0.000000
0.687500 0.873047 0.000000
0.714355 0.873047 0.000000
0.741211 0.873047 0.000000
0.767090 0.873047 0.000000
0.792480 0.873047 0.000000
0.817383 0.873047 0.000000
0.842285 0.873047 0.000000
0.866211 0.873047 0.000000
0.890137 0.873047 0.000000
0.913574 0.873047 0.000000
0.936523 0.873047 0.000000
0.958496 0.873047 0.000000
0.979980 0.873047 0.000000
1.000000 0.873047 0.000000
0.000000 0.895508 0.000000
0.035828 0.895508 0.000000
0.087463 0.895508 0.000000
0.141357 0.895508 0.000000
0.194092 0.895508 0.000000
0.242920 0.895508 0.000000
0.288086 0.895508 0.000000
0.330078 0.895508 0.000000
0.369385 0.895508 0.000000
0.406738 0.895508 0.000000
0.442627 0.895508 0.000000
0.476807 0.895508 0.000000
0.509766 0.895508 0.000000
0.541992 0.895508 0.000000
0.572754 0.895508 0.000000
0.602539 0.895508 0.000000
0.631348 0.895508 0.000000
0.659668 0.895508 0.000000
0.687500 0.895508 0.000000
0.714355 0.895508 0.000000
0.741211 0.895508 0.000000
0.767090 0.895508 0.000000
0.792480 0.895508 0.000000
0.817383 0.895508 0.000000
0.842285 0.895508 0.000000
0.866211 0.895508 0.000000
0.890137 0.895508 0.000000
0.913574 0.895508 0.000000
0.936523 0.895508 0.000000
0.958496 0.895508 0.000000
0.979980 0.895508 0.000000
1.000000 0.895508 0.000000
0.000000 0.917480 0.000000
0.035828 0.917480 0.000000
0.087463 0.917480 0.000000
0.141357 0.917480 0.000000
0.194092 0.917480 0.000000
0.242920 0.917480 0.000000
0.288086 0.917480 0.000000
0.330078 0.917480 0.000000
0.369385 0.917480 0.000000
0.406738 0.917480 0.000000
0.442627 0.917480 0.000000
0.476807 0.917480 0.000000
0.509766 0.917480 0.000000
0.541992 0.917480 0.000000
0.572754 0.917480 0.000000
0.602539 0.917480 0.000000
0.631348 0.917480 0.000000
0.659668 0.917480 0.000000
0.687500 0.917480 0.000000
0.714355 0.917480 0.000000
0.741211 0.917480 0.000000
0.767090 0.917480 0.000000
0.792480 0.917480 0.000000
