cubelut/Adanmq_AgfaColor Futura II 400.cube
TITLE "Generated by Foundry::LUT"
LUT_3D_SIZE 32
0.000000 0.000000 0.000000
0.034821 0.000000 0.000000
0.085754 0.000000 0.000000
0.138916 0.000000 0.000000
0.191528 0.000000 0.000000
0.240112 0.000000 0.000000
0.285400 0.000000 0.000000
0.327148 0.000000 0.000000
0.366699 0.000000 0.000000
0.404297 0.000000 0.000000
0.440430 0.000000 0.000000
0.474609 0.000000 0.000000
0.508301 0.000000 0.000000
0.540527 0.000000 0.000000
0.572266 0.000000 0.000000
0.603027 0.000000 0.000000
0.631836 0.000000 0.000000
0.660156 0.000000 0.000000
0.687988 0.000000 0.000000
0.714844 0.000000 0.000000
0.741699 0.000000 0.000000
0.768066 0.000000 0.000000
0.793945 0.000000 0.000000
0.819336 0.000000 0.000000
0.844727 0.000000 0.000000
0.869141 0.000000 0.000000
0.893555 0.000000 0.000000
0.916504 0.000000 0.000000
0.939453 0.000000 0.000000
0.961426 0.000000 0.000000
0.981934 0.000000 0.000000
1.000000 0.000000 0.000000
0.000000 0.033051 0.000000
0.034821 0.033051 0.000000
0.085754 0.033051 0.000000
0.138916 0.033051 0.000000
0.191528 0.033051 0.000000
0.240112 0.033051 0.000000
0.285400 0.033051 0.000000
0.327148 0.033051 0.000000
0.366699 0.033051 0.000000
0.404297 0.033051 0.000000
0.440430 0.033081 0.000000
0.474609 0.033081 0.000000
0.508301 0.033081 0.000000
0.540527 0.033081 0.000000
0.572266 0.033081 0.000000
0.603027 0.033081 0.000000
0.631836 0.033081 0.000000
0.660156 0.033081 0.000000
0.687988 0.033081 0.000000
0.714844 0.033081 0.000000
0.741699 0.033081 0.000000
0.768066 0.033081 0.000000
0.793945 0.033081 0.000000
0.819336 0.033081 0.000000
0.844727 0.033081 0.000000
0.869141 0.033081 0.000000
0.893555 0.033081 0.000000
0.916504 0.033081 0.000000
0.939453 0.033081 0.000000
0.961426 0.033081 0.000000
0.981934 0.033081 0.000000
1.000000 0.033081 0.000000
0.000000 0.080383 0.000000
0.034821 0.080383 0.000000
0.085754 0.080383 0.000000
0.138916 0.080383 0.000000
0.191528 0.080383 0.000000
0.240112 0.080383 0.000000
0.285400 0.080383 0.000000
0.327148 0.080383 0.000000
0.366699 0.080383 0.000000
0.404297 0.080383 0.000000
0.440430 0.080383 0.000000
0.474609 0.080383 0.000000
0.508301 0.080383 0.000000
0.540527 0.080383 0.000000
0.572266 0.080383 0.000000
0.603027 0.080383 0.000000
0.631836 0.080383 0.000000
0.660156 0.080383 0.000000
0.687988 0.080383 0.000000
0.714844 0.080383 0.000000
0.741699 0.080383 0.000000
0.768066 0.080383 0.000000
0.793945 0.080383 0.000000
0.819336 0.080383 0.000000
0.844727 0.080383 0.000000
0.869141 0.080383 0.000000
0.893555 0.080383 0.000000
0.916504 0.080383 0.000000
0.939453 0.080383 0.000000
0.961426 0.080383 0.000000
0.981934 0.080383 0.000000
1.000000 0.080383 0.000000
0.000000 0.130371 0.000000
0.034821 0.130371 0.000000
0.085754 0.130371 0.000000
0.138916 0.130371 0.000000
0.191528 0.130371 0.000000
0.240112 0.130371 0.000000
0.285400 0.130371 0.000000
0.327148 0.130371 0.000000
0.366699 0.130371 0.000000
0.404297 0.130371 0.000000
0.440430 0.130371 0.000000
0.474609 0.130371 0.000000
0.508301 0.130371 0.000000
0.540527 0.130371 0.000000
0.572266 0.130371 0.000000
0.603027 0.130371 0.000000
0.631836 0.130371 0.000000
0.660156 0.130371 0.000000
0.687988 0.130371 0.000000
0.714844 0.130371 0.000000
0.741699 0.130371 0.000000
0.768066 0.130371 0.000000
0.793945 0.130493 0.000000
0.819336 0.130493 0.000000
0.844727 0.130493 0.000000
0.869141 0.130493 0.000000
0.893555 0.130493 0.000000
0.916504 0.130493 0.000000
0.939453 0.130493 0.000000
0.961426 0.130493 0.000000
0.981934 0.130493 0.000000
1.000000 0.130493 0.000000
0.000000 0.180664 0.000000
0.034821 0.180664 0.000000
0.085754 0.180664 0.000000
0.138916 0.180664 0.000000
0.191528 0.180664 0.000000
0.240112 0.180664 0.000000
0.285400 0.180664 0.000000
0.327148 0.180664 0.000000
0.366699 0.180664 0.000000
0.404297 0.180664 0.000000
0.440430 0.180664 0.000000
0.474609 0.180664 0.000000
0.508301 0.180664 0.000000
0.540527 0.180664 0.000000
0.572266 0.180664 0.000000
0.603027 0.180664 0.000000
0.631836 0.180664 0.000000
0.660156 0.180664 0.000000
0.687988 0.180664 0.000000
0.714844 0.180664 0.000000
0.741699 0.180664 0.000000
0.768066 0.180664 0.000000
0.793945 0.180664 0.000000
0.819336 0.180664 0.000000
0.844727 0.180664 0.000000
0.869141 0.180664 0.000000
0.893555 0.180664 0.000000
0.916504 0.180664 0.000000
0.939453 0.180664 0.000000
0.961426 0.180664 0.000000
0.981934 0.180664 0.000000
1.000000 0.180786 0.000000
0.000000 0.230957 0.000000
0.034821 0.230957 0.000000
0.085754 0.230957 0.000000
0.138916 0.230957 0.000000
0.191528 0.230957 0.000000
0.240112 0.230957 0.000000
0.285400 0.230957 0.000000
0.327148 0.230957 0.000000
0.366699 0.230957 0.000000
0.404297 0.230957 0.000000
0.440430 0.230957 0.000000
0.474609 0.230957 0.000000
0.508301 0.230957 0.000000
0.540527 0.230957 0.000000
0.572266 0.230957 0.000000
0.603027 0.230957 0.000000
0.631836 0.230957 0.000000
0.660156 0.230957 0.000000
0.687988 0.230957 0.000000
0.714844 0.230957 0.000000
0.741699 0.230957 0.000000
0.768066 0.230957 0.000000
0.793945 0.230957 0.000000
0.819336 0.230957 0.000000
0.844727 0.230957 0.000000
0.869141 0.230957 0.000000
0.893555 0.230957 0.000000
0.916504 0.230957 0.000000
0.939453 0.230957 0.000000
0.961426 0.230957 0.000000
0.981934 0.230957 0.000000
1.000000 0.230957 0.000000
0.000000 0.278809 0.000000
0.034821 0.278809 0.000000
0.085754 0.278809 0.000000
0.138916 0.278809 0.000000
0.191528 0.278809 0.000000
0.240112 0.278809 0.000000
0.285400 0.278809 0.000000
0.327148 0.278809 0.000000
0.366699 0.278809 0.000000
0.404297 0.278809 0.000000
0.440430 0.278809 0.000000
0.474609 0.278809 0.000000
0.508301 0.278809 0.000000
0.540527 0.278809 0.000000
0.572266 0.278809 0.000000
0.603027 0.278809 0.000000
0.631836 0.278809 0.000000
0.660156 0.278809 0.000000
0.687988 0.278809 0.000000
0.714844 0.278809 0.000000
0.741699 0.278809 0.000000
0.768066 0.278809 0.000000
0.793945 0.278809 0.000000
0.819336 0.278809 0.000000
0.844727 0.278809 0.000000
0.869141 0.278809 0.000000
0.893555 0.278809 0.000000
0.916504 0.278809 0.000000
0.939453 0.278809 0.000000
0.961426 0.278809 0.000000
0.981934 0.278809 0.000000
1.000000 0.278809 0.000000
0.000000 0.324463 0.000000
0.034821 0.324463 0.000000
0.085754 0.324463 0.000000
0.138916 0.324463 0.000000
0.191528 0.324463 0.000000
0.240112 0.324463 0.000000
0.285400 0.324463 0.000000
0.327148 0.324463 0.000000
0.366699 0.324463 0.000000
0.404297 0.324463 0.000000
0.440430 0.324463 0.000000
0.474609 0.324463 0.000000
0.508301 0.324463 0.000000
0.540527 0.324463 0.000000
0.572266 0.324463 0.000000
0.603027 0.324463 0.000000
0.631836 0.324463 0.000000
0.660156 0.324463 0.000000
0.687988 0.324463 0.000000
0.714844 0.324463 0.000000
0.741699 0.324463 0.000000
0.768066 0.324463 0.000000
0.793945 0.324463 0.000000
0.819336 0.324463 0.000000
0.844727 0.324463 0.000000
0.869141 0.324463 0.000000
0.893555 0.324463 0.000000
0.916504 0.324463 0.000000
0.939453 0.324463 0.000000
0.961426 0.324463 0.000000
0.981934 0.324463 0.000000
1.000000 0.324463 0.000000
0.000000 0.367676 0.000000
0.034821 0.367676 0.000000
0.085754 0.367676 0.000000
0.138916 0.367676 0.000000
0.191528 0.367676 0.000000
0.240112 0.367676 0.000000
0.285400 0.367676 0.000000
0.327148 0.367676 0.000000
0.366699 0.367676 0.000000
0.404297 0.367676 0.000000
0.440430 0.367676 0.000000
0.474609 0.367676 0.000000
0.508301 0.367676 0.000000
0.540527 0.367676 0.000000
0.572266 0.367676 0.000000
0.603027 0.367676 0.000000
0.631836 0.367676 0.000000
0.660156 0.367676 0.000000
0.687988 0.367676 0.000000
0.714844 0.367676 0.000000
0.741699 0.367676 0.000000
0.768066 0.367676 0.000000
0.793945 0.367676 0.000000
0.819336 0.367676 0.000000
0.844727 0.367676 0.000000
0.869141 0.367676 0.000000
0.893555 0.367676 0.000000
0.916504 0.367676 0.000000
0.939453 0.367676 0.000000
0.961426 0.367676 0.000000
0.981934 0.367676 0.000000
1.000000 0.367676 0.000000
0.000000 0.408936 0.000000
0.034821 0.408936 0.000000
0.085754 0.408936 0.000000
0.138916 0.408936 0.000000
0.191528 0.408936 0.000000
0.240112 0.408936 0.000000
0.285400 0.408936 0.000000
0.327148 0.408936 0.000000
0.366699 0.408936 0.000000
0.404297 0.408936 0.000000
0.440430 0.408936 0.000000
0.474609 0.408936 0.000000
0.508301 0.408936 0.000000
0.540527 0.408936 0.000000
0.572266 0.408936 0.000000
0.603027 0.408936 0.000000
0.631836 0.408936 0.000000
0.660156 0.408936 0.000000
0.687988 0.408936 0.000000
0.714844 0.408936 0.000000
0.741699 0.408936 0.000000
0.768066 0.408936 0.000000
0.793945 0.408936 0.000000
0.819336 0.408936 0.000000
0.844727 0.408936 0.000000
0.869141 0.408936 0.000000
0.893555 0.408936 0.000000
0.916504 0.408936 0.000000
0.939453 0.408936 0.000000
0.961426 0.408936 0.000000
0.981934 0.408936 0.000000
1.000000 0.408936 0.000000
0.000000 0.447998 0.000000
0.034821 0.447998 0.000000
0.085754 0.447998 0.000000
0.138916 0.447998 0.000000
0.191528 0.447998 0.000000
0.240112 0.447998 0.000000
0.285400 0.447998 0.000000
0.327148 0.447998 0.000000
0.366699 0.447998 0.000000
0.404297 0.447998 0.000000
0.440430 0.447998 0.000000
0.474609 0.447998 0.000000
0.508301 0.447998 0.000000
0.540527 0.447998 0.000000
0.572266 0.447998 0.000000
0.603027 0.447998 0.000000
0.631836 0.447998 0.000000
0.660156 0.447998 0.000000
0.687988 0.447998 0.000000
0.714844 0.447998 0.000000
0.741699 0.447998 0.000000
0.768066 0.447998 0.000000
0.793945 0.447998 0.000000
0.819336 0.447998 0.000000
0.844727 0.447998 0.000000
0.869141 0.447998 0.000000
0.893555 0.447998 0.000000
0.916504 0.447998 0.000000
0.939453 0.447998 0.000000
0.961426 0.447998 0.000000
0.981934 0.447998 0.000000
1.000000 0.447998 0.000000
0.000000 0.485107 0.000000
0.034821 0.485107 0.000000
0.085754 0.485107 0.000000
0.138916 0.485107 0.000000
0.191528 0.485107 0.000000
0.240112 0.485107 0.000000
0.285400 0.485107 0.000000
0.327148 0.485107 0.000000
0.366699 0.485107 0.000000
0.404297 0.485107 0.000000
0.440430 0.485107 0.000000
0.474609 0.485107 0.000000
0.508301 0.485107 0.000000
0.540527 0.485107 0.000000
0.572266 0.485107 0.000000
0.603027 0.485107 0.000000
0.631836 0.485107 0.000000
0.660156 0.485107 0.000000
0.687988 0.485107 0.000000
0.714844 0.485107 0.000000
0.741699 0.485107 0.000000
0.768066 0.485107 0.000000
0.793945 0.485107 0.000000
0.819336 0.485107 0.000000
0.844727 0.485107 0.000000
0.869141 0.485107 0.000000
0.893555 0.485107 0.000000
0.916504 0.485107 0.000000
0.939453 0.485107 0.000000
0.961426 0.485107 0.000000
0.981934 0.485107 0.000000
1.000000 0.485107 0.000000
0.000000 0.520508 0.000000
0.034821 0.520508 0.000000
0.085754 0.520508 0.000000
0.138916 0.520508 0.000000
0.191528 0.520508 0.000000
0.240112 0.520508 0.000000
0.285400 0.520508 0.000000
0.327148 0.520508 0.000000
0.366699 0.520508 0.000000
0.404297 0.520508 0.000000
0.440430 0.520508 0.000000
0.474609 0.520508 0.000000
0.508301 0.520508 0.000000
0.540527 0.520508 0.000000
0.572266 0.520508 0.000000
0.603027 0.520508 0.000000
0.631836 0.520508 0.000000
0.660156 0.520508 0.000000
0.687988 0.520508 0.000000
0.714844 0.520508 0.000000
0.741699 0.520508 0.000000
0.768066 0.520508 0.000000
0.793945 0.520508 0.000000
0.819336 0.520508 0.000000
0.844727 0.520508 0.000000
0.869141 0.520508 0.000000
0.893555 0.520508 0.000000
0.916504 0.520508 0.000000
0.939453 0.520508 0.000000
0.961426 0.520508 0.000000
0.981934 0.520508 0.000000
1.000000 0.520508 0.000000
0.000000 0.553711 0.000000
0.034821 0.553711 0.000000
0.085754 0.553711 0.000000
0.138916 0.553711 0.000000
0.191528 0.553711 0.000000
0.240112 0.553711 0.000000
0.285400 0.553711 0.000000
0.327148 0.553711 0.000000
0.366699 0.553711 0.000000
0.404297 0.553711 0.000000
0.440430 0.553711 0.000000
0.474609 0.553711 0.000000
0.508301 0.553711 0.000000
0.540527 0.553711 0.000000
0.572266 0.553711 0.000000
0.603027 0.553711 0.000000
0.631836 0.553711 0.000000
0.660156 0.553711 0.000000
0.687988 0.553711 0.000000
0.714844 0.553711 0.000000
0.741699 0.553711 0.000000
0.768066 0.553711 0.000000
0.793945 0.553711 0.000000
0.819336 0.553711 0.000000
0.844727 0.553711 0.000000
0.869141 0.553711 0.000000
0.893555 0.553711 0.000000
0.916504 0.553711 0.000000
0.939453 0.553711 0.000000
0.961426 0.553711 0.000000
0.981934 0.553711 0.000000
1.000000 0.553711 0.000000
0.000000 0.585938 0.000000
0.034821 0.585938 0.000000
0.085754 0.585938 0.000000
0.138916 0.585938 0.000000
0.191528 0.585938 0.000000
0.240112 0.585938 0.000000
0.285400 0.585938 0.000000
0.327148 0.585938 0.000000
0.366699 0.585938 0.000000
0.404297 0.585938 0.000000
0.440430 0.585938 0.000000
0.474609 0.585938 0.000000
0.508301 0.585938 0.000000
0.540527 0.585938 0.000000
0.572266 0.585938 0.000000
0.603027 0.585938 0.000000
0.631836 0.585938 0.000000
0.660156 0.585938 0.000000
0.687988 0.585938 0.000000
0.714844 0.585938 0.000000
0.741699 0.585938 0.000000
0.768066 0.585938 0.000000
0.793945 0.585938 0.000000
0.819336 0.585938 0.000000
0.844727 0.585938 0.000000
0.869141 0.585938 0.000000
0.893555 0.585938 0.000000
0.916504 0.585938 0.000000
0.939453 0.585938 0.000000
0.961426 0.585938 0.000000
0.981934 0.585938 0.000000
1.000000 0.585938 0.000000
0.000000 0.616699 0.000000
0.034821 0.616699 0.000000
0.085754 0.616699 0.000000
0.138916 0.616699 0.000000
0.191528 0.616699 0.000000
0.240112 0.616699 0.000000
0.285400 0.616699 0.000000
0.327148 0.616699 0.000000
0.366699 0.616699 0.000000
0.404297 0.616699 0.000000
0.440430 0.616699 0.000000
0.474609 0.616699 0.000000
0.508301 0.616699 0.000000
0.540527 0.616699 0.000000
0.572266 0.616699 0.000000
0.603027 0.616699 0.000000
0.631836 0.616699 0.000000
0.660156 0.616699 0.000000
0.687988 0.616699 0.000000
0.714844 0.616699 0.000000
0.741699 0.616699 0.000000
0.768066 0.616699 0.000000
0.793945 0.616699 0.000000
0.819336 0.616699 0.000000
0.844727 0.616699 0.000000
0.869141 0.616699 0.000000
0.893555 0.616699 0.000000
0.916504 0.616699 0.000000
0.939453 0.616699 0.000000
0.961426 0.616699 0.000000
0.981934 0.616699 0.000000
1.000000 0.616699 0.000000
0.000000 0.645996 0.000000
0.034821 0.645996 0.000000
0.085754 0.645996 0.000000
0.138916 0.645996 0.000000
0.191528 0.645996 0.000000
0.240112 0.645996 0.000000
0.285400 0.645996 0.000000
0.327148 0.645996 0.000000
0.366699 0.645996 0.000000
0.404297 0.645996 0.000000
0.440430 0.645996 0.000000
0.474609 0.645996 0.000000
0.508301 0.645996 0.000000
0.540527 0.645996 0.000000
0.572266 0.645996 0.000000
0.603027 0.646484 0.000000
0.631836 0.646484 0.000000
0.660156 0.646484 0.000000
0.687988 0.646484 0.000000
0.714844 0.646484 0.000000
0.741699 0.646484 0.000000
0.768066 0.646484 0.000000
0.793945 0.646484 0.000000
0.819336 0.646484 0.000000
0.844727 0.646484 0.000000
0.869141 0.646484 0.000000
0.893555 0.646484 0.000000
0.916504 0.646484 0.000000
0.939453 0.646484 0.000000
0.961426 0.646484 0.000000
0.981934 0.646484 0.000000
1.000000 0.646484 0.000000
0.000000 0.674805 0.000000
0.034821 0.674805 0.000000
0.085754 0.674805 0.000000
0.138916 0.674805 0.000000
0.191528 0.674805 0.000000
0.240112 0.674805 0.000000
0.285400 0.674805 0.000000
0.327148 0.674805 0.000000
0.366699 0.674805 0.000000
0.404297 0.674805 0.000000
0.440430 0.674805 0.000000
0.474609 0.674805 0.000000
0.508301 0.674805 0.000000
0.540527 0.674805 0.000000
0.572266 0.674805 0.000000
0.603027 0.674805 0.000000
0.631836 0.674805 0.000000
0.660156 0.674805 0.000000
0.687988 0.674805 0.000000
0.714844 0.674805 0.000000
0.741699 0.674805 0.000000
0.768066 0.674805 0.000000
0.793945 0.674805 0.000000
0.819336 0.674805 0.000000
0.844727 0.674805 0.000000
0.869141 0.674805 0.000000
0.893555 0.674805 0.000000
0.916504 0.674805 0.000000
0.939453 0.674805 0.000000
0.961426 0.674805 0.000000
0.981934 0.674805 0.000000
1.000000 0.674805 0.000000
0.000000 0.702148 0.000000
0.034821 0.702148 0.000000
0.085754 0.702148 0.000000
0.138916 0.702148 0.000000
0.191528 0.702148 0.000000
0.240112 0.702148 0.000000
0.285400 0.702148 0.000000
0.327148 0.702148 0.000000
0.366699 0.702148 0.000000
0.404297 0.702148 0.000000
0.440430 0.702148 0.000000
0.474609 0.702148 0.000000
0.508301 0.702148 0.000000
0.540527 0.702148 0.000000
0.572266 0.702148 0.000000
0.603027 0.702148 0.000000
0.631836 0.702148 0.000000
0.660156 0.702148 0.000000
0.687988 0.702148 0.000000
0.714844 0.702148 0.000000
0.741699 0.702148 0.000000
0.768066 0.702148 0.000000
0.793945 0.702148 0.000000
0.819336 0.702148 0.000000
0.844727 0.702148 0.000000
0.869141 0.702148 0.000000
0.893555 0.702148 0.000000
0.916504 0.702148 0.000000
0.939453 0.702148 0.000000
0.961426 0.702148 0.000000
0.981934 0.702148 0.000000
1.000000 0.702148 0.000000
0.000000 0.729004 0.000000
0.034821 0.729004 0.000000
0.085754 0.729004 0.000000
0.138916 0.729004 0.000000
0.191528 0.729004 0.000000
0.240112 0.729004 0.000000
0.285400 0.729004 0.000000
0.327148 0.729004 0.000000
0.366699 0.729004 0.000000
0.404297 0.729004 0.000000
0.440430 0.729004 0.000000
0.474609 0.729004 0.000000
0.508301 0.729004 0.000000
0.540527 0.729004 0.000000
0.572266 0.729004 0.000000
0.603027 0.729004 0.000000
0.631836 0.729004 0.000000
0.660156 0.729004 0.000000
0.687988 0.729004 0.000000
0.714844 0.729004 0.000000
0.741699 0.729004 0.000000
0.768066 0.729004 0.000000
0.793945 0.729004 0.000000
0.819336 0.729004 0.000000
0.844727 0.729004 0.000000
0.869141 0.729004 0.000000
0.893555 0.729004 0.000000
0.916504 0.729004 0.000000
0.939453 0.729004 0.000000
0.961426 0.729004 0.000000
0.981934 0.729004 0.000000
1.000000 0.729004 0.000000
0.000000 0.754883 0.000000
0.034821 0.754883 0.000000
0.085754 0.754883 0.000000
0.138916 0.754883 0.000000
0.191528 0.754883 0.000000
0.240112 0.754883 0.000000
0.285400 0.754883 0.000000
0.327148 0.754883 0.000000
0.366699 0.754883 0.000000
0.404297 0.754883 0.000000
0.440430 0.754883 0.000000
0.474609 0.754883 0.000000
0.508301 0.754883 0.000000
0.540527 0.754883 0.000000
0.572266 0.754883 0.000000
0.603027 0.754883 0.000000
0.631836 0.754883 0.000000
0.660156 0.754883 0.000000
0.687988 0.754883 0.000000
0.714844 0.754883 0.000000
0.741699 0.754883 0.000000
0.768066 0.754883 0.000000
0.793945 0.754883 0.000000
0.819336 0.754883 0.000000
0.844727 0.754883 0.000000
0.869141 0.754883 0.000000
0.893555 0.754883 0.000000
0.916504 0.754883 0.000000
0.939453 0.754883 0.000000
0.961426 0.754883 0.000000
0.981934 0.754883 0.000000
1.000000 0.754883 0.000000
0.000000 0.779785 0.000000
0.034821 0.779785 0.000000
0.085754 0.779785 0.000000
0.138916 0.779785 0.000000
0.191528 0.779785 0.000000
0.240112 0.779785 0.000000
0.285400 0.779785 0.000000
0.327148 0.779785 0.000000
0.366699 0.779785 0.000000
0.404297 0.779785 0.000000
0.440430 0.779785 0.000000
0.474609 0.779785 0.000000
0.508301 0.779785 0.000000
0.540527 0.779785 0.000000
0.572266 0.779785 0.000000
0.603027 0.779785 0.000000
0.631836 0.779785 0.000000
0.660156 0.779785 0.000000
0.687988 0.779785 0.000000
0.714844 0.779785 0.000000
0.741699 0.779785 0.000000
0.768066 0.779785 0.000000
0.793945 0.779785 0.000000
0.819336 0.779785 0.000000
0.844727 0.779785 0.000000
0.869141 0.779785 0.000000
0.893555 0.779785 0.000000
0.916504 0.779785 0.000000
0.939453 0.779785 0.000000
0.961426 0.779785 0.000000
0.981934 0.779785 0.000000
1.000000 0.779785 0.000000
0.000000 0.804688 0.000000
0.034821 0.804688 0.000000
0.085754 0.804688 0.000000
0.138916 0.804688 0.000000
0.191528 0.804688 0.000000
0.240112 0.804688 0.000000
0.285400 0.804688 0.000000
0.327148 0.804688 0.000000
0.366699 0.804688 0.000000
0.404297 0.804688 0.000000
0.440430 0.804688 0.000000
0.474609 0.804688 0.000000
0.508301 0.804688 0.000000
0.540527 0.804688 0.000000
0.572266 0.804688 0.000000
0.603027 0.804688 0.000000
0.631836 0.804688 0.000000
0.660156 0.804688 0.000000
0.687988 0.804688 0.000000
0.714844 0.804688 0.000000
0.741699 0.804688 0.000000
0.768066 0.804688 0.000000
0.793945 0.804688 0.000000
0.819336 0.804688 0.000000
0.844727 0.804688 0.000000
0.869141 0.804688 0.000000
0.893555 0.804688 0.000000
0.916504 0.804688 0.000000
0.939453 0.804688 0.000000
0.961426 0.804688 0.000000
0.981934 0.804688 0.000000
1.000000 0.804688 0.000000
0.000000 0.828613 0.000000
0.034821 0.828613 0.000000
0.085754 0.828613 0.000000
0.138916 0.828613 0.000000
0.191528 0.828613 0.000000
0.240112 0.828613 0.000000
0.285400 0.828613 0.000000
0.327148 0.828613 0.000000
0.366699 0.828613 0.000000
0.404297 0.828613 0.000000
0.440430 0.828613 0.000000
0.474609 0.828613 0.000000
0.508301 0.828613 0.000000
0.540527 0.828613 0.000000
0.572266 0.828613 0.000000
0.603027 0.828613 0.000000
0.631836 0.828613 0.000000
0.660156 0.828613 0.000000
0.687988 0.828613 0.000000
0.714844 0.828613 0.000000
0.741699 0.828613 0.000000
0.768066 0.828613 0.000000
0.793945 0.828613 0.000000
0.819336 0.828613 0.000000
0.844727 0.828613 0.000000
0.869141 0.828613 0.000000
0.893555 0.828613 0.000000
0.916504 0.828613 0.000000
0.939453 0.828613 0.000000
0.961426 0.828613 0.000000
0.981934 0.828613 0.000000
1.000000 0.828613 0.000000
0.000000 0.852539 0.000000
0.034821 0.852539 0.000000
0.085754 0.852539 0.000000
0.138916 0.852539 0.000000
0.191528 0.852539 0.000000
0.240112 0.852539 0.000000
0.285400 0.852539 0.000000
0.327148 0.852539 0.000000
0.366699 0.852539 0.000000
0.404297 0.852539 0.000000
0.440430 0.852539 0.000000
0.474609 0.852539 0.000000
0.508301 0.852539 0.000000
0.540527 0.852539 0.000000
0.572266 0.852539 0.000000
0.603027 0.852539 0.000000
0.631836 0.852539 0.000000
0.660156 0.852539 0.000000
0.687988 0.852539 0.000000
0.714844 0.852539 0.000000
0.741699 0.852539 0.000000
0.768066 0.852539 0.000000
0.793945 0.852539 0.000000
0.819336 0.852539 0.000000
0.844727 0.852539 0.000000
0.869141 0.852539 0.000000
0.893555 0.852539 0.000000
0.916504 0.852539 0.000000
0.939453 0.852539 0.000000
0.961426 0.852539 0.000000
0.981934 0.852539 0.000000
1.000000 0.852539 0.000000
0.000000 0.875977 0.000000
0.034821 0.875977 0.000000
0.085754 0.875977 0.000000
0.138916 0.875977 0.000000
0.191528 0.875977 0.000000
0.240112 0.875977 0.000000
0.285400 0.875977 0.000000
0.327148 0.875977 0.000000
0.366699 0.875977 0.000000
0.404297 0.875977 0.000000
0.440430 0.875977 0.000000
0.474609 0.875977 0.000000
0.508301 0.875977 0.000000
0.540527 0.875977 0.000000
0.572266 0.875977 0.000000
0.603027 0.875977 0.000000
0.631836 0.875977 0.000000
0.660156 0.875977 0.000000
0.687988 0.875977 0.000000
0.714844 0.875977 0.000000
0.741699 0.875977 0.000000
0.768066 0.875977 0.000000
0.793945 0.875977 0.000000
0.819336 0.875977 0.000000
0.844727 0.875977 0.000000
0.869141 0.875977 0.000000
0.893555 0.875977 0.000000
0.916504 0.875977 0.000000
0.939453 0.875977 0.000000
0.961426 0.875977 0.000000
0.981934 0.875977 0.000000
1.000000 0.875977 0.000000
0.000000 0.898438 0.000000
0.034821 0.898438 0.000000
0.085754 0.898438 0.000000
0.138916 0.898438 0.000000
0.191528 0.898438 0.000000
0.240112 0.898438 0.000000
0.285400 0.898438 0.000000
0.327148 0.898438 0.000000
0.366699 0.898438 0.000000
0.404297 0.898438 0.000000
0.440430 0.898438 0.000000
0.474609 0.898438 0.000000
0.508301 0.898438 0.000000
0.540527 0.898438 0.000000
0.572266 0.898438 0.000000
0.603027 0.898438 0.000000
0.631836 0.898438 0.000000
0.660156 0.898438 0.000000
0.687988 0.898438 0.000000
0.714844 0.898438 0.000000
0.741699 0.898438 0.000000
0.768066 0.898438 0.000000
0.793945 0.898438 0.000000
0.819336 0.898438 0.000000
0.844727 0.898438 0.000000
0.869141 0.898438 0.000000
0.893555 0.898438 0.000000
0.916504 0.898438 0.000000
0.939453 0.898438 0.000000
0.961426 0.898926 0.000000
0.981934 0.898926 0.000000
1.000000 0.898926 0.000000
0.000000 0.920898 0.000000
0.034821 0.920898 0.000000
0.085754 0.920898 0.000000
0.138916 0.920898 0.000000
0.191528 0.920898 0.000000
0.240112 0.920898 0.000000
0.285400 0.920898 0.000000
0.327148 0.920898 0.000000
0.366699 0.920898 0.000000
0.404297 0.920898 0.000000
0.440430 0.920898 0.000000
0.474609 0.920898 0.000000
0.508301 0.920898 0.000000
0.540527 0.920898 0.000000
0.572266 0.920898 0.000000
0.603027 0.920898 0.000000
0.631836 0.920898 0.000000
0.660156 0.920898 0.000000
0.687988 0.920898 0.000000
0.714844 0.920898 0.000000
0.741699 0.920898 0.000000
0.768066 0.920898 0.000000
0.793945 0.920898 0.000000
