cubelut/Adanmq_Portra 800.cube
TITLE "Generated by Foundry::LUT"
LUT_3D_SIZE 5
DOMAIN_MIN 0.000000 0.000000 0.000000
DOMAIN_MAX 0.903226 0.903226 0.903226
0.000000 0.000000 0.000000
0.193237 0.000000 0.000000
0.432373 0.000000 0.000000
0.668945 0.000000 0.000000
0.907715 0.000000 0.000000
0.000000 0.181396 0.000000
0.193237 0.181396 0.000000
0.432373 0.181396 0.000000
0.668945 0.181396 0.000000
0.907715 0.181396 0.000000
0.000000 0.418213 0.000000
0.193237 0.418213 0.000000
0.432373 0.418213 0.000000
0.668945 0.418213 0.000000
0.907715 0.418213 0.000000
0.000000 0.663086 0.000000
0.193237 0.663086 0.000000
0.432373 0.663086 0.000000
0.668945 0.663086 0.000000
0.907715 0.663086 0.000000
0.000000 0.910156 0.000000
0.193237 0.910156 0.000000
0.432373 0.910156 0.000000
0.668945 0.910156 0.000000
0.907715 0.910156 0.000000
0.000000 0.000000 0.181274
0.193237 0.000000 0.181274
0.432373 0.000000 0.181274
0.668945 0.000000 0.181274
0.907715 0.000000 0.181274
0.000000 0.181396 0.181274
0.193237 0.181396 0.181274
0.432373 0.181396 0.181274
0.668945 0.181396 0.181274
0.907715 0.181396 0.181274
0.000000 0.418213 0.181274
0.193237 0.418213 0.181274
0.432373 0.418213 0.181274
0.668945 0.418213 0.181274
0.907715 0.418213 0.181274
0.000000 0.663086 0.181274
0.193237 0.663086 0.181274
0.432373 0.663086 0.181274
0.668945 0.663086 0.181274
0.907715 0.663086 0.181274
0.000000 0.910156 0.181274
0.193237 0.910156 0.181274
0.432373 0.910156 0.181274
0.668945 0.910156 0.181274
0.907715 0.910156 0.181274
0.000000 0.000000 0.417969
0.193359 0.000000 0.417969
0.432373 0.000000 0.417969
0.668945 0.000000 0.417969
0.907715 0.000000 0.417969
0.000000 0.181396 0.417969
0.193359 0.181396 0.417969
0.432373 0.181396 0.417969
0.668945 0.181396 0.417969
0.907715 0.181396 0.417969
0.000000 0.418213 0.417969
0.193359 0.418213 0.417969
0.432373 0.418213 0.417969
0.668945 0.418213 0.417969
0.907715 0.418213 0.417969
0.000000 0.663086 0.417969
0.193359 0.663086 0.417969
0.432373 0.663086 0.417969
0.668945 0.663086 0.417969
0.907715 0.663086 0.417969
0.000000 0.910156 0.417969
0.193359 0.910156 0.417969
0.432373 0.910156 0.417969
0.668945 0.910156 0.417969
0.907715 0.910156 0.417969
0.000000 0.000000 0.662598
0.193359 0.000000 0.662598
0.432373 0.000000 0.662598
0.668945 0.000000 0.662598
0.907715 0.000000 0.662598
0.000000 0.181396 0.662598
0.193359 0.181396 0.662598
0.432373 0.181396 0.662598
0.668945 0.181396 0.662598
0.907715 0.181396 0.662598
0.000000 0.418213 0.662598
0.193359 0.418213 0.662598
0.432373 0.418213 0.662598
0.668945 0.418213 0.662598
0.907715 0.418213 0.662598
0.000000 0.663086 0.662598
0.193359 0.663086 0.662598
0.432373 0.663086 0.662598
0.668945 0.663086 0.662598
0.907715 0.663086 0.662598
0.000000 0.910156 0.662598
0.193359 0.910156 0.662598
0.432373 0.910156 0.662598
0.668945 0.910156 0.662598
0.907715 0.910156 0.662598
0.000001 0.000000 0.909668
0.193359 0.000000 0.909668
0.432373 0.000000 0.909668
0.668945 0.000000 0.909668
0.908203 0.000000 0.909668
0.000001 0.181396 0.910156
0.193359 0.181396 0.910156
0.432373 0.181396 0.910156
0.668945 0.181396 0.910156
0.908203 0.181396 0.910156
0.000001 0.418213 0.910156
0.193359 0.418213 0.910156
0.432373 0.418213 0.910156
0.668945 0.418213 0.910156
0.908203 0.418213 0.910156
0.000001 0.663086 0.910156
0.193359 0.663086 0.910156
0.432373 0.663086 0.910156
0.668945 0.663086 0.910156
0.908203 0.663086 0.910156
0.000001 0.910156 0.910156
0.193359 0.910156 0.910156
0.432373 0.910156 0.910156
0.668945 0.910156 0.910156
0.908203 0.910156 0.910156
