cubelut/Adanmq_FCI.cube
TITLE "Generated by Foundry::LUT"
LUT_3D_SIZE 8
DOMAIN_MIN 0.000000 0.000000 0.000000
DOMAIN_MAX 0.903226 0.903226 0.903226
0.000000 0.000000 0.000000
0.060730 0.000000 0.000000
0.167725 0.000000 0.000000
0.297852 0.000000 0.000000
0.441406 0.000000 0.000000
0.594238 0.000000 0.000000
0.750000 0.000000 0.000000
0.898438 0.000000 0.000000
0.000000 0.066589 0.000000
0.060730 0.066589 0.000000
0.167725 0.066589 0.000000
0.297852 0.066589 0.000000
0.441406 0.066589 0.000000
0.594238 0.066589 0.000000
0.750000 0.066589 0.000000
0.898438 0.066589 0.000000
0.000000 0.179199 0.000000
0.060730 0.179199 0.000000
0.167725 0.179199 0.000000
0.297852 0.179199 0.000000
0.441406 0.179199 0.000000
0.594238 0.179199 0.000000
0.750000 0.179199 0.000000
0.898438 0.179199 0.000000
0.000000 0.313477 0.000000
0.060730 0.313477 0.000000
0.167725 0.313477 0.000000
0.297852 0.313477 0.000000
0.441406 0.313477 0.000000
0.594238 0.313477 0.000000
0.750000 0.313477 0.000000
0.898438 0.313477 0.000000
0.000000 0.460938 0.000000
0.060730 0.460938 0.000000
0.167725 0.460938 0.000000
0.297852 0.460938 0.000000
0.441406 0.460938 0.000000
0.594238 0.460938 0.000000
0.750000 0.460938 0.000000
0.898438 0.460938 0.000000
0.000000 0.613281 0.000000
0.060730 0.613281 0.000000
0.167725 0.613281 0.000000
0.297852 0.613281 0.000000
0.441406 0.613281 0.000000
0.594238 0.613281 0.000000
0.750000 0.613281 0.000000
0.898438 0.613281 0.000000
0.000000 0.765625 0.000000
0.060730 0.765625 0.000000
0.167725 0.765625 0.000000
0.297852 0.765625 0.000000
0.441406 0.765625 0.000000
0.594238 0.765625 0.000000
0.750000 0.765625 0.000000
0.898438 0.765625 0.000000
0.000000 0.908203 0.000000
0.060730 0.908203 0.000000
0.167725 0.908203 0.000000
0.297852 0.908203 0.000000
0.441406 0.908203 0.000000
0.594238 0.908203 0.000000
0.750000 0.908203 0.000000
0.898438 0.908203 0.000000
0.000000 0.000000 0.046387
0.060760 0.000000 0.046387
0.167725 0.000000 0.046387
0.297852 0.000000 0.046387
0.441406 0.000000 0.046387
0.594238 0.000000 0.046387
0.750000 0.000000 0.046387
0.898438 0.000000 0.046387
0.000000 0.066589 0.046387
0.060760 0.066589 0.046387
0.167725 0.066589 0.046387
0.297852 0.066589 0.046387
0.441406 0.066589 0.046387
0.594238 0.066589 0.046387
0.750000 0.066589 0.046387
0.898438 0.066589 0.046387
0.000000 0.179199 0.046387
0.060760 0.179199 0.046387
0.167725 0.179199 0.046387
0.297852 0.179199 0.046387
0.441406 0.179199 0.046387
0.594238 0.179199 0.046387
0.750000 0.179199 0.046387
0.898438 0.179199 0.046387
0.000000 0.313477 0.046387
0.060760 0.313477 0.046387
0.167725 0.313477 0.046387
0.297852 0.313477 0.046387
0.441406 0.313477 0.046387
0.594238 0.313477 0.046387
0.750000 0.313477 0.046387
0.898438 0.313477 0.046387
0.000000 0.460938 0.046387
0.060760 0.460938 0.046387
0.167725 0.460938 0.046387
0.297852 0.460938 0.046387
0.441406 0.460938 0.046387
0.594238 0.460938 0.046387
0.750000 0.460938 0.046387
0.898438 0.460938 0.046387
0.000000 0.612793 0.046387
0.060760 0.613281 0.046387
0.167725 0.613281 0.046387
0.297852 0.613281 0.046387
0.441406 0.613281 0.046387
0.594238 0.613281 0.046387
0.750000 0.613281 0.046387
0.898438 0.613281 0.046387
0.000000 0.765625 0.046387
0.060760 0.765625 0.046387
0.167725 0.765625 0.046387
0.297852 0.765625 0.046387
0.441406 0.765625 0.046387
0.594238 0.765625 0.046387
0.750000 0.765625 0.046387
0.898438 0.765625 0.046387
0.000000 0.908203 0.046387
0.060760 0.908203 0.046387
0.167725 0.908203 0.046387
0.297852 0.908203 0.046387
0.441406 0.908203 0.046387
0.594238 0.908203 0.046387
0.750000 0.908203 0.046387
0.898438 0.908203 0.046387
0.000000 0.000000 0.134888
0.060760 0.000000 0.134888
0.167725 0.000000 0.134888
0.297852 0.000000 0.134888
0.441406 0.000000 0.134888
0.594238 0.000000 0.134888
0.750000 0.000000 0.134888
0.898438 0.000000 0.134888
0.000000 0.066589 0.134888
0.060760 0.066589 0.134888
0.167725 0.066589 0.134888
0.297852 0.066589 0.134888
0.441406 0.066589 0.134888
0.594238 0.066589 0.134888
0.750000 0.066589 0.134888
0.898438 0.066589 0.134888
0.000000 0.179199 0.134888
0.060760 0.179199 0.134888
0.167725 0.179199 0.134888
0.297852 0.179199 0.134888
0.441406 0.179199 0.134888
0.594238 0.179199 0.134888
0.750000 0.179199 0.134888
0.898438 0.179199 0.134888
0.000000 0.313477 0.134888
0.060760 0.313477 0.134888
0.167725 0.313477 0.134888
0.297852 0.313477 0.134888
0.441406 0.313477 0.134888
0.594238 0.313477 0.134888
0.750000 0.313477 0.134888
0.898438 0.313477 0.134888
0.000000 0.460938 0.134888
0.060760 0.460938 0.134888
0.167725 0.460938 0.134888
0.297852 0.460938 0.134888
0.441406 0.460938 0.134888
0.594238 0.460938 0.134888
0.750000 0.460938 0.134888
0.898438 0.460938 0.134888
0.000000 0.612793 0.134888
0.060760 0.612793 0.134888
0.167725 0.613281 0.134888
0.297852 0.613281 0.134888
0.441406 0.613281 0.134888
0.594238 0.613281 0.134888
0.750000 0.613281 0.134888
0.898438 0.613281 0.134888
0.000000 0.765625 0.134888
0.060760 0.765625 0.134888
0.167725 0.765625 0.134888
0.297852 0.765625 0.134888
0.441406 0.765625 0.134888
0.594238 0.765625 0.134888
0.750000 0.765625 0.134888
0.898438 0.765625 0.134888
0.000000 0.908203 0.134888
0.060760 0.908203 0.134888
0.167725 0.908203 0.134888
0.297852 0.908203 0.134888
0.441406 0.908203 0.134888
0.594238 0.908203 0.134888
0.750000 0.908203 0.134888
0.898438 0.908203 0.134888
0.000000 0.000000 0.250732
0.060791 0.000000 0.250732
0.167725 0.000000 0.250732
0.297852 0.000000 0.250732
0.441406 0.000000 0.250732
0.594238 0.000000 0.250732
0.750000 0.000000 0.250732
0.898438 0.000000 0.250732
0.000000 0.066589 0.250732
0.060791 0.066589 0.250732
0.167725 0.066589 0.250732
0.297852 0.066589 0.250732
0.441406 0.066589 0.250732
0.594238 0.066589 0.250732
0.750000 0.066589 0.250732
0.898438 0.066589 0.250732
0.000000 0.179199 0.250732
0.060791 0.179199 0.250732
0.167725 0.179199 0.250732
0.297852 0.179199 0.250732
0.441406 0.179199 0.250732
0.594238 0.179199 0.250732
0.750000 0.179199 0.250732
0.898438 0.179199 0.250732
0.000000 0.313477 0.250732
0.060791 0.313477 0.250732
0.167725 0.313477 0.250732
0.297852 0.313477 0.250732
0.441406 0.313477 0.250732
0.594238 0.313477 0.250732
0.750000 0.313477 0.250732
0.898438 0.313477 0.250732
0.000000 0.460938 0.250732
0.060791 0.460938 0.250732
0.167725 0.460938 0.250732
0.297852 0.460938 0.250732
0.441406 0.460938 0.250732
0.594238 0.460938 0.250732
0.750000 0.460938 0.250732
0.898438 0.460938 0.250732
0.000000 0.612793 0.250732
0.060791 0.612793 0.250732
0.167725 0.612793 0.250732
0.297852 0.613281 0.250732
0.441406 0.613281 0.250732
0.594238 0.613281 0.250732
0.750000 0.613281 0.250732
0.898438 0.613281 0.250732
0.000000 0.765625 0.250732
0.060791 0.765625 0.250732
0.167725 0.765625 0.250732
0.297852 0.765625 0.250732
0.441406 0.765625 0.250732
0.594238 0.765625 0.250732
0.750000 0.765625 0.250732
0.898438 0.765625 0.250732
0.000000 0.908203 0.250732
0.060791 0.908203 0.250732
0.167725 0.908203 0.250732
0.297852 0.908203 0.250732
0.441406 0.908203 0.250732
0.594238 0.908203 0.250732
0.750000 0.908203 0.250732
0.898438 0.908203 0.250732
0.000000 0.000000 0.387695
0.060791 0.000000 0.387695
0.167725 0.000000 0.387695
0.297852 0.000000 0.387695
0.441406 0.000000 0.387695
0.594238 0.000000 0.387695
0.750000 0.000000 0.387695
0.898438 0.000000 0.387695
0.000000 0.066589 0.387695
0.060791 0.066589 0.387695
0.167725 0.066589 0.387695
0.297852 0.066589 0.387695
0.441406 0.066589 0.387695
0.594238 0.066589 0.387695
0.750000 0.066589 0.387695
0.898438 0.066589 0.387695
0.000000 0.179199 0.387695
0.060791 0.179199 0.387695
0.167725 0.179199 0.387695
0.297852 0.179199 0.387695
0.441406 0.179199 0.387695
0.594238 0.179199 0.387695
0.750000 0.179199 0.387695
0.898438 0.179199 0.387695
0.000000 0.313477 0.387695
0.060791 0.313477 0.387695
0.167725 0.313477 0.387695
0.297852 0.313477 0.387695
0.441406 0.313477 0.387695
0.594238 0.313477 0.387695
0.750000 0.313477 0.387695
0.898438 0.313477 0.387695
0.000000 0.460938 0.387695
0.060791 0.460938 0.387695
0.167725 0.460938 0.387695
0.297852 0.460938 0.387695
0.441406 0.460938 0.387695
0.594238 0.460938 0.387695
0.750000 0.460938 0.387695
0.898438 0.460938 0.387695
0.000000 0.612793 0.387695
0.060791 0.612793 0.387695
0.167725 0.612793 0.387695
0.297852 0.612793 0.387695
0.441406 0.613281 0.387695
0.594238 0.613281 0.387695
0.750000 0.613281 0.387695
0.898438 0.613281 0.387695
0.000000 0.765625 0.387695
0.060791 0.765625 0.387695
0.167725 0.765625 0.387695
0.297852 0.765625 0.387695
0.441406 0.765625 0.387695
0.594238 0.765625 0.387695
0.750000 0.765625 0.387695
0.898438 0.765625 0.387695
0.000000 0.908203 0.387695
0.060791 0.908203 0.387695
0.167725 0.908203 0.387695
0.297852 0.908203 0.387695
0.441406 0.908203 0.387695
0.594238 0.908203 0.387695
0.750000 0.908203 0.387695
0.898438 0.908203 0.387695
0.000000 0.000000 0.540527
0.060822 0.000000 0.540527
0.167725 0.000000 0.540527
0.297852 0.000000 0.540527
0.441650 0.000000 0.540527
0.594727 0.000000 0.540527
0.750000 0.000000 0.540527
0.898438 0.000000 0.540527
0.000000 0.066589 0.540527
0.060822 0.066589 0.540527
0.167725 0.066589 0.540527
0.297852 0.066589 0.540527
0.441650 0.066589 0.540527
0.594727 0.066589 0.540527
0.750000 0.066589 0.540527
0.898438 0.066589 0.540527
0.000000 0.179199 0.540527
0.060822 0.179199 0.540527
0.167725 0.179199 0.540527
0.297852 0.179199 0.540527
0.441650 0.179199 0.540527
0.594727 0.179199 0.540527
0.750000 0.179199 0.540527
0.898438 0.179199 0.540527
0.000000 0.313477 0.540527
0.060822 0.313477 0.540527
0.167725 0.313477 0.540527
0.297852 0.313477 0.540527
0.441650 0.313477 0.540527
0.594727 0.313477 0.540527
0.750000 0.313477 0.540527
0.898438 0.313477 0.540527
0.000000 0.460938 0.540527
0.060822 0.460938 0.540527
0.167725 0.460938 0.540527
0.297852 0.460938 0.540527
0.441650 0.460938 0.540527
0.594727 0.460938 0.540527
0.750000 0.460938 0.540527
0.898438 0.460938 0.540527
0.000000 0.612793 0.540527
0.060822 0.612793 0.540527
0.167725 0.612793 0.540527
0.297852 0.612793 0.540527
0.441650 0.612793 0.540527
0.594727 0.613281 0.540527
0.750000 0.613281 0.540527
0.898438 0.613281 0.540527
0.000000 0.765625 0.540527
0.060822 0.765625 0.540527
0.167725 0.765625 0.540527
0.297852 0.765625 0.540527
0.441650 0.765625 0.540527
0.594727 0.765625 0.540527
0.750000 0.765625 0.540527
0.898438 0.765625 0.540527
0.000000 0.908203 0.540527
0.060822 0.908203 0.540527
0.167725 0.908203 0.540527
0.297852 0.908203 0.540527
0.441650 0.908203 0.540527
0.594727 0.908203 0.540527
0.750000 0.908203 0.540527
0.898438 0.908203 0.540527
0.000000 0.000000 0.706543
0.060822 0.000000 0.706543
0.167847 0.000000 0.706543
0.297852 0.000000 0.706543
0.441650 0.000000 0.706543
0.594727 0.000000 0.706543
0.750000 0.000000 0.706543
0.898438 0.000000 0.706543
0.000000 0.066589 0.706543
0.060822 0.066589 0.706543
0.167847 0.066589 0.706543
0.297852 0.066589 0.706543
0.441650 0.066589 0.706543
0.594727 0.066589 0.706543
0.750000 0.066589 0.706543
0.898438 0.066589 0.706543
0.000000 0.179199 0.706543
0.060822 0.179199 0.706543
0.167847 0.179199 0.706543
0.297852 0.179199 0.706543
0.441650 0.179199 0.706543
0.594727 0.179199 0.706543
0.750000 0.179199 0.706543
0.898438 0.179199 0.706543
0.000000 0.313477 0.706543
0.060822 0.313477 0.706543
0.167847 0.313477 0.706543
0.297852 0.313477 0.706543
0.441650 0.313477 0.706543
0.594727 0.313477 0.706543
0.750000 0.313477 0.706543
0.898438 0.313477 0.706543
0.000000 0.460938 0.706543
0.060822 0.460938 0.706543
0.167847 0.460938 0.706543
0.297852 0.460938 0.706543
0.441650 0.460938 0.706543
0.594727 0.460938 0.706543
0.750000 0.460938 0.706543
0.898438 0.460938 0.706543
0.000000 0.612793 0.706543
0.060822 0.612793 0.706543
0.167847 0.612793 0.706543
0.297852 0.612793 0.706543
0.441650 0.612793 0.706543
0.594727 0.612793 0.706543
0.750000 0.613281 0.706543
0.898438 0.613281 0.706543
0.000000 0.765625 0.706543
0.060822 0.765625 0.706543
0.167847 0.765625 0.706543
0.297852 0.765625 0.706543
0.441650 0.765625 0.706543
0.594727 0.765625 0.706543
0.750000 0.765625 0.706543
0.898438 0.765625 0.706543
0.000000 0.908203 0.706543
0.060822 0.908203 0.706543
0.167847 0.908203 0.706543
0.297852 0.908203 0.706543
0.441650 0.908203 0.706543
0.594727 0.908203 0.706543
0.750000 0.908203 0.706543
0.898438 0.908203 0.706543
0.000000 0.000000 0.879883
0.060852 0.000000 0.879883
0.167847 0.000000 0.879883
0.297852 0.000000 0.879883
0.441650 0.000000 0.879883
0.594727 0.000000 0.879883
0.750000 0.000000 0.879883
0.898438 0.000000 0.879883
0.000000 0.066589 0.879883
0.060852 0.066589 0.879883
0.167847 0.066589 0.879883
0.297852 0.066589 0.879883
0.441650 0.066589 0.879883
0.594727 0.066589 0.879883
0.750000 0.066589 0.879883
0.898438 0.066589 0.879883
0.000000 0.179199 0.879883
0.060852 0.179199 0.879883
0.167847 0.179199 0.879883
0.297852 0.179199 0.879883
0.441650 0.179199 0.879883
0.594727 0.179199 0.879883
0.750000 0.179199 0.879883
0.898438 0.179199 0.879883
0.000000 0.313477 0.879883
0.060852 0.313477 0.879883
0.167847 0.313477 0.879883
0.297852 0.313477 0.879883
0.441650 0.313477 0.879883
0.594727 0.313477 0.879883
0.750000 0.313477 0.879883
0.898438 0.313477 0.879883
0.000000 0.460938 0.879883
0.060852 0.460938 0.879883
0.167847 0.460938 0.879883
0.297852 0.460938 0.879883
0.441650 0.460938 0.879883
0.594727 0.460938 0.879883
0.750000 0.460938 0.879883
0.898438 0.460938 0.879883
0.000000 0.612793 0.879883
0.060852 0.612793 0.879883
0.167847 0.612793 0.879883
0.297852 0.612793 0.879883
0.441650 0.612793 0.879883
0.594727 0.612793 0.879883
0.750000 0.612793 0.879883
0.898438 0.613281 0.879883
0.000000 0.765625 0.879883
0.060852 0.765625 0.879883
0.167847 0.765625 0.879883
0.297852 0.765625 0.879883
0.441650 0.765625 0.879883
0.594727 0.765625 0.879883
0.750000 0.765625 0.879883
0.898438 0.765625 0.879883
0.000000 0.908203 0.879883
0.060852 0.908203 0.879883
0.167847 0.908203 0.879883
0.297852 0.908203 0.879883
0.441650 0.908203 0.879883
0.594727 0.908203 0.879883
0.750000 0.908203 0.879883
0.898438 0.908203 0.879883
