cubelut/Adanmq_Portra 160v.cube
TITLE "Generated by Foundry::LUT"
LUT_3D_SIZE 5
DOMAIN_MIN 0.000000 0.000000 0.000000
DOMAIN_MAX 0.903226 0.903226 0.903226
0.000000 0.000000 0.000000
0.143677 0.000000 0.000000
0.357910 0.000000 0.000000
0.609375 0.000000 0.000000
0.884277 0.000000 0.000000
0.000000 0.134399 0.000000
0.143677 0.134399 0.000000
0.357910 0.134399 0.000000
0.609375 0.134399 0.000000
0.884277 0.134399 0.000000
0.000000 0.347168 0.000000
0.143677 0.347168 0.000000
0.357910 0.347168 0.000000
0.609375 0.347168 0.000000
0.884277 0.347168 0.000000
0.000000 0.600098 0.000000
0.143677 0.600098 0.000000
0.357910 0.600098 0.000000
0.609375 0.600098 0.000000
0.884277 0.600098 0.000000
0.000000 0.884766 0.000000
0.143677 0.884766 0.000000
0.357910 0.884766 0.000000
0.609375 0.884766 0.000000
0.884277 0.884766 0.000000
0.000000 0.000000 0.111328
0.143677 0.000000 0.111328
0.357910 0.000000 0.111328
0.609375 0.000000 0.111328
0.884766 0.000000 0.111328
0.000000 0.134399 0.111328
0.143677 0.134399 0.111328
0.357910 0.134399 0.111328
0.609375 0.134399 0.111328
0.884766 0.134399 0.111328
0.000000 0.347168 0.111328
0.143677 0.347168 0.111328
0.357910 0.347168 0.111328
0.609375 0.347168 0.111328
0.884766 0.347168 0.111328
0.000000 0.600098 0.111328
0.143677 0.600098 0.111328
0.357910 0.600098 0.111328
0.609375 0.600098 0.111328
0.884766 0.600098 0.111328
0.000000 0.884766 0.111328
0.143677 0.884766 0.111328
0.357910 0.884766 0.111328
0.609375 0.884766 0.111328
0.884766 0.884766 0.111328
0.000000 0.000000 0.313965
0.143677 0.000000 0.313965
0.357910 0.000000 0.313965
0.609375 0.000000 0.313965
0.884766 0.000000 0.313965
0.000000 0.134399 0.313965
0.143677 0.134399 0.313965
0.357910 0.134399 0.313965
0.609375 0.134399 0.313965
0.884766 0.134399 0.313965
0.000000 0.347168 0.313965
0.143677 0.347168 0.313965
0.357910 0.347168 0.313965
0.609375 0.347168 0.313965
0.884766 0.347168 0.313965
0.000000 0.600098 0.313965
0.143677 0.600098 0.313965
0.357910 0.600098 0.313965
0.609375 0.600098 0.313965
0.884766 0.600098 0.313965
0.000000 0.884766 0.313965
0.143677 0.884766 0.313965
0.357910 0.884766 0.313965
0.609375 0.884766 0.313965
0.884766 0.884766 0.313965
0.000000 0.000000 0.572754
0.143799 0.000000 0.572754
0.357910 0.000000 0.572754
0.609863 0.000000 0.572754
0.884766 0.000000 0.572754
0.000000 0.134399 0.572754
0.143799 0.134399 0.572754
0.357910 0.134399 0.572754
0.609863 0.134399 0.572754
0.884766 0.134399 0.572754
0.000000 0.347168 0.572754
0.143799 0.347168 0.572754
0.357910 0.347168 0.572754
0.609863 0.347168 0.572754
0.884766 0.347168 0.572754
0.000000 0.600098 0.572754
0.143799 0.600098 0.572754
0.357910 0.600098 0.572754
0.609863 0.600098 0.572754
0.884766 0.600098 0.572754
0.000000 0.884766 0.572754
0.143799 0.884766 0.572754
0.357910 0.884766 0.572754
0.609863 0.884766 0.572754
0.884766 0.884766 0.572754
0.000000 0.000000 0.876465
0.143799 0.000000 0.876465
0.357910 0.000000 0.876465
0.609863 0.000000 0.876465
0.884766 0.000000 0.876465
0.000000 0.134399 0.876465
0.143799 0.134399 0.876465
0.357910 0.134399 0.876465
0.609863 0.134399 0.876465
0.884766 0.134399 0.876465
0.000000 0.347168 0.876465
0.143799 0.347168 0.876465
0.357910 0.347168 0.876465
0.609863 0.347168 0.876465
0.884766 0.347168 0.876465
0.000000 0.600098 0.876465
0.143799 0.600098 0.876465
0.357910 0.600098 0.876465
0.609863 0.600098 0.876465
0.884766 0.600098 0.876465
0.000000 0.884766 0.876465
0.143799 0.884766 0.876465
0.357910 0.884766 0.876465
0.609863 0.884766 0.876465
0.884766 0.884766 0.876465
