cubelut/Adanmq_AgfaColor Futura II 100.cube
TITLE "Generated by Foundry::LUT"
LUT_3D_SIZE 8
DOMAIN_MIN 0.000000 0.000000 0.000000
DOMAIN_MAX 0.903226 0.903226 0.903226
0.000000 0.000000 0.000000
0.115540 0.000000 0.000000
0.267090 0.000000 0.000000
0.421387 0.000000 0.000000
0.574707 0.000000 0.000000
0.715820 0.000000 0.000000
0.837891 0.000000 0.000000
0.940430 0.000000 0.000000
0.000000 0.111389 0.000000
0.115540 0.111389 0.000000
0.267090 0.111389 0.000000
0.421387 0.111389 0.000000
0.574707 0.111389 0.000000
0.715820 0.111389 0.000000
0.837891 0.111389 0.000000
0.940430 0.111389 0.000000
0.000000 0.262695 0.000000
0.115540 0.262695 0.000000
0.267090 0.262695 0.000000
0.421387 0.262695 0.000000
0.574707 0.262695 0.000000
0.715820 0.262695 0.000000
0.837891 0.262695 0.000000
0.940430 0.262695 0.000000
0.000000 0.414307 0.000000
0.115540 0.414307 0.000000
0.267090 0.414307 0.000000
0.421387 0.414307 0.000000
0.574707 0.414307 0.000000
0.715820 0.414307 0.000000
0.837891 0.414307 0.000000
0.940430 0.414307 0.000000
0.000000 0.559570 0.000000
0.115540 0.559570 0.000000
0.267090 0.559570 0.000000
0.421387 0.559570 0.000000
0.574707 0.559570 0.000000
0.715820 0.559570 0.000000
0.837891 0.559570 0.000000
0.940430 0.559570 0.000000
0.000000 0.695801 0.000000
0.115540 0.695801 0.000000
0.267090 0.695801 0.000000
0.421387 0.695801 0.000000
0.574707 0.695801 0.000000
0.715820 0.695801 0.000000
0.837891 0.695801 0.000000
0.940430 0.695801 0.000000
0.000000 0.821289 0.000000
0.115540 0.821289 0.000000
0.267090 0.821289 0.000000
0.421387 0.821289 0.000000
0.574707 0.821289 0.000000
0.715820 0.821289 0.000000
0.837891 0.821289 0.000000
0.940430 0.821289 0.000000
0.000000 0.933594 0.000000
0.115540 0.933594 0.000000
0.267090 0.933594 0.000000
0.421387 0.933594 0.000000
0.574707 0.933594 0.000000
0.715820 0.933594 0.000000
0.837891 0.933594 0.000000
0.940430 0.933594 0.000000
0.000000 0.000000 0.087280
0.115601 0.000000 0.087280
0.267090 0.000000 0.087280
0.421387 0.000000 0.087280
0.574707 0.000000 0.087280
0.715820 0.000000 0.087280
0.838379 0.000000 0.087280
0.940430 0.000000 0.087280
0.000000 0.111389 0.087280
0.115601 0.111389 0.087280
0.267090 0.111389 0.087280
0.421387 0.111389 0.087280
0.574707 0.111389 0.087280
0.715820 0.111389 0.087280
0.838379 0.111389 0.087280
0.940430 0.111389 0.087280
0.000000 0.262695 0.087280
0.115601 0.262695 0.087280
0.267090 0.262695 0.087280
0.421387 0.262695 0.087280
0.574707 0.262695 0.087280
0.715820 0.262695 0.087280
0.838379 0.262695 0.087280
0.940430 0.262695 0.087280
0.000000 0.414307 0.087280
0.115601 0.414307 0.087280
0.267090 0.414307 0.087280
0.421387 0.414307 0.087280
0.574707 0.414307 0.087280
0.715820 0.414307 0.087280
0.838379 0.414307 0.087280
0.940430 0.414307 0.087280
0.000000 0.559570 0.087280
0.115601 0.559570 0.087280
0.267090 0.559570 0.087280
0.421387 0.559570 0.087280
0.574707 0.559570 0.087280
0.715820 0.559570 0.087280
0.838379 0.559570 0.087280
0.940430 0.559570 0.087280
0.000000 0.695801 0.087280
0.115601 0.695801 0.087280
0.267090 0.695801 0.087280
0.421387 0.695801 0.087280
0.574707 0.695801 0.087280
0.715820 0.695801 0.087280
0.838379 0.695801 0.087280
0.940430 0.695801 0.087280
0.000000 0.821289 0.087280
0.115601 0.821289 0.087341
0.267090 0.821289 0.087341
0.421387 0.821289 0.087341
0.574707 0.821289 0.087341
0.715820 0.821289 0.087341
0.838379 0.821289 0.087341
0.940430 0.821289 0.087341
0.000000 0.933594 0.087341
0.115601 0.933594 0.087341
0.267090 0.933594 0.087341
0.421387 0.933594 0.087341
0.574707 0.933594 0.087341
0.715820 0.933594 0.087341
0.838379 0.933594 0.087341
0.940430 0.933594 0.087341
0.000000 0.000000 0.233032
0.115601 0.000000 0.233032
0.267334 0.000000 0.233032
0.421387 0.000000 0.233032
0.575195 0.000000 0.233032
0.715820 0.000000 0.233032
0.838379 0.000000 0.233032
0.940430 0.000000 0.233032
0.000000 0.111389 0.233032
0.115601 0.111389 0.233032
0.267334 0.111389 0.233032
0.421387 0.111389 0.233032
0.575195 0.111389 0.233032
0.715820 0.111389 0.233032
0.838379 0.111389 0.233032
0.940430 0.111389 0.233032
0.000000 0.262695 0.233032
0.115601 0.262695 0.233032
0.267334 0.262695 0.233032
0.421387 0.262695 0.233032
0.575195 0.262695 0.233032
0.715820 0.262695 0.233032
0.838379 0.262695 0.233032
0.940430 0.262695 0.233032
0.000000 0.414307 0.233032
0.115601 0.414307 0.233032
0.267334 0.414307 0.233032
0.421387 0.414307 0.233032
0.575195 0.414307 0.233032
0.715820 0.414307 0.233032
0.838379 0.414307 0.233032
0.940430 0.414307 0.233032
0.000000 0.559570 0.233032
0.115601 0.559570 0.233032
0.267334 0.559570 0.233032
0.421387 0.559570 0.233032
0.575195 0.559570 0.233032
0.715820 0.559570 0.233032
0.838379 0.559570 0.233032
0.940430 0.559570 0.233032
0.000000 0.695801 0.233032
0.115601 0.695801 0.233032
0.267334 0.695801 0.233032
0.421387 0.695801 0.233032
0.575195 0.695801 0.233032
0.715820 0.695801 0.233032
0.838379 0.695801 0.233032
0.940430 0.695801 0.233032
0.000000 0.821289 0.233032
0.115601 0.821289 0.233032
0.267334 0.821289 0.233032
0.421387 0.821289 0.233032
0.575195 0.821289 0.233032
0.715820 0.821289 0.233032
0.838379 0.821289 0.233032
0.940430 0.821289 0.233032
0.000000 0.933594 0.233154
0.115601 0.933594 0.233154
0.267334 0.933594 0.233154
0.421387 0.933594 0.233154
0.575195 0.933594 0.233154
0.715820 0.933594 0.233154
0.838379 0.933594 0.233154
0.940430 0.933594 0.233154
0.000000 0.000000 0.381836
0.115662 0.000000 0.381836
0.267334 0.000000 0.381836
0.421387 0.000000 0.381836
0.575195 0.000000 0.381836
0.715820 0.000000 0.381836
0.838379 0.000000 0.381836
0.940430 0.000000 0.381836
0.000000 0.111389 0.381836
0.115662 0.111389 0.381836
0.267334 0.111389 0.381836
0.421387 0.111389 0.381836
0.575195 0.111389 0.381836
0.715820 0.111389 0.381836
0.838379 0.111389 0.381836
0.940430 0.111389 0.381836
0.000000 0.262695 0.381836
0.115662 0.262695 0.381836
0.267334 0.262695 0.381836
0.421387 0.262695 0.381836
0.575195 0.262695 0.381836
0.715820 0.262695 0.381836
0.838379 0.262695 0.381836
0.940430 0.262695 0.381836
0.000000 0.414307 0.381836
0.115662 0.414307 0.381836
0.267334 0.414307 0.381836
0.421387 0.414307 0.381836
0.575195 0.414307 0.381836
0.715820 0.414307 0.381836
0.838379 0.414307 0.381836
0.940430 0.414307 0.381836
0.000000 0.559570 0.381836
0.115662 0.559570 0.381836
0.267334 0.559570 0.381836
0.421387 0.559570 0.381836
0.575195 0.559570 0.381836
0.715820 0.559570 0.381836
0.838379 0.559570 0.381836
0.940430 0.559570 0.381836
0.000000 0.695801 0.381836
0.115662 0.695801 0.381836
0.267334 0.695801 0.381836
0.421387 0.695801 0.381836
0.575195 0.695801 0.381836
0.715820 0.695801 0.381836
0.838379 0.695801 0.381836
0.940430 0.695801 0.381836
0.000000 0.821289 0.381836
0.115662 0.821289 0.381836
0.267334 0.821289 0.381836
0.421387 0.821289 0.381836
0.575195 0.821289 0.381836
0.715820 0.821289 0.381836
0.838379 0.821289 0.381836
0.940430 0.821289 0.381836
0.000000 0.933594 0.381836
0.115662 0.933594 0.381836
0.267334 0.933594 0.381836
0.421387 0.933594 0.381836
0.575195 0.933594 0.381836
0.715820 0.933594 0.381836
0.838379 0.933594 0.381836
0.940430 0.933594 0.381836
0.000000 0.000000 0.523438
0.115662 0.000000 0.523438
0.267334 0.000000 0.523438
0.421387 0.000000 0.523438
0.575195 0.000000 0.523438
0.715820 0.000000 0.523438
0.838379 0.000000 0.523438
0.940430 0.000000 0.523438
0.000000 0.111389 0.523438
0.115662 0.111389 0.523438
0.267334 0.111389 0.523438
0.421387 0.111389 0.523438
0.575195 0.111389 0.523438
0.715820 0.111389 0.523438
0.838379 0.111389 0.523438
0.940430 0.111389 0.523438
0.000000 0.262695 0.523438
0.115662 0.262695 0.523438
0.267334 0.262695 0.523438
0.421387 0.262695 0.523438
0.575195 0.262695 0.523438
0.715820 0.262695 0.523438
0.838379 0.262695 0.523438
0.940430 0.262695 0.523438
0.000000 0.414307 0.523438
0.115662 0.414307 0.523438
0.267334 0.414307 0.523438
0.421387 0.414307 0.523438
0.575195 0.414307 0.523438
0.715820 0.414307 0.523438
0.838379 0.414307 0.523438
0.940430 0.414307 0.523438
0.000000 0.559570 0.523438
0.115662 0.559570 0.523438
0.267334 0.559570 0.523438
0.421387 0.559570 0.523438
0.575195 0.559570 0.523438
0.715820 0.559570 0.523438
0.838379 0.559570 0.523438
0.940430 0.559570 0.523438
0.000000 0.695801 0.523438
0.115662 0.695801 0.523438
0.267334 0.695801 0.523438
0.421387 0.695801 0.523438
0.575195 0.695801 0.523438
0.715820 0.695801 0.523438
0.838379 0.695801 0.523438
0.940430 0.695801 0.523438
0.000000 0.821289 0.523438
0.115662 0.821289 0.523438
0.267334 0.821289 0.523438
0.421387 0.821289 0.523438
0.575195 0.821289 0.523438
0.715820 0.821289 0.523438
0.838379 0.821289 0.523438
0.940430 0.821289 0.523438
0.000000 0.933594 0.523438
0.115662 0.933594 0.523438
0.267334 0.933594 0.523438
0.421387 0.933594 0.523438
0.575195 0.933594 0.523438
0.715820 0.933594 0.523438
0.838379 0.933594 0.523438
0.940430 0.933594 0.523438
0.000000 0.000000 0.675293
0.115662 0.000000 0.675293
0.267334 0.000000 0.675293
0.421387 0.000000 0.675293
0.575195 0.000000 0.675293
0.715820 0.000000 0.675293
0.838379 0.000000 0.675293
0.940430 0.000000 0.675293
0.000000 0.111389 0.675293
0.115662 0.111389 0.675293
0.267334 0.111389 0.675293
0.421387 0.111389 0.675293
0.575195 0.111389 0.675293
0.715820 0.111389 0.675293
0.838379 0.111389 0.675293
0.940430 0.111389 0.675293
0.000000 0.262695 0.675293
0.115662 0.262695 0.675293
0.267334 0.262695 0.675293
0.421387 0.262695 0.675293
0.575195 0.262695 0.675293
0.715820 0.262695 0.675293
0.838379 0.262695 0.675293
0.940430 0.262695 0.675293
0.000000 0.414307 0.675293
0.115662 0.414307 0.675293
0.267334 0.414307 0.675293
0.421387 0.414307 0.675293
0.575195 0.414307 0.675293
0.715820 0.414307 0.675293
0.838379 0.414307 0.675293
0.940430 0.414307 0.675293
0.000000 0.559570 0.675293
0.115662 0.559570 0.675293
0.267334 0.559570 0.675293
0.421387 0.559570 0.675293
0.575195 0.559570 0.675293
0.715820 0.559570 0.675293
0.838379 0.559570 0.675293
0.940430 0.559570 0.675293
0.000000 0.695801 0.675293
0.115662 0.695801 0.675293
0.267334 0.695801 0.675293
0.421387 0.695801 0.675293
0.575195 0.695801 0.675293
0.715820 0.695801 0.675293
0.838379 0.695801 0.675293
0.940430 0.695801 0.675293
0.000000 0.821289 0.675293
0.115662 0.821289 0.675293
0.267334 0.821289 0.675293
0.421387 0.821289 0.675293
0.575195 0.821289 0.675293
0.715820 0.821289 0.675293
0.838379 0.821289 0.675293
0.940430 0.821289 0.675293
0.000000 0.933594 0.675293
0.115662 0.933594 0.675293
0.267334 0.933594 0.675293
0.421387 0.933594 0.675293
0.575195 0.933594 0.675293
0.715820 0.933594 0.675293
0.838379 0.933594 0.675293
0.940430 0.933594 0.675293
0.000000 0.000000 0.817871
0.115723 0.000000 0.817871
0.267334 0.000000 0.817871
0.421387 0.000000 0.817871
0.575195 0.000000 0.817871
0.715820 0.000000 0.817871
0.838379 0.000000 0.817871
0.940430 0.000000 0.817871
0.000000 0.111389 0.817871
0.115723 0.111389 0.817871
0.267334 0.111389 0.817871
0.421387 0.111389 0.817871
0.575195 0.111389 0.817871
0.715820 0.111389 0.817871
0.838379 0.111389 0.817871
0.940430 0.111389 0.817871
0.000000 0.262695 0.817871
0.115723 0.262695 0.817871
0.267334 0.262695 0.817871
0.421387 0.262695 0.817871
0.575195 0.262695 0.817871
0.715820 0.262695 0.817871
0.838379 0.262695 0.817871
0.940430 0.262695 0.817871
0.000000 0.414307 0.817871
0.115723 0.414307 0.817871
0.267334 0.414307 0.817871
0.421387 0.414307 0.817871
0.575195 0.414307 0.817871
0.715820 0.414307 0.817871
0.838379 0.414307 0.817871
0.940430 0.414307 0.817871
0.000000 0.559570 0.817871
0.115723 0.559570 0.817871
0.267334 0.559570 0.817871
0.421387 0.559570 0.817871
0.575195 0.559570 0.817871
0.715820 0.559570 0.817871
0.838379 0.559570 0.817871
0.940430 0.559570 0.817871
0.000000 0.695801 0.817871
0.115723 0.695801 0.817871
0.267334 0.695801 0.817871
0.421387 0.695801 0.817871
0.575195 0.695801 0.817871
0.715820 0.695801 0.817871
0.838379 0.695801 0.817871
0.940430 0.695801 0.817871
0.000000 0.821289 0.817871
0.115723 0.821289 0.817871
0.267334 0.821289 0.817871
0.421387 0.821289 0.817871
0.575195 0.821289 0.817871
0.715820 0.821289 0.817871
0.838379 0.821289 0.817871
0.940430 0.821289 0.817871
0.000000 0.933594 0.817871
0.115723 0.933594 0.817871
0.267334 0.933594 0.817871
0.421387 0.933594 0.817871
0.575195 0.933594 0.817871
0.715820 0.933594 0.817871
0.838379 0.933594 0.817871
0.940430 0.933594 0.817871
0.000001 0.000000 0.934570
0.115723 0.000000 0.934570
0.267334 0.000000 0.934570
0.421387 0.000000 0.934570
0.575195 0.000000 0.934570
0.715820 0.000000 0.934570
0.838379 0.000000 0.934570
0.940430 0.000000 0.934570
0.000001 0.111389 0.934570
0.115723 0.111389 0.934570
0.267334 0.111389 0.934570
0.421387 0.111389 0.934570
0.575195 0.111389 0.934570
0.715820 0.111389 0.934570
0.838379 0.111389 0.934570
0.940430 0.111389 0.934570
0.000001 0.262695 0.934570
0.115723 0.262695 0.934570
0.267334 0.262695 0.934570
0.421387 0.262695 0.934570
0.575195 0.262695 0.934570
0.715820 0.262695 0.934570
0.838379 0.262695 0.934570
0.940430 0.262695 0.934570
0.000001 0.414307 0.934570
0.115723 0.414307 0.934570
0.267334 0.414307 0.934570
0.421387 0.414307 0.934570
0.575195 0.414307 0.934570
0.715820 0.414307 0.934570
0.838379 0.414307 0.934570
0.940430 0.414307 0.934570
0.000001 0.559570 0.934570
0.115723 0.559570 0.934570
0.267334 0.559570 0.934570
0.421387 0.559570 0.934570
0.575195 0.559570 0.934570
0.715820 0.559570 0.934570
0.838379 0.559570 0.934570
0.940430 0.559570 0.934570
0.000001 0.695801 0.934570
0.115723 0.695801 0.934570
0.267334 0.695801 0.934570
0.421387 0.695801 0.934570
0.575195 0.695801 0.934570
0.715820 0.695801 0.934570
0.838379 0.695801 0.934570
0.940430 0.695801 0.934570
0.000001 0.821289 0.934570
0.115723 0.821289 0.934570
0.267334 0.821289 0.934570
0.421387 0.821289 0.934570
0.575195 0.821289 0.934570
0.715820 0.821289 0.934570
0.838379 0.821289 0.934570
0.940430 0.821289 0.934570
0.000001 0.933594 0.934570
0.115723 0.933594 0.934570
0.267334 0.933594 0.934570
0.421387 0.933594 0.934570
0.575195 0.933594 0.934570
0.715820 0.933594 0.934570
0.838379 0.933594 0.934570
0.940430 0.933594 0.934570
