cubelut/Adanmq_AgfaColor Futura 100.cube
TITLE "Generated by Foundry::LUT"
LUT_3D_SIZE 8
DOMAIN_MIN 0.000000 0.000000 0.000000
DOMAIN_MAX 0.903226 0.903226 0.903226
0.000000 0.000000 0.000000
0.200073 0.000000 0.000000
0.383789 0.000000 0.000000
0.526855 0.000000 0.000000
0.647949 0.000000 0.000000
0.754395 0.000000 0.000000
0.851074 0.000000 0.000000
0.939453 0.000000 0.000000
0.000000 0.203613 0.000000
0.200073 0.203613 0.000000
0.383789 0.203613 0.000000
0.526855 0.203613 0.000000
0.647949 0.203613 0.000000
0.754395 0.203735 0.000000
0.851074 0.203735 0.000000
0.939453 0.203735 0.000000
0.000000 0.393066 0.000000
0.200073 0.393311 0.000000
0.383789 0.393311 0.000000
0.526855 0.393311 0.000000
0.647949 0.393311 0.000000
0.754395 0.393311 0.000000
0.851074 0.393311 0.000000
0.939453 0.393311 0.000000
0.000000 0.542969 0.000000
0.200073 0.542969 0.000000
0.383789 0.542969 0.000000
0.526855 0.542969 0.000000
0.647949 0.542969 0.000000
0.754395 0.542969 0.000000
0.851074 0.542969 0.000000
0.939453 0.542969 0.000000
0.000000 0.664551 0.000000
0.200073 0.664551 0.000000
0.383789 0.664551 0.000000
0.526855 0.664551 0.000000
0.647949 0.664551 0.000000
0.754395 0.664551 0.000000
0.851074 0.664551 0.000000
0.939453 0.664551 0.000000
0.000000 0.767090 0.000000
0.200073 0.767090 0.000000
0.383789 0.767090 0.000000
0.526855 0.767090 0.000000
0.647949 0.767090 0.000000
0.754395 0.767090 0.000000
0.851074 0.767090 0.000000
0.939453 0.767090 0.000000
0.000000 0.858887 0.000000
0.200073 0.858887 0.000000
0.383789 0.858887 0.000000
0.526855 0.858887 0.000000
0.647949 0.858887 0.000000
0.754395 0.858887 0.000000
0.851074 0.858887 0.000000
0.939453 0.858887 0.000000
0.000000 0.942871 0.000000
0.200073 0.942871 0.000000
0.383789 0.942871 0.000000
0.526855 0.942871 0.000000
0.647949 0.942871 0.000000
0.754395 0.942871 0.000000
0.851074 0.942871 0.000000
0.939453 0.942871 0.000000
0.000000 0.000000 0.159546
0.200195 0.000000 0.159546
0.383789 0.000000 0.159546
0.526855 0.000000 0.159546
0.647949 0.000000 0.159546
0.754883 0.000000 0.159546
0.851074 0.000000 0.159546
0.939453 0.000000 0.159546
0.000000 0.203613 0.159546
0.200195 0.203613 0.159546
0.383789 0.203613 0.159546
0.526855 0.203613 0.159546
0.647949 0.203613 0.159546
0.754883 0.203613 0.159546
0.851074 0.203735 0.159546
0.939453 0.203735 0.159546
0.000000 0.393066 0.159546
0.200195 0.393066 0.159546
0.383789 0.393311 0.159546
0.526855 0.393311 0.159546
0.647949 0.393311 0.159546
0.754883 0.393311 0.159546
0.851074 0.393311 0.159546
0.939453 0.393311 0.159546
0.000000 0.542969 0.159546
0.200195 0.542969 0.159546
0.383789 0.542969 0.159546
0.526855 0.542969 0.159546
0.647949 0.542969 0.159546
0.754883 0.542969 0.159546
0.851074 0.542969 0.159546
0.939453 0.542969 0.159546
0.000000 0.664551 0.159546
0.200195 0.664551 0.159546
0.383789 0.664551 0.159546
0.526855 0.664551 0.159546
0.647949 0.664551 0.159546
0.754883 0.664551 0.159546
0.851074 0.664551 0.159546
0.939453 0.664551 0.159546
0.000000 0.767090 0.159546
0.200195 0.767090 0.159546
0.383789 0.767090 0.159546
0.526855 0.767090 0.159546
0.647949 0.767090 0.159546
0.754883 0.767090 0.159546
0.851074 0.767090 0.159546
0.939453 0.767090 0.159546
0.000000 0.858887 0.159546
0.200195 0.858887 0.159546
0.383789 0.858887 0.159546
0.526855 0.858887 0.159546
0.647949 0.858887 0.159546
0.754883 0.858887 0.159546
0.851074 0.858887 0.159546
0.939453 0.858887 0.159546
0.000000 0.942871 0.159546
0.200195 0.942871 0.159546
0.383789 0.942871 0.159546
0.526855 0.942871 0.159546
0.647949 0.942871 0.159546
0.754883 0.942871 0.159546
0.851074 0.942871 0.159546
0.939453 0.942871 0.159546
0.000000 0.000000 0.329346
0.200195 0.000000 0.329346
0.383789 0.000000 0.329346
0.526855 0.000000 0.329346
0.647949 0.000000 0.329346
0.754883 0.000000 0.329346
0.851074 0.000000 0.329346
0.939941 0.000000 0.329346
0.000000 0.203613 0.329346
0.200195 0.203613 0.329346
0.383789 0.203613 0.329346
0.526855 0.203613 0.329346
0.647949 0.203613 0.329346
0.754883 0.203613 0.329346
0.851074 0.203613 0.329346
0.939941 0.203735 0.329346
0.000000 0.393066 0.329346
0.200195 0.393066 0.329346
0.383789 0.393066 0.329346
0.526855 0.393311 0.329346
0.647949 0.393311 0.329346
0.754883 0.393311 0.329346
0.851074 0.393311 0.329346
0.939941 0.393311 0.329346
0.000000 0.542969 0.329346
0.200195 0.542969 0.329346
0.383789 0.542969 0.329346
0.526855 0.542969 0.329346
0.647949 0.542969 0.329346
0.754883 0.542969 0.329346
0.851074 0.542969 0.329346
0.939941 0.542969 0.329346
0.000000 0.664551 0.329346
0.200195 0.664551 0.329346
0.383789 0.664551 0.329346
0.526855 0.664551 0.329346
0.647949 0.664551 0.329346
0.754883 0.664551 0.329346
0.851074 0.664551 0.329346
0.939941 0.664551 0.329346
0.000000 0.767090 0.329346
0.200195 0.767090 0.329346
0.383789 0.767090 0.329346
0.526855 0.767090 0.329346
0.647949 0.767090 0.329346
0.754883 0.767090 0.329346
0.851074 0.767090 0.329346
0.939941 0.767090 0.329346
0.000000 0.858887 0.329346
0.200195 0.858887 0.329346
0.383789 0.858887 0.329346
0.526855 0.858887 0.329346
0.647949 0.858887 0.329346
0.754883 0.858887 0.329346
0.851074 0.858887 0.329346
0.939941 0.858887 0.329346
0.000000 0.942871 0.329346
0.200195 0.942871 0.329346
0.383789 0.942871 0.329346
0.526855 0.942871 0.329346
0.647949 0.942871 0.329346
0.754883 0.942871 0.329346
0.851074 0.942871 0.329346
0.939941 0.942871 0.329346
0.000000 0.000000 0.475342
0.200195 0.000000 0.475342
0.383789 0.000000 0.475342
0.526855 0.000000 0.475342
0.647949 0.000000 0.475342
0.754883 0.000000 0.475342
0.851074 0.000000 0.475342
0.939941 0.000000 0.475342
0.000000 0.203613 0.475342
0.200195 0.203613 0.475342
0.383789 0.203613 0.475342
0.526855 0.203613 0.475342
0.647949 0.203613 0.475342
0.754883 0.203613 0.475342
0.851074 0.203613 0.475342
0.939941 0.203613 0.475342
0.000000 0.393066 0.475342
0.200195 0.393066 0.475342
0.383789 0.393066 0.475342
0.526855 0.393066 0.475342
0.647949 0.393311 0.475342
0.754883 0.393311 0.475342
0.851074 0.393311 0.475342
0.939941 0.393311 0.475342
0.000000 0.542969 0.475342
0.200195 0.542969 0.475342
0.383789 0.542969 0.475342
0.526855 0.542969 0.475342
0.647949 0.542969 0.475342
0.754883 0.542969 0.475342
0.851074 0.542969 0.475342
0.939941 0.542969 0.475342
0.000000 0.664551 0.475342
0.200195 0.664551 0.475342
0.383789 0.664551 0.475342
0.526855 0.664551 0.475342
0.647949 0.664551 0.475342
0.754883 0.664551 0.475342
0.851074 0.664551 0.475342
0.939941 0.664551 0.475342
0.000000 0.767090 0.475342
0.200195 0.767090 0.475342
0.383789 0.767090 0.475342
0.526855 0.767090 0.475342
0.647949 0.767090 0.475342
0.754883 0.767090 0.475342
0.851074 0.767090 0.475342
0.939941 0.767090 0.475342
0.000000 0.858887 0.475342
0.200195 0.858887 0.475342
0.383789 0.858887 0.475342
0.526855 0.858887 0.475342
0.647949 0.858887 0.475342
0.754883 0.858887 0.475342
0.851074 0.858887 0.475342
0.939941 0.858887 0.475342
0.000000 0.942871 0.475342
0.200195 0.942871 0.475342
0.383789 0.942871 0.475342
0.526855 0.942871 0.475342
0.647949 0.942871 0.475342
0.754883 0.942871 0.475342
0.851074 0.942871 0.475342
0.939941 0.942871 0.475342
0.000001 0.000000 0.599121
0.200317 0.000000 0.599121
0.383789 0.000000 0.599121
0.526855 0.000000 0.599121
0.648438 0.000000 0.599121
0.754883 0.000000 0.599121
0.851563 0.000000 0.599121
0.939941 0.000000 0.599121
0.000001 0.203613 0.599121
0.200317 0.203613 0.599121
0.383789 0.203613 0.599121
0.526855 0.203613 0.599121
0.648438 0.203613 0.599121
0.754883 0.203613 0.599121
0.851563 0.203613 0.599121
0.939941 0.203613 0.599121
0.000001 0.393066 0.599121
0.200317 0.393066 0.599121
0.383789 0.393066 0.599121
0.526855 0.393066 0.599121
0.648438 0.393066 0.599121
0.754883 0.393311 0.599121
0.851563 0.393311 0.599121
0.939941 0.393311 0.599121
0.000001 0.542969 0.599121
0.200317 0.542969 0.599121
0.383789 0.542969 0.599121
0.526855 0.542969 0.599121
0.648438 0.542969 0.599121
0.754883 0.542969 0.599121
0.851563 0.542969 0.599121
0.939941 0.542969 0.599121
0.000001 0.664551 0.599121
0.200317 0.664551 0.599121
0.383789 0.664551 0.599121
0.526855 0.664551 0.599121
0.648438 0.664551 0.599121
0.754883 0.664551 0.599121
0.851563 0.664551 0.599121
0.939941 0.664551 0.599121
0.000001 0.767090 0.599121
0.200317 0.767090 0.599121
0.383789 0.767090 0.599121
0.526855 0.767090 0.599121
0.648438 0.767090 0.599121
0.754883 0.767090 0.599121
0.851563 0.767090 0.599121
0.939941 0.767090 0.599121
0.000001 0.858887 0.599121
0.200317 0.858887 0.599121
0.383789 0.858887 0.599121
0.526855 0.858887 0.599121
0.648438 0.858887 0.599121
0.754883 0.858887 0.599121
0.851563 0.858887 0.599121
0.939941 0.858887 0.599121
0.000001 0.942871 0.599121
0.200317 0.942871 0.599121
0.383789 0.942871 0.599121
0.526855 0.942871 0.599121
0.648438 0.942871 0.599121
0.754883 0.942871 0.599121
0.851563 0.942871 0.599121
0.939941 0.942871 0.599121
0.000001 0.000000 0.710938
0.200317 0.000000 0.710938
0.384033 0.000000 0.710938
0.526855 0.000000 0.710938
0.648438 0.000000 0.710938
0.754883 0.000000 0.710938
0.851563 0.000000 0.710938
0.939941 0.000000 0.710938
0.000001 0.203613 0.710938
0.200317 0.203613 0.710938
0.384033 0.203613 0.710938
0.526855 0.203613 0.710938
0.648438 0.203613 0.710938
0.754883 0.203613 0.710938
0.851563 0.203613 0.710938
0.939941 0.203613 0.710938
0.000001 0.393066 0.710938
0.200317 0.393066 0.710938
0.384033 0.393066 0.710938
0.526855 0.393066 0.710938
0.648438 0.393066 0.710938
0.754883 0.393066 0.710938
0.851563 0.393311 0.710938
0.939941 0.393311 0.710938
0.000001 0.542969 0.710938
0.200317 0.542969 0.710938
0.384033 0.542969 0.710938
0.526855 0.542969 0.710938
0.648438 0.542969 0.710938
0.754883 0.542969 0.710938
0.851563 0.542969 0.710938
0.939941 0.542969 0.710938
0.000001 0.664551 0.710938
0.200317 0.664551 0.710938
0.384033 0.664551 0.710938
0.526855 0.664551 0.710938
0.648438 0.664551 0.710938
0.754883 0.664551 0.710938
0.851563 0.664551 0.710938
0.939941 0.664551 0.710938
0.000001 0.767090 0.710938
0.200317 0.767090 0.710938
0.384033 0.767090 0.710938
0.526855 0.767090 0.710938
0.648438 0.767090 0.710938
0.754883 0.767090 0.710938
0.851563 0.767090 0.710938
0.939941 0.767090 0.710938
0.000001 0.858887 0.710938
0.200317 0.858887 0.710938
0.384033 0.858887 0.710938
0.526855 0.858887 0.710938
0.648438 0.858887 0.710938
0.754883 0.858887 0.710938
0.851563 0.858887 0.710938
0.939941 0.858887 0.710938
0.000001 0.942871 0.710938
0.200317 0.942871 0.710938
0.384033 0.942871 0.710938
0.526855 0.942871 0.710938
0.648438 0.942871 0.710938
0.754883 0.942871 0.710938
0.851563 0.942871 0.710938
0.939941 0.942871 0.710938
0.000002 0.000000 0.817871
0.200317 0.000000 0.817871
0.384033 0.000000 0.817871
0.526855 0.000000 0.817871
0.648438 0.000000 0.817871
0.754883 0.000000 0.817871
0.851563 0.000000 0.817871
0.939941 0.000000 0.817871
0.000002 0.203613 0.817871
0.200317 0.203613 0.817871
0.384033 0.203613 0.817871
0.526855 0.203613 0.817871
0.648438 0.203613 0.817871
0.754883 0.203613 0.817871
0.851563 0.203613 0.817871
0.939941 0.203613 0.817871
0.000002 0.393066 0.817871
0.200317 0.393066 0.817871
0.384033 0.393066 0.817871
0.526855 0.393066 0.817871
0.648438 0.393066 0.817871
0.754883 0.393066 0.817871
0.851563 0.393066 0.817871
0.939941 0.393311 0.817871
0.000002 0.542969 0.817871
0.200317 0.542969 0.817871
0.384033 0.542969 0.817871
0.526855 0.542969 0.817871
0.648438 0.542969 0.817871
0.754883 0.542969 0.817871
0.851563 0.542969 0.817871
0.939941 0.542969 0.817871
0.000002 0.664551 0.817871
0.200317 0.664551 0.817871
0.384033 0.664551 0.817871
0.526855 0.664551 0.817871
0.648438 0.664551 0.817871
0.754883 0.664551 0.817871
0.851563 0.664551 0.817871
0.939941 0.664551 0.817871
0.000002 0.767090 0.817871
0.200317 0.767090 0.817871
0.384033 0.767090 0.817871
0.526855 0.767090 0.817871
0.648438 0.767090 0.817871
0.754883 0.767090 0.817871
0.851563 0.767090 0.817871
0.939941 0.767090 0.817871
0.000002 0.858887 0.817871
0.200317 0.858887 0.817871
0.384033 0.858887 0.817871
0.526855 0.858887 0.817871
0.648438 0.858887 0.817871
0.754883 0.858887 0.817871
0.851563 0.858887 0.817871
0.939941 0.858887 0.817871
0.000002 0.942871 0.817871
0.200317 0.942871 0.817871
0.384033 0.942871 0.817871
0.526855 0.942871 0.817871
0.648438 0.942871 0.817871
0.754883 0.942871 0.817871
0.851563 0.942871 0.817871
0.939941 0.942871 0.817871
0.000003 0.000000 0.923828
0.200317 0.000000 0.923828
0.384033 0.000000 0.923828
0.526855 0.000000 0.923828
0.648438 0.000000 0.923828
0.754883 0.000000 0.923828
0.851563 0.000000 0.923828
0.939941 0.000000 0.923828
0.000003 0.203613 0.923828
0.200317 0.203613 0.923828
0.384033 0.203613 0.923828
0.526855 0.203613 0.923828
0.648438 0.203613 0.923828
0.754883 0.203613 0.923828
0.851563 0.203613 0.923828
0.939941 0.203613 0.923828
0.000003 0.393066 0.923828
0.200317 0.393066 0.923828
0.384033 0.393066 0.923828
0.526855 0.393066 0.923828
0.648438 0.393066 0.923828
0.754883 0.393066 0.923828
0.851563 0.393066 0.923828
0.939941 0.393066 0.923828
0.000003 0.542969 0.923828
0.200317 0.542969 0.923828
0.384033 0.542969 0.923828
0.526855 0.542969 0.923828
0.648438 0.542969 0.923828
0.754883 0.542969 0.923828
0.851563 0.542969 0.923828
0.939941 0.542969 0.923828
0.000003 0.664551 0.923828
0.200317 0.664551 0.923828
0.384033 0.664551 0.923828
0.526855 0.664551 0.923828
0.648438 0.664551 0.923828
0.754883 0.664551 0.923828
0.851563 0.664551 0.923828
0.939941 0.664551 0.923828
0.000003 0.767090 0.923828
0.200317 0.767090 0.923828
0.384033 0.767090 0.923828
0.526855 0.767090 0.923828
0.648438 0.767090 0.923828
0.754883 0.767090 0.923828
0.851563 0.767090 0.923828
0.939941 0.767090 0.923828
0.000003 0.858887 0.923828
0.200317 0.858887 0.923828
0.384033 0.858887 0.923828
0.526855 0.858887 0.923828
0.648438 0.858887 0.923828
0.754883 0.858887 0.923828
0.851563 0.858887 0.923828
0.939941 0.858887 0.923828
0.000003 0.942871 0.923828
0.200317 0.942871 0.923828
0.384033 0.942871 0.923828
0.526855 0.942871 0.923828
0.648438 0.942871 0.923828
0.754883 0.942871 0.923828
0.851563 0.942871 0.923828
0.939941 0.942871 0.923828
