cubelut/Adanmq_AgfaColor HDC 400+.cube
TITLE "Generated by Foundry::LUT"
LUT_3D_SIZE 5
DOMAIN_MIN 0.000000 0.000000 0.000000
DOMAIN_MAX 0.903226 0.903226 0.903226
0.000000 0.000000 0.000000
0.346924 0.000000 0.000000
0.594727 0.000000 0.000000
0.785645 0.000000 0.000000
0.946777 0.000000 0.000000
0.000000 0.352783 0.000000
0.346924 0.352783 0.000000
0.594727 0.352783 0.000000
0.785645 0.352783 0.000000
0.946777 0.352783 0.000000
0.000000 0.609863 0.000000
0.346924 0.609863 0.000000
0.594727 0.609863 0.000000
0.785645 0.609863 0.000000
0.946777 0.609863 0.000000
0.000000 0.794922 0.000000
0.346924 0.794922 0.000000
0.594727 0.794922 0.000000
0.785645 0.794922 0.000000
0.946777 0.794922 0.000000
0.000000 0.947266 0.000000
0.346924 0.947266 0.000000
0.594727 0.947266 0.000000
0.785645 0.947266 0.000000
0.946777 0.947266 0.000000
0.000000 0.000000 0.292969
0.346924 0.000000 0.292969
0.594727 0.000000 0.292969
0.785645 0.000000 0.292969
0.946777 0.000000 0.292969
0.000000 0.352783 0.292969
0.346924 0.352783 0.292969
0.594727 0.352783 0.292969
0.785645 0.352783 0.292969
0.946777 0.352783 0.292969
0.000000 0.609863 0.292969
0.346924 0.609863 0.292969
0.594727 0.609863 0.292969
0.785645 0.609863 0.292969
0.946777 0.609863 0.292969
0.000000 0.794922 0.293213
0.346924 0.794922 0.293213
0.594727 0.794922 0.293213
0.785645 0.794922 0.293213
0.946777 0.794922 0.293213
0.000000 0.947266 0.293213
0.346924 0.947266 0.293213
0.594727 0.947266 0.293213
0.785645 0.947266 0.293213
0.946777 0.947266 0.293213
0.000001 0.000000 0.544434
0.346924 0.000000 0.544434
0.594727 0.000000 0.544434
0.785645 0.000000 0.544434
0.946777 0.000000 0.544434
0.000001 0.352783 0.544434
0.346924 0.352783 0.544434
0.594727 0.352783 0.544434
0.785645 0.352783 0.544434
0.946777 0.352783 0.544434
0.000001 0.609863 0.544434
0.346924 0.609863 0.544434
0.594727 0.609863 0.544434
0.785645 0.609863 0.544434
0.946777 0.609863 0.544434
0.000001 0.794922 0.544434
0.346924 0.794922 0.544434
0.594727 0.794922 0.544434
0.785645 0.794922 0.544434
0.946777 0.794922 0.544434
0.000001 0.947266 0.544434
0.346924 0.947266 0.544434
0.594727 0.947266 0.544434
0.785645 0.947266 0.544434
0.946777 0.947266 0.544434
0.000001 0.000000 0.744141
0.347168 0.000000 0.744141
0.594727 0.000000 0.744141
0.785645 0.000000 0.744141
0.946777 0.000000 0.744141
0.000001 0.352783 0.744141
0.347168 0.352783 0.744141
0.594727 0.352783 0.744141
0.785645 0.352783 0.744141
0.946777 0.352783 0.744141
0.000001 0.609863 0.744141
0.347168 0.609863 0.744141
0.594727 0.609863 0.744141
0.785645 0.609863 0.744141
0.946777 0.609863 0.744141
0.000001 0.794922 0.744141
0.347168 0.794922 0.744141
0.594727 0.794922 0.744141
0.785645 0.794922 0.744141
0.946777 0.794922 0.744141
0.000001 0.947266 0.744141
0.347168 0.947266 0.744141
0.594727 0.947266 0.744141
0.785645 0.947266 0.744141
0.946777 0.947266 0.744141
0.000003 0.000000 0.931641
0.347168 0.000000 0.931641
0.594727 0.000000 0.931641
0.785645 0.000000 0.931641
0.946777 0.000000 0.931641
0.000003 0.352783 0.931641
0.347168 0.352783 0.931641
0.594727 0.352783 0.931641
0.785645 0.352783 0.931641
0.946777 0.352783 0.931641
0.000003 0.609863 0.931641
0.347168 0.609863 0.931641
0.594727 0.609863 0.931641
0.785645 0.609863 0.931641
0.946777 0.609863 0.931641
0.000003 0.794922 0.931641
0.347168 0.794922 0.931641
0.594727 0.794922 0.931641
0.785645 0.794922 0.931641
0.946777 0.794922 0.931641
0.000003 0.947266 0.931641
0.347168 0.947266 0.931641
0.594727 0.947266 0.931641
0.785645 0.947266 0.931641
0.946777 0.947266 0.931641
