cubelut/Adanmq_Portra 100t.cube
TITLE "Generated by Foundry::LUT"
LUT_3D_SIZE 8
DOMAIN_MIN 0.000000 0.000000 0.000000
DOMAIN_MAX 0.903226 0.903226 0.903226
0.000000 0.000000 0.000000
0.069275 0.000000 0.000000
0.173828 0.000000 0.000000
0.295654 0.000000 0.000000
0.431885 0.000000 0.000000
0.575195 0.000000 0.000000
0.730957 0.000000 0.000000
0.893555 0.000000 0.000000
0.000000 0.062622 0.000000
0.069275 0.062622 0.000000
0.173828 0.062622 0.000000
0.295654 0.062622 0.000000
0.431885 0.062622 0.000000
0.575195 0.062622 0.000000
0.730957 0.062622 0.000000
0.893555 0.062622 0.000000
0.000000 0.163086 0.000000
0.069275 0.163086 0.000000
0.173828 0.163086 0.000000
0.295654 0.163086 0.000000
0.431885 0.163086 0.000000
0.575195 0.163086 0.000000
0.730957 0.163086 0.000000
0.893555 0.163086 0.000000
0.000000 0.283936 0.000000
0.069275 0.283936 0.000000
0.173828 0.283936 0.000000
0.295654 0.283936 0.000000
0.431885 0.283936 0.000000
0.575195 0.283936 0.000000
0.730957 0.283936 0.000000
0.893555 0.283936 0.000000
0.000000 0.419434 0.000000
0.069275 0.419434 0.000000
0.173828 0.419434 0.000000
0.295654 0.419434 0.000000
0.431885 0.419434 0.000000
0.575195 0.419434 0.000000
0.730957 0.419434 0.000000
0.893555 0.419434 0.000000
0.000000 0.566895 0.000000
0.069275 0.566895 0.000000
0.173828 0.566895 0.000000
0.295654 0.566895 0.000000
0.431885 0.566895 0.000000
0.575195 0.566895 0.000000
0.730957 0.566895 0.000000
0.893555 0.566895 0.000000
0.000000 0.724609 0.000000
0.069275 0.724609 0.000000
0.173828 0.724609 0.000000
0.295654 0.724609 0.000000
0.431885 0.724609 0.000000
0.575195 0.724609 0.000000
0.730957 0.724609 0.000000
0.893555 0.724609 0.000000
0.000000 0.891113 0.000000
0.069275 0.891113 0.000000
0.173828 0.891113 0.000000
0.295654 0.891113 0.000000
0.431885 0.891113 0.000000
0.575195 0.891113 0.000000
0.730957 0.891113 0.000000
0.893555 0.891113 0.000000
0.000000 0.000000 0.048157
0.069275 0.000000 0.048157
0.173828 0.000000 0.048157
0.295654 0.000000 0.048157
0.431885 0.000000 0.048157
0.575195 0.000000 0.048157
0.730957 0.000000 0.048157
0.893555 0.000000 0.048157
0.000000 0.062622 0.048157
0.069275 0.062622 0.048157
0.173828 0.062622 0.048157
0.295654 0.062622 0.048157
0.431885 0.062622 0.048157
0.575195 0.062622 0.048157
0.730957 0.062622 0.048157
0.893555 0.062622 0.048157
0.000000 0.163086 0.048157
0.069275 0.163086 0.048157
0.173828 0.163086 0.048157
0.295654 0.163086 0.048157
0.431885 0.163086 0.048157
0.575195 0.163086 0.048157
0.730957 0.163086 0.048157
0.893555 0.163086 0.048157
0.000000 0.283936 0.048157
0.069275 0.283936 0.048157
0.173828 0.283936 0.048157
0.295654 0.283936 0.048157
0.431885 0.283936 0.048157
0.575195 0.283936 0.048157
0.730957 0.283936 0.048157
0.893555 0.283936 0.048157
0.000000 0.419434 0.048157
0.069275 0.419434 0.048157
0.173828 0.419434 0.048157
0.295654 0.419434 0.048157
0.431885 0.419434 0.048157
0.575195 0.419434 0.048157
0.730957 0.419434 0.048157
0.893555 0.419434 0.048157
0.000000 0.566895 0.048157
0.069275 0.566895 0.048157
0.173828 0.566895 0.048157
0.295654 0.566895 0.048157
0.431885 0.566895 0.048157
0.575195 0.566895 0.048157
0.730957 0.566895 0.048157
0.893555 0.566895 0.048157
0.000000 0.724609 0.048157
0.069275 0.724609 0.048157
0.173828 0.724609 0.048157
0.295654 0.724609 0.048157
0.431885 0.724609 0.048157
0.575195 0.724609 0.048157
0.730957 0.724609 0.048157
0.893555 0.724609 0.048157
0.000000 0.891113 0.048157
0.069275 0.891113 0.048157
0.173828 0.891113 0.048157
0.295654 0.891113 0.048157
0.431885 0.891113 0.048157
0.575195 0.891113 0.048157
0.730957 0.891113 0.048157
0.893555 0.891113 0.048157
0.000000 0.000000 0.135986
0.069275 0.000000 0.135986
0.173828 0.000000 0.135986
0.295654 0.000000 0.135986
0.431885 0.000000 0.135986
0.575195 0.000000 0.135986
0.730957 0.000000 0.135986
0.893555 0.000000 0.135986
0.000000 0.062561 0.135986
0.069275 0.062622 0.135986
0.173828 0.062622 0.135986
0.295654 0.062622 0.135986
0.431885 0.062622 0.135986
0.575195 0.062622 0.135986
0.730957 0.062622 0.135986
0.893555 0.062622 0.135986
0.000000 0.163086 0.135986
0.069275 0.163086 0.135986
0.173828 0.163086 0.135986
0.295654 0.163086 0.135986
0.431885 0.163086 0.135986
0.575195 0.163086 0.135986
0.730957 0.163086 0.135986
0.893555 0.163086 0.135986
0.000000 0.283936 0.135986
0.069275 0.283936 0.135986
0.173828 0.283936 0.135986
0.295654 0.283936 0.135986
0.431885 0.283936 0.135986
0.575195 0.283936 0.135986
0.730957 0.283936 0.135986
0.893555 0.283936 0.135986
0.000000 0.419434 0.135986
0.069275 0.419434 0.135986
0.173828 0.419434 0.135986
0.295654 0.419434 0.135986
0.431885 0.419434 0.135986
0.575195 0.419434 0.135986
0.730957 0.419434 0.135986
0.893555 0.419434 0.135986
0.000000 0.566895 0.135986
0.069275 0.566895 0.135986
0.173828 0.566895 0.135986
0.295654 0.566895 0.135986
0.431885 0.566895 0.135986
0.575195 0.566895 0.135986
0.730957 0.566895 0.135986
0.893555 0.566895 0.135986
0.000000 0.724609 0.135986
0.069275 0.724609 0.135986
0.173828 0.724609 0.135986
0.295654 0.724609 0.135986
0.431885 0.724609 0.135986
0.575195 0.724609 0.135986
0.730957 0.724609 0.135986
0.893555 0.724609 0.135986
0.000000 0.891113 0.135986
0.069275 0.891113 0.135986
0.173828 0.891113 0.135986
0.295654 0.891113 0.135986
0.431885 0.891113 0.135986
0.575195 0.891113 0.135986
0.730957 0.891113 0.135986
0.893555 0.891113 0.135986
0.000000 0.000000 0.249390
0.069275 0.000000 0.249390
0.173828 0.000000 0.249390
0.295654 0.000000 0.249390
0.431885 0.000000 0.249390
0.575195 0.000000 0.249390
0.730957 0.000000 0.249390
0.893555 0.000000 0.249390
0.000000 0.062561 0.249390
0.069275 0.062561 0.249390
0.173828 0.062622 0.249390
0.295654 0.062622 0.249390
0.431885 0.062622 0.249390
0.575195 0.062622 0.249390
0.730957 0.062622 0.249390
0.893555 0.062622 0.249390
0.000000 0.163086 0.249390
0.069275 0.163086 0.249390
0.173828 0.163086 0.249390
0.295654 0.163086 0.249390
0.431885 0.163086 0.249390
0.575195 0.163086 0.249390
0.730957 0.163086 0.249390
0.893555 0.163086 0.249390
0.000000 0.283936 0.249390
0.069275 0.283936 0.249390
0.173828 0.283936 0.249390
0.295654 0.283936 0.249390
0.431885 0.283936 0.249390
0.575195 0.283936 0.249390
0.730957 0.283936 0.249390
0.893555 0.283936 0.249390
0.000000 0.419434 0.249390
0.069275 0.419434 0.249390
0.173828 0.419434 0.249390
0.295654 0.419434 0.249390
0.431885 0.419434 0.249390
0.575195 0.419434 0.249390
0.730957 0.419434 0.249390
0.893555 0.419434 0.249390
0.000000 0.566895 0.249390
0.069275 0.566895 0.249390
0.173828 0.566895 0.249390
0.295654 0.566895 0.249390
0.431885 0.566895 0.249390
0.575195 0.566895 0.249390
0.730957 0.566895 0.249390
0.893555 0.566895 0.249390
0.000000 0.724609 0.249390
0.069275 0.724609 0.249390
0.173828 0.724609 0.249390
0.295654 0.724609 0.249390
0.431885 0.724609 0.249390
0.575195 0.724609 0.249390
0.730957 0.724609 0.249390
0.893555 0.724609 0.249390
0.000000 0.891113 0.249390
0.069275 0.891113 0.249390
0.173828 0.891113 0.249390
0.295654 0.891113 0.249390
0.431885 0.891113 0.249390
0.575195 0.891113 0.249390
0.730957 0.891113 0.249390
0.893555 0.891113 0.249390
0.000000 0.000000 0.383057
0.069336 0.000000 0.383057
0.173828 0.000000 0.383057
0.295654 0.000000 0.383057
0.431885 0.000000 0.383057
0.575195 0.000000 0.383057
0.730957 0.000000 0.383057
0.893555 0.000000 0.383057
0.000000 0.062561 0.383057
0.069336 0.062561 0.383057
0.173828 0.062622 0.383057
0.295654 0.062622 0.383057
0.431885 0.062622 0.383057
0.575195 0.062622 0.383057
0.730957 0.062622 0.383057
0.893555 0.062622 0.383057
0.000000 0.163086 0.383057
0.069336 0.163086 0.383057
0.173828 0.163086 0.383057
0.295654 0.163086 0.383057
0.431885 0.163086 0.383057
0.575195 0.163086 0.383057
0.730957 0.163086 0.383057
0.893555 0.163086 0.383057
0.000000 0.283936 0.383057
0.069336 0.283936 0.383057
0.173828 0.283936 0.383057
0.295654 0.283936 0.383057
0.431885 0.283936 0.383057
0.575195 0.283936 0.383057
0.730957 0.283936 0.383057
0.893555 0.283936 0.383057
0.000000 0.419434 0.383057
0.069336 0.419434 0.383057
0.173828 0.419434 0.383057
0.295654 0.419434 0.383057
0.431885 0.419434 0.383057
0.575195 0.419434 0.383057
0.730957 0.419434 0.383057
0.893555 0.419434 0.383057
0.000000 0.566895 0.383057
0.069336 0.566895 0.383057
0.173828 0.566895 0.383057
0.295654 0.566895 0.383057
0.431885 0.566895 0.383057
0.575195 0.566895 0.383057
0.730957 0.566895 0.383057
0.893555 0.566895 0.383057
0.000000 0.724609 0.383057
0.069336 0.724609 0.383057
0.173828 0.724609 0.383057
0.295654 0.724609 0.383057
0.431885 0.724609 0.383057
0.575195 0.724609 0.383057
0.730957 0.724609 0.383057
0.893555 0.724609 0.383057
0.000000 0.891113 0.383057
0.069336 0.891113 0.383057
0.173828 0.891113 0.383057
0.295654 0.891113 0.383057
0.431885 0.891113 0.383057
0.575195 0.891113 0.383057
0.730957 0.891113 0.383057
0.893555 0.891113 0.383057
0.000000 0.000000 0.531738
0.069336 0.000000 0.531738
0.173950 0.000000 0.531738
0.295654 0.000000 0.531738
0.431885 0.000000 0.531738
0.575684 0.000000 0.531738
0.730957 0.000000 0.531738
0.893555 0.000000 0.531738
0.000000 0.062561 0.531738
0.069336 0.062561 0.531738
0.173950 0.062561 0.531738
0.295654 0.062622 0.531738
0.431885 0.062622 0.531738
0.575684 0.062622 0.531738
0.730957 0.062622 0.531738
0.893555 0.062622 0.531738
0.000000 0.163086 0.531738
0.069336 0.163086 0.531738
0.173950 0.163086 0.531738
0.295654 0.163086 0.531738
0.431885 0.163086 0.531738
0.575684 0.163086 0.531738
0.730957 0.163086 0.531738
0.893555 0.163086 0.531738
0.000000 0.283936 0.531738
0.069336 0.283936 0.531738
0.173950 0.283936 0.531738
0.295654 0.283936 0.531738
0.431885 0.283936 0.531738
0.575684 0.283936 0.531738
0.730957 0.283936 0.531738
0.893555 0.283936 0.531738
0.000000 0.419434 0.531738
0.069336 0.419434 0.531738
0.173950 0.419434 0.531738
0.295654 0.419434 0.531738
0.431885 0.419434 0.531738
0.575684 0.419434 0.531738
0.730957 0.419434 0.531738
0.893555 0.419434 0.531738
0.000000 0.566895 0.531738
0.069336 0.566895 0.531738
0.173950 0.566895 0.531738
0.295654 0.566895 0.531738
0.431885 0.566895 0.531738
0.575684 0.566895 0.531738
0.730957 0.566895 0.531738
0.893555 0.566895 0.531738
0.000000 0.724609 0.531738
0.069336 0.724609 0.531738
0.173950 0.724609 0.531738
0.295654 0.724609 0.531738
0.431885 0.724609 0.531738
0.575684 0.724609 0.531738
0.730957 0.724609 0.531738
0.893555 0.724609 0.531738
0.000000 0.891113 0.531738
0.069336 0.891113 0.531738
0.173950 0.891113 0.531738
0.295654 0.891113 0.531738
0.431885 0.891113 0.531738
0.575684 0.891113 0.531738
0.730957 0.891113 0.531738
0.893555 0.891113 0.531738
0.000000 0.000000 0.697266
0.069336 0.000000 0.697266
0.173950 0.000000 0.697266
0.295654 0.000000 0.697266
0.431885 0.000000 0.697266
0.575684 0.000000 0.697266
0.730957 0.000000 0.697266
0.893555 0.000000 0.697266
0.000000 0.062561 0.697266
0.069336 0.062561 0.697266
0.173950 0.062561 0.697266
0.295654 0.062561 0.697266
0.431885 0.062622 0.697266
0.575684 0.062622 0.697266
0.730957 0.062622 0.697266
0.893555 0.062622 0.697266
0.000000 0.163086 0.697266
0.069336 0.163086 0.697266
0.173950 0.163086 0.697266
0.295654 0.163086 0.697266
0.431885 0.163086 0.697266
0.575684 0.163086 0.697266
0.730957 0.163086 0.697266
0.893555 0.163086 0.697266
0.000000 0.283936 0.697266
0.069336 0.283936 0.697266
0.173950 0.283936 0.697266
0.295654 0.283936 0.697266
0.431885 0.283936 0.697266
0.575684 0.283936 0.697266
0.730957 0.283936 0.697266
0.893555 0.283936 0.697266
0.000000 0.419434 0.697266
0.069336 0.419434 0.697266
0.173950 0.419434 0.697266
0.295654 0.419434 0.697266
0.431885 0.419434 0.697266
0.575684 0.419434 0.697266
0.730957 0.419434 0.697266
0.893555 0.419434 0.697266
0.000000 0.566895 0.697266
0.069336 0.566895 0.697266
0.173950 0.566895 0.697266
0.295654 0.566895 0.697266
0.431885 0.566895 0.697266
0.575684 0.566895 0.697266
0.730957 0.566895 0.697266
0.893555 0.566895 0.697266
0.000000 0.724609 0.697266
0.069336 0.724609 0.697266
0.173950 0.724609 0.697266
0.295654 0.724609 0.697266
0.431885 0.724609 0.697266
0.575684 0.724609 0.697266
0.730957 0.724609 0.697266
0.893555 0.724609 0.697266
0.000000 0.891113 0.697266
0.069336 0.891113 0.697266
0.173950 0.891113 0.697266
0.295654 0.891113 0.697266
0.431885 0.891113 0.697266
0.575684 0.891113 0.697266
0.730957 0.891113 0.697266
0.893555 0.891113 0.697266
0.000000 0.000000 0.873535
0.069397 0.000000 0.873535
0.173950 0.000000 0.873535
0.295654 0.000000 0.873535
0.431885 0.000000 0.873535
0.575684 0.000000 0.873535
0.730957 0.000000 0.873535
0.893555 0.000000 0.873535
0.000000 0.062561 0.873535
0.069397 0.062561 0.873535
0.173950 0.062561 0.873535
0.295654 0.062561 0.873535
0.431885 0.062561 0.873535
0.575684 0.062622 0.873535
0.730957 0.062622 0.873535
0.893555 0.062622 0.873535
0.000000 0.163086 0.873535
0.069397 0.163086 0.873535
0.173950 0.163086 0.873535
0.295654 0.163086 0.873535
0.431885 0.163086 0.873535
0.575684 0.163086 0.873535
0.730957 0.163086 0.873535
0.893555 0.163086 0.873535
0.000000 0.283936 0.873535
0.069397 0.283936 0.873535
0.173950 0.283936 0.873535
0.295654 0.283936 0.873535
0.431885 0.283936 0.873535
0.575684 0.283936 0.873535
0.730957 0.283936 0.873535
0.893555 0.283936 0.873535
0.000000 0.419434 0.873535
0.069397 0.419434 0.873535
0.173950 0.419434 0.873535
0.295654 0.419434 0.873535
0.431885 0.419434 0.873535
0.575684 0.419434 0.873535
0.730957 0.419434 0.873535
0.893555 0.419434 0.873535
0.000000 0.566895 0.873535
0.069397 0.566895 0.873535
0.173950 0.566895 0.873535
0.295654 0.566895 0.873535
0.431885 0.566895 0.873535
0.575684 0.566895 0.873535
0.730957 0.566895 0.873535
0.893555 0.566895 0.873535
0.000000 0.724609 0.873535
0.069397 0.724609 0.873535
0.173950 0.724609 0.873535
0.295654 0.724609 0.873535
0.431885 0.724609 0.873535
0.575684 0.724609 0.873535
0.730957 0.724609 0.873535
0.893555 0.724609 0.873535
0.000000 0.891113 0.873535
0.069397 0.891113 0.873535
0.173950 0.891113 0.873535
0.295654 0.891113 0.873535
0.431885 0.891113 0.873535
0.575684 0.891113 0.873535
0.730957 0.891113 0.873535
0.893555 0.891113 0.873535
