cubelut/Adanmq_Canon DSC S315 n6.cube
TITLE "Generated by Foundry::LUT"
LUT_3D_SIZE 32
0.000000 0.000000 0.000000
0.001598 0.000000 0.000000
0.022903 0.000000 0.000000
0.081909 0.000000 0.000000
0.137329 0.000000 0.000000
0.192261 0.000000 0.000000
0.248657 0.000000 0.000000
0.305908 0.000000 0.000000
0.363037 0.000000 0.000000
0.418213 0.000000 0.000000
0.470215 0.000000 0.000000
0.517578 0.000000 0.000000
0.561523 0.000000 0.000000
0.601074 0.000000 0.000000
0.636719 0.000000 0.000000
0.669922 0.000000 0.000000
0.700684 0.000000 0.000000
0.729004 0.000000 0.000000
0.755371 0.000000 0.000000
0.780273 0.000000 0.000000
0.803223 0.000000 0.000000
0.825684 0.000000 0.000000
0.846680 0.000000 0.000000
0.866211 0.000000 0.000000
0.885742 0.000000 0.000000
0.903809 0.000000 0.000000
0.921387 0.000000 0.000000
0.938477 0.000000 0.000000
0.954590 0.000000 0.000000
0.970215 0.000000 0.000000
0.985352 0.000000 0.000000
1.000000 0.000000 0.000000
0.000000 0.000563 0.000000
0.001598 0.000563 0.000000
0.022903 0.000563 0.000000
0.081909 0.000563 0.000000
0.137329 0.000563 0.000000
0.192261 0.000563 0.000000
0.248657 0.000563 0.000000
0.305908 0.000563 0.000000
0.363037 0.000563 0.000000
0.418213 0.000563 0.000000
0.470215 0.000563 0.000000
0.517578 0.000563 0.000000
0.561523 0.000563 0.000000
0.601074 0.000563 0.000000
0.636719 0.000563 0.000000
0.669922 0.000563 0.000000
0.700684 0.000563 0.000000
0.729004 0.000563 0.000000
0.755371 0.000563 0.000000
0.780273 0.000563 0.000000
0.803223 0.000563 0.000000
0.825684 0.000563 0.000000
0.846680 0.000563 0.000000
0.866211 0.000563 0.000000
0.885742 0.000563 0.000000
0.903809 0.000563 0.000000
0.921387 0.000563 0.000000
0.938477 0.000563 0.000000
0.954590 0.000563 0.000000
0.970215 0.000564 0.000000
0.985352 0.000564 0.000000
1.000000 0.000564 0.000000
0.000000 0.004398 0.000000
0.001598 0.004398 0.000000
0.022903 0.004398 0.000000
0.081909 0.004398 0.000000
0.137329 0.004398 0.000000
0.192261 0.004398 0.000000
0.248657 0.004398 0.000000
0.305908 0.004398 0.000000
0.363037 0.004398 0.000000
0.418213 0.004398 0.000000
0.470215 0.004398 0.000000
0.517578 0.004398 0.000000
0.561523 0.004398 0.000000
0.601074 0.004398 0.000000
0.636719 0.004398 0.000000
0.669922 0.004398 0.000000
0.700684 0.004398 0.000000
0.729004 0.004402 0.000000
0.755371 0.004402 0.000000
0.780273 0.004402 0.000000
0.803223 0.004402 0.000000
0.825684 0.004402 0.000000
0.846680 0.004402 0.000000
0.866211 0.004402 0.000000
0.885742 0.004402 0.000000
0.903809 0.004402 0.000000
0.921387 0.004402 0.000000
0.938477 0.004402 0.000000
0.954590 0.004402 0.000000
0.970215 0.004402 0.000000
0.985352 0.004402 0.000000
1.000000 0.004402 0.000000
0.000000 0.027893 0.000000
0.001598 0.027893 0.000000
0.022903 0.027893 0.000000
0.081909 0.027893 0.000000
0.137329 0.027893 0.000000
0.192261 0.027908 0.000000
0.248657 0.027908 0.000000
0.305908 0.027908 0.000000
0.363037 0.027908 0.000000
0.418213 0.027908 0.000000
0.470215 0.027908 0.000000
0.517578 0.027908 0.000000
0.561523 0.027908 0.000000
0.601074 0.027908 0.000000
0.636719 0.027908 0.000000
0.669922 0.027908 0.000000
0.700684 0.027908 0.000000
0.729004 0.027908 0.000000
0.755371 0.027908 0.000000
0.780273 0.027924 0.000000
0.803223 0.027924 0.000000
0.825684 0.027924 0.000000
0.846680 0.027924 0.000000
0.866211 0.027924 0.000000
0.885742 0.027924 0.000000
0.903809 0.027924 0.000000
0.921387 0.027924 0.000000
0.938477 0.027924 0.000000
0.954590 0.027924 0.000000
0.970215 0.027924 0.000000
0.985352 0.027924 0.000000
1.000000 0.027924 0.000000
0.000000 0.090027 0.000000
0.001598 0.090027 0.000000
0.022903 0.090027 0.000000
0.081909 0.090027 0.000000
0.137329 0.090027 0.000000
0.192261 0.090027 0.000000
0.248657 0.090027 0.000000
0.305908 0.090027 0.000000
0.363037 0.090027 0.000000
0.418213 0.090027 0.000000
0.470215 0.090027 0.000000
0.517578 0.090027 0.000000
0.561523 0.090027 0.000000
0.601074 0.090027 0.000000
0.636719 0.090027 0.000000
0.669922 0.090088 0.000000
0.700684 0.090088 0.000000
0.729004 0.090088 0.000000
0.755371 0.090088 0.000000
0.780273 0.090088 0.000000
0.803223 0.090088 0.000000
0.825684 0.090088 0.000000
0.846680 0.090088 0.000000
0.866211 0.090088 0.000000
0.885742 0.090088 0.000000
0.903809 0.090088 0.000000
0.921387 0.090088 0.000000
0.938477 0.090088 0.000000
0.954590 0.090088 0.000000
0.970215 0.090088 0.000000
0.985352 0.090088 0.000000
1.000000 0.090088 0.000000
0.000000 0.148315 0.000000
0.001598 0.148315 0.000000
0.022903 0.148315 0.000000
0.081909 0.148315 0.000000
0.137329 0.148315 0.000000
0.192261 0.148315 0.000000
0.248657 0.148315 0.000000
0.305908 0.148315 0.000000
0.363037 0.148315 0.000000
0.418213 0.148315 0.000000
0.470215 0.148315 0.000000
0.517578 0.148315 0.000000
0.561523 0.148315 0.000000
0.601074 0.148315 0.000000
0.636719 0.148315 0.000000
0.669922 0.148315 0.000000
0.700684 0.148315 0.000000
0.729004 0.148315 0.000000
0.755371 0.148315 0.000000
0.780273 0.148315 0.000000
0.803223 0.148315 0.000000
0.825684 0.148315 0.000000
0.846680 0.148315 0.000000
0.866211 0.148315 0.000000
0.885742 0.148315 0.000000
0.903809 0.148315 0.000000
0.921387 0.148315 0.000000
0.938477 0.148315 0.000000
0.954590 0.148315 0.000000
0.970215 0.148315 0.000000
0.985352 0.148315 0.000000
1.000000 0.148315 0.000000
0.000000 0.203979 0.000000
0.001598 0.203979 0.000000
0.022903 0.203979 0.000000
0.081909 0.203979 0.000000
0.137329 0.203979 0.000000
0.192261 0.203979 0.000000
0.248657 0.203979 0.000000
0.305908 0.203979 0.000000
0.363037 0.203979 0.000000
0.418213 0.203979 0.000000
0.470215 0.203979 0.000000
0.517578 0.203979 0.000000
0.561523 0.203979 0.000000
0.601074 0.203979 0.000000
0.636719 0.203979 0.000000
0.669922 0.203979 0.000000
0.700684 0.203979 0.000000
0.729004 0.203979 0.000000
0.755371 0.203979 0.000000
0.780273 0.203979 0.000000
0.803223 0.203979 0.000000
0.825684 0.203979 0.000000
0.846680 0.203979 0.000000
0.866211 0.203979 0.000000
0.885742 0.203979 0.000000
0.903809 0.203979 0.000000
0.921387 0.203979 0.000000
0.938477 0.203979 0.000000
0.954590 0.203979 0.000000
0.970215 0.203979 0.000000
0.985352 0.203979 0.000000
1.000000 0.203979 0.000000
0.000000 0.259033 0.000000
0.001598 0.259033 0.000000
0.022903 0.259033 0.000000
0.081909 0.259033 0.000000
0.137329 0.259033 0.000000
0.192261 0.259033 0.000000
0.248657 0.259033 0.000000
0.305908 0.259033 0.000000
0.363037 0.259033 0.000000
0.418213 0.259033 0.000000
0.470215 0.259033 0.000000
0.517578 0.259033 0.000000
0.561523 0.259033 0.000000
0.601074 0.259033 0.000000
0.636719 0.259033 0.000000
0.669922 0.259033 0.000000
0.700684 0.259033 0.000000
0.729004 0.259033 0.000000
0.755371 0.259033 0.000000
0.780273 0.259033 0.000000
0.803223 0.259033 0.000000
0.825684 0.259033 0.000000
0.846680 0.259033 0.000000
0.866211 0.259033 0.000000
0.885742 0.259033 0.000000
0.903809 0.259033 0.000000
0.921387 0.259033 0.000000
0.938477 0.259033 0.000000
0.954590 0.259033 0.000000
0.970215 0.259033 0.000000
0.985352 0.259033 0.000000
1.000000 0.259033 0.000000
0.000000 0.313965 0.000000
0.001598 0.313965 0.000000
0.022903 0.313965 0.000000
0.081909 0.313965 0.000000
0.137329 0.313965 0.000000
0.192261 0.313965 0.000000
0.248657 0.313965 0.000000
0.305908 0.314209 0.000000
0.363037 0.314209 0.000000
0.418213 0.314209 0.000000
0.470215 0.314209 0.000000
0.517578 0.314209 0.000000
0.561523 0.314209 0.000000
0.601074 0.314209 0.000000
0.636719 0.314209 0.000000
0.669922 0.314209 0.000000
0.700684 0.314209 0.000000
0.729004 0.314209 0.000000
0.755371 0.314209 0.000000
0.780273 0.314209 0.000000
0.803223 0.314209 0.000000
0.825684 0.314209 0.000000
0.846680 0.314209 0.000000
0.866211 0.314209 0.000000
0.885742 0.314209 0.000000
0.903809 0.314209 0.000000
0.921387 0.314209 0.000000
0.938477 0.314209 0.000000
0.954590 0.314209 0.000000
0.970215 0.314209 0.000000
0.985352 0.314209 0.000000
1.000000 0.314209 0.000000
0.000000 0.368408 0.000000
0.001598 0.368408 0.000000
0.022903 0.368408 0.000000
0.081909 0.368408 0.000000
0.137329 0.368408 0.000000
0.192261 0.368408 0.000000
0.248657 0.368408 0.000000
0.305908 0.368408 0.000000
0.363037 0.368408 0.000000
0.418213 0.368408 0.000000
0.470215 0.368408 0.000000
0.517578 0.368408 0.000000
0.561523 0.368408 0.000000
0.601074 0.368408 0.000000
0.636719 0.368408 0.000000
0.669922 0.368408 0.000000
0.700684 0.368408 0.000000
0.729004 0.368408 0.000000
0.755371 0.368408 0.000000
0.780273 0.368408 0.000000
0.803223 0.368408 0.000000
0.825684 0.368408 0.000000
0.846680 0.368408 0.000000
0.866211 0.368408 0.000000
0.885742 0.368408 0.000000
0.903809 0.368408 0.000000
0.921387 0.368408 0.000000
0.938477 0.368408 0.000000
0.954590 0.368408 0.000000
0.970215 0.368408 0.000000
0.985352 0.368408 0.000000
1.000000 0.368408 0.000000
0.000000 0.420654 0.000000
0.001598 0.420654 0.000000
0.022903 0.420654 0.000000
0.081909 0.420898 0.000000
0.137329 0.420898 0.000000
0.192261 0.420898 0.000000
0.248657 0.420898 0.000000
0.305908 0.420898 0.000000
0.363037 0.420898 0.000000
0.418213 0.420898 0.000000
0.470215 0.420898 0.000000
0.517578 0.420898 0.000000
0.561523 0.420898 0.000000
0.601074 0.420898 0.000000
0.636719 0.420898 0.000000
0.669922 0.420898 0.000000
0.700684 0.420898 0.000000
0.729004 0.420898 0.000000
0.755371 0.420898 0.000000
0.780273 0.420898 0.000000
0.803223 0.420898 0.000000
0.825684 0.420898 0.000000
0.846680 0.420898 0.000000
0.866211 0.420898 0.000000
0.885742 0.420898 0.000000
0.903809 0.420898 0.000000
0.921387 0.420898 0.000000
0.938477 0.420898 0.000000
0.954590 0.420898 0.000000
0.970215 0.420898 0.000000
0.985352 0.420898 0.000000
1.000000 0.420898 0.000000
0.000000 0.470703 0.000000
0.001598 0.470703 0.000000
0.022903 0.470703 0.000000
0.081909 0.470703 0.000000
0.137329 0.470703 0.000000
0.192261 0.470703 0.000000
0.248657 0.470703 0.000000
0.305908 0.470703 0.000000
0.363037 0.470703 0.000000
0.418213 0.470703 0.000000
0.470215 0.470703 0.000000
0.517578 0.470703 0.000000
0.561523 0.470703 0.000000
0.601074 0.470703 0.000000
0.636719 0.470703 0.000000
0.669922 0.470703 0.000000
0.700684 0.470703 0.000000
0.729004 0.470703 0.000000
0.755371 0.470703 0.000000
0.780273 0.470703 0.000000
0.803223 0.470703 0.000000
0.825684 0.470703 0.000000
0.846680 0.470703 0.000000
0.866211 0.470703 0.000000
0.885742 0.470703 0.000000
0.903809 0.470703 0.000000
0.921387 0.470703 0.000000
0.938477 0.470703 0.000000
0.954590 0.470703 0.000000
0.970215 0.470703 0.000000
0.985352 0.470703 0.000000
1.000000 0.470703 0.000000
0.000000 0.517578 0.000000
0.001598 0.517578 0.000000
0.022903 0.517578 0.000000
0.081909 0.517578 0.000000
0.137329 0.517578 0.000000
0.192261 0.517578 0.000000
0.248657 0.517578 0.000000
0.305908 0.517578 0.000000
0.363037 0.517578 0.000000
0.418213 0.517578 0.000000
0.470215 0.517578 0.000000
0.517578 0.517578 0.000000
0.561523 0.517578 0.000000
0.601074 0.517578 0.000000
0.636719 0.517578 0.000000
0.669922 0.517578 0.000000
0.700684 0.517578 0.000000
0.729004 0.517578 0.000000
0.755371 0.517578 0.000000
0.780273 0.517578 0.000000
0.803223 0.517578 0.000000
0.825684 0.517578 0.000000
0.846680 0.517578 0.000000
0.866211 0.517578 0.000000
0.885742 0.517578 0.000000
0.903809 0.517578 0.000000
0.921387 0.517578 0.000000
0.938477 0.517578 0.000000
0.954590 0.517578 0.000000
0.970215 0.517578 0.000000
0.985352 0.517578 0.000000
1.000000 0.517578 0.000000
0.000000 0.560547 0.000000
0.001598 0.560547 0.000000
0.022903 0.560547 0.000000
0.081909 0.560547 0.000000
0.137329 0.560547 0.000000
0.192261 0.560547 0.000000
0.248657 0.560547 0.000000
0.305908 0.560547 0.000000
0.363037 0.560547 0.000000
0.418213 0.560547 0.000000
0.470215 0.560547 0.000000
0.517578 0.560547 0.000000
0.561523 0.560547 0.000000
0.601074 0.560547 0.000000
0.636719 0.560547 0.000000
0.669922 0.560547 0.000000
0.700684 0.560547 0.000000
0.729004 0.560547 0.000000
0.755371 0.560547 0.000000
0.780273 0.560547 0.000000
0.803223 0.560547 0.000000
0.825684 0.560547 0.000000
0.846680 0.560547 0.000000
0.866211 0.560547 0.000000
0.885742 0.560547 0.000000
0.903809 0.560547 0.000000
0.921387 0.560547 0.000000
0.938477 0.560547 0.000000
0.954590 0.560547 0.000000
0.970215 0.560547 0.000000
0.985352 0.560547 0.000000
1.000000 0.560547 0.000000
0.000000 0.600098 0.000000
0.001598 0.600098 0.000000
0.022903 0.600098 0.000000
0.081909 0.600098 0.000000
0.137329 0.600098 0.000000
0.192261 0.600098 0.000000
0.248657 0.600098 0.000000
0.305908 0.600098 0.000000
0.363037 0.600098 0.000000
0.418213 0.600098 0.000000
0.470215 0.600098 0.000000
0.517578 0.600098 0.000000
0.561523 0.600098 0.000000
0.601074 0.600098 0.000000
0.636719 0.600098 0.000000
0.669922 0.600098 0.000000
0.700684 0.600098 0.000000
0.729004 0.600098 0.000000
0.755371 0.600098 0.000000
0.780273 0.600098 0.000000
0.803223 0.600098 0.000000
0.825684 0.600098 0.000000
0.846680 0.600098 0.000000
0.866211 0.600098 0.000000
0.885742 0.600098 0.000000
0.903809 0.600098 0.000000
0.921387 0.600098 0.000000
0.938477 0.600098 0.000000
0.954590 0.600098 0.000000
0.970215 0.600098 0.000000
0.985352 0.600098 0.000000
1.000000 0.600586 0.000000
0.000000 0.637207 0.000000
0.001598 0.637207 0.000000
0.022903 0.637207 0.000000
0.081909 0.637207 0.000000
0.137329 0.637207 0.000000
0.192261 0.637207 0.000000
0.248657 0.637207 0.000000
0.305908 0.637207 0.000000
0.363037 0.637207 0.000000
0.418213 0.637207 0.000000
0.470215 0.637207 0.000000
0.517578 0.637207 0.000000
0.561523 0.637207 0.000000
0.601074 0.637207 0.000000
0.636719 0.637207 0.000000
0.669922 0.637207 0.000000
0.700684 0.637207 0.000000
0.729004 0.637207 0.000000
0.755371 0.637207 0.000000
0.780273 0.637207 0.000000
0.803223 0.637207 0.000000
0.825684 0.637207 0.000000
0.846680 0.637207 0.000000
0.866211 0.637207 0.000000
0.885742 0.637207 0.000000
0.903809 0.637207 0.000000
0.921387 0.637207 0.000000
0.938477 0.637207 0.000000
0.954590 0.637207 0.000000
0.970215 0.637207 0.000000
0.985352 0.637207 0.000000
1.000000 0.637207 0.000000
0.000000 0.670898 0.000000
0.001598 0.670898 0.000000
0.022903 0.670898 0.000000
0.081909 0.670898 0.000000
0.137329 0.670898 0.000000
0.192261 0.670898 0.000000
0.248657 0.670898 0.000000
0.305908 0.670898 0.000000
0.363037 0.670898 0.000000
0.418213 0.670898 0.000000
0.470215 0.670898 0.000000
0.517578 0.670898 0.000000
0.561523 0.670898 0.000000
0.601074 0.670898 0.000000
0.636719 0.670898 0.000000
0.669922 0.670898 0.000000
0.700684 0.670898 0.000000
0.729004 0.670898 0.000000
0.755371 0.670898 0.000000
0.780273 0.670898 0.000000
0.803223 0.670898 0.000000
0.825684 0.670898 0.000000
0.846680 0.670898 0.000000
0.866211 0.670898 0.000000
0.885742 0.670898 0.000000
0.903809 0.670898 0.000000
0.921387 0.670898 0.000000
0.938477 0.670898 0.000000
0.954590 0.670898 0.000000
0.970215 0.670898 0.000000
0.985352 0.670898 0.000000
1.000000 0.670898 0.000000
0.000000 0.702637 0.000000
0.001598 0.702637 0.000000
0.022903 0.702637 0.000000
0.081909 0.702637 0.000000
0.137329 0.702637 0.000000
0.192261 0.702637 0.000000
0.248657 0.702637 0.000000
0.305908 0.702637 0.000000
0.363037 0.702637 0.000000
0.418213 0.702637 0.000000
0.470215 0.702637 0.000000
0.517578 0.702637 0.000000
0.561523 0.702637 0.000000
0.601074 0.702637 0.000000
0.636719 0.702637 0.000000
0.669922 0.702637 0.000000
0.700684 0.702637 0.000000
0.729004 0.702637 0.000000
0.755371 0.702637 0.000000
0.780273 0.702637 0.000000
0.803223 0.702637 0.000000
0.825684 0.702637 0.000000
0.846680 0.702637 0.000000
0.866211 0.702637 0.000000
0.885742 0.702637 0.000000
0.903809 0.702637 0.000000
0.921387 0.702637 0.000000
0.938477 0.702637 0.000000
0.954590 0.702637 0.000000
0.970215 0.702637 0.000000
0.985352 0.702637 0.000000
1.000000 0.702637 0.000000
0.000000 0.731934 0.000000
0.001598 0.731934 0.000000
0.022903 0.731934 0.000000
0.081909 0.731934 0.000000
0.137329 0.731934 0.000000
0.192261 0.731934 0.000000
0.248657 0.731934 0.000000
0.305908 0.731934 0.000000
0.363037 0.731934 0.000000
0.418213 0.731934 0.000000
0.470215 0.731934 0.000000
0.517578 0.731934 0.000000
0.561523 0.731934 0.000000
0.601074 0.731934 0.000000
0.636719 0.731934 0.000000
0.669922 0.731934 0.000000
0.700684 0.731934 0.000000
0.729004 0.731934 0.000000
0.755371 0.731934 0.000000
0.780273 0.731934 0.000000
0.803223 0.731934 0.000000
0.825684 0.731934 0.000000
0.846680 0.731934 0.000000
0.866211 0.731934 0.000000
0.885742 0.731934 0.000000
0.903809 0.731934 0.000000
0.921387 0.731934 0.000000
0.938477 0.731934 0.000000
0.954590 0.731934 0.000000
0.970215 0.731934 0.000000
0.985352 0.731934 0.000000
1.000000 0.731934 0.000000
0.000000 0.759277 0.000000
0.001598 0.759277 0.000000
0.022903 0.759277 0.000000
0.081909 0.759277 0.000000
0.137329 0.759277 0.000000
0.192261 0.759277 0.000000
0.248657 0.759277 0.000000
0.305908 0.759277 0.000000
0.363037 0.759277 0.000000
0.418213 0.759277 0.000000
0.470215 0.759277 0.000000
0.517578 0.759277 0.000000
0.561523 0.759277 0.000000
0.601074 0.759277 0.000000
0.636719 0.759277 0.000000
0.669922 0.759277 0.000000
0.700684 0.759277 0.000000
0.729004 0.759277 0.000000
0.755371 0.759277 0.000000
0.780273 0.759277 0.000000
0.803223 0.759277 0.000000
0.825684 0.759277 0.000000
0.846680 0.759277 0.000000
0.866211 0.759277 0.000000
0.885742 0.759277 0.000000
0.903809 0.759277 0.000000
0.921387 0.759277 0.000000
0.938477 0.759277 0.000000
0.954590 0.759277 0.000000
0.970215 0.759277 0.000000
0.985352 0.759277 0.000000
1.000000 0.759277 0.000000
0.000000 0.785156 0.000000
0.001598 0.785156 0.000000
0.022903 0.785156 0.000000
0.081909 0.785156 0.000000
0.137329 0.785156 0.000000
0.192261 0.785156 0.000000
0.248657 0.785156 0.000000
0.305908 0.785156 0.000000
0.363037 0.785156 0.000000
0.418213 0.785156 0.000000
0.470215 0.785156 0.000000
0.517578 0.785156 0.000000
0.561523 0.785156 0.000000
0.601074 0.785156 0.000000
0.636719 0.785156 0.000000
0.669922 0.785156 0.000000
0.700684 0.785156 0.000000
0.729004 0.785156 0.000000
0.755371 0.785156 0.000000
0.780273 0.785156 0.000000
0.803223 0.785156 0.000000
0.825684 0.785156 0.000000
0.846680 0.785156 0.000000
0.866211 0.785156 0.000000
0.885742 0.785156 0.000000
0.903809 0.785156 0.000000
0.921387 0.785156 0.000000
0.938477 0.785156 0.000000
0.954590 0.785156 0.000000
0.970215 0.785156 0.000000
0.985352 0.785156 0.000000
1.000000 0.785156 0.000000
0.000000 0.809570 0.000000
0.001598 0.809570 0.000000
0.022903 0.809570 0.000000
0.081909 0.809570 0.000000
0.137329 0.809570 0.000000
0.192261 0.809570 0.000000
0.248657 0.809570 0.000000
0.305908 0.809570 0.000000
0.363037 0.809570 0.000000
0.418213 0.809570 0.000000
0.470215 0.809570 0.000000
0.517578 0.809570 0.000000
0.561523 0.809570 0.000000
0.601074 0.809570 0.000000
0.636719 0.809570 0.000000
0.669922 0.809570 0.000000
0.700684 0.809570 0.000000
0.729004 0.809570 0.000000
0.755371 0.809570 0.000000
0.780273 0.809570 0.000000
0.803223 0.809570 0.000000
0.825684 0.809570 0.000000
0.846680 0.809570 0.000000
0.866211 0.809570 0.000000
0.885742 0.809570 0.000000
0.903809 0.809570 0.000000
0.921387 0.809570 0.000000
0.938477 0.809570 0.000000
0.954590 0.809570 0.000000
0.970215 0.809570 0.000000
0.985352 0.809570 0.000000
1.000000 0.809570 0.000000
0.000000 0.833008 0.000000
0.001598 0.833008 0.000000
0.022903 0.833008 0.000000
0.081909 0.833008 0.000000
0.137329 0.833008 0.000000
0.192261 0.833008 0.000000
0.248657 0.833008 0.000000
0.305908 0.833008 0.000000
0.363037 0.833008 0.000000
0.418213 0.833008 0.000000
0.470215 0.833008 0.000000
0.517578 0.833008 0.000000
0.561523 0.833008 0.000000
0.601074 0.833008 0.000000
0.636719 0.833008 0.000000
0.669922 0.833008 0.000000
0.700684 0.833008 0.000000
0.729004 0.833008 0.000000
0.755371 0.833008 0.000000
0.780273 0.833008 0.000000
0.803223 0.833008 0.000000
0.825684 0.833008 0.000000
0.846680 0.833008 0.000000
0.866211 0.833008 0.000000
0.885742 0.833008 0.000000
0.903809 0.833008 0.000000
0.921387 0.833008 0.000000
0.938477 0.833008 0.000000
0.954590 0.833008 0.000000
0.970215 0.833008 0.000000
0.985352 0.833008 0.000000
1.000000 0.833008 0.000000
0.000000 0.854492 0.000000
0.001598 0.854492 0.000000
0.022903 0.854492 0.000000
0.081909 0.854492 0.000000
0.137329 0.854492 0.000000
0.192261 0.854492 0.000000
0.248657 0.854492 0.000000
0.305908 0.854492 0.000000
0.363037 0.854492 0.000000
0.418213 0.854492 0.000000
0.470215 0.854492 0.000000
0.517578 0.854492 0.000000
0.561523 0.854492 0.000000
0.601074 0.854492 0.000000
0.636719 0.854492 0.000000
0.669922 0.854492 0.000000
0.700684 0.854492 0.000000
0.729004 0.854492 0.000000
0.755371 0.854492 0.000000
0.780273 0.854492 0.000000
0.803223 0.854492 0.000000
0.825684 0.854492 0.000000
0.846680 0.854492 0.000000
0.866211 0.854492 0.000000
0.885742 0.854492 0.000000
0.903809 0.854492 0.000000
0.921387 0.854492 0.000000
0.938477 0.854492 0.000000
0.954590 0.854492 0.000000
0.970215 0.854492 0.000000
0.985352 0.854492 0.000000
1.000000 0.854492 0.000000
0.000000 0.875977 0.000000
0.001598 0.875977 0.000000
0.022903 0.875977 0.000000
0.081909 0.875977 0.000000
0.137329 0.875977 0.000000
0.192261 0.875977 0.000000
0.248657 0.875977 0.000000
0.305908 0.875977 0.000000
0.363037 0.875977 0.000000
0.418213 0.875977 0.000000
0.470215 0.875977 0.000000
0.517578 0.875977 0.000000
0.561523 0.875977 0.000000
0.601074 0.875977 0.000000
0.636719 0.875977 0.000000
0.669922 0.875977 0.000000
0.700684 0.875977 0.000000
0.729004 0.875977 0.000000
0.755371 0.875977 0.000000
0.780273 0.875977 0.000000
0.803223 0.875977 0.000000
0.825684 0.875977 0.000000
0.846680 0.875977 0.000000
0.866211 0.875977 0.000000
0.885742 0.875977 0.000000
0.903809 0.875977 0.000000
0.921387 0.875977 0.000000
0.938477 0.875977 0.000000
0.954590 0.875977 0.000000
0.970215 0.875977 0.000000
0.985352 0.875977 0.000000
1.000000 0.875977 0.000000
0.000000 0.895996 0.000000
0.001598 0.895996 0.000000
0.022903 0.895996 0.000000
0.081909 0.895996 0.000000
0.137329 0.895996 0.000000
0.192261 0.895996 0.000000
0.248657 0.895996 0.000000
0.305908 0.895996 0.000000
0.363037 0.895996 0.000000
0.418213 0.895996 0.000000
0.470215 0.895996 0.000000
0.517578 0.895996 0.000000
0.561523 0.895996 0.000000
0.601074 0.895996 0.000000
0.636719 0.895996 0.000000
0.669922 0.895996 0.000000
0.700684 0.895996 0.000000
0.729004 0.895996 0.000000
0.755371 0.895996 0.000000
0.780273 0.895996 0.000000
0.803223 0.895996 0.000000
0.825684 0.895996 0.000000
0.846680 0.895996 0.000000
0.866211 0.895996 0.000000
0.885742 0.895996 0.000000
0.903809 0.895996 0.000000
0.921387 0.895996 0.000000
0.938477 0.895996 0.000000
0.954590 0.895996 0.000000
0.970215 0.895996 0.000000
0.985352 0.895996 0.000000
1.000000 0.895996 0.000000
0.000000 0.915039 0.000000
0.001598 0.915039 0.000000
0.022903 0.915039 0.000000
0.081909 0.915039 0.000000
0.137329 0.915039 0.000000
0.192261 0.915039 0.000000
0.248657 0.915039 0.000000
0.305908 0.915039 0.000000
0.363037 0.915039 0.000000
0.418213 0.915039 0.000000
0.470215 0.915039 0.000000
0.517578 0.915039 0.000000
0.561523 0.915039 0.000000
0.601074 0.915039 0.000000
0.636719 0.915039 0.000000
0.669922 0.915039 0.000000
0.700684 0.915039 0.000000
0.729004 0.915039 0.000000
0.755371 0.915039 0.000000
0.780273 0.915039 0.000000
0.803223 0.915039 0.000000
0.825684 0.915039 0.000000
0.846680 0.915039 0.000000
0.866211 0.915039 0.000000
0.885742 0.915039 0.000000
0.903809 0.915039 0.000000
0.921387 0.915039 0.000000
0.938477 0.915039 0.000000
0.954590 0.915039 0.000000
0.970215 0.915039 0.000000
0.985352 0.915039 0.000000
1.000000 0.915039 0.000000
0.000000 0.933105 0.000000
0.001598 0.933105 0.000000
0.022903 0.933105 0.000000
0.081909 0.933105 0.000000
0.137329 0.933105 0.000000
0.192261 0.933105 0.000000
0.248657 0.933105 0.000000
0.305908 0.933105 0.000000
0.363037 0.933105 0.000000
0.418213 0.933105 0.000000
0.470215 0.933105 0.000000
0.517578 0.933105 0.000000
0.561523 0.933105 0.000000
0.601074 0.933105 0.000000
0.636719 0.933105 0.000000
0.669922 0.933105 0.000000
0.700684 0.933105 0.000000
0.729004 0.933105 0.000000
0.755371 0.933105 0.000000
0.780273 0.933105 0.000000
0.803223 0.933105 0.000000
0.825684 0.933105 0.000000
0.846680 0.933105 0.000000
