cubelut/Adanmq_Portra 160n.cube
TITLE "Generated by Foundry::LUT"
LUT_3D_SIZE 32
0.000000 0.000000 0.000000
0.014626 0.000000 0.000000
0.036011 0.000000 0.000000
0.059875 0.000000 0.000000
0.085754 0.000000 0.000000
0.113037 0.000000 0.000000
0.141479 0.000000 0.000000
0.170532 0.000000 0.000000
0.200806 0.000000 0.000000
0.231812 0.000000 0.000000
0.263184 0.000000 0.000000
0.295410 0.000000 0.000000
0.328369 0.000000 0.000000
0.361328 0.000000 0.000000
0.395020 0.000000 0.000000
0.428955 0.000000 0.000000
0.463379 0.000000 0.000000
0.498047 0.000000 0.000000
0.533203 0.000000 0.000000
0.568848 0.000000 0.000000
0.604980 0.000000 0.000000
0.640625 0.000000 0.000000
0.676758 0.000000 0.000000
0.712891 0.000000 0.000000
0.750488 0.000000 0.000000
0.788086 0.000000 0.000000
0.825684 0.000000 0.000000
0.863770 0.000000 0.000000
0.900391 0.000000 0.000000
0.935547 0.000000 0.000000
0.969238 0.000000 0.000000
1.000000 0.000000 0.000000
0.000000 0.012794 0.000000
0.014626 0.012794 0.000000
0.036011 0.012794 0.000000
0.059875 0.012794 0.000000
0.085754 0.012794 0.000000
0.113037 0.012794 0.000000
0.141479 0.012794 0.000000
0.170532 0.012794 0.000000
0.200806 0.012794 0.000000
0.231812 0.012794 0.000000
0.263184 0.012802 0.000000
0.295410 0.012802 0.000000
0.328369 0.012802 0.000000
0.361328 0.012802 0.000000
0.395020 0.012802 0.000000
0.428955 0.012802 0.000000
0.463379 0.012802 0.000000
0.498047 0.012802 0.000000
0.533203 0.012802 0.000000
0.568848 0.012802 0.000000
0.604980 0.012802 0.000000
0.640625 0.012802 0.000000
0.676758 0.012802 0.000000
0.712891 0.012802 0.000000
0.750488 0.012802 0.000000
0.788086 0.012802 0.000000
0.825684 0.012802 0.000000
0.863770 0.012802 0.000000
0.900391 0.012802 0.000000
0.935547 0.012802 0.000000
0.969238 0.012810 0.000000
1.000000 0.012810 0.000000
0.000000 0.032104 0.000000
0.014626 0.032104 0.000000
0.036011 0.032104 0.000000
0.059875 0.032104 0.000000
0.085754 0.032104 0.000000
0.113037 0.032104 0.000000
0.141479 0.032104 0.000000
0.170532 0.032104 0.000000
0.200806 0.032104 0.000000
0.231812 0.032104 0.000000
0.263184 0.032135 0.000000
0.295410 0.032135 0.000000
0.328369 0.032135 0.000000
0.361328 0.032135 0.000000
0.395020 0.032135 0.000000
0.428955 0.032135 0.000000
0.463379 0.032135 0.000000
0.498047 0.032135 0.000000
0.533203 0.032135 0.000000
0.568848 0.032135 0.000000
0.604980 0.032135 0.000000
0.640625 0.032135 0.000000
0.676758 0.032135 0.000000
0.712891 0.032135 0.000000
0.750488 0.032135 0.000000
0.788086 0.032135 0.000000
0.825684 0.032135 0.000000
0.863770 0.032135 0.000000
0.900391 0.032135 0.000000
0.935547 0.032135 0.000000
0.969238 0.032135 0.000000
1.000000 0.032135 0.000000
0.000000 0.054443 0.000000
0.014626 0.054443 0.000000
0.036011 0.054443 0.000000
0.059875 0.054443 0.000000
0.085754 0.054443 0.000000
0.113037 0.054443 0.000000
0.141479 0.054443 0.000000
0.170532 0.054443 0.000000
0.200806 0.054443 0.000000
0.231812 0.054443 0.000000
0.263184 0.054443 0.000000
0.295410 0.054443 0.000000
0.328369 0.054443 0.000000
0.361328 0.054443 0.000000
0.395020 0.054443 0.000000
0.428955 0.054443 0.000000
0.463379 0.054443 0.000000
0.498047 0.054443 0.000000
0.533203 0.054443 0.000000
0.568848 0.054443 0.000000
0.604980 0.054443 0.000000
0.640625 0.054443 0.000000
0.676758 0.054443 0.000000
0.712891 0.054443 0.000000
0.750488 0.054443 0.000000
0.788086 0.054443 0.000000
0.825684 0.054443 0.000000
0.863770 0.054443 0.000000
0.900391 0.054443 0.000000
0.935547 0.054443 0.000000
0.969238 0.054443 0.000000
1.000000 0.054443 0.000000
0.000000 0.078674 0.000000
0.014626 0.078674 0.000000
0.036011 0.078674 0.000000
0.059875 0.078674 0.000000
0.085754 0.078674 0.000000
0.113037 0.078674 0.000000
0.141479 0.078674 0.000000
0.170532 0.078674 0.000000
0.200806 0.078674 0.000000
0.231812 0.078674 0.000000
0.263184 0.078674 0.000000
0.295410 0.078674 0.000000
0.328369 0.078735 0.000000
0.361328 0.078735 0.000000
0.395020 0.078735 0.000000
0.428955 0.078735 0.000000
0.463379 0.078735 0.000000
0.498047 0.078735 0.000000
0.533203 0.078735 0.000000
0.568848 0.078735 0.000000
0.604980 0.078735 0.000000
0.640625 0.078735 0.000000
0.676758 0.078735 0.000000
0.712891 0.078735 0.000000
0.750488 0.078735 0.000000
0.788086 0.078735 0.000000
0.825684 0.078735 0.000000
0.863770 0.078735 0.000000
0.900391 0.078735 0.000000
0.935547 0.078735 0.000000
0.969238 0.078735 0.000000
1.000000 0.078735 0.000000
0.000000 0.104675 0.000000
0.014626 0.104675 0.000000
0.036011 0.104675 0.000000
0.059875 0.104675 0.000000
0.085754 0.104675 0.000000
0.113037 0.104675 0.000000
0.141479 0.104675 0.000000
0.170532 0.104675 0.000000
0.200806 0.104675 0.000000
0.231812 0.104675 0.000000
0.263184 0.104675 0.000000
0.295410 0.104675 0.000000
0.328369 0.104675 0.000000
0.361328 0.104675 0.000000
0.395020 0.104675 0.000000
0.428955 0.104675 0.000000
0.463379 0.104675 0.000000
0.498047 0.104675 0.000000
0.533203 0.104675 0.000000
0.568848 0.104675 0.000000
0.604980 0.104675 0.000000
0.640625 0.104675 0.000000
0.676758 0.104675 0.000000
0.712891 0.104675 0.000000
0.750488 0.104675 0.000000
0.788086 0.104675 0.000000
0.825684 0.104675 0.000000
0.863770 0.104675 0.000000
0.900391 0.104675 0.000000
0.935547 0.104675 0.000000
0.969238 0.104675 0.000000
1.000000 0.104675 0.000000
0.000000 0.131714 0.000000
0.014626 0.131714 0.000000
0.036011 0.131714 0.000000
0.059875 0.131714 0.000000
0.085754 0.131714 0.000000
0.113037 0.131714 0.000000
0.141479 0.131714 0.000000
0.170532 0.131714 0.000000
0.200806 0.131714 0.000000
0.231812 0.131714 0.000000
0.263184 0.131714 0.000000
0.295410 0.131714 0.000000
0.328369 0.131714 0.000000
0.361328 0.131714 0.000000
0.395020 0.131714 0.000000
0.428955 0.131714 0.000000
0.463379 0.131714 0.000000
0.498047 0.131714 0.000000
0.533203 0.131714 0.000000
0.568848 0.131714 0.000000
0.604980 0.131714 0.000000
0.640625 0.131714 0.000000
0.676758 0.131714 0.000000
0.712891 0.131714 0.000000
0.750488 0.131714 0.000000
0.788086 0.131714 0.000000
0.825684 0.131714 0.000000
0.863770 0.131714 0.000000
0.900391 0.131714 0.000000
0.935547 0.131714 0.000000
0.969238 0.131714 0.000000
1.000000 0.131714 0.000000
0.000000 0.160156 0.000000
0.014626 0.160156 0.000000
0.036011 0.160156 0.000000
0.059875 0.160156 0.000000
0.085754 0.160156 0.000000
0.113037 0.160156 0.000000
0.141479 0.160156 0.000000
0.170532 0.160156 0.000000
0.200806 0.160156 0.000000
0.231812 0.160156 0.000000
0.263184 0.160156 0.000000
0.295410 0.160156 0.000000
0.328369 0.160156 0.000000
0.361328 0.160156 0.000000
0.395020 0.160156 0.000000
0.428955 0.160156 0.000000
0.463379 0.160156 0.000000
0.498047 0.160156 0.000000
0.533203 0.160156 0.000000
0.568848 0.160156 0.000000
0.604980 0.160156 0.000000
0.640625 0.160156 0.000000
0.676758 0.160156 0.000000
0.712891 0.160156 0.000000
0.750488 0.160156 0.000000
0.788086 0.160156 0.000000
0.825684 0.160156 0.000000
0.863770 0.160156 0.000000
0.900391 0.160156 0.000000
0.935547 0.160156 0.000000
0.969238 0.160156 0.000000
1.000000 0.160156 0.000000
0.000000 0.189575 0.000000
0.014626 0.189575 0.000000
0.036011 0.189575 0.000000
0.059875 0.189575 0.000000
0.085754 0.189575 0.000000
0.113037 0.189575 0.000000
0.141479 0.189575 0.000000
0.170532 0.189575 0.000000
0.200806 0.189575 0.000000
0.231812 0.189575 0.000000
0.263184 0.189575 0.000000
0.295410 0.189575 0.000000
0.328369 0.189575 0.000000
0.361328 0.189575 0.000000
0.395020 0.189575 0.000000
0.428955 0.189575 0.000000
0.463379 0.189575 0.000000
0.498047 0.189575 0.000000
0.533203 0.189575 0.000000
0.568848 0.189575 0.000000
0.604980 0.189575 0.000000
0.640625 0.189575 0.000000
0.676758 0.189575 0.000000
0.712891 0.189575 0.000000
0.750488 0.189575 0.000000
0.788086 0.189575 0.000000
0.825684 0.189575 0.000000
0.863770 0.189575 0.000000
0.900391 0.189575 0.000000
0.935547 0.189575 0.000000
0.969238 0.189575 0.000000
1.000000 0.189575 0.000000
0.000000 0.219238 0.000000
0.014626 0.219238 0.000000
0.036011 0.219238 0.000000
0.059875 0.219238 0.000000
0.085754 0.219238 0.000000
0.113037 0.219238 0.000000
0.141479 0.219238 0.000000
0.170532 0.219238 0.000000
0.200806 0.219238 0.000000
0.231812 0.219238 0.000000
0.263184 0.219238 0.000000
0.295410 0.219238 0.000000
0.328369 0.219238 0.000000
0.361328 0.219238 0.000000
0.395020 0.219238 0.000000
0.428955 0.219238 0.000000
0.463379 0.219238 0.000000
0.498047 0.219238 0.000000
0.533203 0.219238 0.000000
0.568848 0.219360 0.000000
0.604980 0.219360 0.000000
0.640625 0.219360 0.000000
0.676758 0.219360 0.000000
0.712891 0.219360 0.000000
0.750488 0.219360 0.000000
0.788086 0.219360 0.000000
0.825684 0.219360 0.000000
0.863770 0.219360 0.000000
0.900391 0.219360 0.000000
0.935547 0.219360 0.000000
0.969238 0.219360 0.000000
1.000000 0.219360 0.000000
0.000000 0.250244 0.000000
0.014626 0.250244 0.000000
0.036011 0.250244 0.000000
0.059875 0.250244 0.000000
0.085754 0.250244 0.000000
0.113037 0.250244 0.000000
0.141479 0.250244 0.000000
0.170532 0.250244 0.000000
0.200806 0.250244 0.000000
0.231812 0.250244 0.000000
0.263184 0.250244 0.000000
0.295410 0.250244 0.000000
0.328369 0.250244 0.000000
0.361328 0.250244 0.000000
0.395020 0.250244 0.000000
0.428955 0.250244 0.000000
0.463379 0.250244 0.000000
0.498047 0.250244 0.000000
0.533203 0.250244 0.000000
0.568848 0.250244 0.000000
0.604980 0.250244 0.000000
0.640625 0.250244 0.000000
0.676758 0.250244 0.000000
0.712891 0.250244 0.000000
0.750488 0.250244 0.000000
0.788086 0.250244 0.000000
0.825684 0.250244 0.000000
0.863770 0.250244 0.000000
0.900391 0.250244 0.000000
0.935547 0.250244 0.000000
0.969238 0.250244 0.000000
1.000000 0.250244 0.000000
0.000000 0.282471 0.000000
0.014626 0.282471 0.000000
0.036011 0.282471 0.000000
0.059875 0.282471 0.000000
0.085754 0.282471 0.000000
0.113037 0.282471 0.000000
0.141479 0.282471 0.000000
0.170532 0.282471 0.000000
0.200806 0.282471 0.000000
0.231812 0.282471 0.000000
0.263184 0.282471 0.000000
0.295410 0.282471 0.000000
0.328369 0.282471 0.000000
0.361328 0.282471 0.000000
0.395020 0.282471 0.000000
0.428955 0.282471 0.000000
0.463379 0.282471 0.000000
0.498047 0.282471 0.000000
0.533203 0.282471 0.000000
0.568848 0.282471 0.000000
0.604980 0.282471 0.000000
0.640625 0.282471 0.000000
0.676758 0.282471 0.000000
0.712891 0.282471 0.000000
0.750488 0.282471 0.000000
0.788086 0.282471 0.000000
0.825684 0.282471 0.000000
0.863770 0.282471 0.000000
0.900391 0.282471 0.000000
0.935547 0.282471 0.000000
0.969238 0.282471 0.000000
1.000000 0.282471 0.000000
0.000000 0.314941 0.000000
0.014626 0.314941 0.000000
0.036011 0.314941 0.000000
0.059875 0.314941 0.000000
0.085754 0.314941 0.000000
0.113037 0.314941 0.000000
0.141479 0.314941 0.000000
0.170532 0.314941 0.000000
0.200806 0.314941 0.000000
0.231812 0.314941 0.000000
0.263184 0.314941 0.000000
0.295410 0.314941 0.000000
0.328369 0.314941 0.000000
0.361328 0.314941 0.000000
0.395020 0.314941 0.000000
0.428955 0.314941 0.000000
0.463379 0.314941 0.000000
0.498047 0.314941 0.000000
0.533203 0.314941 0.000000
0.568848 0.314941 0.000000
0.604980 0.314941 0.000000
0.640625 0.314941 0.000000
0.676758 0.314941 0.000000
0.712891 0.314941 0.000000
0.750488 0.314941 0.000000
0.788086 0.314941 0.000000
0.825684 0.314941 0.000000
0.863770 0.314941 0.000000
0.900391 0.314941 0.000000
0.935547 0.314941 0.000000
0.969238 0.314941 0.000000
1.000000 0.314941 0.000000
0.000000 0.347412 0.000000
0.014626 0.347412 0.000000
0.036011 0.347412 0.000000
0.059875 0.347412 0.000000
0.085754 0.347412 0.000000
0.113037 0.347412 0.000000
0.141479 0.347412 0.000000
0.170532 0.347412 0.000000
0.200806 0.347412 0.000000
0.231812 0.347412 0.000000
0.263184 0.347412 0.000000
0.295410 0.347412 0.000000
0.328369 0.347412 0.000000
0.361328 0.347412 0.000000
0.395020 0.347412 0.000000
0.428955 0.347412 0.000000
0.463379 0.347412 0.000000
0.498047 0.347412 0.000000
0.533203 0.347412 0.000000
0.568848 0.347412 0.000000
0.604980 0.347412 0.000000
0.640625 0.347412 0.000000
0.676758 0.347412 0.000000
0.712891 0.347412 0.000000
0.750488 0.347412 0.000000
0.788086 0.347412 0.000000
0.825684 0.347412 0.000000
0.863770 0.347412 0.000000
0.900391 0.347412 0.000000
0.935547 0.347412 0.000000
0.969238 0.347412 0.000000
1.000000 0.347412 0.000000
0.000000 0.380859 0.000000
0.014626 0.380859 0.000000
0.036011 0.380859 0.000000
0.059875 0.380859 0.000000
0.085754 0.380859 0.000000
0.113037 0.380859 0.000000
0.141479 0.380859 0.000000
0.170532 0.380859 0.000000
0.200806 0.380859 0.000000
0.231812 0.381104 0.000000
0.263184 0.381104 0.000000
0.295410 0.381104 0.000000
0.328369 0.381104 0.000000
0.361328 0.381104 0.000000
0.395020 0.381104 0.000000
0.428955 0.381104 0.000000
0.463379 0.381104 0.000000
0.498047 0.381104 0.000000
0.533203 0.381104 0.000000
0.568848 0.381104 0.000000
0.604980 0.381104 0.000000
0.640625 0.381104 0.000000
0.676758 0.381104 0.000000
0.712891 0.381104 0.000000
0.750488 0.381104 0.000000
0.788086 0.381104 0.000000
0.825684 0.381104 0.000000
0.863770 0.381104 0.000000
0.900391 0.381104 0.000000
0.935547 0.381104 0.000000
0.969238 0.381104 0.000000
1.000000 0.381104 0.000000
0.000000 0.415527 0.000000
0.014626 0.415527 0.000000
0.036011 0.415527 0.000000
0.059875 0.415527 0.000000
0.085754 0.415527 0.000000
0.113037 0.415527 0.000000
0.141479 0.415527 0.000000
0.170532 0.415527 0.000000
0.200806 0.415527 0.000000
0.231812 0.415527 0.000000
0.263184 0.415527 0.000000
0.295410 0.415527 0.000000
0.328369 0.415527 0.000000
0.361328 0.415527 0.000000
0.395020 0.415527 0.000000
0.428955 0.415527 0.000000
0.463379 0.415527 0.000000
0.498047 0.415527 0.000000
0.533203 0.415527 0.000000
0.568848 0.415527 0.000000
0.604980 0.415527 0.000000
0.640625 0.415527 0.000000
0.676758 0.415527 0.000000
0.712891 0.415527 0.000000
0.750488 0.415527 0.000000
0.788086 0.415527 0.000000
0.825684 0.415527 0.000000
0.863770 0.415527 0.000000
0.900391 0.415527 0.000000
0.935547 0.415527 0.000000
0.969238 0.415527 0.000000
1.000000 0.415527 0.000000
0.000000 0.450684 0.000000
0.014626 0.450684 0.000000
0.036011 0.450684 0.000000
0.059875 0.450684 0.000000
0.085754 0.450684 0.000000
0.113037 0.450684 0.000000
0.141479 0.450684 0.000000
0.170532 0.450684 0.000000
0.200806 0.450684 0.000000
0.231812 0.450684 0.000000
0.263184 0.450684 0.000000
0.295410 0.450684 0.000000
0.328369 0.450684 0.000000
0.361328 0.450684 0.000000
0.395020 0.450684 0.000000
0.428955 0.450684 0.000000
0.463379 0.450684 0.000000
0.498047 0.450684 0.000000
0.533203 0.450684 0.000000
0.568848 0.450684 0.000000
0.604980 0.450684 0.000000
0.640625 0.450684 0.000000
0.676758 0.450684 0.000000
0.712891 0.450684 0.000000
0.750488 0.450684 0.000000
0.788086 0.450684 0.000000
0.825684 0.450684 0.000000
0.863770 0.450684 0.000000
0.900391 0.450684 0.000000
0.935547 0.450684 0.000000
0.969238 0.450684 0.000000
1.000000 0.450684 0.000000
0.000000 0.485840 0.000000
0.014626 0.485840 0.000000
0.036011 0.485840 0.000000
0.059875 0.485840 0.000000
0.085754 0.485840 0.000000
0.113037 0.486084 0.000000
0.141479 0.486084 0.000000
0.170532 0.486084 0.000000
0.200806 0.486084 0.000000
0.231812 0.486084 0.000000
0.263184 0.486084 0.000000
0.295410 0.486084 0.000000
0.328369 0.486084 0.000000
0.361328 0.486084 0.000000
0.395020 0.486084 0.000000
0.428955 0.486084 0.000000
0.463379 0.486084 0.000000
0.498047 0.486084 0.000000
0.533203 0.486084 0.000000
0.568848 0.486084 0.000000
0.604980 0.486084 0.000000
0.640625 0.486084 0.000000
0.676758 0.486084 0.000000
0.712891 0.486084 0.000000
0.750488 0.486084 0.000000
0.788086 0.486084 0.000000
0.825684 0.486084 0.000000
0.863770 0.486084 0.000000
0.900391 0.486084 0.000000
0.935547 0.486084 0.000000
0.969238 0.486084 0.000000
1.000000 0.486084 0.000000
0.000000 0.521484 0.000000
0.014626 0.521484 0.000000
0.036011 0.521484 0.000000
0.059875 0.521484 0.000000
0.085754 0.521484 0.000000
0.113037 0.521484 0.000000
0.141479 0.521484 0.000000
0.170532 0.521484 0.000000
0.200806 0.521484 0.000000
0.231812 0.521973 0.000000
0.263184 0.521973 0.000000
0.295410 0.521973 0.000000
0.328369 0.521973 0.000000
0.361328 0.521973 0.000000
0.395020 0.521973 0.000000
0.428955 0.521973 0.000000
0.463379 0.521973 0.000000
0.498047 0.521973 0.000000
0.533203 0.521973 0.000000
0.568848 0.521973 0.000000
0.604980 0.521973 0.000000
0.640625 0.521973 0.000000
0.676758 0.521973 0.000000
0.712891 0.521973 0.000000
0.750488 0.521973 0.000000
0.788086 0.521973 0.000000
0.825684 0.521973 0.000000
0.863770 0.521973 0.000000
0.900391 0.521973 0.000000
0.935547 0.521973 0.000000
0.969238 0.521973 0.000000
1.000000 0.521973 0.000000
0.000000 0.557617 0.000000
0.014626 0.557617 0.000000
0.036011 0.557617 0.000000
0.059875 0.557617 0.000000
0.085754 0.557617 0.000000
0.113037 0.557617 0.000000
0.141479 0.557617 0.000000
0.170532 0.557617 0.000000
0.200806 0.557617 0.000000
0.231812 0.557617 0.000000
0.263184 0.557617 0.000000
0.295410 0.557617 0.000000
0.328369 0.557617 0.000000
0.361328 0.557617 0.000000
0.395020 0.557617 0.000000
0.428955 0.557617 0.000000
0.463379 0.557617 0.000000
0.498047 0.557617 0.000000
0.533203 0.557617 0.000000
0.568848 0.557617 0.000000
0.604980 0.557617 0.000000
0.640625 0.557617 0.000000
0.676758 0.557617 0.000000
0.712891 0.557617 0.000000
0.750488 0.557617 0.000000
0.788086 0.557617 0.000000
0.825684 0.557617 0.000000
0.863770 0.557617 0.000000
0.900391 0.557617 0.000000
0.935547 0.557617 0.000000
0.969238 0.557617 0.000000
1.000000 0.557617 0.000000
0.000000 0.593750 0.000000
0.014626 0.593750 0.000000
0.036011 0.593750 0.000000
0.059875 0.593750 0.000000
0.085754 0.593750 0.000000
0.113037 0.593750 0.000000
0.141479 0.593750 0.000000
0.170532 0.593750 0.000000
0.200806 0.593750 0.000000
0.231812 0.593750 0.000000
0.263184 0.593750 0.000000
0.295410 0.593750 0.000000
0.328369 0.593750 0.000000
0.361328 0.593750 0.000000
0.395020 0.593750 0.000000
0.428955 0.593750 0.000000
0.463379 0.593750 0.000000
0.498047 0.593750 0.000000
0.533203 0.593750 0.000000
0.568848 0.593750 0.000000
0.604980 0.593750 0.000000
0.640625 0.593750 0.000000
0.676758 0.593750 0.000000
0.712891 0.593750 0.000000
0.750488 0.593750 0.000000
0.788086 0.593750 0.000000
0.825684 0.593750 0.000000
0.863770 0.593750 0.000000
0.900391 0.593750 0.000000
0.935547 0.593750 0.000000
0.969238 0.593750 0.000000
1.000000 0.593750 0.000000
0.000000 0.630371 0.000000
0.014626 0.630371 0.000000
0.036011 0.630371 0.000000
0.059875 0.630371 0.000000
0.085754 0.630371 0.000000
0.113037 0.630371 0.000000
0.141479 0.630371 0.000000
0.170532 0.630371 0.000000
0.200806 0.630859 0.000000
0.231812 0.630859 0.000000
0.263184 0.630859 0.000000
0.295410 0.630859 0.000000
0.328369 0.630859 0.000000
0.361328 0.630859 0.000000
0.395020 0.630859 0.000000
0.428955 0.630859 0.000000
0.463379 0.630859 0.000000
0.498047 0.630859 0.000000
0.533203 0.630859 0.000000
0.568848 0.630859 0.000000
0.604980 0.630859 0.000000
0.640625 0.630859 0.000000
0.676758 0.630859 0.000000
0.712891 0.630859 0.000000
0.750488 0.630859 0.000000
0.788086 0.630859 0.000000
0.825684 0.630859 0.000000
0.863770 0.630859 0.000000
0.900391 0.630859 0.000000
0.935547 0.630859 0.000000
0.969238 0.630859 0.000000
1.000000 0.630859 0.000000
0.000000 0.667969 0.000000
0.014626 0.667969 0.000000
0.036011 0.667969 0.000000
0.059875 0.667969 0.000000
0.085754 0.667969 0.000000
0.113037 0.667969 0.000000
0.141479 0.667969 0.000000
0.170532 0.667969 0.000000
0.200806 0.667969 0.000000
0.231812 0.667969 0.000000
0.263184 0.667969 0.000000
0.295410 0.667969 0.000000
0.328369 0.667969 0.000000
0.361328 0.667969 0.000000
0.395020 0.667969 0.000000
0.428955 0.667969 0.000000
0.463379 0.667969 0.000000
0.498047 0.667969 0.000000
0.533203 0.667969 0.000000
0.568848 0.667969 0.000000
0.604980 0.667969 0.000000
0.640625 0.667969 0.000000
0.676758 0.667969 0.000000
0.712891 0.667969 0.000000
0.750488 0.667969 0.000000
0.788086 0.667969 0.000000
0.825684 0.667969 0.000000
0.863770 0.667969 0.000000
0.900391 0.667969 0.000000
0.935547 0.667969 0.000000
0.969238 0.667969 0.000000
1.000000 0.667969 0.000000
0.000000 0.706055 0.000000
0.014626 0.706055 0.000000
0.036011 0.706055 0.000000
0.059875 0.706055 0.000000
0.085754 0.706055 0.000000
0.113037 0.706055 0.000000
0.141479 0.706055 0.000000
0.170532 0.706055 0.000000
0.200806 0.706055 0.000000
0.231812 0.706055 0.000000
0.263184 0.706055 0.000000
0.295410 0.706055 0.000000
0.328369 0.706055 0.000000
0.361328 0.706055 0.000000
0.395020 0.706055 0.000000
0.428955 0.706055 0.000000
0.463379 0.706055 0.000000
0.498047 0.706055 0.000000
0.533203 0.706055 0.000000
0.568848 0.706055 0.000000
0.604980 0.706055 0.000000
0.640625 0.706055 0.000000
0.676758 0.706055 0.000000
0.712891 0.706055 0.000000
0.750488 0.706055 0.000000
0.788086 0.706055 0.000000
0.825684 0.706055 0.000000
0.863770 0.706055 0.000000
0.900391 0.706055 0.000000
0.935547 0.706055 0.000000
0.969238 0.706055 0.000000
1.000000 0.706055 0.000000
0.000000 0.745117 0.000000
0.014626 0.745117 0.000000
0.036011 0.745117 0.000000
0.059875 0.745117 0.000000
0.085754 0.745117 0.000000
0.113037 0.745117 0.000000
0.141479 0.745117 0.000000
0.170532 0.745117 0.000000
0.200806 0.745117 0.000000
0.231812 0.745117 0.000000
0.263184 0.745117 0.000000
0.295410 0.745117 0.000000
0.328369 0.745117 0.000000
0.361328 0.745117 0.000000
0.395020 0.745117 0.000000
0.428955 0.745117 0.000000
0.463379 0.745117 0.000000
0.498047 0.745117 0.000000
0.533203 0.745117 0.000000
0.568848 0.745117 0.000000
0.604980 0.745117 0.000000
0.640625 0.745117 0.000000
0.676758 0.745117 0.000000
0.712891 0.745117 0.000000
0.750488 0.745117 0.000000
0.788086 0.745117 0.000000
0.825684 0.745117 0.000000
0.863770 0.745117 0.000000
0.900391 0.745117 0.000000
0.935547 0.745117 0.000000
0.969238 0.745117 0.000000
1.000000 0.745117 0.000000
0.000000 0.783203 0.000000
0.014626 0.783203 0.000000
0.036011 0.783203 0.000000
0.059875 0.783203 0.000000
0.085754 0.783203 0.000000
0.113037 0.783203 0.000000
0.141479 0.783203 0.000000
0.170532 0.783203 0.000000
0.200806 0.783203 0.000000
0.231812 0.783203 0.000000
0.263184 0.783203 0.000000
0.295410 0.783203 0.000000
0.328369 0.783203 0.000000
0.361328 0.783203 0.000000
0.395020 0.783203 0.000000
0.428955 0.783203 0.000000
0.463379 0.783203 0.000000
0.498047 0.783203 0.000000
0.533203 0.783203 0.000000
0.568848 0.783203 0.000000
0.604980 0.783203 0.000000
0.640625 0.783203 0.000000
0.676758 0.783203 0.000000
0.712891 0.783203 0.000000
0.750488 0.783203 0.000000
0.788086 0.783203 0.000000
0.825684 0.783203 0.000000
0.863770 0.783203 0.000000
0.900391 0.783203 0.000000
0.935547 0.783203 0.000000
0.969238 0.783203 0.000000
1.000000 0.783203 0.000000
0.000000 0.822266 0.000000
0.014626 0.822266 0.000000
0.036011 0.822266 0.000000
0.059875 0.822266 0.000000
0.085754 0.822266 0.000000
0.113037 0.822266 0.000000
0.141479 0.822266 0.000000
0.170532 0.822266 0.000000
0.200806 0.822266 0.000000
0.231812 0.822266 0.000000
0.263184 0.822266 0.000000
0.295410 0.822266 0.000000
0.328369 0.822266 0.000000
0.361328 0.822266 0.000000
0.395020 0.822266 0.000000
0.428955 0.822266 0.000000
0.463379 0.822266 0.000000
0.498047 0.822266 0.000000
0.533203 0.822266 0.000000
0.568848 0.822266 0.000000
0.604980 0.822266 0.000000
0.640625 0.822266 0.000000
0.676758 0.822266 0.000000
0.712891 0.822266 0.000000
0.750488 0.822266 0.000000
0.788086 0.822266 0.000000
0.825684 0.822266 0.000000
0.863770 0.822266 0.000000
0.900391 0.822266 0.000000
0.935547 0.822266 0.000000
0.969238 0.822266 0.000000
1.000000 0.822266 0.000000
0.000000 0.860352 0.000000
0.014626 0.860352 0.000000
0.036011 0.860352 0.000000
0.059875 0.860352 0.000000
0.085754 0.860352 0.000000
0.113037 0.860352 0.000000
0.141479 0.860352 0.000000
0.170532 0.860352 0.000000
0.200806 0.860352 0.000000
0.231812 0.860352 0.000000
0.263184 0.860352 0.000000
0.295410 0.860352 0.000000
0.328369 0.860352 0.000000
0.361328 0.860352 0.000000
0.395020 0.860352 0.000000
0.428955 0.860352 0.000000
0.463379 0.860352 0.000000
0.498047 0.860352 0.000000
0.533203 0.860352 0.000000
0.568848 0.860352 0.000000
0.604980 0.860352 0.000000
0.640625 0.860352 0.000000
0.676758 0.860352 0.000000
