cubelut/Adanmq_Canon DSC S315 n5.cube
TITLE "Generated by Foundry::LUT"
LUT_3D_SIZE 8
DOMAIN_MIN 0.000000 0.000000 0.000000
DOMAIN_MAX 0.903226 0.903226 0.903226
0.000000 0.000000 0.000000
0.140259 0.000000 0.000000
0.369385 0.000000 0.000000
0.556152 0.000000 0.000000
0.689453 0.000000 0.000000
0.792969 0.000000 0.000000
0.877930 0.000000 0.000000
0.951172 0.000000 0.000000
0.000000 0.140259 0.000000
0.140259 0.140259 0.000000
0.369385 0.140259 0.000000
0.556152 0.140259 0.000000
0.689453 0.140259 0.000000
0.792969 0.140381 0.000000
0.877930 0.140381 0.000000
0.951172 0.140381 0.000000
0.000000 0.369385 0.000000
0.140259 0.369385 0.000000
0.369385 0.369385 0.000000
0.556152 0.369385 0.000000
0.689453 0.369385 0.000000
0.792969 0.369385 0.000000
0.877930 0.369385 0.000000
0.951172 0.369385 0.000000
0.000000 0.556152 0.000000
0.140259 0.556152 0.000000
0.369385 0.556152 0.000000
0.556152 0.556152 0.000000
0.689453 0.556152 0.000000
0.792969 0.556152 0.000000
0.877930 0.556152 0.000000
0.951172 0.556152 0.000000
0.000000 0.689453 0.000000
0.140259 0.689453 0.000000
0.369385 0.689453 0.000000
0.556152 0.689453 0.000000
0.689453 0.689453 0.000000
0.792969 0.689453 0.000000
0.877930 0.689453 0.000000
0.951172 0.689453 0.000000
0.000000 0.792969 0.000000
0.140259 0.792969 0.000000
0.369385 0.792969 0.000000
0.556152 0.792969 0.000000
0.689453 0.792969 0.000000
0.792969 0.792969 0.000000
0.877930 0.792969 0.000000
0.951172 0.792969 0.000000
0.000000 0.877930 0.000000
0.140259 0.877930 0.000000
0.369385 0.877930 0.000000
0.556152 0.877930 0.000000
0.689453 0.877930 0.000000
0.792969 0.877930 0.000000
0.877930 0.877930 0.000000
0.951172 0.877930 0.000000
0.000000 0.951172 0.000000
0.140259 0.951172 0.000000
0.369385 0.951172 0.000000
0.556152 0.951172 0.000000
0.689453 0.951172 0.000000
0.792969 0.951172 0.000000
0.877930 0.951172 0.000000
0.951172 0.951172 0.000000
0.000000 0.000000 0.140259
0.140381 0.000000 0.140259
0.369385 0.000000 0.140259
0.556152 0.000000 0.140259
0.689453 0.000000 0.140259
0.792969 0.000000 0.140259
0.877930 0.000000 0.140259
0.951172 0.000000 0.140259
0.000000 0.140259 0.140259
0.140381 0.140259 0.140259
0.369385 0.140259 0.140259
0.556152 0.140259 0.140259
0.689453 0.140259 0.140259
0.792969 0.140259 0.140259
0.877930 0.140381 0.140259
0.951172 0.140381 0.140259
0.000000 0.369385 0.140259
0.140381 0.369385 0.140259
0.369385 0.369385 0.140259
0.556152 0.369385 0.140259
0.689453 0.369385 0.140259
0.792969 0.369385 0.140259
0.877930 0.369385 0.140259
0.951172 0.369385 0.140259
0.000000 0.556152 0.140259
0.140381 0.556152 0.140259
0.369385 0.556152 0.140259
0.556152 0.556152 0.140259
0.689453 0.556152 0.140259
0.792969 0.556152 0.140259
0.877930 0.556152 0.140259
0.951172 0.556152 0.140259
0.000000 0.689453 0.140259
0.140381 0.689453 0.140259
0.369385 0.689453 0.140259
0.556152 0.689453 0.140259
0.689453 0.689453 0.140259
0.792969 0.689453 0.140259
0.877930 0.689453 0.140259
0.951172 0.689453 0.140259
0.000000 0.792969 0.140259
0.140381 0.792969 0.140259
0.369385 0.792969 0.140259
0.556152 0.792969 0.140259
0.689453 0.792969 0.140259
0.792969 0.792969 0.140259
0.877930 0.792969 0.140259
0.951172 0.792969 0.140259
0.000000 0.877930 0.140259
0.140381 0.877930 0.140259
0.369385 0.877930 0.140259
0.556152 0.877930 0.140259
0.689453 0.877930 0.140259
0.792969 0.877930 0.140259
0.877930 0.877930 0.140259
0.951172 0.877930 0.140259
0.000000 0.951172 0.140259
0.140381 0.951172 0.140259
0.369385 0.951172 0.140259
0.556152 0.951172 0.140259
0.689453 0.951172 0.140259
0.792969 0.951172 0.140259
0.877930 0.951172 0.140259
0.951172 0.951172 0.140259
0.000000 0.000000 0.369385
0.140381 0.000000 0.369385
0.369385 0.000000 0.369385
0.556152 0.000000 0.369385
0.689453 0.000000 0.369385
0.792969 0.000000 0.369385
0.877930 0.000000 0.369385
0.951172 0.000000 0.369385
0.000000 0.140259 0.369385
0.140381 0.140259 0.369385
0.369385 0.140259 0.369385
0.556152 0.140259 0.369385
0.689453 0.140259 0.369385
0.792969 0.140259 0.369385
0.877930 0.140381 0.369385
0.951172 0.140381 0.369385
0.000000 0.369385 0.369385
0.140381 0.369385 0.369385
0.369385 0.369385 0.369385
0.556152 0.369385 0.369385
0.689453 0.369385 0.369385
0.792969 0.369385 0.369385
0.877930 0.369385 0.369385
0.951172 0.369385 0.369385
0.000000 0.556152 0.369385
0.140381 0.556152 0.369385
0.369385 0.556152 0.369385
0.556152 0.556152 0.369385
0.689453 0.556152 0.369385
0.792969 0.556152 0.369385
0.877930 0.556152 0.369385
0.951172 0.556152 0.369385
0.000000 0.689453 0.369385
0.140381 0.689453 0.369385
0.369385 0.689453 0.369385
0.556152 0.689453 0.369385
0.689453 0.689453 0.369385
0.792969 0.689453 0.369385
0.877930 0.689453 0.369385
0.951172 0.689453 0.369385
0.000000 0.792969 0.369385
0.140381 0.792969 0.369385
0.369385 0.792969 0.369385
0.556152 0.792969 0.369385
0.689453 0.792969 0.369385
0.792969 0.792969 0.369385
0.877930 0.792969 0.369385
0.951172 0.792969 0.369385
0.000000 0.877930 0.369385
0.140381 0.877930 0.369385
0.369385 0.877930 0.369385
0.556152 0.877930 0.369385
0.689453 0.877930 0.369385
0.792969 0.877930 0.369385
0.877930 0.877930 0.369385
0.951172 0.877930 0.369385
0.000000 0.951172 0.369385
0.140381 0.951172 0.369385
0.369385 0.951172 0.369385
0.556152 0.951172 0.369385
0.689453 0.951172 0.369385
0.792969 0.951172 0.369385
0.877930 0.951172 0.369385
0.951172 0.951172 0.369385
0.000000 0.000000 0.556152
0.140381 0.000000 0.556152
0.369629 0.000000 0.556152
0.556152 0.000000 0.556152
0.689453 0.000000 0.556152
0.792969 0.000000 0.556152
0.877930 0.000000 0.556152
0.951172 0.000000 0.556152
0.000000 0.140259 0.556152
0.140381 0.140259 0.556152
0.369629 0.140259 0.556152
0.556152 0.140259 0.556152
0.689453 0.140259 0.556152
0.792969 0.140259 0.556152
0.877930 0.140259 0.556152
0.951172 0.140381 0.556152
0.000000 0.369385 0.556152
0.140381 0.369385 0.556152
0.369629 0.369385 0.556152
0.556152 0.369385 0.556152
0.689453 0.369385 0.556152
0.792969 0.369385 0.556152
0.877930 0.369385 0.556152
0.951172 0.369385 0.556152
0.000000 0.556152 0.556152
0.140381 0.556152 0.556152
0.369629 0.556152 0.556152
0.556152 0.556152 0.556152
0.689453 0.556152 0.556152
0.792969 0.556152 0.556152
0.877930 0.556152 0.556152
0.951172 0.556152 0.556152
0.000000 0.689453 0.556152
0.140381 0.689453 0.556152
0.369629 0.689453 0.556152
0.556152 0.689453 0.556152
0.689453 0.689453 0.556152
0.792969 0.689453 0.556152
0.877930 0.689453 0.556152
0.951172 0.689453 0.556152
0.000000 0.792969 0.556152
0.140381 0.792969 0.556152
0.369629 0.792969 0.556152
0.556152 0.792969 0.556152
0.689453 0.792969 0.556152
0.792969 0.792969 0.556152
0.877930 0.792969 0.556152
0.951172 0.792969 0.556152
0.000000 0.877930 0.556152
0.140381 0.877930 0.556152
0.369629 0.877930 0.556152
0.556152 0.877930 0.556152
0.689453 0.877930 0.556152
0.792969 0.877930 0.556152
0.877930 0.877930 0.556152
0.951172 0.877930 0.556152
0.000000 0.951172 0.556152
0.140381 0.951172 0.556152
0.369629 0.951172 0.556152
0.556152 0.951172 0.556152
0.689453 0.951172 0.556152
0.792969 0.951172 0.556152
0.877930 0.951172 0.556152
0.951172 0.951172 0.556152
0.000000 0.000000 0.689453
0.140381 0.000000 0.689453
0.369629 0.000000 0.689453
0.556152 0.000000 0.689453
0.689453 0.000000 0.689453
0.792969 0.000000 0.689453
0.877930 0.000000 0.689453
0.951172 0.000000 0.689453
0.000000 0.140259 0.689453
0.140381 0.140259 0.689453
0.369629 0.140259 0.689453
0.556152 0.140259 0.689453
0.689453 0.140259 0.689453
0.792969 0.140259 0.689453
0.877930 0.140259 0.689453
0.951172 0.140259 0.689453
0.000000 0.369385 0.689453
0.140381 0.369385 0.689453
0.369629 0.369385 0.689453
0.556152 0.369385 0.689453
0.689453 0.369385 0.689453
0.792969 0.369385 0.689453
0.877930 0.369385 0.689453
0.951172 0.369385 0.689453
0.000000 0.556152 0.689453
0.140381 0.556152 0.689453
0.369629 0.556152 0.689453
0.556152 0.556152 0.689453
0.689453 0.556152 0.689453
0.792969 0.556152 0.689453
0.877930 0.556152 0.689453
0.951172 0.556152 0.689453
0.000000 0.689453 0.689453
0.140381 0.689453 0.689453
0.369629 0.689453 0.689453
0.556152 0.689453 0.689453
0.689453 0.689453 0.689453
0.792969 0.689453 0.689453
0.877930 0.689453 0.689453
0.951172 0.689453 0.689453
0.000000 0.792969 0.689453
0.140381 0.792969 0.689453
0.369629 0.792969 0.689453
0.556152 0.792969 0.689453
0.689453 0.792969 0.689453
0.792969 0.792969 0.689453
0.877930 0.792969 0.689453
0.951172 0.792969 0.689453
0.000000 0.877930 0.689453
0.140381 0.877930 0.689453
0.369629 0.877930 0.689453
0.556152 0.877930 0.689453
0.689453 0.877930 0.689453
0.792969 0.877930 0.689453
0.877930 0.877930 0.689453
0.951172 0.877930 0.689453
0.000000 0.951172 0.689453
0.140381 0.951172 0.689453
0.369629 0.951172 0.689453
0.556152 0.951172 0.689453
0.689453 0.951172 0.689453
0.792969 0.951172 0.689453
0.877930 0.951172 0.689453
0.951172 0.951172 0.689453
0.000000 0.000000 0.792480
0.140503 0.000000 0.792480
0.369629 0.000000 0.792480
0.556152 0.000000 0.792480
0.689453 0.000000 0.792480
0.792969 0.000000 0.792480
0.877930 0.000000 0.792480
0.951172 0.000000 0.792480
0.000000 0.140259 0.792480
0.140503 0.140259 0.792480
0.369629 0.140259 0.792480
0.556152 0.140259 0.792480
0.689453 0.140259 0.792480
0.792969 0.140259 0.792480
0.877930 0.140259 0.792480
0.951172 0.140259 0.792480
0.000000 0.369385 0.792480
0.140503 0.369385 0.792480
0.369629 0.369385 0.792480
0.556152 0.369385 0.792480
0.689453 0.369385 0.792480
0.792969 0.369385 0.792480
0.877930 0.369385 0.792480
0.951172 0.369385 0.792480
0.000000 0.556152 0.792480
0.140503 0.556152 0.792480
0.369629 0.556152 0.792480
0.556152 0.556152 0.792480
0.689453 0.556152 0.792480
0.792969 0.556152 0.792480
0.877930 0.556152 0.792480
0.951172 0.556152 0.792480
0.000000 0.689453 0.792480
0.140503 0.689453 0.792480
0.369629 0.689453 0.792480
0.556152 0.689453 0.792480
0.689453 0.689453 0.792480
0.792969 0.689453 0.792480
0.877930 0.689453 0.792480
0.951172 0.689453 0.792480
0.000000 0.792969 0.792480
0.140503 0.792969 0.792480
0.369629 0.792969 0.792480
0.556152 0.792969 0.792480
0.689453 0.792969 0.792480
0.792969 0.792969 0.792480
0.877930 0.792969 0.792480
0.951172 0.792969 0.792480
0.000000 0.877930 0.792480
0.140503 0.877930 0.792480
0.369629 0.877930 0.792480
0.556152 0.877930 0.792480
0.689453 0.877930 0.792480
0.792969 0.877930 0.792480
0.877930 0.877930 0.792480
0.951172 0.877930 0.792480
0.000000 0.951172 0.792480
0.140503 0.951172 0.792480
0.369629 0.951172 0.792480
0.556152 0.951172 0.792480
0.689453 0.951172 0.792480
0.792969 0.951172 0.792480
0.877930 0.951172 0.792480
0.951172 0.951172 0.792480
0.000000 0.000000 0.877930
0.140503 0.000000 0.877930
0.369629 0.000000 0.877930
0.556152 0.000000 0.877930
0.689453 0.000000 0.877930
0.792969 0.000000 0.877930
0.877930 0.000000 0.877930
0.951172 0.000000 0.877930
0.000000 0.140259 0.877930
0.140503 0.140259 0.877930
0.369629 0.140259 0.877930
0.556152 0.140259 0.877930
0.689453 0.140259 0.877930
0.792969 0.140259 0.877930
0.877930 0.140259 0.877930
0.951172 0.140259 0.877930
0.000000 0.369385 0.877930
0.140503 0.369385 0.877930
0.369629 0.369385 0.877930
0.556152 0.369385 0.877930
0.689453 0.369385 0.877930
0.792969 0.369385 0.877930
0.877930 0.369385 0.877930
0.951172 0.369385 0.877930
0.000000 0.556152 0.877930
0.140503 0.556152 0.877930
0.369629 0.556152 0.877930
0.556152 0.556152 0.877930
0.689453 0.556152 0.877930
0.792969 0.556152 0.877930
0.877930 0.556152 0.877930
0.951172 0.556152 0.877930
0.000000 0.689453 0.877930
0.140503 0.689453 0.877930
0.369629 0.689453 0.877930
0.556152 0.689453 0.877930
0.689453 0.689453 0.877930
0.792969 0.689453 0.877930
0.877930 0.689453 0.877930
0.951172 0.689453 0.877930
0.000000 0.792969 0.877930
0.140503 0.792969 0.877930
0.369629 0.792969 0.877930
0.556152 0.792969 0.877930
0.689453 0.792969 0.877930
0.792969 0.792969 0.877930
0.877930 0.792969 0.877930
0.951172 0.792969 0.877930
0.000000 0.877930 0.877930
0.140503 0.877930 0.877930
0.369629 0.877930 0.877930
0.556152 0.877930 0.877930
0.689453 0.877930 0.877930
0.792969 0.877930 0.877930
0.877930 0.877930 0.877930
0.951172 0.877930 0.877930
0.000000 0.951172 0.877930
0.140503 0.951172 0.877930
0.369629 0.951172 0.877930
0.556152 0.951172 0.877930
0.689453 0.951172 0.877930
0.792969 0.951172 0.877930
0.877930 0.951172 0.877930
0.951172 0.951172 0.877930
0.000000 0.000000 0.950684
0.140503 0.000000 0.950684
0.369629 0.000000 0.950684
0.556152 0.000000 0.950684
0.689453 0.000000 0.950684
0.792969 0.000000 0.950684
0.877930 0.000000 0.950684
0.951172 0.000000 0.950684
0.000000 0.140259 0.950684
0.140503 0.140259 0.950684
0.369629 0.140259 0.950684
0.556152 0.140259 0.950684
0.689453 0.140259 0.950684
0.792969 0.140259 0.950684
0.877930 0.140259 0.950684
0.951172 0.140259 0.950684
0.000000 0.369385 0.950684
0.140503 0.369385 0.950684
0.369629 0.369385 0.950684
0.556152 0.369385 0.950684
0.689453 0.369385 0.950684
0.792969 0.369385 0.950684
0.877930 0.369385 0.950684
0.951172 0.369385 0.950684
0.000000 0.556152 0.950684
0.140503 0.556152 0.950684
0.369629 0.556152 0.950684
0.556152 0.556152 0.950684
0.689453 0.556152 0.950684
0.792969 0.556152 0.950684
0.877930 0.556152 0.950684
0.951172 0.556152 0.950684
0.000000 0.689453 0.950684
0.140503 0.689453 0.950684
0.369629 0.689453 0.950684
0.556152 0.689453 0.950684
0.689453 0.689453 0.950684
0.792969 0.689453 0.950684
0.877930 0.689453 0.950684
0.951172 0.689453 0.950684
0.000000 0.792969 0.950684
0.140503 0.792969 0.950684
0.369629 0.792969 0.950684
0.556152 0.792969 0.950684
0.689453 0.792969 0.950684
0.792969 0.792969 0.950684
0.877930 0.792969 0.950684
0.951172 0.792969 0.950684
0.000000 0.877930 0.950684
0.140503 0.877930 0.950684
0.369629 0.877930 0.950684
0.556152 0.877930 0.950684
0.689453 0.877930 0.950684
0.792969 0.877930 0.950684
0.877930 0.877930 0.950684
0.951172 0.877930 0.950684
0.000000 0.951172 0.950684
0.140503 0.951172 0.950684
0.369629 0.951172 0.950684
0.556152 0.951172 0.950684
0.689453 0.951172 0.950684
0.792969 0.951172 0.950684
0.877930 0.951172 0.950684
0.951172 0.951172 0.950684
