cubelut/Adanmq_Gold 200.cube
TITLE "Generated by Foundry::LUT"
LUT_3D_SIZE 32
0.000000 0.000000 0.000000
0.012138 0.000000 0.000000
0.033630 0.000000 0.000000
0.060333 0.000000 0.000000
0.090698 0.000000 0.000000
0.124084 0.000000 0.000000
0.160034 0.000000 0.000000
0.197754 0.000000 0.000000
0.237427 0.000000 0.000000
0.278320 0.000000 0.000000
0.318848 0.000000 0.000000
0.359863 0.000000 0.000000
0.401123 0.000000 0.000000
0.440918 0.000000 0.000000
0.480713 0.000000 0.000000
0.520020 0.000000 0.000000
0.558105 0.000000 0.000000
0.594727 0.000000 0.000000
0.630371 0.000000 0.000000
0.664063 0.000000 0.000000
0.696777 0.000000 0.000000
0.729004 0.000000 0.000000
0.760254 0.000000 0.000000
0.791016 0.000000 0.000000
0.821777 0.000000 0.000000
0.851074 0.000000 0.000000
0.879883 0.000000 0.000000
0.908203 0.000000 0.000000
0.934570 0.000000 0.000000
0.959473 0.000000 0.000000
0.981445 0.000000 0.000000
1.000000 0.000000 0.000000
0.000000 0.008629 0.000000
0.012138 0.008629 0.000000
0.033630 0.008629 0.000000
0.060333 0.008629 0.000000
0.090698 0.008629 0.000000
0.124084 0.008629 0.000000
0.160034 0.008629 0.000000
0.197754 0.008629 0.000000
0.237427 0.008629 0.000000
0.278320 0.008629 0.000000
0.318848 0.008629 0.000000
0.359863 0.008629 0.000000
0.401123 0.008629 0.000000
0.440918 0.008629 0.000000
0.480713 0.008629 0.000000
0.520020 0.008629 0.000000
0.558105 0.008629 0.000000
0.594727 0.008629 0.000000
0.630371 0.008629 0.000000
0.664063 0.008636 0.000000
0.696777 0.008636 0.000000
0.729004 0.008636 0.000000
0.760254 0.008636 0.000000
0.791016 0.008636 0.000000
0.821777 0.008636 0.000000
0.851074 0.008636 0.000000
0.879883 0.008636 0.000000
0.908203 0.008636 0.000000
0.934570 0.008636 0.000000
0.959473 0.008636 0.000000
0.981445 0.008636 0.000000
1.000000 0.008636 0.000000
0.000000 0.025543 0.000000
0.012138 0.025543 0.000000
0.033630 0.025543 0.000000
0.060333 0.025543 0.000000
0.090698 0.025543 0.000000
0.124084 0.025543 0.000000
0.160034 0.025543 0.000000
0.197754 0.025543 0.000000
0.237427 0.025543 0.000000
0.278320 0.025543 0.000000
0.318848 0.025543 0.000000
0.359863 0.025543 0.000000
0.401123 0.025543 0.000000
0.440918 0.025543 0.000000
0.480713 0.025543 0.000000
0.520020 0.025543 0.000000
0.558105 0.025543 0.000000
0.594727 0.025543 0.000000
0.630371 0.025543 0.000000
0.664063 0.025543 0.000000
0.696777 0.025543 0.000000
0.729004 0.025543 0.000000
0.760254 0.025543 0.000000
0.791016 0.025543 0.000000
0.821777 0.025543 0.000000
0.851074 0.025543 0.000000
0.879883 0.025543 0.000000
0.908203 0.025543 0.000000
0.934570 0.025543 0.000000
0.959473 0.025543 0.000000
0.981445 0.025543 0.000000
1.000000 0.025558 0.000000
0.000000 0.046967 0.000000
0.012138 0.046967 0.000000
0.033630 0.046967 0.000000
0.060333 0.046967 0.000000
0.090698 0.046967 0.000000
0.124084 0.046967 0.000000
0.160034 0.046967 0.000000
0.197754 0.046967 0.000000
0.237427 0.046967 0.000000
0.278320 0.046967 0.000000
0.318848 0.046967 0.000000
0.359863 0.046967 0.000000
0.401123 0.046967 0.000000
0.440918 0.046967 0.000000
0.480713 0.046967 0.000000
0.520020 0.046967 0.000000
0.558105 0.046967 0.000000
0.594727 0.046967 0.000000
0.630371 0.046967 0.000000
0.664063 0.046967 0.000000
0.696777 0.046967 0.000000
0.729004 0.046967 0.000000
0.760254 0.046967 0.000000
0.791016 0.046967 0.000000
0.821777 0.046967 0.000000
0.851074 0.046967 0.000000
0.879883 0.046967 0.000000
0.908203 0.046967 0.000000
0.934570 0.046967 0.000000
0.959473 0.046967 0.000000
0.981445 0.046967 0.000000
1.000000 0.046967 0.000000
0.000000 0.071899 0.000000
0.012138 0.071899 0.000000
0.033630 0.071899 0.000000
0.060333 0.071899 0.000000
0.090698 0.071899 0.000000
0.124084 0.071899 0.000000
0.160034 0.071899 0.000000
0.197754 0.071899 0.000000
0.237427 0.071899 0.000000
0.278320 0.071899 0.000000
0.318848 0.071899 0.000000
0.359863 0.071899 0.000000
0.401123 0.071899 0.000000
0.440918 0.071899 0.000000
0.480713 0.071899 0.000000
0.520020 0.071899 0.000000
0.558105 0.071899 0.000000
0.594727 0.071899 0.000000
0.630371 0.071899 0.000000
0.664063 0.071899 0.000000
0.696777 0.071899 0.000000
0.729004 0.071899 0.000000
0.760254 0.071899 0.000000
0.791016 0.071899 0.000000
0.821777 0.071899 0.000000
0.851074 0.071899 0.000000
0.879883 0.071899 0.000000
0.908203 0.071899 0.000000
0.934570 0.071899 0.000000
0.959473 0.071899 0.000000
0.981445 0.071899 0.000000
1.000000 0.071899 0.000000
0.000000 0.099548 0.000000
0.012138 0.099548 0.000000
0.033630 0.099548 0.000000
0.060333 0.099548 0.000000
0.090698 0.099548 0.000000
0.124084 0.099548 0.000000
0.160034 0.099548 0.000000
0.197754 0.099548 0.000000
0.237427 0.099548 0.000000
0.278320 0.099548 0.000000
0.318848 0.099548 0.000000
0.359863 0.099548 0.000000
0.401123 0.099548 0.000000
0.440918 0.099548 0.000000
0.480713 0.099548 0.000000
0.520020 0.099548 0.000000
0.558105 0.099548 0.000000
0.594727 0.099548 0.000000
0.630371 0.099548 0.000000
0.664063 0.099609 0.000000
0.696777 0.099609 0.000000
0.729004 0.099609 0.000000
0.760254 0.099609 0.000000
0.791016 0.099609 0.000000
0.821777 0.099609 0.000000
0.851074 0.099609 0.000000
0.879883 0.099609 0.000000
0.908203 0.099609 0.000000
0.934570 0.099609 0.000000
0.959473 0.099609 0.000000
0.981445 0.099609 0.000000
1.000000 0.099609 0.000000
0.000000 0.129761 0.000000
0.012138 0.129761 0.000000
0.033630 0.129761 0.000000
0.060333 0.129761 0.000000
0.090698 0.129761 0.000000
0.124084 0.129761 0.000000
0.160034 0.129761 0.000000
0.197754 0.129761 0.000000
0.237427 0.129761 0.000000
0.278320 0.129761 0.000000
0.318848 0.129761 0.000000
0.359863 0.129761 0.000000
0.401123 0.129761 0.000000
0.440918 0.129761 0.000000
0.480713 0.129761 0.000000
0.520020 0.129761 0.000000
0.558105 0.129761 0.000000
0.594727 0.129761 0.000000
0.630371 0.129761 0.000000
0.664063 0.129761 0.000000
0.696777 0.129761 0.000000
0.729004 0.129761 0.000000
0.760254 0.129761 0.000000
0.791016 0.129761 0.000000
0.821777 0.129761 0.000000
0.851074 0.129761 0.000000
0.879883 0.129761 0.000000
0.908203 0.129761 0.000000
0.934570 0.129761 0.000000
0.959473 0.129761 0.000000
0.981445 0.129761 0.000000
1.000000 0.129761 0.000000
0.000000 0.161865 0.000000
0.012138 0.161865 0.000000
0.033630 0.161865 0.000000
0.060333 0.161865 0.000000
0.090698 0.161865 0.000000
0.124084 0.161865 0.000000
0.160034 0.161865 0.000000
0.197754 0.161865 0.000000
0.237427 0.161865 0.000000
0.278320 0.161865 0.000000
0.318848 0.161865 0.000000
0.359863 0.161865 0.000000
0.401123 0.161865 0.000000
0.440918 0.161865 0.000000
0.480713 0.161865 0.000000
0.520020 0.161865 0.000000
0.558105 0.161865 0.000000
0.594727 0.161865 0.000000
0.630371 0.161865 0.000000
0.664063 0.161865 0.000000
0.696777 0.161865 0.000000
0.729004 0.161865 0.000000
0.760254 0.161865 0.000000
0.791016 0.161865 0.000000
0.821777 0.161865 0.000000
0.851074 0.161865 0.000000
0.879883 0.161865 0.000000
0.908203 0.161865 0.000000
0.934570 0.161865 0.000000
0.959473 0.161865 0.000000
0.981445 0.161865 0.000000
1.000000 0.161865 0.000000
0.000000 0.196167 0.000000
0.012138 0.196167 0.000000
0.033630 0.196167 0.000000
0.060333 0.196167 0.000000
0.090698 0.196167 0.000000
0.124084 0.196167 0.000000
0.160034 0.196167 0.000000
0.197754 0.196167 0.000000
0.237427 0.196167 0.000000
0.278320 0.196167 0.000000
0.318848 0.196167 0.000000
0.359863 0.196167 0.000000
0.401123 0.196167 0.000000
0.440918 0.196167 0.000000
0.480713 0.196167 0.000000
0.520020 0.196167 0.000000
0.558105 0.196167 0.000000
0.594727 0.196167 0.000000
0.630371 0.196167 0.000000
0.664063 0.196167 0.000000
0.696777 0.196167 0.000000
0.729004 0.196167 0.000000
0.760254 0.196167 0.000000
0.791016 0.196167 0.000000
0.821777 0.196167 0.000000
0.851074 0.196167 0.000000
0.879883 0.196167 0.000000
0.908203 0.196167 0.000000
0.934570 0.196167 0.000000
0.959473 0.196167 0.000000
0.981445 0.196167 0.000000
1.000000 0.196167 0.000000
0.000000 0.231689 0.000000
0.012138 0.231689 0.000000
0.033630 0.231689 0.000000
0.060333 0.231689 0.000000
0.090698 0.231689 0.000000
0.124084 0.231689 0.000000
0.160034 0.231689 0.000000
0.197754 0.231689 0.000000
0.237427 0.231689 0.000000
0.278320 0.231689 0.000000
0.318848 0.231689 0.000000
0.359863 0.231689 0.000000
0.401123 0.231689 0.000000
0.440918 0.231689 0.000000
0.480713 0.231689 0.000000
0.520020 0.231689 0.000000
0.558105 0.231689 0.000000
0.594727 0.231689 0.000000
0.630371 0.231689 0.000000
0.664063 0.231689 0.000000
0.696777 0.231689 0.000000
0.729004 0.231689 0.000000
0.760254 0.231689 0.000000
0.791016 0.231689 0.000000
0.821777 0.231689 0.000000
0.851074 0.231689 0.000000
0.879883 0.231689 0.000000
0.908203 0.231689 0.000000
0.934570 0.231689 0.000000
0.959473 0.231689 0.000000
0.981445 0.231689 0.000000
1.000000 0.231689 0.000000
0.000000 0.268311 0.000000
0.012138 0.268311 0.000000
0.033630 0.268311 0.000000
0.060333 0.268311 0.000000
0.090698 0.268311 0.000000
0.124084 0.268311 0.000000
0.160034 0.268311 0.000000
0.197754 0.268311 0.000000
0.237427 0.268311 0.000000
0.278320 0.268311 0.000000
0.318848 0.268311 0.000000
0.359863 0.268311 0.000000
0.401123 0.268311 0.000000
0.440918 0.268311 0.000000
0.480713 0.268311 0.000000
0.520020 0.268311 0.000000
0.558105 0.268311 0.000000
0.594727 0.268311 0.000000
0.630371 0.268311 0.000000
0.664063 0.268311 0.000000
0.696777 0.268311 0.000000
0.729004 0.268311 0.000000
0.760254 0.268311 0.000000
0.791016 0.268311 0.000000
0.821777 0.268311 0.000000
0.851074 0.268311 0.000000
0.879883 0.268311 0.000000
0.908203 0.268311 0.000000
0.934570 0.268311 0.000000
0.959473 0.268311 0.000000
0.981445 0.268311 0.000000
1.000000 0.268311 0.000000
0.000000 0.306152 0.000000
0.012138 0.306152 0.000000
0.033630 0.306152 0.000000
0.060333 0.306152 0.000000
0.090698 0.306152 0.000000
0.124084 0.306152 0.000000
0.160034 0.306152 0.000000
0.197754 0.306152 0.000000
0.237427 0.306152 0.000000
0.278320 0.306152 0.000000
0.318848 0.306152 0.000000
0.359863 0.306152 0.000000
0.401123 0.306152 0.000000
0.440918 0.306152 0.000000
0.480713 0.306152 0.000000
0.520020 0.306152 0.000000
0.558105 0.306152 0.000000
0.594727 0.306152 0.000000
0.630371 0.306152 0.000000
0.664063 0.306152 0.000000
0.696777 0.306152 0.000000
0.729004 0.306152 0.000000
0.760254 0.306152 0.000000
0.791016 0.306152 0.000000
0.821777 0.306152 0.000000
0.851074 0.306152 0.000000
0.879883 0.306152 0.000000
0.908203 0.306152 0.000000
0.934570 0.306152 0.000000
0.959473 0.306152 0.000000
0.981445 0.306152 0.000000
1.000000 0.306152 0.000000
0.000000 0.344482 0.000000
0.012138 0.344482 0.000000
0.033630 0.344482 0.000000
0.060333 0.344482 0.000000
0.090698 0.344482 0.000000
0.124084 0.344482 0.000000
0.160034 0.344482 0.000000
0.197754 0.344482 0.000000
0.237427 0.344482 0.000000
0.278320 0.344482 0.000000
0.318848 0.344482 0.000000
0.359863 0.344482 0.000000
0.401123 0.344482 0.000000
0.440918 0.344482 0.000000
0.480713 0.344482 0.000000
0.520020 0.344482 0.000000
0.558105 0.344482 0.000000
0.594727 0.344482 0.000000
0.630371 0.344482 0.000000
0.664063 0.344482 0.000000
0.696777 0.344482 0.000000
0.729004 0.344482 0.000000
0.760254 0.344482 0.000000
0.791016 0.344482 0.000000
0.821777 0.344482 0.000000
0.851074 0.344482 0.000000
0.879883 0.344482 0.000000
0.908203 0.344482 0.000000
0.934570 0.344482 0.000000
0.959473 0.344482 0.000000
0.981445 0.344482 0.000000
1.000000 0.344482 0.000000
0.000000 0.382813 0.000000
0.012138 0.383057 0.000000
0.033630 0.383057 0.000000
0.060333 0.383057 0.000000
0.090698 0.383057 0.000000
0.124084 0.383057 0.000000
0.160034 0.383057 0.000000
0.197754 0.383057 0.000000
0.237427 0.383057 0.000000
0.278320 0.383057 0.000000
0.318848 0.383057 0.000000
0.359863 0.383057 0.000000
0.401123 0.383057 0.000000
0.440918 0.383057 0.000000
0.480713 0.383057 0.000000
0.520020 0.383057 0.000000
0.558105 0.383057 0.000000
0.594727 0.383057 0.000000
0.630371 0.383057 0.000000
0.664063 0.383057 0.000000
0.696777 0.383057 0.000000
0.729004 0.383057 0.000000
0.760254 0.383057 0.000000
0.791016 0.383057 0.000000
0.821777 0.383057 0.000000
0.851074 0.383057 0.000000
0.879883 0.383057 0.000000
0.908203 0.383057 0.000000
0.934570 0.383057 0.000000
0.959473 0.383057 0.000000
0.981445 0.383057 0.000000
1.000000 0.383057 0.000000
0.000000 0.421387 0.000000
0.012138 0.421387 0.000000
0.033630 0.421387 0.000000
0.060333 0.421387 0.000000
0.090698 0.421387 0.000000
0.124084 0.421387 0.000000
0.160034 0.421387 0.000000
0.197754 0.421387 0.000000
0.237427 0.421387 0.000000
0.278320 0.421387 0.000000
0.318848 0.421387 0.000000
0.359863 0.421387 0.000000
0.401123 0.421387 0.000000
0.440918 0.421387 0.000000
0.480713 0.421387 0.000000
0.520020 0.421387 0.000000
0.558105 0.421387 0.000000
0.594727 0.421387 0.000000
0.630371 0.421387 0.000000
0.664063 0.421387 0.000000
0.696777 0.421387 0.000000
0.729004 0.421387 0.000000
0.760254 0.421387 0.000000
0.791016 0.421387 0.000000
0.821777 0.421387 0.000000
0.851074 0.421387 0.000000
0.879883 0.421387 0.000000
0.908203 0.421387 0.000000
0.934570 0.421387 0.000000
0.959473 0.421387 0.000000
0.981445 0.421387 0.000000
1.000000 0.421387 0.000000
0.000000 0.459473 0.000000
0.012138 0.459473 0.000000
0.033630 0.459473 0.000000
0.060333 0.459473 0.000000
0.090698 0.459473 0.000000
0.124084 0.459473 0.000000
0.160034 0.459473 0.000000
0.197754 0.459473 0.000000
0.237427 0.459473 0.000000
0.278320 0.459473 0.000000
0.318848 0.459473 0.000000
0.359863 0.459473 0.000000
0.401123 0.459473 0.000000
0.440918 0.459473 0.000000
0.480713 0.459473 0.000000
0.520020 0.459473 0.000000
0.558105 0.459473 0.000000
0.594727 0.459473 0.000000
0.630371 0.459473 0.000000
0.664063 0.459473 0.000000
0.696777 0.459473 0.000000
0.729004 0.459473 0.000000
0.760254 0.459473 0.000000
0.791016 0.459473 0.000000
0.821777 0.459473 0.000000
0.851074 0.459473 0.000000
0.879883 0.459473 0.000000
0.908203 0.459473 0.000000
0.934570 0.459473 0.000000
0.959473 0.459473 0.000000
0.981445 0.459473 0.000000
1.000000 0.459473 0.000000
0.000000 0.497070 0.000000
0.012138 0.497070 0.000000
0.033630 0.497070 0.000000
0.060333 0.497070 0.000000
0.090698 0.497070 0.000000
0.124084 0.497070 0.000000
0.160034 0.497070 0.000000
0.197754 0.497070 0.000000
0.237427 0.497070 0.000000
0.278320 0.497070 0.000000
0.318848 0.497070 0.000000
0.359863 0.497070 0.000000
0.401123 0.497070 0.000000
0.440918 0.497070 0.000000
0.480713 0.497070 0.000000
0.520020 0.497070 0.000000
0.558105 0.497070 0.000000
0.594727 0.497070 0.000000
0.630371 0.497070 0.000000
0.664063 0.497070 0.000000
0.696777 0.497070 0.000000
0.729004 0.497070 0.000000
0.760254 0.497070 0.000000
0.791016 0.497070 0.000000
0.821777 0.497070 0.000000
0.851074 0.497070 0.000000
0.879883 0.497070 0.000000
0.908203 0.497070 0.000000
0.934570 0.497070 0.000000
0.959473 0.497070 0.000000
0.981445 0.497070 0.000000
1.000000 0.497070 0.000000
0.000000 0.535156 0.000000
0.012138 0.535156 0.000000
0.033630 0.535156 0.000000
0.060333 0.535156 0.000000
0.090698 0.535156 0.000000
0.124084 0.535156 0.000000
0.160034 0.535156 0.000000
0.197754 0.535156 0.000000
0.237427 0.535156 0.000000
0.278320 0.535156 0.000000
0.318848 0.535156 0.000000
0.359863 0.535156 0.000000
0.401123 0.535156 0.000000
0.440918 0.535156 0.000000
0.480713 0.535156 0.000000
0.520020 0.535156 0.000000
0.558105 0.535156 0.000000
0.594727 0.535156 0.000000
0.630371 0.535156 0.000000
0.664063 0.535156 0.000000
0.696777 0.535156 0.000000
0.729004 0.535156 0.000000
0.760254 0.535156 0.000000
0.791016 0.535156 0.000000
0.821777 0.535156 0.000000
0.851074 0.535156 0.000000
0.879883 0.535156 0.000000
0.908203 0.535156 0.000000
0.934570 0.535156 0.000000
0.959473 0.535156 0.000000
0.981445 0.535156 0.000000
1.000000 0.535156 0.000000
0.000000 0.572266 0.000000
0.012138 0.572266 0.000000
0.033630 0.572266 0.000000
0.060333 0.572266 0.000000
0.090698 0.572266 0.000000
0.124084 0.572266 0.000000
0.160034 0.572266 0.000000
0.197754 0.572266 0.000000
0.237427 0.572266 0.000000
0.278320 0.572266 0.000000
0.318848 0.572266 0.000000
0.359863 0.572266 0.000000
0.401123 0.572266 0.000000
0.440918 0.572266 0.000000
0.480713 0.572266 0.000000
0.520020 0.572266 0.000000
0.558105 0.572266 0.000000
0.594727 0.572266 0.000000
0.630371 0.572266 0.000000
0.664063 0.572266 0.000000
0.696777 0.572266 0.000000
0.729004 0.572266 0.000000
0.760254 0.572266 0.000000
0.791016 0.572266 0.000000
0.821777 0.572266 0.000000
0.851074 0.572266 0.000000
0.879883 0.572266 0.000000
0.908203 0.572266 0.000000
0.934570 0.572266 0.000000
0.959473 0.572266 0.000000
0.981445 0.572266 0.000000
1.000000 0.572266 0.000000
0.000000 0.608398 0.000000
0.012138 0.608398 0.000000
0.033630 0.608398 0.000000
0.060333 0.608398 0.000000
0.090698 0.608398 0.000000
0.124084 0.608398 0.000000
0.160034 0.608398 0.000000
0.197754 0.608398 0.000000
0.237427 0.608398 0.000000
0.278320 0.608398 0.000000
0.318848 0.608398 0.000000
0.359863 0.608398 0.000000
0.401123 0.608398 0.000000
0.440918 0.608398 0.000000
0.480713 0.608398 0.000000
0.520020 0.608398 0.000000
0.558105 0.608398 0.000000
0.594727 0.608398 0.000000
0.630371 0.608398 0.000000
0.664063 0.608398 0.000000
0.696777 0.608398 0.000000
0.729004 0.608398 0.000000
0.760254 0.608398 0.000000
0.791016 0.608398 0.000000
0.821777 0.608398 0.000000
0.851074 0.608398 0.000000
0.879883 0.608398 0.000000
0.908203 0.608398 0.000000
0.934570 0.608398 0.000000
0.959473 0.608398 0.000000
0.981445 0.608398 0.000000
1.000000 0.608398 0.000000
0.000000 0.644043 0.000000
0.012138 0.644043 0.000000
0.033630 0.644043 0.000000
0.060333 0.644043 0.000000
0.090698 0.644043 0.000000
0.124084 0.644043 0.000000
0.160034 0.644043 0.000000
0.197754 0.644043 0.000000
0.237427 0.644043 0.000000
0.278320 0.644043 0.000000
0.318848 0.644043 0.000000
0.359863 0.644043 0.000000
0.401123 0.644043 0.000000
0.440918 0.644043 0.000000
0.480713 0.644043 0.000000
0.520020 0.644043 0.000000
0.558105 0.644043 0.000000
0.594727 0.644043 0.000000
0.630371 0.644043 0.000000
0.664063 0.644043 0.000000
0.696777 0.644043 0.000000
0.729004 0.644043 0.000000
0.760254 0.644043 0.000000
0.791016 0.644043 0.000000
0.821777 0.644043 0.000000
0.851074 0.644043 0.000000
0.879883 0.644043 0.000000
0.908203 0.644043 0.000000
0.934570 0.644043 0.000000
0.959473 0.644043 0.000000
0.981445 0.644043 0.000000
1.000000 0.644043 0.000000
0.000000 0.678711 0.000000
0.012138 0.678711 0.000000
0.033630 0.678711 0.000000
0.060333 0.678711 0.000000
0.090698 0.678711 0.000000
0.124084 0.678711 0.000000
0.160034 0.678711 0.000000
0.197754 0.678711 0.000000
0.237427 0.678711 0.000000
0.278320 0.678711 0.000000
0.318848 0.678711 0.000000
0.359863 0.678711 0.000000
0.401123 0.678711 0.000000
0.440918 0.678711 0.000000
0.480713 0.678711 0.000000
0.520020 0.678711 0.000000
0.558105 0.678711 0.000000
0.594727 0.678711 0.000000
0.630371 0.678711 0.000000
0.664063 0.678711 0.000000
0.696777 0.678711 0.000000
0.729004 0.678711 0.000000
0.760254 0.678711 0.000000
0.791016 0.678711 0.000000
0.821777 0.678711 0.000000
0.851074 0.678711 0.000000
0.879883 0.678711 0.000000
0.908203 0.678711 0.000000
0.934570 0.678711 0.000000
0.959473 0.678711 0.000000
0.981445 0.678711 0.000000
1.000000 0.678711 0.000000
0.000000 0.712891 0.000000
0.012138 0.712891 0.000000
0.033630 0.712891 0.000000
0.060333 0.712891 0.000000
0.090698 0.712891 0.000000
0.124084 0.712891 0.000000
0.160034 0.712891 0.000000
0.197754 0.712891 0.000000
0.237427 0.712891 0.000000
0.278320 0.712891 0.000000
0.318848 0.712891 0.000000
0.359863 0.712891 0.000000
0.401123 0.712891 0.000000
0.440918 0.712891 0.000000
0.480713 0.712891 0.000000
0.520020 0.712891 0.000000
0.558105 0.712891 0.000000
0.594727 0.712891 0.000000
0.630371 0.712891 0.000000
0.664063 0.712891 0.000000
0.696777 0.712891 0.000000
0.729004 0.712891 0.000000
0.760254 0.712891 0.000000
0.791016 0.712891 0.000000
0.821777 0.712891 0.000000
0.851074 0.712891 0.000000
0.879883 0.712891 0.000000
0.908203 0.712891 0.000000
0.934570 0.712891 0.000000
0.959473 0.712891 0.000000
0.981445 0.712891 0.000000
1.000000 0.712891 0.000000
0.000000 0.747070 0.000000
0.012138 0.747070 0.000000
0.033630 0.747070 0.000000
0.060333 0.747070 0.000000
0.090698 0.747070 0.000000
0.124084 0.747070 0.000000
0.160034 0.747070 0.000000
0.197754 0.747070 0.000000
0.237427 0.747070 0.000000
0.278320 0.747070 0.000000
0.318848 0.747070 0.000000
0.359863 0.747070 0.000000
0.401123 0.747070 0.000000
0.440918 0.747070 0.000000
0.480713 0.747070 0.000000
0.520020 0.747070 0.000000
0.558105 0.747070 0.000000
0.594727 0.747070 0.000000
0.630371 0.747070 0.000000
0.664063 0.747070 0.000000
0.696777 0.747070 0.000000
0.729004 0.747070 0.000000
0.760254 0.747070 0.000000
0.791016 0.747070 0.000000
0.821777 0.747070 0.000000
0.851074 0.747070 0.000000
0.879883 0.747070 0.000000
0.908203 0.747070 0.000000
0.934570 0.747070 0.000000
0.959473 0.747070 0.000000
0.981445 0.747070 0.000000
1.000000 0.747070 0.000000
0.000000 0.780762 0.000000
0.012138 0.780762 0.000000
0.033630 0.780762 0.000000
0.060333 0.780762 0.000000
0.090698 0.780762 0.000000
0.124084 0.780762 0.000000
0.160034 0.780762 0.000000
0.197754 0.780762 0.000000
0.237427 0.780762 0.000000
0.278320 0.780762 0.000000
0.318848 0.780762 0.000000
0.359863 0.780762 0.000000
0.401123 0.780762 0.000000
0.440918 0.780762 0.000000
0.480713 0.780762 0.000000
0.520020 0.780762 0.000000
0.558105 0.780762 0.000000
0.594727 0.780762 0.000000
0.630371 0.780762 0.000000
0.664063 0.780762 0.000000
0.696777 0.780762 0.000000
0.729004 0.780762 0.000000
0.760254 0.780762 0.000000
0.791016 0.780762 0.000000
0.821777 0.780762 0.000000
0.851074 0.780762 0.000000
0.879883 0.780762 0.000000
0.908203 0.780762 0.000000
0.934570 0.780762 0.000000
0.959473 0.780762 0.000000
0.981445 0.780762 0.000000
1.000000 0.780762 0.000000
0.000000 0.814453 0.000000
0.012138 0.814453 0.000000
0.033630 0.814453 0.000000
0.060333 0.814453 0.000000
0.090698 0.814453 0.000000
0.124084 0.814453 0.000000
0.160034 0.814453 0.000000
0.197754 0.814453 0.000000
0.237427 0.814453 0.000000
0.278320 0.814453 0.000000
0.318848 0.814453 0.000000
0.359863 0.814453 0.000000
0.401123 0.814453 0.000000
0.440918 0.814453 0.000000
0.480713 0.814453 0.000000
0.520020 0.814453 0.000000
0.558105 0.814453 0.000000
0.594727 0.814453 0.000000
0.630371 0.814453 0.000000
0.664063 0.814453 0.000000
0.696777 0.814453 0.000000
0.729004 0.814453 0.000000
0.760254 0.814453 0.000000
0.791016 0.814453 0.000000
0.821777 0.814453 0.000000
0.851074 0.814453 0.000000
0.879883 0.814453 0.000000
0.908203 0.814453 0.000000
0.934570 0.814453 0.000000
0.959473 0.814453 0.000000
0.981445 0.814453 0.000000
1.000000 0.814453 0.000000
0.000000 0.847168 0.000000
0.012138 0.847168 0.000000
0.033630 0.847168 0.000000
0.060333 0.847168 0.000000
0.090698 0.847168 0.000000
0.124084 0.847168 0.000000
0.160034 0.847168 0.000000
0.197754 0.847168 0.000000
0.237427 0.847168 0.000000
0.278320 0.847168 0.000000
0.318848 0.847168 0.000000
0.359863 0.847168 0.000000
0.401123 0.847168 0.000000
0.440918 0.847656 0.000000
0.480713 0.847656 0.000000
0.520020 0.847656 0.000000
0.558105 0.847656 0.000000
0.594727 0.847656 0.000000
0.630371 0.847656 0.000000
0.664063 0.847656 0.000000
0.696777 0.847656 0.000000
0.729004 0.847656 0.000000
0.760254 0.847656 0.000000
0.791016 0.847656 0.000000
0.821777 0.847656 0.000000
0.851074 0.847656 0.000000
0.879883 0.847656 0.000000
0.908203 0.847656 0.000000
0.934570 0.847656 0.000000
0.959473 0.847656 0.000000
0.981445 0.847656 0.000000
1.000000 0.847656 0.000000
0.000000 0.879883 0.000000
0.012138 0.879883 0.000000
0.033630 0.879883 0.000000
0.060333 0.879883 0.000000
0.090698 0.879883 0.000000
0.124084 0.879883 0.000000
0.160034 0.879883 0.000000
0.197754 0.879883 0.000000
0.237427 0.879883 0.000000
0.278320 0.879883 0.000000
0.318848 0.879883 0.000000
0.359863 0.879883 0.000000
0.401123 0.879883 0.000000
0.440918 0.879883 0.000000
0.480713 0.879883 0.000000
0.520020 0.879883 0.000000
0.558105 0.879883 0.000000
0.594727 0.879883 0.000000
0.630371 0.879883 0.000000
0.664063 0.879883 0.000000
0.696777 0.879883 0.000000
0.729004 0.879883 0.000000
0.760254 0.879883 0.000000
