cubelut/Blues.cube
# Created by Adobe Lightroom plugin Export LUT (1.18.0)
# www.johnrellis.com/lightroom/exportlut.htm
# Preset: Blues
# Color profile: /Library/Application Support/Adobe/Color/Profiles/Recommended/AdobeRGB1998.icc
LUT_3D_SIZE 8
DOMAIN_MIN 0.000000 0.000000 0.000000
DOMAIN_MAX 0.903226 0.903226 0.903226
0.123049 0.157748 0.118502
0.123293 0.157717 0.118502
0.215518 0.160403 0.130953
0.387091 0.119356 0.143008
0.574792 0.000000 0.149142
0.732662 0.000000 0.156191
0.883787 0.125795 0.180270
1.000000 0.226352 0.244511
0.123232 0.159976 0.118837
0.123171 0.163241 0.119051
0.216983 0.161685 0.131289
0.386145 0.134218 0.142977
0.568200 0.115206 0.146975
0.727352 0.157107 0.154788
0.880583 0.205051 0.180758
1.000000 0.270573 0.247318
0.132357 0.263828 0.137209
0.132082 0.267918 0.137636
0.187320 0.265049 0.149264
0.348730 0.300175 0.142184
0.539971 0.323186 0.141634
0.708705 0.335698 0.152224
0.869230 0.352514 0.184237
0.998291 0.382025 0.258183
0.101442 0.402075 0.135561
0.100374 0.404608 0.135317
0.170840 0.397192 0.148013
0.300420 0.406134 0.156252
0.503136 0.470314 0.122499
0.675654 0.487251 0.158267
0.848600 0.501915 0.196872
0.985779 0.515251 0.281254
0.000000 0.537957 0.144289
0.000000 0.539452 0.144808
0.119722 0.536278 0.152895
0.281041 0.501457 0.197787
0.425513 0.548791 0.191897
0.648707 0.624964 0.157473
0.824216 0.641474 0.232975
0.966400 0.651362 0.335363
0.000000 0.664820 0.198062
0.000000 0.665797 0.198367
0.000000 0.666163 0.199283
0.262425 0.644678 0.234012
0.386206 0.609766 0.282444
0.551141 0.682246 0.283665
0.793027 0.771237 0.273106
0.949157 0.779263 0.382849
0.000000 0.803464 0.264012
0.000000 0.804410 0.264378
0.000000 0.805600 0.266697
0.236515 0.793942 0.299748
0.402167 0.768826 0.347417
0.521294 0.750240 0.400183
0.695949 0.823819 0.419287
0.911040 0.890318 0.436225
0.000000 0.947143 0.372656
0.000000 0.947906 0.373327
0.000000 0.950652 0.375799
0.274540 0.943694 0.434821
0.450233 0.930327 0.488014
0.586267 0.914061 0.550561
0.706447 0.916289 0.608331
0.841306 0.948516 0.632136
0.123476 0.158022 0.123110
0.127260 0.157534 0.124025
0.224796 0.160525 0.132418
0.394049 0.115572 0.143252
0.574884 0.025269 0.147921
0.732418 0.112490 0.155581
0.884276 0.166781 0.181064
1.000000 0.237827 0.246098
0.122560 0.158267 0.129732
0.126467 0.162264 0.130983
0.224155 0.172610 0.139773
0.389166 0.164828 0.143557
0.567864 0.174289 0.145937
0.727504 0.198825 0.154330
0.881254 0.228702 0.181582
1.000000 0.278965 0.248875
0.130922 0.263401 0.138643
0.126802 0.268772 0.142489
0.196841 0.267521 0.152712
0.354650 0.306645 0.147921
0.542748 0.332769 0.149599
0.710567 0.344823 0.166781
0.870451 0.359960 0.201572
0.999054 0.386450 0.265476
0.080293 0.407019 0.153841
0.071595 0.410712 0.158816
0.182925 0.402380 0.170443
0.308690 0.411109 0.181125
0.508232 0.472694 0.167361
0.679591 0.489967 0.204623
0.850309 0.504662 0.243168
0.985931 0.519188 0.311925
0.000000 0.548302 0.192325
0.000000 0.549737 0.192599
0.111055 0.548638 0.192050
0.289189 0.514855 0.230228
0.431250 0.553460 0.236576
0.651850 0.626978 0.226474
0.824918 0.643854 0.292210
0.965698 0.655421 0.382025
0.000000 0.671382 0.235080
0.000000 0.672419 0.235325
0.000000 0.671443 0.234226
0.265721 0.653223 0.264103
0.393133 0.617853 0.308324
0.554925 0.684779 0.320012
0.796323 0.773861 0.325902
0.947845 0.781369 0.428656
0.000000 0.807645 0.290959
0.000000 0.808560 0.291173
0.000000 0.808774 0.293523
0.237125 0.798734 0.325078
0.405554 0.773373 0.369574
0.523491 0.750057 0.421363
0.697871 0.824460 0.447059
0.912383 0.891539 0.471504
0.000000 0.949096 0.387030
0.000000 0.949828 0.387671
0.000000 0.952544 0.389776
0.267460 0.945190 0.446754
0.451209 0.931792 0.502800
0.587671 0.915343 0.562463
0.707515 0.915770 0.620600
0.842374 0.948363 0.647456
0.136019 0.156954 0.280827
0.148714 0.155032 0.281407
0.257572 0.128023 0.264347
0.424659 0.000000 0.297490
0.593896 0.000000 0.311345
0.744656 0.000000 0.320073
0.889281 0.170504 0.345800
1.000000 0.281407 0.394354
0.139651 0.156710 0.294041
0.162264 0.156252 0.291295
0.258457 0.142153 0.270115
0.418311 0.107179 0.301762
0.587518 0.104005 0.308507
0.740139 0.160098 0.320562
0.886259 0.232883 0.350134
1.000000 0.316655 0.399847
0.000000 0.278691 0.305821
0.000000 0.284489 0.303258
0.218997 0.281651 0.295415
0.390753 0.297551 0.293523
0.565087 0.314824 0.310582
0.723659 0.337591 0.333501
0.875273 0.368322 0.367285
0.996674 0.415015 0.420020
0.000000 0.444312 0.287633
0.000000 0.446326 0.291630
0.159731 0.443763 0.289647
0.335851 0.435859 0.315557
0.523339 0.481727 0.337469
0.693019 0.497658 0.364446
0.854887 0.515373 0.400702
0.983062 0.540581 0.457801
0.000000 0.574945 0.307622
0.000000 0.576440 0.310979
0.054383 0.574578 0.309941
0.311437 0.560723 0.335058
0.451057 0.569574 0.362890
0.660395 0.634913 0.392615
0.825681 0.654108 0.449104
0.962768 0.669947 0.511803
0.000000 0.690730 0.333410
0.000000 0.691615 0.335729
0.000000 0.689296 0.335546
0.272557 0.683589 0.360479
0.417487 0.646571 0.395209
0.568261 0.693812 0.429297
0.803128 0.781125 0.474098
0.943542 0.788083 0.551659
0.000000 0.821042 0.372412
0.000000 0.822141 0.373816
0.000000 0.819699 0.373999
0.226017 0.812406 0.398535
0.417426 0.789670 0.443061
0.534813 0.756130 0.486702
0.704494 0.826871 0.528283
0.915831 0.894926 0.574273
0.000000 0.955749 0.436774
0.000000 0.956298 0.435859
0.000000 0.958434 0.438087
0.233097 0.950713 0.485115
0.452491 0.937346 0.550256
0.592065 0.920134 0.601770
0.710994 0.913878 0.659693
0.846220 0.947906 0.695552
0.148836 0.114290 0.571374
0.201480 0.101198 0.558892
0.321904 0.000000 0.485847
0.425971 0.000000 0.462898
0.593256 0.000000 0.503075
0.765591 0.000000 0.517937
0.901427 0.000000 0.513298
1.000000 0.249577 0.534539
0.188357 0.103243 0.571374
0.233036 0.090364 0.555932
0.327184 0.038300 0.488380
0.425177 0.000000 0.467964
0.590204 0.000000 0.503624
0.761105 0.000000 0.517754
0.897948 0.145693 0.518456
1.000000 0.305913 0.545525
0.000000 0.200137 0.626673
0.000000 0.222354 0.606561
0.290013 0.237186 0.544396
0.407355 0.219944 0.474647
0.580499 0.259129 0.512657
0.744411 0.295079 0.524651
0.884489 0.357427 0.542809
0.993164 0.449989 0.590692
0.000000 0.478462 0.580865
0.000000 0.474983 0.578271
0.000000 0.466560 0.572900
0.368048 0.463203 0.560479
0.554955 0.480537 0.535302
0.712856 0.505943 0.556878
0.861021 0.534203 0.585595
0.978668 0.571099 0.623896
0.000000 0.620050 0.513542
0.000000 0.618952 0.509880
0.000000 0.615442 0.499092
0.295598 0.613367 0.506004
0.489845 0.600824 0.545953
0.672358 0.650599 0.586908
0.832547 0.668971 0.617243
0.959869 0.688746 0.658473
0.000000 0.721675 0.487434
0.000000 0.721279 0.485695
0.000000 0.719783 0.484352
0.242222 0.716182 0.496040
0.459754 0.702449 0.542779
0.593256 0.711727 0.578180
0.806912 0.786893 0.639857
0.937743 0.799649 0.696681
0.000000 0.842741 0.502159
0.000000 0.842008 0.500206
0.000000 0.839139 0.496895
0.159609 0.832547 0.504448
0.432471 0.821134 0.557946
0.561120 0.784634 0.583734
0.716518 0.832151 0.636896
0.919738 0.899718 0.710933
0.000000 0.967864 0.531701
0.000000 0.968383 0.530114
0.000000 0.968139 0.525689
0.076875 0.961303 0.544427
0.439612 0.948150 0.614862
0.598810 0.929351 0.665248
0.715755 0.910124 0.715450
0.853117 0.947417 0.761593
0.263188 0.000000 0.790982
0.305028 0.000000 0.775814
0.393194 0.000000 0.719814
0.452552 0.000000 0.613123
0.570855 0.000000 0.642359
0.734859 0.000000 0.676478
0.908659 0.000000 0.705043
1.000000 0.000000 0.673457
0.295476 0.000000 0.784176
0.326787 0.000000 0.770260
0.399298 0.000000 0.718349
0.454078 0.000000 0.621729
0.569848 0.000000 0.645838
0.733059 0.000000 0.678035
0.906493 0.000000 0.705959
1.000000 0.126955 0.678218
0.235996 0.195712 0.811460
0.276524 0.196048 0.800320
0.368322 0.179873 0.759274
0.452094 0.150790 0.672816
0.559960 0.140597 0.652796
0.726986 0.200168 0.686366
0.898161 0.256382 0.711788
1.000000 0.355230 0.697749
0.000000 0.367285 0.860014
0.000000 0.362646 0.859403
0.166842 0.404730 0.843442
0.430304 0.416083 0.765530
0.533837 0.354955 0.662470
0.717098 0.440345 0.710140
0.880125 0.483436 0.727230
0.987457 0.536217 0.728878
0.000000 0.635187 0.802945
0.000000 0.634363 0.802152
0.000000 0.633326 0.799222
0.300999 0.637110 0.795682
0.542809 0.641474 0.782040
0.706264 0.643153 0.745296
0.849454 0.672450 0.760494
0.960174 0.708522 0.788998
0.000000 0.777890 0.733516
0.000000 0.777066 0.731533
0.000000 0.773465 0.724117
0.120974 0.765805 0.710384
0.443610 0.756405 0.699977
0.636500 0.742123 0.735439
0.816129 0.796445 0.786069
0.938476 0.812711 0.814603
0.000000 0.869871 0.672694
0.000000 0.869383 0.670924
0.000000 0.867155 0.665675
0.000000 0.861692 0.659998
0.383276 0.850767 0.664332
0.599817 0.830411 0.712978
0.737331 0.841367 0.755032
0.921996 0.902037 0.828000
0.000000 0.984131 0.666682
0.000000 0.983581 0.664576
0.000000 0.981384 0.658747
0.000000 0.976074 0.653040
0.349645 0.964691 0.669581
0.606683 0.944549 0.746578
0.729946 0.920439 0.779141
0.863890 0.947173 0.830167
0.385931 0.000000 0.922881
0.408606 0.000000 0.916258
0.469917 0.000000 0.890257
0.533410 0.000000 0.831754
0.574304 0.000000 0.748501
0.712032 0.000000 0.799283
0.871946 0.000000 0.821561
1.000000 0.000000 0.824186
0.401129 0.000000 0.920348
0.420539 0.000000 0.914000
0.475563 0.000000 0.888792
0.533684 0.000000 0.835904
0.569635 0.000000 0.747799
0.711116 0.000000 0.801236
0.870909 0.000000 0.822629
1.000000 0.000000 0.826200
0.376104 0.108949 0.932067
0.395117 0.100771 0.927306
0.451850 0.059541 0.908232
0.522545 0.000000 0.864256
0.569085 0.000000 0.771969
0.707759 0.000000 0.808591
0.867094 0.000000 0.827451
1.000000 0.224063 0.835355
0.242283 0.377722 0.962188
0.300023 0.395453 0.957549
0.411017 0.413581 0.941436
0.501610 0.369970 0.909026
0.577356 0.292332 0.835904
0.689143 0.280797 0.810880
0.860807 0.379522 0.838773
0.995666 0.456825 0.845579
0.000000 0.549981 0.965850
0.000000 0.554192 0.965545
0.157076 0.572534 0.964538
0.464240 0.619440 0.959014
0.597162 0.594354 0.910704
0.661463 0.480903 0.816495
0.855772 0.589349 0.858396
0.978576 0.648432 0.861784
0.000000 0.757534 0.933135
0.000000 0.758450 0.932769
0.000000 0.762417 0.931609
0.300572 0.771023 0.929595
0.537163 0.784451 0.927337
0.727260 0.798703 0.917601
0.847135 0.790158 0.887785
0.949187 0.822690 0.900175
0.000000 0.920775 0.900755
0.000000 0.919951 0.899351
0.000000 0.916564 0.893645
0.000000 0.908995 0.881254
0.343420 0.895384 0.857694
0.596155 0.877012 0.839963
0.779080 0.860533 0.871122
0.928985 0.907286 0.913024
0.000000 1.000000 0.822171
0.000000 0.999847 0.820401
0.000000 0.998169 0.814206
0.000000 0.993774 0.804562
0.214694 0.984222 0.796811
0.546593 0.966674 0.807004
0.758328 0.939788 0.859983
0.880430 0.947753 0.896147
0.481819 0.000000 0.996857
0.496925 0.000000 0.994812
0.544182 0.000000 0.986938
0.609888 0.000000 0.969360
0.670253 0.000000 0.933440
0.738399 0.000000 0.906645
0.865782 0.000000 0.928374
0.991974 0.000000 0.919738
0.488685 0.000000 0.996490
0.502892 0.000000 0.994507
0.547601 0.000000 0.986816
0.610346 0.000000 0.969909
0.668482 0.000000 0.936889
0.734768 0.000000 0.906035
0.865110 0.000000 0.929229
0.991302 0.000000 0.920165
0.474189 0.000000 0.999695
0.487221 0.000000 0.998108
0.529686 0.000000 0.991882
0.593500 0.000000 0.977966
0.660792 0.000000 0.948547
0.721187 0.000000 0.903807
0.862486 0.000000 0.932189
0.988830 0.000000 0.921935
0.449134 0.386358 1.000000
0.462043 0.381567 1.000000
0.504082 0.360937 1.000000
0.570642 0.319463 0.989685
0.646906 0.238254 0.966888
0.705745 0.000000 0.911376
0.856046 0.107668 0.936187
0.983764 0.292302 0.925780
0.360693 0.553552 1.000000
0.398352 0.566827 1.000000
0.500237 0.604730 1.000000
0.606134 0.632013 0.998016
0.649165 0.549035 0.985229
0.710292 0.416449 0.948211
0.834287 0.393805 0.934051
0.975708 0.529198 0.932799
0.000000 0.686702 1.000000
0.149386 0.692103 1.000000
0.345434 0.710780 1.000000
0.528740 0.745418 1.000000
0.710628 0.801022 0.998169
0.761288 0.754299 0.978943
0.801114 0.594934 0.930968
0.963775 0.745632 0.946777
0.000000 0.843717 0.991058
0.000000 0.845396 0.990753
0.000000 0.851347 0.989654
0.363256 0.861631 0.987823
0.577234 0.878141 0.984985
0.753109 0.898833 0.981842
0.880766 0.915251 0.976471
0.950469 0.905608 0.961730
0.000000 1.000000 0.977935
0.000000 1.000000 0.977813
0.000000 1.000000 0.977356
0.000000 1.000000 0.972015
0.281834 1.000000 0.959380
0.538628 0.989746 0.939788
0.759274 0.966918 0.929747
0.906615 0.951476 0.951934
0.545495 0.000000 1.000000
0.556786 0.000000 1.000000
0.594659 0.000000 1.000000
0.656092 0.000000 1.000000
0.733364 0.000000 1.000000
0.815640 0.000000 1.000000
0.910124 0.000000 1.000000
1.000000 0.000000 1.000000
0.547326 0.000000 1.000000
0.558282 0.000000 1.000000
0.595392 0.000000 1.000000
0.656062 0.000000 1.000000
0.732540 0.000000 1.000000
0.812863 0.000000 1.000000
0.907866 0.000000 1.000000
1.000000 0.000000 1.000000
0.539391 0.000000 1.000000
0.549432 0.000000 1.000000
0.584314 0.000000 1.000000
0.642145 0.000000 1.000000
0.717464 0.000000 1.000000
0.802487 0.000000 1.000000
0.899870 0.000000 1.000000
1.000000 0.000000 1.000000
0.518090 0.311467 1.000000
0.527947 0.307347 1.000000
0.561669 0.290257 1.000000
0.618402 0.251560 1.000000
0.694026 0.162448 1.000000
0.783230 0.000000 1.000000
0.884306 0.000000 1.000000
1.000000 0.000000 1.000000
0.594812 0.633295 1.000000
0.611292 0.642054 1.000000
0.629114 0.629999 1.000000
0.633265 0.560876 1.000000
0.686183 0.501091 1.000000
0.761410 0.391547 1.000000
0.858366 0.108522 1.000000
0.994751 0.290105 1.000000
0.495796 0.689357 1.000000
0.523095 0.700221 1.000000
0.618860 0.744015 1.000000
0.709346 0.783932 1.000000
0.787564 0.809689 1.000000
0.783474 0.709102 1.000000
0.838956 0.541009 1.000000
0.975189 0.533715 1.000000
0.334844 0.777005 1.000000
0.370062 0.781857 1.000000
0.473121 0.799222 1.000000
0.609094 0.829587 1.000000
0.750393 0.870512 1.000000
0.876219 0.917876 1.000000
0.892912 0.881651 1.000000
0.942809 0.745052 0.996612
0.000000 0.895872 1.000000
0.000000 0.897581 1.000000
0.184939 0.903471 1.000000
0.425238 0.914824 1.000000
0.617426 0.931273 1.000000
0.778317 0.949950 1.000000
0.899077 0.967346 0.999176
0.972015 0.980346 0.996643
