cubelut/Blues.cube
# Created by Adobe Lightroom plugin Export LUT (1.18.0)
# www.johnrellis.com/lightroom/exportlut.htm
# Preset: Blues
# Color profile: /Library/Application Support/Adobe/Color/Profiles/Recommended/AdobeRGB1998.icc
LUT_3D_SIZE 32
0.123049 0.157748 0.118502
0.123049 0.157748 0.118502
0.123049 0.157748 0.118502
0.123049 0.157748 0.118502
0.123293 0.157717 0.118502
0.133883 0.157687 0.119387
0.158907 0.157534 0.121706
0.182803 0.159182 0.125490
0.215518 0.160403 0.130953
0.253605 0.158724 0.135714
0.295781 0.151797 0.139162
0.340673 0.139498 0.141604
0.387091 0.119356 0.143008
0.434791 0.086824 0.144320
0.483162 0.000000 0.145876
0.530877 0.000000 0.147494
0.574792 0.000000 0.149142
0.615045 0.000000 0.150515
0.653895 0.000000 0.152102
0.693019 0.000000 0.153750
0.732662 0.000000 0.156191
0.771817 0.000000 0.159731
0.810269 0.056641 0.164767
0.847745 0.096284 0.171481
0.883787 0.125795 0.180270
0.918029 0.150362 0.191653
0.950042 0.175357 0.205814
0.979797 0.200656 0.223301
1.000000 0.226352 0.244511
1.000000 0.254734 0.269902
1.000000 0.285191 0.300023
1.000000 0.319738 0.336004
0.123049 0.157748 0.118502
0.123049 0.157748 0.118502
0.123049 0.157748 0.118502
0.123049 0.157748 0.118502
0.123293 0.157717 0.118502
0.134096 0.157656 0.119387
0.159091 0.157504 0.121706
0.183108 0.159121 0.125490
0.215579 0.160678 0.131106
0.253696 0.158694 0.135714
0.295933 0.151736 0.139162
0.340734 0.139467 0.141604
0.387152 0.119326 0.143008
0.434943 0.086641 0.144320
0.483162 0.000000 0.145876
0.530968 0.000000 0.147494
0.574304 0.000000 0.149020
0.614435 0.000000 0.150332
0.653132 0.000000 0.151827
0.692409 0.000000 0.153475
0.732113 0.000000 0.156130
0.771359 0.014588 0.159640
0.809842 0.081270 0.164828
0.847471 0.110323 0.171420
0.883452 0.136049 0.180484
0.917723 0.159243 0.191836
0.949889 0.181888 0.206027
0.979583 0.206699 0.223545
1.000000 0.231632 0.244816
1.000000 0.258701 0.270207
1.000000 0.288884 0.300481
1.000000 0.322759 0.336461
0.123049 0.157748 0.118502
0.123049 0.157748 0.118502
0.123049 0.157748 0.118502
0.123049 0.157748 0.118502
0.123293 0.157717 0.118502
0.134676 0.157748 0.119570
0.159426 0.157443 0.121675
0.183413 0.159060 0.125490
0.215946 0.160586 0.131106
0.254002 0.158602 0.135714
0.296117 0.151675 0.139132
0.340795 0.139437 0.141604
0.387335 0.119203 0.142977
0.435065 0.086549 0.144320
0.483070 0.000000 0.145876
0.530602 0.000000 0.147250
0.573510 0.000000 0.148714
0.613581 0.000000 0.150027
0.652277 0.000000 0.151461
0.691554 0.000000 0.153384
0.731502 0.007904 0.155917
0.770718 0.075135 0.159609
0.809232 0.104219 0.164645
0.846921 0.127504 0.171511
0.883055 0.148745 0.180392
0.917327 0.170016 0.191836
0.949493 0.191165 0.206332
0.979278 0.214145 0.223850
1.000000 0.238102 0.245151
1.000000 0.264286 0.270695
1.000000 0.293278 0.300999
1.000000 0.326574 0.337102
0.123049 0.157748 0.118502
0.123049 0.157748 0.118502
0.123049 0.157748 0.118502
0.123049 0.157748 0.118502
0.123476 0.157687 0.118715
0.134890 0.157717 0.119570
0.159762 0.157534 0.121675
0.183810 0.159121 0.125643
0.216526 0.160769 0.131228
0.254673 0.158541 0.135836
0.296513 0.151675 0.139101
0.341161 0.139284 0.141573
0.387457 0.119112 0.142977
0.434943 0.086641 0.144320
0.482246 0.028931 0.145632
0.528832 0.000000 0.146914
0.571618 0.000000 0.148074
0.611688 0.000000 0.149294
0.650324 0.056947 0.150912
0.689754 0.083864 0.152651
0.729854 0.103975 0.155459
0.769253 0.122133 0.159213
0.808133 0.139284 0.164462
0.845853 0.156527 0.171328
0.882078 0.173190 0.180484
0.916533 0.190677 0.192172
0.948791 0.208988 0.206668
0.978668 0.229404 0.224552
1.000000 0.251286 0.246006
1.000000 0.275639 0.271672
1.000000 0.303105 0.302068
1.000000 0.335119 0.338384
0.123232 0.159976 0.118837
0.123140 0.160464 0.118807
0.123323 0.160586 0.118776
0.123110 0.161654 0.118868
0.123171 0.163241 0.119051
0.133486 0.162997 0.119570
0.159213 0.162142 0.121736
0.183841 0.161807 0.125917
0.216983 0.161685 0.131289
0.255009 0.159213 0.135927
0.296452 0.153597 0.139101
0.340703 0.145022 0.141482
0.386145 0.134218 0.142977
0.432624 0.123293 0.143893
0.479316 0.114168 0.144808
0.525505 0.110292 0.145907
0.568200 0.115206 0.146975
0.608118 0.125612 0.148287
0.647211 0.135897 0.149966
0.687098 0.146426 0.152041
0.727352 0.157107 0.154788
0.767117 0.168612 0.158694
0.806119 0.180087 0.164126
0.844175 0.192050 0.171481
0.880583 0.205051 0.180758
0.915190 0.219089 0.192660
0.947601 0.234318 0.207553
0.977661 0.251102 0.225559
1.000000 0.270573 0.247318
1.000000 0.292638 0.273228
1.000000 0.318059 0.303990
1.000000 0.347814 0.340459
0.123384 0.178714 0.120241
0.123232 0.179385 0.120150
0.123232 0.180301 0.120241
0.123293 0.181704 0.120424
0.123476 0.184482 0.120821
0.130587 0.185580 0.122988
0.152895 0.184848 0.121248
0.178927 0.181765 0.127230
0.212711 0.181735 0.132723
0.250767 0.181338 0.136660
0.292210 0.179416 0.139712
0.336217 0.176364 0.141390
0.381201 0.173434 0.142428
0.427436 0.171145 0.143221
0.473823 0.171572 0.143740
0.519982 0.175235 0.144472
0.563134 0.179843 0.145541
0.603571 0.185794 0.147036
0.643122 0.191501 0.148684
0.683284 0.198032 0.150973
0.724025 0.205234 0.153902
0.764126 0.212985 0.158297
0.803586 0.220859 0.163973
0.841855 0.230381 0.171542
0.878599 0.239963 0.181125
0.913451 0.251041 0.193515
0.946075 0.263523 0.208682
0.976318 0.277592 0.226993
1.000000 0.294285 0.249058
1.000000 0.313817 0.275395
1.000000 0.336736 0.306462
1.000000 0.364202 0.343359
0.125765 0.204257 0.124636
0.125887 0.204593 0.124758
0.126101 0.205112 0.125246
0.126345 0.206424 0.125582
0.127016 0.208438 0.126192
0.127474 0.210849 0.127108
0.146639 0.208499 0.134310
0.169833 0.209812 0.127749
0.203067 0.210941 0.135195
0.241855 0.213596 0.138521
0.283635 0.215763 0.140291
0.327550 0.217594 0.141482
0.372595 0.219974 0.141848
0.418891 0.222507 0.142153
0.465736 0.225650 0.142519
0.512749 0.229099 0.143130
0.556695 0.232792 0.144137
0.597925 0.236515 0.145571
0.637995 0.240543 0.147555
0.678523 0.245457 0.150027
0.719814 0.250401 0.153201
0.760433 0.255894 0.157809
0.800168 0.262455 0.163699
0.838987 0.268986 0.171817
0.876005 0.276677 0.181888
0.911162 0.285496 0.194461
0.944121 0.295689 0.210208
0.974578 0.307286 0.228946
1.000000 0.321447 0.251530
1.000000 0.338323 0.278233
1.000000 0.358648 0.309697
1.000000 0.383886 0.347051
0.131197 0.231785 0.132479
0.131197 0.232364 0.132753
0.131441 0.232914 0.132815
0.131655 0.234134 0.133120
0.131777 0.236271 0.133455
0.131868 0.239048 0.134035
0.142367 0.239139 0.137301
0.164736 0.234043 0.145449
0.192782 0.240726 0.137026
0.230838 0.247257 0.137636
0.270542 0.252903 0.141604
0.315343 0.258457 0.141878
0.361242 0.263218 0.141665
0.408362 0.267674 0.141451
0.456062 0.272160 0.141360
0.503868 0.276219 0.141787
0.549004 0.280034 0.142763
0.590997 0.282902 0.144228
0.631617 0.286015 0.146395
0.672816 0.289616 0.149111
0.714717 0.293736 0.152682
0.755917 0.298009 0.157443
0.796262 0.303044 0.163943
0.835416 0.308324 0.172152
0.872953 0.314275 0.182834
0.908446 0.321202 0.195987
0.941680 0.329198 0.212161
0.972473 0.338933 0.231449
1.000000 0.350927 0.254643
1.000000 0.365393 0.281743
1.000000 0.383459 0.313725
1.000000 0.406012 0.351598
0.132357 0.263828 0.137209
0.132448 0.264134 0.137331
0.132448 0.264622 0.137392
0.132235 0.265873 0.137362
0.132082 0.267918 0.137636
0.132082 0.270237 0.137728
0.135470 0.271977 0.138643
0.161318 0.266819 0.145388
0.187320 0.265049 0.149264
0.219821 0.274907 0.140841
0.261997 0.285557 0.136873
0.304692 0.293156 0.139651
0.348730 0.300175 0.142184
0.396338 0.307134 0.141604
0.444862 0.313420 0.141054
0.493477 0.318822 0.141115
0.539971 0.323186 0.141634
0.583062 0.325933 0.143313
0.624384 0.328923 0.145571
0.666194 0.331884 0.148440
0.708705 0.335698 0.152224
0.750637 0.339117 0.157443
0.791501 0.343175 0.164340
0.831205 0.347662 0.173007
0.869230 0.352514 0.184237
0.905211 0.357763 0.198001
0.938872 0.364172 0.214633
0.969909 0.372259 0.234623
0.998291 0.382025 0.258183
1.000000 0.394446 0.285924
1.000000 0.410285 0.318547
1.000000 0.430610 0.357000
0.129000 0.297642 0.138582
0.128878 0.297948 0.138705
0.128878 0.298497 0.138582
0.128603 0.299596 0.138705
0.128573 0.301213 0.138674
0.128084 0.303410 0.138735
0.127718 0.305791 0.138735
0.154910 0.301274 0.144564
0.185275 0.291966 0.153933
0.212924 0.298650 0.151736
0.249516 0.311254 0.142428
0.295781 0.325536 0.134035
0.340337 0.334508 0.136110
0.386175 0.342687 0.138277
0.432776 0.350042 0.141024
0.481880 0.357427 0.141176
0.529900 0.362982 0.141390
0.573816 0.366430 0.142947
0.615900 0.369299 0.145144
0.658381 0.372259 0.148409
0.701930 0.375738 0.152224
0.744411 0.379187 0.157870
0.786069 0.382666 0.165103
0.826383 0.386389 0.174350
0.864988 0.390173 0.186221
0.901457 0.394842 0.200504
0.935546 0.399878 0.217929
0.967071 0.406287 0.238376
0.995727 0.414343 0.262608
1.000000 0.424903 0.291081
1.000000 0.438758 0.324224
1.000000 0.456764 0.363439
0.122560 0.332280 0.138399
0.122377 0.332616 0.138491
0.122316 0.333165 0.138521
0.122011 0.334295 0.138430
0.121828 0.335607 0.138277
0.121248 0.337621 0.138308
0.120790 0.339818 0.138308
0.146548 0.336400 0.142977
0.182162 0.327306 0.152132
0.209049 0.319402 0.160983
0.240818 0.333745 0.153353
0.280827 0.349004 0.142885
0.329625 0.365240 0.130678
0.377569 0.376654 0.131044
0.424781 0.385443 0.133577
0.472084 0.393378 0.137240
0.518425 0.399573 0.141817
0.563439 0.404150 0.143618
0.606531 0.407477 0.145846
0.649897 0.410895 0.148989
0.694026 0.414679 0.153231
0.737575 0.417884 0.158968
0.779904 0.421271 0.166842
0.820859 0.424720 0.176638
0.860136 0.428046 0.188968
0.897215 0.431525 0.203830
0.931792 0.435706 0.221805
0.963714 0.440955 0.243107
0.992798 0.447669 0.267918
1.000000 0.456397 0.296880
1.000000 0.468360 0.330938
1.000000 0.484474 0.370886
0.113222 0.367529 0.137240
0.113100 0.367681 0.137209
0.113130 0.368139 0.137087
0.112825 0.368963 0.137209
0.112520 0.370245 0.137209
0.111910 0.372015 0.137057
0.111269 0.373877 0.136904
0.136782 0.371313 0.140932
0.177188 0.362463 0.150179
0.208072 0.352697 0.160494
0.234867 0.353796 0.163088
0.270024 0.369848 0.154604
0.313298 0.387091 0.142916
0.362310 0.403143 0.127901
0.416022 0.419348 0.124941
0.463966 0.428260 0.128176
0.511162 0.435462 0.132967
0.554589 0.440101 0.139345
0.596063 0.443549 0.147219
0.640284 0.447547 0.150637
0.685389 0.451698 0.155276
0.729702 0.455634 0.161044
0.772824 0.459052 0.169284
0.814633 0.462257 0.179568
0.854704 0.465217 0.192386
0.892393 0.468299 0.207919
0.927550 0.471687 0.226658
0.959991 0.475898 0.248569
0.989471 0.481361 0.274113
1.000000 0.488716 0.303868
1.000000 0.499031 0.338567
1.000000 0.513146 0.379309
0.101442 0.402075 0.135561
0.101167 0.402441 0.135439
0.101228 0.402777 0.135348
0.100923 0.403479 0.135470
0.100374 0.404608 0.135317
0.099794 0.406043 0.135225
0.099245 0.407782 0.135225
0.124788 0.405615 0.138674
0.170840 0.397192 0.148013
0.205234 0.387884 0.158267
0.232395 0.377661 0.169253
0.262272 0.388525 0.165743
0.300420 0.406134 0.156252
0.346532 0.425299 0.143221
0.394934 0.440406 0.125765
0.455177 0.461921 0.117952
0.503136 0.470314 0.122499
0.547295 0.475288 0.129610
0.589593 0.478889 0.137942
0.632013 0.482826 0.147677
0.675654 0.487251 0.158267
0.721096 0.491798 0.164370
0.765133 0.495644 0.172915
0.807797 0.499001 0.183597
0.848600 0.501915 0.196872
0.886992 0.504723 0.213138
0.922850 0.507530 0.232334
0.955810 0.510918 0.255009
0.985779 0.515251 0.281254
1.000000 0.521416 0.311772
1.000000 0.530175 0.347326
1.000000 0.542657 0.388983
0.086030 0.436408 0.133730
0.085847 0.436530 0.133852
0.085847 0.436896 0.133730
0.085237 0.437507 0.133700
0.084962 0.438453 0.133547
0.084260 0.439704 0.133639
0.083314 0.441260 0.133486
0.111788 0.439460 0.136812
0.163485 0.431373 0.146212
0.201205 0.422583 0.156497
0.231418 0.412787 0.167422
0.257115 0.406165 0.176577
0.290837 0.423468 0.168978
0.331579 0.442359 0.158633
0.379614 0.462837 0.144625
0.430671 0.479835 0.125093
0.494148 0.503777 0.110658
0.539361 0.509575 0.117617
0.582361 0.513512 0.127199
0.625544 0.517632 0.137606
0.669612 0.522240 0.149477
0.713497 0.526818 0.163119
0.756680 0.531029 0.177584
0.800290 0.534752 0.188754
0.841886 0.537896 0.202579
0.881102 0.540520 0.219333
0.917662 0.542870 0.239048
0.951232 0.545739 0.262486
0.981689 0.549371 0.289403
1.000000 0.554345 0.320745
1.000000 0.561944 0.357214
1.000000 0.572686 0.399695
0.064729 0.469886 0.132113
0.064881 0.470130 0.132021
0.064393 0.470375 0.132113
0.064057 0.470863 0.132113
0.063752 0.471687 0.131960
0.062745 0.472908 0.131868
0.061585 0.474128 0.131930
0.097047 0.472450 0.135164
0.154696 0.465126 0.144686
0.196170 0.456580 0.154910
0.229313 0.447242 0.165988
0.256504 0.437324 0.177462
0.283787 0.439734 0.180911
0.320073 0.458442 0.172732
0.363073 0.478523 0.161807
0.413062 0.499855 0.146700
0.465705 0.518151 0.125582
0.529564 0.541894 0.105318
0.574548 0.547601 0.115236
0.618494 0.551934 0.129122
0.663264 0.556695 0.144137
0.707759 0.561425 0.159396
0.751064 0.565637 0.177279
0.793210 0.569482 0.196902
0.834562 0.572930 0.215457
0.874662 0.575677 0.230869
0.911864 0.578027 0.249516
0.946197 0.580377 0.271000
0.977203 0.583246 0.298711
1.000000 0.587396 0.330877
1.000000 0.593652 0.368200
1.000000 0.603082 0.411505
0.000122 0.503136 0.132540
0.000000 0.503380 0.132601
0.000000 0.503593 0.132692
0.000000 0.504143 0.133181
0.000000 0.505028 0.133700
0.000000 0.506065 0.133791
0.000000 0.507286 0.134371
0.069520 0.506615 0.136202
0.142489 0.499641 0.146151
0.188296 0.491829 0.156222
0.224735 0.483162 0.167697
0.255344 0.473610 0.179446
0.280980 0.463355 0.191958
0.311315 0.473579 0.191501
0.349889 0.493294 0.183810
0.394812 0.514366 0.173953
0.445838 0.536156 0.160372
0.498695 0.554314 0.142947
0.560418 0.575860 0.127016
0.610956 0.585809 0.134981
0.656214 0.590997 0.149599
0.701503 0.595972 0.165988
0.745449 0.600153 0.184176
0.788174 0.603906 0.203647
0.829160 0.607263 0.225223
0.867948 0.610315 0.249027
0.905455 0.612879 0.269383
0.940459 0.614923 0.290135
0.972137 0.617304 0.313787
1.000000 0.620356 0.342199
1.000000 0.625605 0.380407
1.000000 0.633783 0.424659
0.000000 0.537957 0.144289
0.000000 0.538018 0.144106
0.000000 0.538231 0.144350
0.000000 0.538781 0.144442
0.000000 0.539452 0.144808
0.000000 0.540429 0.145235
0.000000 0.541497 0.145418
0.000000 0.541711 0.145480
0.119722 0.536278 0.152895
0.175387 0.528710 0.162783
0.217380 0.520439 0.173892
0.251713 0.511376 0.185611
0.281041 0.501457 0.197787
0.305547 0.490822 0.210086
0.339391 0.507164 0.207095
0.379675 0.527794 0.200504
0.425513 0.548791 0.191897
0.476234 0.569543 0.180575
0.529808 0.588220 0.166171
0.591547 0.609888 0.151095
0.648707 0.624964 0.157473
0.694728 0.630182 0.173373
0.739345 0.634607 0.191653
0.782650 0.638392 0.211215
0.824216 0.641474 0.232975
0.863462 0.644160 0.256596
0.900237 0.646601 0.282841
0.934081 0.649287 0.311345
0.966400 0.651362 0.335363
0.995148 0.653773 0.362219
1.000000 0.657343 0.393744
1.000000 0.664302 0.438849
0.000000 0.570916 0.156466
0.000000 0.571038 0.156710
0.000000 0.571252 0.156771
0.000000 0.571649 0.157076
0.000000 0.572290 0.157412
0.000000 0.572992 0.157412
0.000000 0.573846 0.157504
0.000000 0.573938 0.157443
0.087831 0.571130 0.161166
0.159487 0.564294 0.170779
0.207187 0.556725 0.181308
0.245975 0.548089 0.192508
0.278569 0.538842 0.204318
0.306737 0.528679 0.216617
0.331731 0.520745 0.228061
0.368048 0.540826 0.224277
0.409369 0.561181 0.218967
0.455390 0.581506 0.211826
0.506218 0.602045 0.202976
0.561303 0.622034 0.190555
0.623957 0.644251 0.175814
0.687373 0.664332 0.181247
0.732753 0.668849 0.199161
0.776761 0.672572 0.219242
0.818906 0.675624 0.241611
0.858701 0.677943 0.265263
0.895872 0.679896 0.291691
0.930205 0.681819 0.320348
0.961334 0.684108 0.351965
0.989471 0.686915 0.385168
1.000000 0.689845 0.416083
1.000000 0.694759 0.454322
0.000000 0.602136 0.170047
0.000000 0.602258 0.170138
0.000000 0.602380 0.169833
0.000000 0.602838 0.170199
0.000000 0.603235 0.170443
0.000000 0.603967 0.170932
0.000000 0.604669 0.170687
0.000000 0.604822 0.170474
0.006714 0.603632 0.171756
0.139590 0.598047 0.180514
0.195254 0.591089 0.190463
0.237949 0.583520 0.201175
0.274510 0.574914 0.212650
0.305699 0.565911 0.224491
0.332799 0.556085 0.237003
0.359564 0.553948 0.245701
0.397223 0.573602 0.243076
0.439002 0.593591 0.239475
0.485847 0.614130 0.234440
0.537407 0.635065 0.226871
0.593988 0.656336 0.217014
0.656550 0.678370 0.203799
0.725795 0.702846 0.208072
0.770413 0.706722 0.228275
0.813169 0.709621 0.250156
0.853544 0.711696 0.274388
0.891295 0.713161 0.300572
0.925994 0.714504 0.330083
0.957519 0.715877 0.361913
0.985565 0.717891 0.397467
1.000000 0.721279 0.436530
1.000000 0.725521 0.475349
0.000000 0.633143 0.183871
0.000000 0.633204 0.183841
0.000000 0.633448 0.184115
0.000000 0.633753 0.184237
0.000000 0.634211 0.184085
0.000000 0.634821 0.184085
0.000000 0.635615 0.184512
0.000000 0.635798 0.184207
0.000000 0.634424 0.184878
0.116152 0.630976 0.191348
0.181643 0.624720 0.201175
0.229313 0.617578 0.211521
0.268742 0.609949 0.222568
0.303014 0.601434 0.234195
0.333013 0.592309 0.246372
0.359197 0.582788 0.259037
0.388220 0.586481 0.265354
0.426795 0.606165 0.264317
0.469856 0.626459 0.261845
0.517479 0.647517 0.258000
0.570092 0.669062 0.252506
0.627649 0.691066 0.245029
0.690944 0.713588 0.234562
0.760189 0.738003 0.239445
0.807095 0.743557 0.260044
0.848112 0.745388 0.284245
0.886320 0.746456 0.310521
0.921599 0.747066 0.339940
0.953460 0.747646 0.372259
0.981811 0.748531 0.407721
1.000000 0.750607 0.447028
1.000000 0.754147 0.489723
0.000000 0.664820 0.198062
0.000000 0.664973 0.198123
0.000000 0.665095 0.198184
0.000000 0.665400 0.198215
0.000000 0.665797 0.198367
0.000000 0.666438 0.198367
0.000000 0.667201 0.198550
0.000000 0.667445 0.198245
0.000000 0.666163 0.199283
0.082673 0.664607 0.203983
0.166171 0.658595 0.213016
0.219425 0.651972 0.223392
0.262425 0.644678 0.234012
0.299504 0.636896 0.245457
0.331884 0.628443 0.257481
0.360693 0.619440 0.269810
0.386206 0.609766 0.282444
0.418189 0.619471 0.287297
0.458015 0.639673 0.287236
0.502281 0.660639 0.286015
0.551141 0.682246 0.283665
0.604089 0.703731 0.279850
0.661494 0.725216 0.274571
0.724788 0.747860 0.268132
0.793027 0.771237 0.273106
0.842283 0.778866 0.294682
0.881132 0.779568 0.321202
0.916838 0.779538 0.350683
0.949157 0.779263 0.382849
0.977874 0.779232 0.418433
1.000000 0.779934 0.457740
1.000000 0.781796 0.499580
0.000000 0.697841 0.212894
0.000000 0.697932 0.212741
0.000000 0.698054 0.213016
0.000000 0.698390 0.213107
0.000000 0.698756 0.213077
0.000000 0.699458 0.213230
0.000000 0.700252 0.213352
0.000000 0.700496 0.213291
0.000000 0.699214 0.214176
0.000000 0.697780 0.218448
0.148409 0.693629 0.226963
0.208896 0.687343 0.236606
0.255741 0.680659 0.247288
0.295598 0.673182 0.258427
0.330694 0.665126 0.269932
0.361913 0.656641 0.282353
0.389837 0.647639 0.295109
0.414618 0.638148 0.308080
0.449958 0.654047 0.311650
0.491310 0.674952 0.312474
0.536889 0.696498 0.312810
0.585992 0.717647 0.312016
0.638575 0.738277 0.310033
0.695094 0.758816 0.307042
0.758236 0.781277 0.303655
0.825010 0.803464 0.309026
0.875578 0.812528 0.332372
0.911833 0.811948 0.361639
0.944610 0.810910 0.394568
0.973724 0.809812 0.429969
0.999054 0.809171 0.468666
1.000000 0.809476 0.509697
0.000000 0.732387 0.228275
0.000000 0.732509 0.228611
0.000000 0.732662 0.228550
0.000000 0.732906 0.228580
0.000000 0.733303 0.228702
0.000000 0.733974 0.228855
0.000000 0.734707 0.228794
0.000000 0.735256 0.228946
0.000000 0.734005 0.230289
0.000000 0.732448 0.234257
0.126772 0.729915 0.242130
0.196750 0.724331 0.251896
0.248417 0.717952 0.262119
0.291630 0.710964 0.272984
0.329442 0.703548 0.284672
0.363073 0.695460 0.296788
0.393469 0.686915 0.309392
0.420691 0.677943 0.322637
0.445716 0.670314 0.335607
0.484596 0.691157 0.338537
0.527123 0.712184 0.340948
0.572808 0.732845 0.342657
0.621790 0.753079 0.343420
0.673671 0.772641 0.343297
0.728664 0.791653 0.342443
0.790616 0.813382 0.342168
0.855833 0.834379 0.347234
0.906584 0.844083 0.373968
0.939849 0.842313 0.406043
0.969360 0.840238 0.441779
0.995117 0.838315 0.479744
1.000000 0.837156 0.520348
0.000000 0.767575 0.245365
0.000000 0.767697 0.245518
0.000000 0.767819 0.245548
0.000000 0.768063 0.245640
0.000000 0.768521 0.245487
0.000000 0.769131 0.245640
0.000000 0.769863 0.245823
0.000000 0.770626 0.246098
0.000000 0.769345 0.247501
0.000000 0.767880 0.251804
0.101869 0.766049 0.259586
0.185489 0.761440 0.269230
0.241886 0.755734 0.279271
0.288212 0.749508 0.290074
0.328557 0.742702 0.301518
0.364752 0.735409 0.313756
0.397467 0.727718 0.326604
0.427161 0.719539 0.340002
0.454108 0.710903 0.353674
0.482124 0.709499 0.365332
0.521843 0.729854 0.369543
0.564569 0.749935 0.373205
0.610254 0.769619 0.376593
0.658503 0.788602 0.379187
0.708888 0.806546 0.380621
0.761593 0.823514 0.381415
0.821958 0.844053 0.384466
0.885496 0.864042 0.389349
0.934478 0.873259 0.418433
0.964813 0.870451 0.453742
0.990997 0.867338 0.490974
1.000000 0.864683 0.530663
0.000000 0.803464 0.264012
0.000000 0.803525 0.263981
0.000000 0.803647 0.263859
0.000000 0.803983 0.263981
0.000000 0.804410 0.264378
0.000000 0.804959 0.264378
0.000000 0.805722 0.264500
0.000000 0.806607 0.264775
0.000000 0.805600 0.266697
0.000000 0.803983 0.271305
0.070253 0.802182 0.279179
0.175113 0.799039 0.289708
0.236515 0.793942 0.299748
0.285863 0.788296 0.310521
0.328801 0.782284 0.322271
0.367163 0.775723 0.334386
0.402167 0.768826 0.347417
0.434211 0.761471 0.360754
0.463508 0.753750 0.374975
0.490364 0.745632 0.389471
0.521294 0.750240 0.400183
0.561425 0.769558 0.405768
0.604181 0.788479 0.410925
0.649042 0.806668 0.415473
0.695949 0.823819 0.419287
0.744259 0.839689 0.422461
0.793759 0.854124 0.424598
0.851743 0.873045 0.430884
0.911040 0.890318 0.436225
0.957641 0.898650 0.466773
0.986786 0.896178 0.502129
1.000000 0.892180 0.541833
0.000000 0.839994 0.285100
0.000000 0.840055 0.284947
0.000000 0.840238 0.285191
0.000000 0.840543 0.285222
0.000000 0.840909 0.285100
0.000000 0.841489 0.285435
0.000000 0.842191 0.285557
0.000000 0.843137 0.285893
0.000000 0.842618 0.288182
0.000000 0.841062 0.293523
0.002533 0.839170 0.301884
0.169192 0.836942 0.314061
0.234318 0.832517 0.324193
0.286259 0.827634 0.335363
0.331121 0.822263 0.347051
0.371466 0.816587 0.359533
0.408484 0.810422 0.372717
0.442634 0.803922 0.386511
0.474128 0.797147 0.401129
0.503197 0.790005 0.416114
0.529961 0.782620 0.431769
0.563928 0.792447 0.441810
0.603815 0.810239 0.448493
0.645563 0.827268 0.455024
0.688899 0.843290 0.460670
0.733486 0.858091 0.465492
0.779110 0.871580 0.469398
0.825406 0.883604 0.471992
0.879606 0.900023 0.479988
0.934966 0.915190 0.488014
0.978668 0.922210 0.515740
1.000000 0.919524 0.552880
0.000000 0.876616 0.309056
0.000000 0.876738 0.309270
0.000000 0.876860 0.309361
0.000000 0.877134 0.309361
0.000000 0.877501 0.309361
0.000000 0.878050 0.309575
0.000000 0.878752 0.310002
0.000000 0.879667 0.310369
0.000000 0.879759 0.312352
0.000000 0.878294 0.318853
0.000000 0.876493 0.328344
0.167880 0.874327 0.341833
0.237736 0.870970 0.354192
0.290898 0.866758 0.365362
0.337285 0.862119 0.377478
0.379065 0.857176 0.390234
0.417700 0.851896 0.403876
0.453407 0.846372 0.418250
0.486763 0.840543 0.433295
0.517937 0.834409 0.449134
0.546960 0.828092 0.465370
0.573907 0.821561 0.482277
0.609705 0.835203 0.490730
0.648219 0.850736 0.497780
0.688106 0.865324 0.504234
0.728939 0.878721 0.510063
0.770657 0.890898 0.514733
0.812894 0.901701 0.518730
0.855528 0.911131 0.521508
0.905272 0.924773 0.530938
0.956298 0.937774 0.542016
0.997162 0.943786 0.568414
0.000000 0.912627 0.337682
0.000000 0.912749 0.337865
0.000000 0.912840 0.337896
0.000000 0.913115 0.338109
0.000000 0.913451 0.338170
0.000000 0.914031 0.338598
0.000000 0.914702 0.339025
0.000000 0.915496 0.339391
0.000000 0.916503 0.340124
0.000000 0.914977 0.348180
0.000000 0.913176 0.359442
0.177462 0.911009 0.374365
0.250523 0.908324 0.390784
0.303166 0.904723 0.402289
0.349401 0.900847 0.414740
0.391821 0.896696 0.428107
