cubelut/Blues.cube
# Created by Adobe Lightroom plugin Export LUT (1.18.0)
# www.johnrellis.com/lightroom/exportlut.htm
# Preset: Blues
# Color profile: /Library/Application Support/Adobe/Color/Profiles/Recommended/AdobeRGB1998.icc
LUT_3D_SIZE 5
DOMAIN_MIN 0.000000 0.000000 0.000000
DOMAIN_MAX 0.903226 0.903226 0.903226
0.123049 0.157748 0.118502
0.182803 0.159182 0.125490
0.483162 0.000000 0.145876
0.771817 0.000000 0.159731
1.000000 0.226352 0.244511
0.131197 0.231785 0.132479
0.164736 0.234043 0.145449
0.456062 0.272160 0.141360
0.755917 0.298009 0.157443
1.000000 0.350927 0.254643
0.064729 0.469886 0.132113
0.097047 0.472450 0.135164
0.363073 0.478523 0.161807
0.707759 0.561425 0.159396
0.977203 0.583246 0.298711
0.000000 0.697841 0.212894
0.000000 0.700496 0.213291
0.330694 0.665126 0.269932
0.585992 0.717647 0.312016
0.944610 0.810910 0.394568
0.000000 0.947143 0.372656
0.000000 0.949767 0.374884
0.369940 0.937438 0.460304
0.616297 0.909697 0.567742
0.841306 0.948516 0.632136
0.133913 0.159701 0.223392
0.215732 0.143740 0.219028
0.505852 0.000000 0.260014
0.779110 0.073457 0.274296
1.000000 0.265721 0.348821
0.025605 0.229404 0.248051
0.189395 0.243626 0.241093
0.480110 0.266361 0.251987
0.764889 0.304234 0.288975
1.000000 0.375799 0.369146
0.000000 0.501152 0.256504
0.047242 0.502953 0.260899
0.386419 0.498573 0.298100
0.714473 0.569787 0.348516
0.974762 0.599908 0.443122
0.000000 0.716609 0.313970
0.000000 0.716457 0.314763
0.345892 0.690883 0.358007
0.597009 0.724361 0.419165
0.940520 0.815427 0.524956
0.000000 0.953552 0.420233
0.000000 0.956023 0.421637
0.370733 0.942870 0.512779
0.621149 0.913970 0.604669
0.844968 0.948058 0.681086
0.195010 0.054475 0.694301
0.334356 0.000000 0.631800
0.503258 0.000000 0.559136
0.804593 0.000000 0.622522
1.000000 0.164981 0.600397
0.202121 0.169223 0.707118
0.321172 0.159091 0.657771
0.493996 0.129976 0.568505
0.794247 0.192355 0.624537
1.000000 0.363684 0.627619
0.000000 0.561089 0.702419
0.000000 0.555627 0.698146
0.457618 0.558312 0.680201
0.747585 0.582605 0.659022
0.968750 0.643214 0.713680
0.000000 0.768612 0.583307
0.000000 0.767239 0.579217
0.332830 0.759304 0.590723
0.637476 0.751644 0.662196
0.932341 0.830472 0.765530
0.000000 0.975647 0.594781
0.000000 0.975128 0.589532
0.248356 0.962890 0.606348
0.635492 0.930571 0.713252
0.857877 0.947234 0.795712
0.412757 0.000000 0.946166
0.473426 0.000000 0.927886
0.577081 0.000000 0.837430
0.749752 0.000000 0.835355
1.000000 0.000000 0.849454
0.417700 0.000000 0.948913
0.467445 0.000000 0.934813
0.573754 0.000000 0.862181
0.746914 0.000000 0.841276
1.000000 0.000000 0.854887
0.135073 0.446632 0.989288
0.362921 0.500328 0.978454
0.562158 0.477485 0.934081
0.718135 0.361547 0.846464
0.988983 0.538750 0.880247
0.000000 0.782528 0.952880
0.000000 0.786801 0.951843
0.435523 0.803983 0.948516
0.770565 0.832639 0.938018
0.948699 0.844999 0.918608
0.000000 1.000000 0.869261
0.000000 1.000000 0.861143
0.000000 0.994781 0.839170
0.598566 0.966705 0.840848
0.885771 0.948211 0.911254
0.545495 0.000000 1.000000
0.582666 0.000000 1.000000
0.693294 0.000000 1.000000
0.835355 0.000000 1.000000
1.000000 0.000000 1.000000
0.546410 0.000000 1.000000
0.580255 0.000000 1.000000
0.683467 0.000000 1.000000
0.827054 0.000000 1.000000
1.000000 0.000000 1.000000
0.552056 0.499947 1.000000
0.565270 0.465553 1.000000
0.648615 0.387518 1.000000
0.795071 0.139803 1.000000
0.998230 0.000000 1.000000
0.464759 0.708278 1.000000
0.550561 0.737118 1.000000
0.752041 0.822232 1.000000
0.811612 0.757748 1.000000
0.967926 0.589349 1.000000
0.000000 0.895872 1.000000
0.069734 0.901549 1.000000
0.524804 0.922576 1.000000
0.812589 0.954498 1.000000
0.972015 0.980346 0.996643
