cubelut/BW10.cube
# Created by Adobe Lightroom plugin Export LUT (1.18.0)
# www.johnrellis.com/lightroom/exportlut.htm
# Preset: BW - 1. Crisp
# Color profile: /Library/Application Support/Adobe/Color/Profiles/Recommended/AdobeRGB1998.icc
LUT_3D_SIZE 8
DOMAIN_MIN 0.000000 0.000000 0.000000
DOMAIN_MAX 0.903226 0.903226 0.903226
0.000000 0.000000 0.000000
0.035157 0.035157 0.035157
0.089174 0.089174 0.089174
0.157443 0.157443 0.157443
0.246464 0.246464 0.246464
0.347570 0.347570 0.347570
0.472236 0.472236 0.472236
0.620539 0.620539 0.620539
0.068025 0.068025 0.068025
0.080354 0.080354 0.080354
0.119051 0.119051 0.119051
0.182742 0.182742 0.182742
0.266697 0.266697 0.266697
0.363958 0.363958 0.363958
0.485695 0.485695 0.485695
0.630457 0.630457 0.630457
0.167605 0.167605 0.167605
0.175326 0.175326 0.175326
0.205539 0.205539 0.205539
0.264714 0.264714 0.264714
0.333440 0.333440 0.333440
0.419135 0.419135 0.419135
0.530846 0.530846 0.530846
0.663355 0.663355 0.663355
0.302556 0.302556 0.302556
0.308080 0.308080 0.308080
0.327306 0.327306 0.327306
0.367132 0.367132 0.367132
0.438422 0.438422 0.438422
0.506828 0.506828 0.506828
0.601556 0.601556 0.601556
0.714748 0.714748 0.714748
0.451972 0.451972 0.451972
0.455909 0.455909 0.455909
0.469703 0.469703 0.469703
0.495674 0.495674 0.495674
0.535210 0.535210 0.535210
0.609216 0.609216 0.609216
0.682856 0.682856 0.682856
0.774929 0.774929 0.774929
0.599725 0.599725 0.599725
0.602472 0.602472 0.602472
0.612238 0.612238 0.612238
0.629419 0.629419 0.629419
0.656336 0.656336 0.656336
0.690761 0.690761 0.690761
0.761837 0.761837 0.761837
0.834257 0.834257 0.834257
0.740291 0.740291 0.740291
0.742153 0.742153 0.742153
0.748714 0.748714 0.748714
0.760403 0.760403 0.760403
0.776974 0.776974 0.776974
0.800687 0.800687 0.800687
0.827604 0.827604 0.827604
0.886076 0.886076 0.886076
0.864225 0.864225 0.864225
0.865385 0.865385 0.865385
0.869505 0.869505 0.869505
0.876921 0.876921 0.876921
0.887388 0.887388 0.887388
0.901061 0.901061 0.901061
0.917815 0.917815 0.917815
0.935515 0.935515 0.935515
0.015625 0.015625 0.015625
0.036133 0.036133 0.036133
0.102113 0.102113 0.102113
0.176883 0.176883 0.176883
0.262242 0.262242 0.262242
0.359503 0.359503 0.359503
0.480232 0.480232 0.480232
0.624537 0.624537 0.624537
0.061738 0.061738 0.061738
0.087373 0.087373 0.087373
0.132570 0.132570 0.132570
0.198642 0.198642 0.198642
0.280339 0.280339 0.280339
0.374701 0.374701 0.374701
0.493019 0.493019 0.493019
0.634119 0.634119 0.634119
0.169955 0.169955 0.169955
0.184329 0.184329 0.184329
0.211368 0.211368 0.211368
0.271641 0.271641 0.271641
0.341802 0.341802 0.341802
0.426734 0.426734 0.426734
0.536339 0.536339 0.536339
0.666194 0.666194 0.666194
0.306676 0.306676 0.306676
0.314672 0.314672 0.314672
0.333135 0.333135 0.333135
0.371160 0.371160 0.371160
0.441566 0.441566 0.441566
0.510918 0.510918 0.510918
0.604852 0.604852 0.604852
0.716640 0.716640 0.716640
0.456550 0.456550 0.456550
0.460395 0.460395 0.460395
0.473854 0.473854 0.473854
0.498878 0.498878 0.498878
0.537774 0.537774 0.537774
0.610803 0.610803 0.610803
0.684596 0.684596 0.684596
0.776120 0.776120 0.776120
0.602533 0.602533 0.602533
0.605280 0.605280 0.605280
0.614832 0.614832 0.614832
0.631769 0.631769 0.631769
0.658106 0.658106 0.658106
0.692195 0.692195 0.692195
0.762722 0.762722 0.762722
0.835019 0.835019 0.835019
0.741756 0.741756 0.741756
0.743618 0.743618 0.743618
0.750118 0.750118 0.750118
0.761685 0.761685 0.761685
0.778134 0.778134 0.778134
0.801541 0.801541 0.801541
0.828275 0.828275 0.828275
0.886564 0.886564 0.886564
0.864836 0.864836 0.864836
0.865995 0.865995 0.865995
0.870115 0.870115 0.870115
0.877470 0.877470 0.877470
0.887877 0.887877 0.887877
0.901427 0.901427 0.901427
0.918151 0.918151 0.918151
0.935790 0.935790 0.935790
0.053468 0.053468 0.053468
0.065583 0.065583 0.065583
0.103822 0.103822 0.103822
0.188510 0.188510 0.188510
0.278996 0.278996 0.278996
0.380652 0.380652 0.380652
0.496162 0.496162 0.496162
0.632410 0.632410 0.632410
0.092378 0.092378 0.092378
0.109133 0.109133 0.109133
0.137758 0.137758 0.137758
0.213321 0.213321 0.213321
0.298802 0.298802 0.298802
0.394873 0.394873 0.394873
0.508019 0.508019 0.508019
0.641535 0.641535 0.641535
0.154879 0.154879 0.154879
0.173526 0.173526 0.173526
0.225620 0.225620 0.225620
0.284398 0.284398 0.284398
0.357458 0.357458 0.357458
0.442634 0.442634 0.442634
0.548516 0.548516 0.548516
0.672389 0.672389 0.672389
0.304540 0.304540 0.304540
0.315404 0.315404 0.315404
0.348363 0.348363 0.348363
0.382422 0.382422 0.382422
0.449592 0.449592 0.449592
0.521050 0.521050 0.521050
0.613214 0.613214 0.613214
0.721187 0.721187 0.721187
0.455299 0.455299 0.455299
0.463142 0.463142 0.463142
0.486000 0.486000 0.486000
0.508568 0.508568 0.508568
0.545617 0.545617 0.545617
0.615686 0.615686 0.615686
0.689570 0.689570 0.689570
0.779263 0.779263 0.779263
0.603815 0.603815 0.603815
0.609064 0.609064 0.609064
0.622980 0.622980 0.622980
0.639277 0.639277 0.639277
0.663813 0.663813 0.663813
0.696773 0.696773 0.696773
0.765560 0.765560 0.765560
0.837247 0.837247 0.837247
0.743771 0.743771 0.743771
0.746914 0.746914 0.746914
0.754604 0.754604 0.754604
0.765896 0.765896 0.765896
0.781918 0.781918 0.781918
0.804349 0.804349 0.804349
0.830625 0.830625 0.830625
0.888365 0.888365 0.888365
0.866361 0.866361 0.866361
0.868009 0.868009 0.868009
0.872068 0.872068 0.872068
0.879271 0.879271 0.879271
0.889555 0.889555 0.889555
0.902678 0.902678 0.902678
0.919219 0.919219 0.919219
0.936736 0.936736 0.936736
0.090150 0.090150 0.090150
0.100832 0.100832 0.100832
0.133333 0.133333 0.133333
0.186313 0.186313 0.186313
0.288731 0.288731 0.288731
0.390417 0.390417 0.390417
0.508385 0.508385 0.508385
0.638514 0.638514 0.638514
0.134890 0.134890 0.134890
0.142153 0.142153 0.142153
0.166781 0.166781 0.166781
0.212161 0.212161 0.212161
0.309331 0.309331 0.309331
0.406409 0.406409 0.406409
0.520653 0.520653 0.520653
0.646632 0.646632 0.646632
0.180697 0.180697 0.180697
0.197757 0.197757 0.197757
0.254307 0.254307 0.254307
0.288731 0.288731 0.288731
0.370794 0.370794 0.370794
0.458106 0.458106 0.458106
0.560662 0.560662 0.560662
0.675990 0.675990 0.675990
0.278233 0.278233 0.278233
0.291508 0.291508 0.291508
0.334051 0.334051 0.334051
0.400000 0.400000 0.400000
0.461707 0.461707 0.461707
0.534234 0.534234 0.534234
0.622217 0.622217 0.622217
0.724331 0.724331 0.724331
0.452064 0.452064 0.452064
0.459846 0.459846 0.459846
0.485634 0.485634 0.485634
0.525444 0.525444 0.525444
0.558099 0.558099 0.558099
0.623194 0.623194 0.623194
0.695796 0.695796 0.695796
0.782193 0.782193 0.782193
0.601831 0.601831 0.601831
0.607080 0.607080 0.607080
0.624659 0.624659 0.624659
0.650782 0.650782 0.650782
0.672633 0.672633 0.672633
0.704341 0.704341 0.704341
0.770108 0.770108 0.770108
0.840146 0.840146 0.840146
0.742611 0.742611 0.742611
0.745815 0.745815 0.745815
0.756588 0.756588 0.756588
0.772427 0.772427 0.772427
0.787900 0.787900 0.787900
0.808835 0.808835 0.808835
0.834562 0.834562 0.834562
0.891295 0.891295 0.891295
0.865782 0.865782 0.865782
0.867521 0.867521 0.867521
0.873472 0.873472 0.873472
0.882139 0.882139 0.882139
0.892210 0.892210 0.892210
0.904875 0.904875 0.904875
0.921019 0.921019 0.921019
0.938323 0.938323 0.938323
0.140414 0.140414 0.140414
0.149416 0.149416 0.149416
0.177768 0.177768 0.177768
0.219821 0.219821 0.219821
0.281926 0.281926 0.281926
0.396765 0.396765 0.396765
0.521569 0.521569 0.521569
0.650111 0.650111 0.650111
0.179294 0.179294 0.179294
0.186130 0.186130 0.186130
0.208377 0.208377 0.208377
0.244907 0.244907 0.244907
0.302617 0.302617 0.302617
0.413642 0.413642 0.413642
0.533501 0.533501 0.533501
0.657893 0.657893 0.657893
0.246860 0.246860 0.246860
0.268589 0.268589 0.268589
0.291325 0.291325 0.291325
0.320714 0.320714 0.320714
0.368261 0.368261 0.368261
0.468086 0.468086 0.468086
0.572137 0.572137 0.572137
0.683375 0.683375 0.683375
0.304540 0.304540 0.304540
0.317449 0.317449 0.317449
0.359258 0.359258 0.359258
0.430426 0.430426 0.430426
0.465919 0.465919 0.465919
0.545861 0.545861 0.545861
0.629328 0.629328 0.629328
0.722255 0.722255 0.722255
0.416327 0.416327 0.416327
0.426398 0.426398 0.426398
0.459541 0.459541 0.459541
0.511650 0.511650 0.511650
0.574365 0.574365 0.574365
0.630610 0.630610 0.630610
0.698726 0.698726 0.698726
0.780179 0.780179 0.780179
0.598901 0.598901 0.598901
0.604059 0.604059 0.604059
0.621576 0.621576 0.621576
0.650080 0.650080 0.650080
0.685634 0.685634 0.685634
0.714382 0.714382 0.714382
0.774716 0.774716 0.774716
0.841520 0.841520 0.841520
0.740780 0.740780 0.740780
0.743984 0.743984 0.743984
0.754726 0.754726 0.754726
0.772702 0.772702 0.772702
0.795377 0.795377 0.795377
0.814633 0.814633 0.814633
0.839963 0.839963 0.839963
0.894835 0.894835 0.894835
0.864866 0.864866 0.864866
0.866606 0.866606 0.866606
0.872496 0.872496 0.872496
0.882628 0.882628 0.882628
0.895506 0.895506 0.895506
0.908019 0.908019 0.908019
0.923400 0.923400 0.923400
0.940612 0.940612 0.940612
0.203677 0.203677 0.203677
0.211276 0.211276 0.211276
0.234989 0.234989 0.234989
0.272648 0.272648 0.272648
0.322179 0.322179 0.322179
0.392706 0.392706 0.392706
0.523644 0.523644 0.523644
0.665583 0.665583 0.665583
0.236088 0.236088 0.236088
0.242039 0.242039 0.242039
0.262119 0.262119 0.262119
0.295903 0.295903 0.295903
0.342046 0.342046 0.342046
0.409400 0.409400 0.409400
0.536278 0.536278 0.536278
0.672908 0.672908 0.672908
0.319341 0.319341 0.319341
0.323796 0.323796 0.323796
0.339513 0.339513 0.339513
0.367132 0.367132 0.367132
0.405737 0.405737 0.405737
0.463661 0.463661 0.463661
0.577386 0.577386 0.577386
0.696956 0.696956 0.696956
0.349645 0.349645 0.349645
0.367315 0.367315 0.367315
0.425422 0.425422 0.425422
0.470161 0.470161 0.470161
0.500267 0.500267 0.500267
0.544274 0.544274 0.544274
0.637964 0.637964 0.637964
0.733852 0.733852 0.733852
0.450446 0.450446 0.450446
0.459846 0.459846 0.459846
0.490761 0.490761 0.490761
0.538659 0.538659 0.538659
0.602991 0.602991 0.602991
0.633570 0.633570 0.633570
0.705196 0.705196 0.705196
0.780148 0.780148 0.780148
0.565454 0.565454 0.565454
0.572198 0.572198 0.572198
0.594629 0.594629 0.594629
0.629999 0.629999 0.629999
0.674067 0.674067 0.674067
0.728023 0.728023 0.728023
0.777737 0.777737 0.777737
0.838865 0.838865 0.838865
0.731197 0.731197 0.731197
0.735531 0.735531 0.735531
0.750118 0.750118 0.750118
0.769802 0.769802 0.769802
0.794064 0.794064 0.794064
0.823850 0.823850 0.823850
0.847440 0.847440 0.847440
0.898070 0.898070 0.898070
0.863462 0.863462 0.863462
0.865171 0.865171 0.865171
0.871031 0.871031 0.871031
0.881102 0.881102 0.881102
0.895201 0.895201 0.895201
0.912169 0.912169 0.912169
0.926574 0.926574 0.926574
0.943786 0.943786 0.943786
0.288731 0.288731 0.288731
0.294957 0.294957 0.294957
0.315435 0.315435 0.315435
0.349096 0.349096 0.349096
0.393988 0.393988 0.393988
0.451667 0.451667 0.451667
0.524437 0.524437 0.524437
0.663783 0.663783 0.663783
0.315435 0.315435 0.315435
0.320714 0.320714 0.320714
0.338811 0.338811 0.338811
0.369879 0.369879 0.369879
0.412299 0.412299 0.412299
0.466896 0.466896 0.466896
0.536767 0.536767 0.536767
0.671778 0.671778 0.671778
0.389899 0.389899 0.389899
0.393988 0.393988 0.393988
0.408637 0.408637 0.408637
0.434363 0.434363 0.434363
0.470161 0.470161 0.470161
0.515831 0.515831 0.515831
0.576867 0.576867 0.576867
0.697963 0.697963 0.697963
0.456550 0.456550 0.456550
0.470985 0.470985 0.470985
0.506554 0.506554 0.506554
0.526268 0.526268 0.526268
0.553826 0.553826 0.553826
0.587671 0.587671 0.587671
0.635889 0.635889 0.635889
0.737972 0.737972 0.737972
0.502434 0.502434 0.502434
0.510033 0.510033 0.510033
0.534905 0.534905 0.534905
0.597223 0.597223 0.597223
0.642817 0.642817 0.642817
0.668116 0.668116 0.668116
0.704128 0.704128 0.704128
0.787991 0.787991 0.787991
0.612879 0.612879 0.612879
0.618311 0.618311 0.618311
0.636255 0.636255 0.636255
0.664179 0.664179 0.664179
0.700008 0.700008 0.700008
0.753902 0.753902 0.753902
0.780026 0.780026 0.780026
0.842863 0.842863 0.842863
0.713558 0.713558 0.713558
0.717250 0.717250 0.717250
0.729702 0.729702 0.729702
0.750179 0.750179 0.750179
0.778531 0.778531 0.778531
0.814603 0.814603 0.814603
0.858122 0.858122 0.858122
0.898528 0.898528 0.898528
0.850523 0.850523 0.850523
0.852903 0.852903 0.852903
0.861234 0.861234 0.861234
0.875456 0.875456 0.875456
0.893095 0.893095 0.893095
0.911101 0.911101 0.911101
0.931945 0.931945 0.931945
0.948241 0.948241 0.948241
0.416327 0.416327 0.416327
0.421332 0.421332 0.421332
0.438636 0.438636 0.438636
0.467842 0.467842 0.467842
0.507012 0.507012 0.507012
0.553155 0.553155 0.553155
0.610254 0.610254 0.610254
0.673182 0.673182 0.673182
0.437232 0.437232 0.437232
0.441810 0.441810 0.441810
0.457618 0.457618 0.457618
0.484840 0.484840 0.484840
0.521752 0.521752 0.521752
0.565606 0.565606 0.565606
0.619867 0.619867 0.619867
0.680568 0.680568 0.680568
0.498207 0.498207 0.498207
0.501884 0.501884 0.501884
0.514672 0.514672 0.514672
0.537133 0.537133 0.537133
0.567956 0.567956 0.567956
0.604974 0.604974 0.604974
0.650813 0.650813 0.650813
0.704738 0.704738 0.704738
0.580652 0.580652 0.580652
0.583368 0.583368 0.583368
0.592889 0.592889 0.592889
0.609735 0.609735 0.609735
0.633082 0.633082 0.633082
0.661677 0.661677 0.661677
0.696712 0.696712 0.696712
0.741909 0.741909 0.741909
0.594293 0.594293 0.594293
0.604120 0.604120 0.604120
0.636133 0.636133 0.636133
0.684901 0.684901 0.684901
0.702388 0.702388 0.702388
0.724544 0.724544 0.724544
0.750820 0.750820 0.750820
0.789029 0.789029 0.789029
0.677455 0.677455 0.677455
0.680781 0.680781 0.680781
0.691646 0.691646 0.691646
0.708431 0.708431 0.708431
0.751705 0.751705 0.751705
0.793271 0.793271 0.793271
0.814298 0.814298 0.814298
0.843168 0.843168 0.843168
0.773953 0.773953 0.773953
0.776272 0.776272 0.776272
0.783932 0.783932 0.783932
0.797055 0.797055 0.797055
0.815732 0.815732 0.815732
0.840085 0.840085 0.840085
0.880125 0.880125 0.880125
0.900114 0.900114 0.900114
0.851560 0.851560 0.851560
0.853147 0.853147 0.853147
0.858701 0.858701 0.858701
0.868650 0.868650 0.868650
0.883085 0.883085 0.883085
0.902098 0.902098 0.902098
0.925994 0.925994 0.925994
0.954925 0.954925 0.954925
