cubelut/BW10.cube
# Created by Adobe Lightroom plugin Export LUT (1.18.0)
# www.johnrellis.com/lightroom/exportlut.htm
# Preset: BW - 1. Crisp
# Color profile: /Library/Application Support/Adobe/Color/Profiles/Recommended/AdobeRGB1998.icc
LUT_3D_SIZE 5
DOMAIN_MIN 0.000000 0.000000 0.000000
DOMAIN_MAX 0.903226 0.903226 0.903226
0.000000 0.000000 0.000000
0.076509 0.076509 0.076509
0.200565 0.200565 0.200565
0.376287 0.376287 0.376287
0.620539 0.620539 0.620539
0.138491 0.138491 0.138491
0.169833 0.169833 0.169833
0.273960 0.273960 0.273960
0.428016 0.428016 0.428016
0.653071 0.653071 0.653071
0.376898 0.376898 0.376898
0.392706 0.392706 0.392706
0.452827 0.452827 0.452827
0.576623 0.576623 0.576623
0.744411 0.744411 0.744411
0.636011 0.636011 0.636011
0.644495 0.644495 0.644495
0.673304 0.673304 0.673304
0.727047 0.727047 0.727047
0.848112 0.848112 0.848112
0.864225 0.864225 0.864225
0.868193 0.868193 0.868193
0.881773 0.881773 0.881773
0.905089 0.905089 0.905089
0.935515 0.935515 0.935515
0.042969 0.042969 0.042969
0.086336 0.086336 0.086336
0.230289 0.230289 0.230289
0.402197 0.402197 0.402197
0.630396 0.630396 0.630396
0.127932 0.127932 0.127932
0.186740 0.186740 0.186740
0.296025 0.296025 0.296025
0.448005 0.448005 0.448005
0.661036 0.661036 0.661036
0.380163 0.380163 0.380163
0.407660 0.407660 0.407660
0.462684 0.462684 0.462684
0.584649 0.584649 0.584649
0.748623 0.748623 0.748623
0.640314 0.640314 0.640314
0.651850 0.651850 0.651850
0.679561 0.679561 0.679561
0.730983 0.730983 0.730983
0.850217 0.850217 0.850217
0.866239 0.866239 0.866239
0.870146 0.870146 0.870146
0.883513 0.883513 0.883513
0.906279 0.906279 0.906279
0.936431 0.936431 0.936431
0.113741 0.113741 0.113741
0.144991 0.144991 0.144991
0.232944 0.232944 0.232944
0.424811 0.424811 0.424811
0.643854 0.643854 0.643854
0.204044 0.204044 0.204044
0.240757 0.240757 0.240757
0.305180 0.305180 0.305180
0.473213 0.473213 0.473213
0.669764 0.669764 0.669764
0.346227 0.346227 0.346227
0.383948 0.383948 0.383948
0.490089 0.490089 0.490089
0.601251 0.601251 0.601251
0.752193 0.752193 0.752193
0.637171 0.637171 0.637171
0.652430 0.652430 0.652430
0.696956 0.696956 0.696956
0.742855 0.742855 0.742855
0.855039 0.855039 0.855039
0.865415 0.865415 0.865415
0.871122 0.871122 0.871122
0.888426 0.888426 0.888426
0.909819 0.909819 0.909819
0.939361 0.939361 0.939361
0.222538 0.222538 0.222538
0.245365 0.245365 0.245365
0.311711 0.311711 0.311711
0.423713 0.423713 0.423713
0.667842 0.667842 0.667842
0.310704 0.310704 0.310704
0.326390 0.326390 0.326390
0.379156 0.379156 0.379156
0.474739 0.474739 0.474739
0.693568 0.693568 0.693568
0.408057 0.408057 0.408057
0.441138 0.441138 0.441138
0.548699 0.548699 0.548699
0.607538 0.607538 0.607538
0.758938 0.758938 0.758938
0.603296 0.603296 0.603296
0.622675 0.622675 0.622675
0.678737 0.678737 0.678737
0.763088 0.763088 0.763088
0.853849 0.853849 0.853849
0.863035 0.863035 0.863035
0.868681 0.868681 0.868681
0.887175 0.887175 0.887175
0.916838 0.916838 0.916838
0.944762 0.944762 0.944762
0.416327 0.416327 0.416327
0.433143 0.433143 0.433143
0.486336 0.486336 0.486336
0.565484 0.565484 0.565484
0.673182 0.673182 0.673182
0.480018 0.480018 0.480018
0.493202 0.493202 0.493202
0.536645 0.536645 0.536645
0.603449 0.603449 0.603449
0.697261 0.697261 0.697261
0.589960 0.589960 0.589960
0.622614 0.622614 0.622614
0.657038 0.657038 0.657038
0.699245 0.699245 0.699245
0.764370 0.764370 0.764370
0.703151 0.703151 0.703151
0.713069 0.713069 0.713069
0.742123 0.742123 0.742123
0.815671 0.815671 0.815671
0.857298 0.857298 0.857298
0.851560 0.851560 0.851560
0.856901 0.856901 0.856901
0.875303 0.875303 0.875303
0.907591 0.907591 0.907591
0.954925 0.954925 0.954925
