cubelut/BW10.cube
# Created by Adobe Lightroom plugin Export LUT (1.18.0)
# www.johnrellis.com/lightroom/exportlut.htm
# Preset: BW - 1. Crisp
# Color profile: /Library/Application Support/Adobe/Color/Profiles/Recommended/AdobeRGB1998.icc
LUT_3D_SIZE 32
DOMAIN_MIN 0.0 0.0 0.0
DOMAIN_MAX 1.0 1.0 1.0
0.000000 0.000000 0.000000
0.002930 0.002930 0.002930
0.007813 0.007813 0.007813
0.018555 0.018555 0.018555
0.035157 0.035157 0.035157
0.052003 0.052003 0.052003
0.064881 0.064881 0.064881
0.076509 0.076509 0.076509
0.089174 0.089174 0.089174
0.103822 0.103822 0.103822
0.119936 0.119936 0.119936
0.138064 0.138064 0.138064
0.157443 0.157443 0.157443
0.178531 0.178531 0.178531
0.200565 0.200565 0.200565
0.223117 0.223117 0.223117
0.246464 0.246464 0.246464
0.270512 0.270512 0.270512
0.294957 0.294957 0.294957
0.320531 0.320531 0.320531
0.347570 0.347570 0.347570
0.376287 0.376287 0.376287
0.406592 0.406592 0.406592
0.438636 0.438636 0.438636
0.472236 0.472236 0.472236
0.507500 0.507500 0.507500
0.544152 0.544152 0.544152
0.581994 0.581994 0.581994
0.620539 0.620539 0.620539
0.659693 0.659693 0.659693
0.699306 0.699306 0.699306
0.739193 0.739193 0.739193
0.006836 0.006836 0.006836
0.009766 0.009766 0.009766
0.014649 0.014649 0.014649
0.026368 0.026368 0.026368
0.041993 0.041993 0.041993
0.057893 0.057893 0.057893
0.068391 0.068391 0.068391
0.079469 0.079469 0.079469
0.092134 0.092134 0.092134
0.106508 0.106508 0.106508
0.122713 0.122713 0.122713
0.140566 0.140566 0.140566
0.160098 0.160098 0.160098
0.180911 0.180911 0.180911
0.202731 0.202731 0.202731
0.225376 0.225376 0.225376
0.248539 0.248539 0.248539
0.272496 0.272496 0.272496
0.296727 0.296727 0.296727
0.322210 0.322210 0.322210
0.349248 0.349248 0.349248
0.377783 0.377783 0.377783
0.408057 0.408057 0.408057
0.439979 0.439979 0.439979
0.473579 0.473579 0.473579
0.508812 0.508812 0.508812
0.545312 0.545312 0.545312
0.583154 0.583154 0.583154
0.621576 0.621576 0.621576
0.660609 0.660609 0.660609
0.700069 0.700069 0.700069
0.739895 0.739895 0.739895
0.017578 0.017578 0.017578
0.019532 0.019532 0.019532
0.023438 0.023438 0.023438
0.037110 0.037110 0.037110
0.052003 0.052003 0.052003
0.063325 0.063325 0.063325
0.072724 0.072724 0.072724
0.083650 0.083650 0.083650
0.096132 0.096132 0.096132
0.110506 0.110506 0.110506
0.126436 0.126436 0.126436
0.144320 0.144320 0.144320
0.163546 0.163546 0.163546
0.184237 0.184237 0.184237
0.205905 0.205905 0.205905
0.228275 0.228275 0.228275
0.251408 0.251408 0.251408
0.275059 0.275059 0.275059
0.299229 0.299229 0.299229
0.324651 0.324651 0.324651
0.351537 0.351537 0.351537
0.379950 0.379950 0.379950
0.410132 0.410132 0.410132
0.441901 0.441901 0.441901
0.475441 0.475441 0.475441
0.510460 0.510460 0.510460
0.546960 0.546960 0.546960
0.584649 0.584649 0.584649
0.622950 0.622950 0.622950
0.661860 0.661860 0.661860
0.701198 0.701198 0.701198
0.740871 0.740871 0.740871
0.042969 0.042969 0.042969
0.045899 0.045899 0.045899
0.048341 0.048341 0.048341
0.055695 0.055695 0.055695
0.066285 0.066285 0.066285
0.074006 0.074006 0.074006
0.082826 0.082826 0.082826
0.093111 0.093111 0.093111
0.105074 0.105074 0.105074
0.118898 0.118898 0.118898
0.134585 0.134585 0.134585
0.152102 0.152102 0.152102
0.171115 0.171115 0.171115
0.191440 0.191440 0.191440
0.212528 0.212528 0.212528
0.234684 0.234684 0.234684
0.257420 0.257420 0.257420
0.280797 0.280797 0.280797
0.304601 0.304601 0.304601
0.329686 0.329686 0.329686
0.356359 0.356359 0.356359
0.384619 0.384619 0.384619
0.414588 0.414588 0.414588
0.446204 0.446204 0.446204
0.479438 0.479438 0.479438
0.514275 0.514275 0.514275
0.550408 0.550408 0.550408
0.587884 0.587884 0.587884
0.625879 0.625879 0.625879
0.664515 0.664515 0.664515
0.703609 0.703609 0.703609
0.743008 0.743008 0.743008
0.068025 0.068025 0.068025
0.069093 0.069093 0.069093
0.070497 0.070497 0.070497
0.074006 0.074006 0.074006
0.080354 0.080354 0.080354
0.091402 0.091402 0.091402
0.098634 0.098634 0.098634
0.107912 0.107912 0.107912
0.119051 0.119051 0.119051
0.132418 0.132418 0.132418
0.147524 0.147524 0.147524
0.164401 0.164401 0.164401
0.182742 0.182742 0.182742
0.202457 0.202457 0.202457
0.222965 0.222965 0.222965
0.244450 0.244450 0.244450
0.266697 0.266697 0.266697
0.289555 0.289555 0.289555
0.312932 0.312932 0.312932
0.337713 0.337713 0.337713
0.363958 0.363958 0.363958
0.391913 0.391913 0.391913
0.421515 0.421515 0.421515
0.452827 0.452827 0.452827
0.485695 0.485695 0.485695
0.520134 0.520134 0.520134
0.555962 0.555962 0.555962
0.592859 0.592859 0.592859
0.630457 0.630457 0.630457
0.668666 0.668666 0.668666
0.707332 0.707332 0.707332
0.746304 0.746304 0.746304
0.088930 0.088930 0.088930
0.089906 0.089906 0.089906
0.091127 0.091127 0.091127
0.094026 0.094026 0.094026
0.099519 0.099519 0.099519
0.107118 0.107118 0.107118
0.120638 0.120638 0.120638
0.128237 0.128237 0.128237
0.138216 0.138216 0.138216
0.150362 0.150362 0.150362
0.164767 0.164767 0.164767
0.180697 0.180697 0.180697
0.198245 0.198245 0.198245
0.216983 0.216983 0.216983
0.236790 0.236790 0.236790
0.257481 0.257481 0.257481
0.279149 0.279149 0.279149
0.301274 0.301274 0.301274
0.324102 0.324102 0.324102
0.348363 0.348363 0.348363
0.374090 0.374090 0.374090
0.401587 0.401587 0.401587
0.430701 0.430701 0.430701
0.461555 0.461555 0.461555
0.493996 0.493996 0.493996
0.527977 0.527977 0.527977
0.563317 0.563317 0.563317
0.599573 0.599573 0.599573
0.636561 0.636561 0.636561
0.674189 0.674189 0.674189
0.712306 0.712306 0.712306
0.750759 0.750759 0.750759
0.112428 0.112428 0.112428
0.113375 0.113375 0.113375
0.114504 0.114504 0.114504
0.117250 0.117250 0.117250
0.121523 0.121523 0.121523
0.128237 0.128237 0.128237
0.136873 0.136873 0.136873
0.153445 0.153445 0.153445
0.161959 0.161959 0.161959
0.172824 0.172824 0.172824
0.186007 0.186007 0.186007
0.200839 0.200839 0.200839
0.217350 0.217350 0.217350
0.234989 0.234989 0.234989
0.253788 0.253788 0.253788
0.273686 0.273686 0.273686
0.294469 0.294469 0.294469
0.315831 0.315831 0.315831
0.338018 0.338018 0.338018
0.361486 0.361486 0.361486
0.386694 0.386694 0.386694
0.413642 0.413642 0.413642
0.442267 0.442267 0.442267
0.472511 0.472511 0.472511
0.504326 0.504326 0.504326
0.537652 0.537652 0.537652
0.572381 0.572381 0.572381
0.607904 0.607904 0.607904
0.644099 0.644099 0.644099
0.681056 0.681056 0.681056
0.718441 0.718441 0.718441
0.756222 0.756222 0.756222
0.138491 0.138491 0.138491
0.139406 0.139406 0.139406
0.140566 0.140566 0.140566
0.143008 0.143008 0.143008
0.146975 0.146975 0.146975
0.152499 0.152499 0.152499
0.160342 0.160342 0.160342
0.169833 0.169833 0.169833
0.189517 0.189517 0.189517
0.198917 0.198917 0.198917
0.210636 0.210636 0.210636
0.224216 0.224216 0.224216
0.239445 0.239445 0.239445
0.256016 0.256016 0.256016
0.273960 0.273960 0.273960
0.292760 0.292760 0.292760
0.312566 0.312566 0.312566
0.333135 0.333135 0.333135
0.354437 0.354437 0.354437
0.377234 0.377234 0.377234
0.401801 0.401801 0.401801
0.428016 0.428016 0.428016
0.455970 0.455970 0.455970
0.485512 0.485512 0.485512
0.516594 0.516594 0.516594
0.549310 0.549310 0.549310
0.583032 0.583032 0.583032
0.617670 0.617670 0.617670
0.653071 0.653071 0.653071
0.689174 0.689174 0.689174
0.725795 0.725795 0.725795
0.762783 0.762783 0.762783
0.167605 0.167605 0.167605
0.168338 0.168338 0.168338
0.169497 0.169497 0.169497
0.171695 0.171695 0.171695
0.175326 0.175326 0.175326
0.180056 0.180056 0.180056
0.186831 0.186831 0.186831
0.195529 0.195529 0.195529
0.205539 0.205539 0.205539
0.224979 0.224979 0.224979
0.238499 0.238499 0.238499
0.250675 0.250675 0.250675
0.264714 0.264714 0.264714
0.280156 0.280156 0.280156
0.296910 0.296910 0.296910
0.314672 0.314672 0.314672
0.333440 0.333440 0.333440
0.353094 0.353094 0.353094
0.373419 0.373419 0.373419
0.395361 0.395361 0.395361
0.419135 0.419135 0.419135
0.444526 0.444526 0.444526
0.471717 0.471717 0.471717
0.500481 0.500481 0.500481
0.530846 0.530846 0.530846
0.562493 0.562493 0.562493
0.595270 0.595270 0.595270
0.628901 0.628901 0.628901
0.663355 0.663355 0.663355
0.698512 0.698512 0.698512
0.734188 0.734188 0.734188
0.770260 0.770260 0.770260
0.198917 0.198917 0.198917
0.199710 0.199710 0.199710
0.200656 0.200656 0.200656
0.202640 0.202640 0.202640
0.205905 0.205905 0.205905
0.210361 0.210361 0.210361
0.215854 0.215854 0.215854
0.223728 0.223728 0.223728
0.233005 0.233005 0.233005
0.243565 0.243565 0.243565
0.261540 0.261540 0.261540
0.279789 0.279789 0.279789
0.292546 0.292546 0.292546
0.306737 0.306737 0.306737
0.322332 0.322332 0.322332
0.339117 0.339117 0.339117
0.356786 0.356786 0.356786
0.375280 0.375280 0.375280
0.394629 0.394629 0.394629
0.415656 0.415656 0.415656
0.438483 0.438483 0.438483
0.463142 0.463142 0.463142
0.489418 0.489418 0.489418
0.517235 0.517235 0.517235
0.546593 0.546593 0.546593
0.577264 0.577264 0.577264
0.608911 0.608911 0.608911
0.641444 0.641444 0.641444
0.674830 0.674830 0.674830
0.708888 0.708888 0.708888
0.743557 0.743557 0.743557
0.778592 0.778592 0.778592
0.232059 0.232059 0.232059
0.232792 0.232792 0.232792
0.233646 0.233646 0.233646
0.235538 0.235538 0.235538
0.238499 0.238499 0.238499
0.242496 0.242496 0.242496
0.247654 0.247654 0.247654
0.254154 0.254154 0.254154
0.262669 0.262669 0.262669
0.272496 0.272496 0.272496
0.283391 0.283391 0.283391
0.299748 0.299748 0.299748
0.322698 0.322698 0.322698
0.335760 0.335760 0.335760
0.350164 0.350164 0.350164
0.365728 0.365728 0.365728
0.382208 0.382208 0.382208
0.399573 0.399573 0.399573
0.417884 0.417884 0.417884
0.437903 0.437903 0.437903
0.459846 0.459846 0.459846
0.483406 0.483406 0.483406
0.508751 0.508751 0.508751
0.535576 0.535576 0.535576
0.563867 0.563867 0.563867
0.593317 0.593317 0.593317
0.623713 0.623713 0.623713
0.655085 0.655085 0.655085
0.687312 0.687312 0.687312
0.720211 0.720211 0.720211
0.753811 0.753811 0.753811
0.787716 0.787716 0.787716
0.266758 0.266758 0.266758
0.267369 0.267369 0.267369
0.268162 0.268162 0.268162
0.269841 0.269841 0.269841
0.272648 0.272648 0.272648
0.276371 0.276371 0.276371
0.281102 0.281102 0.281102
0.286778 0.286778 0.286778
0.294224 0.294224 0.294224
0.303319 0.303319 0.303319
0.313512 0.313512 0.313512
0.324681 0.324681 0.324681
0.339117 0.339117 0.339117
0.366735 0.366735 0.366735
0.379950 0.379950 0.379950
0.394202 0.394202 0.394202
0.409552 0.409552 0.409552
0.425788 0.425788 0.425788
0.442878 0.442878 0.442878
0.461830 0.461830 0.461830
0.482643 0.482643 0.482643
0.505241 0.505241 0.505241
0.529473 0.529473 0.529473
0.555169 0.555169 0.555169
0.582269 0.582269 0.582269
0.610437 0.610437 0.610437
0.639551 0.639551 0.639551
0.669642 0.669642 0.669642
0.700649 0.700649 0.700649
0.732418 0.732418 0.732418
0.764736 0.764736 0.764736
0.797482 0.797482 0.797482
0.302556 0.302556 0.302556
0.303197 0.303197 0.303197
0.303899 0.303899 0.303899
0.305577 0.305577 0.305577
0.308080 0.308080 0.308080
0.311559 0.311559 0.311559
0.315953 0.315953 0.315953
0.321141 0.321141 0.321141
0.327306 0.327306 0.327306
0.335698 0.335698 0.335698
0.345251 0.345251 0.345251
0.355627 0.355627 0.355627
0.367132 0.367132 0.367132
0.379614 0.379614 0.379614
0.411170 0.411170 0.411170
0.424292 0.424292 0.424292
0.438422 0.438422 0.438422
0.453254 0.453254 0.453254
0.469276 0.469276 0.469276
0.487098 0.487098 0.487098
0.506828 0.506828 0.506828
0.528252 0.528252 0.528252
0.551354 0.551354 0.551354
0.575830 0.575830 0.575830
0.601556 0.601556 0.601556
0.628321 0.628321 0.628321
0.656184 0.656184 0.656184
0.685023 0.685023 0.685023
0.714748 0.714748 0.714748
0.745235 0.745235 0.745235
0.776303 0.776303 0.776303
0.807767 0.807767 0.807767
0.339422 0.339422 0.339422
0.339971 0.339971 0.339971
0.340642 0.340642 0.340642
0.342199 0.342199 0.342199
0.344457 0.344457 0.344457
0.347662 0.347662 0.347662
0.351720 0.351720 0.351720
0.356634 0.356634 0.356634
0.362341 0.362341 0.362341
0.369268 0.369268 0.369268
0.378058 0.378058 0.378058
0.387884 0.387884 0.387884
0.398505 0.398505 0.398505
0.410040 0.410040 0.410040
0.422400 0.422400 0.422400
0.455512 0.455512 0.455512
0.468299 0.468299 0.468299
0.481910 0.481910 0.481910
0.496712 0.496712 0.496712
0.513359 0.513359 0.513359
0.531914 0.531914 0.531914
0.552209 0.552209 0.552209
0.573968 0.573968 0.573968
0.597162 0.597162 0.597162
0.621485 0.621485 0.621485
0.646906 0.646906 0.646906
0.673396 0.673396 0.673396
0.700954 0.700954 0.700954
0.729366 0.729366 0.729366
0.758572 0.758572 0.758572
0.788357 0.788357 0.788357
0.818479 0.818479 0.818479
0.376898 0.376898 0.376898
0.377325 0.377325 0.377325
0.377905 0.377905 0.377905
0.379370 0.379370 0.379370
0.381537 0.381537 0.381537
0.384527 0.384527 0.384527
0.388220 0.388220 0.388220
0.392706 0.392706 0.392706
0.397955 0.397955 0.397955
0.404059 0.404059 0.404059
0.411749 0.411749 0.411749
0.420783 0.420783 0.420783
0.430701 0.430701 0.430701
0.441382 0.441382 0.441382
0.452827 0.452827 0.452827
0.464942 0.464942 0.464942
0.498817 0.498817 0.498817
0.511131 0.511131 0.511131
0.524743 0.524743 0.524743
0.540307 0.540307 0.540307
0.557610 0.557610 0.557610
0.576623 0.576623 0.576623
0.597070 0.597070 0.597070
0.618830 0.618830 0.618830
0.641779 0.641779 0.641779
0.665888 0.665888 0.665888
0.691066 0.691066 0.691066
0.717311 0.717311 0.717311
0.744411 0.744411 0.744411
0.772274 0.772274 0.772274
0.800687 0.800687 0.800687
0.829465 0.829465 0.829465
0.414557 0.414557 0.414557
0.414954 0.414954 0.414954
0.415503 0.415503 0.415503
0.416785 0.416785 0.416785
0.418799 0.418799 0.418799
0.421515 0.421515 0.421515
0.424933 0.424933 0.424933
0.429114 0.429114 0.429114
0.433997 0.433997 0.433997
0.439490 0.439490 0.439490
0.445808 0.445808 0.445808
0.454108 0.454108 0.454108
0.463203 0.463203 0.463203
0.473060 0.473060 0.473060
0.483589 0.483589 0.483589
0.494728 0.494728 0.494728
0.506432 0.506432 0.506432
0.538201 0.538201 0.538201
0.553033 0.553033 0.553033
0.567437 0.567437 0.567437
0.583551 0.583551 0.583551
0.601190 0.601190 0.601190
0.620264 0.620264 0.620264
0.640681 0.640681 0.640681
0.662287 0.662287 0.662287
0.685084 0.685084 0.685084
0.708919 0.708919 0.708919
0.733852 0.733852 0.733852
0.759640 0.759640 0.759640
0.786160 0.786160 0.786160
0.813199 0.813199 0.813199
0.840604 0.840604 0.840604
0.451972 0.451972 0.451972
0.452369 0.452369 0.452369
0.452857 0.452857 0.452857
0.454047 0.454047 0.454047
0.455909 0.455909 0.455909
0.458381 0.458381 0.458381
0.461524 0.461524 0.461524
0.465248 0.465248 0.465248
0.469703 0.469703 0.469703
0.474800 0.474800 0.474800
0.480507 0.480507 0.480507
0.487251 0.487251 0.487251
0.495674 0.495674 0.495674
0.504631 0.504631 0.504631
0.514275 0.514275 0.514275
0.524498 0.524498 0.524498
0.535210 0.535210 0.535210
0.546532 0.546532 0.546532
0.575463 0.575463 0.575463
0.594415 0.594415 0.594415
0.609216 0.609216 0.609216
0.625574 0.625574 0.625574
0.643336 0.643336 0.643336
0.662531 0.662531 0.662531
0.682856 0.682856 0.682856
0.704341 0.704341 0.704341
0.726894 0.726894 0.726894
0.750484 0.750484 0.750484
0.774929 0.774929 0.774929
0.800107 0.800107 0.800107
0.825772 0.825772 0.825772
0.851774 0.851774 0.851774
0.488777 0.488777 0.488777
0.489113 0.489113 0.489113
0.489601 0.489601 0.489601
0.490639 0.490639 0.490639
0.492378 0.492378 0.492378
0.494606 0.494606 0.494606
0.497475 0.497475 0.497475
0.500877 0.500877 0.500877
0.504906 0.504906 0.504906
0.509606 0.509606 0.509606
0.514916 0.514916 0.514916
0.520836 0.520836 0.520836
0.528038 0.528038 0.528038
0.536400 0.536400 0.536400
0.545342 0.545342 0.545342
0.554833 0.554833 0.554833
0.564904 0.564904 0.564904
0.575402 0.575402 0.575402
0.586267 0.586267 0.586267
0.612146 0.612146 0.612146
0.634455 0.634455 0.634455
0.649622 0.649622 0.649622
0.666194 0.666194 0.666194
0.684108 0.684108 0.684108
0.703212 0.703212 0.703212
0.723476 0.723476 0.723476
0.744747 0.744747 0.744747
0.767056 0.767056 0.767056
0.790188 0.790188 0.790188
0.813993 0.813993 0.813993
0.838285 0.838285 0.838285
0.862852 0.862852 0.862852
0.525566 0.525566 0.525566
0.525933 0.525933 0.525933
0.526390 0.526390 0.526390
0.527398 0.527398 0.527398
0.528954 0.528954 0.528954
0.531029 0.531029 0.531029
0.533654 0.533654 0.533654
0.536828 0.536828 0.536828
0.540642 0.540642 0.540642
0.544945 0.544945 0.544945
0.549828 0.549828 0.549828
0.555291 0.555291 0.555291
0.561273 0.561273 0.561273
0.568933 0.568933 0.568933
0.577173 0.577173 0.577173
0.585931 0.585931 0.585931
0.595148 0.595148 0.595148
0.604761 0.604761 0.604761
0.614771 0.614771 0.614771
0.625177 0.625177 0.625177
0.648096 0.648096 0.648096
0.673152 0.673152 0.673152
0.688594 0.688594 0.688594
0.705348 0.705348 0.705348
0.723232 0.723232 0.723232
0.742275 0.742275 0.742275
0.762356 0.762356 0.762356
0.783352 0.783352 0.783352
0.805234 0.805234 0.805234
0.827695 0.827695 0.827695
0.850614 0.850614 0.850614
0.873777 0.873777 0.873777
0.562799 0.562799 0.562799
0.563104 0.563104 0.563104
0.563500 0.563500 0.563500
0.564385 0.564385 0.564385
0.565850 0.565850 0.565850
0.567803 0.567803 0.567803
0.570214 0.570214 0.570214
0.573144 0.573144 0.573144
0.576593 0.576593 0.576593
0.580529 0.580529 0.580529
0.585046 0.585046 0.585046
0.589990 0.589990 0.589990
0.595453 0.595453 0.595453
0.601770 0.601770 0.601770
0.609277 0.609277 0.609277
0.617243 0.617243 0.617243
0.625696 0.625696 0.625696
0.634546 0.634546 0.634546
0.643763 0.643763 0.643763
0.653315 0.653315 0.653315
0.663142 0.663142 0.663142
0.683101 0.683101 0.683101
0.710445 0.710445 0.710445
0.726070 0.726070 0.726070
0.742855 0.742855 0.742855
0.760708 0.760708 0.760708
0.779568 0.779568 0.779568
0.799405 0.799405 0.799405
0.819974 0.819974 0.819974
0.841123 0.841123 0.841123
0.862669 0.862669 0.862669
0.884489 0.884489 0.884489
0.599725 0.599725 0.599725
0.600000 0.600000 0.600000
0.600366 0.600366 0.600366
0.601190 0.601190 0.601190
0.602472 0.602472 0.602472
0.604211 0.604211 0.604211
0.606409 0.606409 0.606409
0.609094 0.609094 0.609094
0.612238 0.612238 0.612238
0.615808 0.615808 0.615808
0.619867 0.619867 0.619867
0.624445 0.624445 0.624445
0.629419 0.629419 0.629419
0.634821 0.634821 0.634821
0.641321 0.641321 0.641321
0.648646 0.648646 0.648646
0.656336 0.656336 0.656336
0.664485 0.664485 0.664485
0.672938 0.672938 0.672938
0.681666 0.681666 0.681666
0.690761 0.690761 0.690761
0.700069 0.700069 0.700069
0.717159 0.717159 0.717159
0.746151 0.746151 0.746151
0.761837 0.761837 0.761837
0.778622 0.778622 0.778622
0.796323 0.796323 0.796323
0.814939 0.814939 0.814939
0.834257 0.834257 0.834257
0.854154 0.854154 0.854154
0.874357 0.874357 0.874357
0.894865 0.894865 0.894865
0.636011 0.636011 0.636011
0.636255 0.636255 0.636255
0.636591 0.636591 0.636591
0.637354 0.637354 0.637354
0.638544 0.638544 0.638544
0.640101 0.640101 0.640101
0.642115 0.642115 0.642115
0.644495 0.644495 0.644495
0.647395 0.647395 0.647395
0.650629 0.650629 0.650629
0.654353 0.654353 0.654353
0.658503 0.658503 0.658503
0.663050 0.663050 0.663050
0.667994 0.667994 0.667994
0.673304 0.673304 0.673304
0.679927 0.679927 0.679927
0.686946 0.686946 0.686946
0.694392 0.694392 0.694392
0.702174 0.702174 0.702174
0.710201 0.710201 0.710201
0.718532 0.718532 0.718532
0.727047 0.727047 0.727047
0.735866 0.735866 0.735866
0.750179 0.750179 0.750179
0.780209 0.780209 0.780209
0.795926 0.795926 0.795926
0.812528 0.812528 0.812528
0.829984 0.829984 0.829984
0.848112 0.848112 0.848112
0.866728 0.866728 0.866728
0.885679 0.885679 0.885679
0.904875 0.904875 0.904875
0.671595 0.671595 0.671595
0.671839 0.671839 0.671839
0.672145 0.672145 0.672145
0.672816 0.672816 0.672816
0.673884 0.673884 0.673884
0.675288 0.675288 0.675288
0.677150 0.677150 0.677150
0.679316 0.679316 0.679316
0.681910 0.681910 0.681910
0.684871 0.684871 0.684871
0.688258 0.688258 0.688258
0.692012 0.692012 0.692012
0.696132 0.696132 0.696132
0.700649 0.700649 0.700618
0.705501 0.705501 0.705501
0.710994 0.710994 0.710994
0.717372 0.717372 0.717372
0.724117 0.724117 0.724117
0.731197 0.731197 0.731197
0.738582 0.738582 0.738582
0.746181 0.746181 0.746181
0.754025 0.754025 0.754025
0.762081 0.762081 0.762081
0.770291 0.770291 0.770291
0.781918 0.781918 0.781918
0.811643 0.811643 0.811643
0.828092 0.828092 0.828092
0.844419 0.844419 0.844419
0.861387 0.861387 0.861387
0.878782 0.878782 0.878782
0.896513 0.896513 0.896513
0.914488 0.914488 0.914488
0.706386 0.706386 0.706386
0.706630 0.706630 0.706630
0.706874 0.706874 0.706874
0.707485 0.707485 0.707485
0.708431 0.708431 0.708431
0.709743 0.709743 0.709743
0.711391 0.711391 0.711391
0.713405 0.713405 0.713405
0.715724 0.715724 0.715724
0.718410 0.718410 0.718410
0.721492 0.721492 0.721492
0.724910 0.724910 0.724910
0.728634 0.728634 0.728634
0.732723 0.732723 0.732723
0.737148 0.737148 0.737148
0.741878 0.741878 0.741878
0.747433 0.747433 0.747433
0.753536 0.753536 0.753536
0.760006 0.760006 0.760006
0.766720 0.766720 0.766720
0.773648 0.773648 0.773648
0.780789 0.780789 0.780789
0.788113 0.788113 0.788113
0.795621 0.795621 0.795621
0.803250 0.803250 0.803250
0.812345 0.812345 0.812345
0.840452 0.840452 0.840452
0.858183 0.858183 0.858183
0.874022 0.874022 0.874022
0.890288 0.890288 0.890288
0.906859 0.906859 0.906859
0.923583 0.923583 0.923583
0.740291 0.740291 0.740291
0.740444 0.740444 0.740444
0.740719 0.740719 0.740719
0.741268 0.741268 0.741268
0.742153 0.742153 0.742153
0.743282 0.743282 0.743282
0.744778 0.744778 0.744778
0.746578 0.746578 0.746578
0.748714 0.748714 0.748714
0.751156 0.751156 0.751156
0.753902 0.753902 0.753902
0.757015 0.757015 0.757015
0.760403 0.760403 0.760403
0.764096 0.764096 0.764096
0.768124 0.768124 0.768124
0.772427 0.772427 0.772427
0.776974 0.776974 0.776974
0.782498 0.782498 0.782498
0.788357 0.788357 0.788357
0.794400 0.794400 0.794400
0.800687 0.800687 0.800687
0.807187 0.807187 0.807187
0.813840 0.813840 0.813840
0.820676 0.820676 0.820676
0.827604 0.827604 0.827604
0.834653 0.834653 0.834653
0.841764 0.841764 0.841764
0.867704 0.867704 0.867704
0.886076 0.886076 0.886076
0.901244 0.901244 0.901244
0.916655 0.916655 0.916655
0.932219 0.932219 0.932219
0.773159 0.773159 0.773159
0.773342 0.773342 0.773342
0.773556 0.773556 0.773556
0.774044 0.774044 0.774044
0.774838 0.774838 0.774838
0.775906 0.775906 0.775906
0.777249 0.777249 0.777249
0.778836 0.778836 0.778836
0.780758 0.780758 0.780758
0.782956 0.782956 0.782956
0.785458 0.785458 0.785458
0.788235 0.788235 0.788235
0.791287 0.791287 0.791287
0.794644 0.794644 0.794644
0.798245 0.798245 0.798245
0.802152 0.802152 0.802152
0.806271 0.806271 0.806271
0.810788 0.810788 0.810788
0.816068 0.816068 0.816068
0.821530 0.821530 0.821530
0.827207 0.827207 0.827207
0.833066 0.833066 0.833066
0.839048 0.839048 0.839048
0.845212 0.845212 0.845212
0.851438 0.851438 0.851438
0.857755 0.857755 0.857755
0.864195 0.864195 0.864195
0.870665 0.870665 0.870665
0.893126 0.893126 0.893126
0.911559 0.911559 0.911559
0.925902 0.925902 0.925902
0.940368 0.940368 0.940368
0.804929 0.804929 0.804929
0.805081 0.805081 0.805081
0.805264 0.805264 0.805264
0.805722 0.805722 0.805722
0.806424 0.806424 0.806424
0.807370 0.807370 0.807370
0.808560 0.808560 0.808560
0.810025 0.810025 0.810025
0.811734 0.811734 0.811734
0.813718 0.813718 0.813718
0.815915 0.815915 0.815915
0.818418 0.818418 0.818418
0.821195 0.821195 0.821195
0.824186 0.824186 0.824186
0.827420 0.827420 0.827420
0.830900 0.830900 0.830900
0.834623 0.834623 0.834623
0.838529 0.838529 0.838529
0.842985 0.842985 0.842985
0.847868 0.847868 0.847868
0.852903 0.852903 0.852903
0.858152 0.858152 0.858152
0.863523 0.863523 0.863523
0.868986 0.868986 0.868986
0.874571 0.874571 0.874571
0.880247 0.880247 0.880247
0.885924 0.885924 0.885924
0.891691 0.891691 0.891691
0.897520 0.897520 0.897520
0.916625 0.916625 0.916625
0.934600 0.934600 0.934600
0.947997 0.947997 0.947997
0.835355 0.835355 0.835355
0.835508 0.835508 0.835508
0.835691 0.835691 0.835691
0.836088 0.836088 0.836088
0.836667 0.836667 0.836667
0.837522 0.837522 0.837522
0.838590 0.838590 0.838590
0.839872 0.839872 0.839872
0.841398 0.841398 0.841398
0.843168 0.843168 0.843168
0.845151 0.845151 0.845151
0.847379 0.847379 0.847379
0.849790 0.849790 0.849790
0.852476 0.852476 0.852476
