cubelut/BW2.cube
# Created by Adobe Lightroom plugin Export LUT (1.18.0)
# www.johnrellis.com/lightroom/exportlut.htm
# Preset: Monochromatic 04 - Free
# Color profile: /Library/Application Support/Adobe/Color/Profiles/Recommended/AdobeRGB1998.icc
LUT_3D_SIZE 8
DOMAIN_MIN 0.000000 0.000000 0.000000
DOMAIN_MAX 0.903226 0.903226 0.903226
0.000000 0.000000 0.000000
0.054963 0.054963 0.054963
0.144991 0.144991 0.144991
0.282689 0.282689 0.282689
0.443946 0.443946 0.443946
0.643488 0.643488 0.643488
0.774014 0.774014 0.774014
0.848692 0.848692 0.848692
0.054963 0.054963 0.054963
0.062135 0.062135 0.062135
0.140414 0.140414 0.140414
0.269383 0.269383 0.269383
0.427039 0.427039 0.427039
0.616999 0.616999 0.616999
0.754696 0.754696 0.754696
0.839841 0.839841 0.839841
0.133333 0.133333 0.133333
0.133333 0.133333 0.133333
0.150088 0.150088 0.150088
0.291142 0.291142 0.291142
0.466896 0.466896 0.466896
0.652186 0.652186 0.652186
0.785275 0.785275 0.785275
0.854765 0.854765 0.854765
0.241672 0.241672 0.241672
0.238193 0.238193 0.238193
0.233738 0.233738 0.233738
0.308904 0.308904 0.308904
0.516197 0.516197 0.516197
0.713344 0.713344 0.713344
0.798703 0.798703 0.798703
0.856168 0.856168 0.856168
0.368139 0.368139 0.368139
0.365118 0.365118 0.365118
0.360784 0.360784 0.360784
0.381140 0.381140 0.381140
0.453834 0.453834 0.453834
0.631708 0.631708 0.631708
0.787381 0.787381 0.787381
0.857481 0.857481 0.857481
0.513695 0.513695 0.513695
0.531060 0.531060 0.531060
0.524743 0.524743 0.524743
0.517601 0.517601 0.517601
0.552941 0.552941 0.552941
0.629755 0.629755 0.629755
0.765682 0.765682 0.765682
0.862608 0.862608 0.862608
0.711543 0.711543 0.711543
0.715755 0.715755 0.715755
0.708858 0.708858 0.708858
0.707179 0.707179 0.707179
0.702876 0.702876 0.702876
0.744533 0.744533 0.744533
0.787900 0.787900 0.787900
0.858976 0.858976 0.858976
0.861997 0.861997 0.861997
0.861936 0.861936 0.861936
0.861875 0.861875 0.861875
0.861875 0.861875 0.861875
0.861051 0.861051 0.861051
0.861387 0.861387 0.861387
0.862943 0.862943 0.862943
0.864683 0.864683 0.864683
0.054963 0.054963 0.054963
0.057893 0.057893 0.057893
0.139406 0.139406 0.139406
0.275517 0.275517 0.275517
0.426612 0.426612 0.426612
0.605158 0.605158 0.605158
0.745632 0.745632 0.745632
0.833310 0.833310 0.833310
0.058625 0.058625 0.058625
0.081453 0.081453 0.081453
0.155764 0.155764 0.155764
0.277348 0.277348 0.277348
0.424414 0.424414 0.424414
0.595850 0.595850 0.595850
0.731044 0.731044 0.731044
0.822995 0.822995 0.822995
0.137179 0.137179 0.137179
0.155764 0.155764 0.155764
0.170413 0.170413 0.170413
0.302739 0.302739 0.302739
0.452613 0.452613 0.452613
0.619501 0.619501 0.619501
0.750942 0.750942 0.750942
0.836545 0.836545 0.836545
0.242802 0.242802 0.242802
0.248112 0.248112 0.248112
0.246921 0.246921 0.246921
0.294041 0.294041 0.294041
0.462715 0.462715 0.462715
0.657221 0.657221 0.657221
0.764187 0.764187 0.764187
0.839322 0.839322 0.839322
0.374060 0.374060 0.374060
0.368872 0.368872 0.368872
0.359777 0.359777 0.359777
0.363439 0.363439 0.363439
0.425391 0.425391 0.425391
0.603723 0.603723 0.603723
0.773159 0.773159 0.773159
0.849088 0.849088 0.849088
0.499825 0.499825 0.499825
0.498970 0.498970 0.498970
0.493660 0.493660 0.493660
0.490913 0.490913 0.490913
0.529900 0.529900 0.529900
0.619043 0.619043 0.619043
0.758450 0.758450 0.758450
0.856199 0.856199 0.856199
0.679133 0.679133 0.679133
0.673152 0.673152 0.673152
0.670344 0.670344 0.670344
0.677150 0.677150 0.677150
0.680690 0.680690 0.680690
0.723049 0.723049 0.723049
0.765774 0.765774 0.765774
0.841978 0.841978 0.841978
0.856138 0.856138 0.856138
0.858549 0.858549 0.858549
0.862455 0.862455 0.862455
0.862486 0.862486 0.862486
0.862272 0.862272 0.862272
0.862272 0.862272 0.862272
0.863645 0.863645 0.863645
0.865263 0.865263 0.865263
0.139834 0.139834 0.139834
0.140993 0.140993 0.140993
0.155642 0.155642 0.155642
0.276616 0.276616 0.276616
0.442054 0.442054 0.442054
0.645808 0.645808 0.645808
0.772305 0.772305 0.772305
0.849821 0.849821 0.849821
0.153445 0.153445 0.153445
0.162448 0.162448 0.162448
0.175204 0.175204 0.175204
0.288487 0.288487 0.288487
0.451026 0.451026 0.451026
0.636530 0.636530 0.636530
0.763027 0.763027 0.763027
0.845060 0.845060 0.845060
0.169741 0.169741 0.169741
0.187778 0.187778 0.187778
0.239597 0.239597 0.239597
0.346868 0.346868 0.346868
0.505913 0.505913 0.505913
0.660060 0.660060 0.660060
0.771359 0.771359 0.771359
0.846891 0.846891 0.846891
0.268254 0.268254 0.268254
0.282139 0.282139 0.282139
0.321752 0.321752 0.321752
0.354437 0.354437 0.354437
0.551354 0.551354 0.551354
0.697108 0.697108 0.697108
0.789151 0.789151 0.789151
0.853513 0.853513 0.853513
0.391394 0.391394 0.391394
0.399908 0.399908 0.399908
0.417792 0.417792 0.417792
0.404974 0.404974 0.404974
0.477394 0.477394 0.477394
0.659876 0.659876 0.659876
0.799680 0.799680 0.799680
0.859220 0.859220 0.859220
0.519219 0.519219 0.519219
0.525139 0.525139 0.525139
0.528923 0.528923 0.528923
0.516320 0.516320 0.516320
0.534691 0.534691 0.534691
0.625299 0.625299 0.625299
0.769986 0.769986 0.769986
0.866300 0.866300 0.866300
0.698604 0.698604 0.698604
0.697902 0.697902 0.697902
0.692012 0.692012 0.692012
0.687831 0.687831 0.687831
0.684901 0.684901 0.684901
0.726925 0.726925 0.726925
0.781460 0.781460 0.781460
0.861540 0.861540 0.861540
0.858183 0.858183 0.858183
0.856809 0.856809 0.856809
0.857939 0.857939 0.857939
0.865721 0.865721 0.865721
0.865232 0.865232 0.865232
0.864927 0.864927 0.864927
0.866880 0.866880 0.866880
0.869200 0.869200 0.869200
0.247135 0.247135 0.247135
0.253574 0.253574 0.253574
0.267704 0.267704 0.267704
0.287755 0.287755 0.287755
0.409766 0.409766 0.409766
0.600793 0.600793 0.600793
0.753323 0.753323 0.753323
0.848356 0.848356 0.848356
0.274266 0.274266 0.274266
0.277928 0.277928 0.277928
0.286778 0.286778 0.286778
0.303502 0.303502 0.303502
0.423224 0.423224 0.423224
0.606287 0.606287 0.606287
0.753384 0.753384 0.753384
0.848478 0.848478 0.848478
0.291814 0.291814 0.291814
0.303502 0.303502 0.303502
0.330358 0.330358 0.330358
0.348211 0.348211 0.348211
0.484108 0.484108 0.484108
0.666438 0.666438 0.666438
0.796689 0.796689 0.796689
0.863432 0.863432 0.863432
0.317449 0.317449 0.317449
0.328985 0.328985 0.328985
0.368902 0.368902 0.368902
0.438300 0.438300 0.438300
0.579461 0.579461 0.579461
0.708736 0.708736 0.708736
0.801938 0.801938 0.801938
0.866148 0.866148 0.866148
0.435431 0.435431 0.435431
0.440620 0.440620 0.440620
0.466743 0.466743 0.466743
0.512444 0.512444 0.512444
0.551354 0.551354 0.551354
0.737728 0.737728 0.737728
0.826108 0.826108 0.826108
0.873747 0.873747 0.873747
0.562371 0.562371 0.562371
0.580682 0.580682 0.580682
0.590356 0.590356 0.590356
0.605921 0.605921 0.605921
0.582635 0.582635 0.582635
0.672999 0.672999 0.672999
0.806729 0.806729 0.806729
0.882200 0.882200 0.882200
0.710445 0.710445 0.710445
0.715053 0.715053 0.715053
0.726070 0.726070 0.726070
0.736568 0.736568 0.736568
0.731716 0.731716 0.731716
0.752438 0.752438 0.752438
0.799344 0.799344 0.799344
0.875914 0.875914 0.875914
0.867063 0.867063 0.867063
0.867857 0.867857 0.867857
0.870359 0.870359 0.870359
0.872251 0.872251 0.872251
0.871244 0.871244 0.871244
0.870115 0.870115 0.870115
0.872618 0.872618 0.872618
0.876158 0.876158 0.876158
0.382238 0.382238 0.382238
0.387610 0.387610 0.387610
0.396033 0.396033 0.396033
0.412146 0.412146 0.412146
0.442725 0.442725 0.442725
0.574548 0.574548 0.574548
0.731746 0.731746 0.731746
0.844755 0.844755 0.844755
0.399573 0.399573 0.399573
0.406226 0.406226 0.406226
0.412757 0.412757 0.412757
0.422583 0.422583 0.422583
0.452003 0.452003 0.452003
0.582544 0.582544 0.582544
0.737697 0.737697 0.737697
0.846677 0.846677 0.846677
0.430640 0.430640 0.430640
0.439979 0.439979 0.439979
0.445655 0.445655 0.445655
0.462074 0.462074 0.462074
0.479927 0.479927 0.479927
0.595911 0.595911 0.595911
0.750118 0.750118 0.750118
0.849546 0.849546 0.849546
0.448859 0.448859 0.448859
0.456336 0.456336 0.456336
0.486732 0.486732 0.486732
0.528710 0.528710 0.528710
0.544213 0.544213 0.544213
0.661372 0.661372 0.661372
0.789151 0.789151 0.789151
0.868620 0.868620 0.868620
0.474556 0.474556 0.474556
0.483284 0.483284 0.483284
0.510002 0.510002 0.510002
0.559228 0.559228 0.559228
0.619471 0.619471 0.619471
0.743740 0.743740 0.743740
0.826413 0.826413 0.826413
0.880583 0.880583 0.880583
0.575311 0.575311 0.575311
0.580529 0.580529 0.580529
0.593317 0.593317 0.593317
0.620996 0.620996 0.620996
0.646845 0.646845 0.646845
0.698604 0.698604 0.698604
0.844053 0.844053 0.844053
0.895384 0.895384 0.895384
0.717098 0.717098 0.717098
0.717647 0.717647 0.717647
0.724300 0.724300 0.724300
0.740566 0.740566 0.740566
0.754696 0.754696 0.754696
0.747799 0.747799 0.747799
0.805203 0.805203 0.805203
0.885100 0.885100 0.885100
0.850767 0.850767 0.850767
0.851316 0.851316 0.851316
0.854948 0.854948 0.854948
0.876524 0.876524 0.876524
0.880522 0.880522 0.880522
0.878416 0.878416 0.878416
0.879759 0.879759 0.879759
0.884794 0.884794 0.884794
0.556115 0.556115 0.556115
0.558434 0.558434 0.558434
0.559045 0.559045 0.559045
0.575006 0.575006 0.575006
0.593927 0.593927 0.593927
0.610559 0.610559 0.610559
0.731685 0.731685 0.731685
0.846006 0.846006 0.846006
0.552087 0.552087 0.552087
0.552972 0.552972 0.552972
0.557031 0.557031 0.557031
0.572168 0.572168 0.572168
0.589105 0.589105 0.589105
0.607721 0.607721 0.607721
0.729976 0.729976 0.729976
0.844816 0.844816 0.844816
0.591272 0.591272 0.591272
0.591760 0.591760 0.591760
0.596612 0.596612 0.596612
0.606958 0.606958 0.606958
0.617212 0.617212 0.617212
0.632074 0.632074 0.632074
0.744625 0.744625 0.744625
0.852720 0.852720 0.852720
0.616388 0.616388 0.616388
0.618616 0.618616 0.618616
0.637171 0.637171 0.637171
0.663600 0.663600 0.663600
0.676936 0.676936 0.676936
0.687190 0.687190 0.687190
0.778347 0.778347 0.778347
0.871519 0.871519 0.871519
0.618708 0.618708 0.618708
0.624292 0.624292 0.624292
0.642939 0.642939 0.642939
0.675349 0.675349 0.675349
0.705623 0.705623 0.705623
0.714382 0.714382 0.714382
0.801266 0.801266 0.801266
0.884215 0.884215 0.884215
0.630488 0.630488 0.630488
0.639948 0.639948 0.639948
0.657038 0.657038 0.657038
0.684504 0.684504 0.684504
0.718563 0.718563 0.718563
0.770169 0.770169 0.770169
0.865782 0.865782 0.865782
0.909117 0.909117 0.909117
0.744320 0.744320 0.744320
0.750118 0.750118 0.750118
0.760433 0.760433 0.760433
0.776059 0.776059 0.776059
0.793698 0.793698 0.793698
0.808072 0.808072 0.808072
0.835813 0.835813 0.835813
0.912627 0.912627 0.912627
0.853361 0.853361 0.853361
0.853696 0.853696 0.853696
0.857023 0.857023 0.857023
0.868956 0.868956 0.868956
0.883970 0.883970 0.883970
0.893889 0.893889 0.893889
0.891203 0.891203 0.891203
0.899290 0.899290 0.899290
0.705776 0.705776 0.705776
0.710567 0.710567 0.710567
0.713619 0.713619 0.713619
0.720790 0.720790 0.720790
0.726711 0.726711 0.726711
0.733547 0.733547 0.733547
0.742306 0.742306 0.742306
0.839475 0.839475 0.839475
0.698085 0.698085 0.698085
0.702235 0.702235 0.702235
0.705806 0.705806 0.705806
0.710506 0.710506 0.710506
0.715938 0.715938 0.715938
0.721492 0.721492 0.721492
0.729061 0.729061 0.729061
0.827268 0.827268 0.827268
0.721981 0.721981 0.721981
0.722286 0.722286 0.722286
0.722408 0.722408 0.722408
0.725795 0.725795 0.725795
0.728389 0.728389 0.728389
0.734829 0.734829 0.734829
0.747036 0.747036 0.747036
0.843503 0.843503 0.843503
0.744686 0.744686 0.744686
0.744381 0.744381 0.744381
0.747524 0.747524 0.747524
0.752163 0.752163 0.752163
0.755489 0.755489 0.755489
0.763790 0.763790 0.763790
0.775784 0.775784 0.775784
0.860838 0.860838 0.860838
0.741817 0.741817 0.741817
0.741695 0.741695 0.741695
0.746914 0.746914 0.746914
0.762203 0.762203 0.762203
0.773465 0.773465 0.773465
0.779660 0.779660 0.779660
0.789609 0.789609 0.789609
0.873106 0.873106 0.873106
0.749691 0.749691 0.749691
0.751980 0.751980 0.751980
0.760067 0.760067 0.760067
0.775967 0.775967 0.775967
0.797330 0.797330 0.797330
0.823545 0.823545 0.823545
0.833433 0.833433 0.833433
0.900145 0.900145 0.900145
0.770626 0.770626 0.770626
0.774380 0.774380 0.774380
0.781979 0.781979 0.781979
0.795956 0.795956 0.795956
0.812924 0.812924 0.812924
0.838529 0.838529 0.838529
0.875944 0.875944 0.875944
0.930419 0.930419 0.930419
0.845579 0.845579 0.845579
0.847288 0.847288 0.847288
0.858915 0.858915 0.858915
0.871153 0.871153 0.871153
0.886168 0.886168 0.886168
0.903136 0.903136 0.903136
0.918212 0.918212 0.918212
0.922210 0.922210 0.922210
0.823117 0.823117 0.823117
0.824918 0.824918 0.824918
0.823941 0.823941 0.823941
0.827573 0.827573 0.827573
0.831357 0.831357 0.831357
0.835538 0.835538 0.835538
0.842618 0.842618 0.842618
0.848020 0.848020 0.848020
0.819547 0.819547 0.819547
0.821378 0.821378 0.821378
0.821469 0.821469 0.821469
0.823758 0.823758 0.823758
0.827695 0.827695 0.827695
0.831876 0.831876 0.831876
0.837644 0.837644 0.837644
0.843076 0.843076 0.843076
0.822446 0.822446 0.822446
0.823239 0.823239 0.823239
0.821317 0.821317 0.821317
0.829007 0.829007 0.829007
0.831205 0.831205 0.831205
0.833036 0.833036 0.833036
0.838987 0.838987 0.838987
0.845701 0.845701 0.845701
0.833005 0.833005 0.833005
0.834409 0.834409 0.834409
0.833738 0.833738 0.833738
0.837003 0.837003 0.837003
0.840543 0.840543 0.840543
0.843687 0.843687 0.843687
0.849638 0.849638 0.849638
0.857176 0.857176 0.857176
0.835599 0.835599 0.835599
0.838041 0.838041 0.838041
0.840421 0.840421 0.840421
0.847349 0.847349 0.847349
0.848966 0.848966 0.848966
0.852018 0.852018 0.852018
0.859586 0.859586 0.859586
0.871885 0.871885 0.871885
0.841398 0.841398 0.841398
0.840909 0.840909 0.840909
0.841550 0.841550 0.841550
0.846799 0.846799 0.846799
0.858518 0.858518 0.858518
0.873991 0.873991 0.873991
0.887938 0.887938 0.887938
0.900450 0.900450 0.900450
0.857359 0.857359 0.857359
0.857420 0.857420 0.857420
0.858915 0.858915 0.858915
0.865354 0.865354 0.865354
0.876371 0.876371 0.876371
0.894347 0.894347 0.894347
0.916411 0.916411 0.916411
0.921386 0.921386 0.921386
0.875151 0.875151 0.875151
0.875761 0.875761 0.875761
0.878294 0.878294 0.878294
0.883482 0.883482 0.883482
0.892027 0.892027 0.892027
0.905241 0.905241 0.905241
0.925322 0.925322 0.925322
0.947387 0.947387 0.947387
