cubelut/BW2.cube
# Created by Adobe Lightroom plugin Export LUT (1.18.0)
# www.johnrellis.com/lightroom/exportlut.htm
# Preset: Monochromatic 04 - Free
# Color profile: /Library/Application Support/Adobe/Color/Profiles/Recommended/AdobeRGB1998.icc
LUT_3D_SIZE 32
DOMAIN_MIN 0.0 0.0 0.0
DOMAIN_MAX 1.0 1.0 1.0
0.000000 0.000000 0.000000
0.000000 0.000000 0.000000
0.000000 0.000000 0.000000
0.009766 0.009766 0.009766
0.054963 0.054963 0.054963
0.075898 0.075898 0.075898
0.096132 0.096132 0.096132
0.118898 0.118898 0.118898
0.144991 0.144991 0.144991
0.174868 0.174868 0.174868
0.208469 0.208469 0.208469
0.244755 0.244755 0.244755
0.282689 0.282689 0.282689
0.321782 0.321782 0.321782
0.362036 0.362036 0.362036
0.402899 0.402899 0.402899
0.443946 0.443946 0.443946
0.485267 0.485267 0.485267
0.526818 0.526818 0.526818
0.588373 0.588373 0.588373
0.643488 0.643488 0.643488
0.687984 0.687984 0.687984
0.722652 0.722652 0.722652
0.750668 0.750668 0.750668
0.774014 0.774014 0.774014
0.794522 0.794522 0.794522
0.813596 0.813596 0.813596
0.831601 0.831601 0.831601
0.848692 0.848692 0.848692
0.861051 0.861051 0.861051
0.861509 0.861509 0.861509
0.862028 0.862028 0.862028
0.000000 0.000000 0.000000
0.000000 0.000000 0.000000
0.000000 0.000000 0.000000
0.010742 0.010742 0.010742
0.054963 0.054963 0.054963
0.075288 0.075288 0.075288
0.095216 0.095216 0.095216
0.117250 0.117250 0.117250
0.143008 0.143008 0.143008
0.172274 0.172274 0.172274
0.204990 0.204990 0.204990
0.240513 0.240513 0.240513
0.277714 0.277714 0.277714
0.316106 0.316106 0.316106
0.355535 0.355535 0.355535
0.395819 0.395819 0.395819
0.436286 0.436286 0.436286
0.477211 0.477211 0.477211
0.518425 0.518425 0.518425
0.578912 0.578912 0.578912
0.632563 0.632563 0.632563
0.677302 0.677302 0.677302
0.712764 0.712764 0.712764
0.741726 0.741726 0.741726
0.766018 0.766018 0.766018
0.787472 0.787472 0.787472
0.807492 0.807492 0.807492
0.826383 0.826383 0.826383
0.844327 0.844327 0.844327
0.860899 0.860899 0.860899
0.861326 0.861326 0.861326
0.861814 0.861814 0.861814
0.000000 0.000000 0.000000
0.000000 0.000000 0.000000
0.000000 0.000000 0.000000
0.010742 0.010742 0.010742
0.054231 0.054231 0.054231
0.074983 0.074983 0.074983
0.094514 0.094514 0.094514
0.116182 0.116182 0.116182
0.141451 0.141451 0.141451
0.170321 0.170321 0.170321
0.202731 0.202731 0.202731
0.237888 0.237888 0.237888
0.274815 0.274815 0.274815
0.312932 0.312932 0.312932
0.352209 0.352209 0.352209
0.392126 0.392126 0.392126
0.432349 0.432349 0.432349
0.472969 0.472969 0.472969
0.514305 0.514305 0.514305
0.574517 0.574517 0.574517
0.627283 0.627283 0.627283
0.672084 0.672084 0.672084
0.707912 0.707912 0.707912
0.737209 0.737209 0.737209
0.761929 0.761929 0.761929
0.783780 0.783780 0.783780
0.804257 0.804257 0.804257
0.823606 0.823606 0.823606
0.842008 0.842008 0.842008
0.859159 0.859159 0.859159
0.861234 0.861234 0.861234
0.861723 0.861723 0.861723
0.012696 0.012696 0.012696
0.014649 0.014649 0.014649
0.017578 0.017578 0.017578
0.022461 0.022461 0.022461
0.057160 0.057160 0.057160
0.075898 0.075898 0.075898
0.095216 0.095216 0.095216
0.116701 0.116701 0.116701
0.141451 0.141451 0.141451
0.169955 0.169955 0.169955
0.201785 0.201785 0.201785
0.236484 0.236484 0.236484
0.272709 0.272709 0.272709
0.310460 0.310460 0.310460
0.349401 0.349401 0.349401
0.388952 0.388952 0.388952
0.428748 0.428748 0.428748
0.468788 0.468788 0.468788
0.512627 0.512627 0.512627
0.568658 0.568658 0.568658
0.618830 0.618830 0.618830
0.662959 0.662959 0.662959
0.699825 0.699825 0.699825
0.730922 0.730922 0.730922
0.757656 0.757656 0.757656
0.781399 0.781399 0.781399
0.803098 0.803098 0.803098
0.823148 0.823148 0.823148
0.841703 0.841703 0.841703
0.858732 0.858732 0.858732
0.861265 0.861265 0.861265
0.861692 0.861692 0.861692
0.054963 0.054963 0.054963
0.056428 0.056428 0.056428
0.057893 0.057893 0.057893
0.059785 0.059785 0.059785
0.062135 0.062135 0.062135
0.074983 0.074983 0.074983
0.095216 0.095216 0.095216
0.116365 0.116365 0.116365
0.140414 0.140414 0.140414
0.168338 0.168338 0.168338
0.199496 0.199496 0.199496
0.233494 0.233494 0.233494
0.269383 0.269383 0.269383
0.307286 0.307286 0.307286
0.346532 0.346532 0.346532
0.386542 0.386542 0.386542
0.427039 0.427039 0.427039
0.467720 0.467720 0.467720
0.515984 0.515984 0.515984
0.569146 0.569146 0.569146
0.616999 0.616999 0.616999
0.659815 0.659815 0.659815
0.696223 0.696223 0.696223
0.727474 0.727474 0.727474
0.754696 0.754696 0.754696
0.778897 0.778897 0.778897
0.800931 0.800931 0.800931
0.821164 0.821164 0.821164
0.839841 0.839841 0.839841
0.857023 0.857023 0.857023
0.861234 0.861234 0.861234
0.861692 0.861692 0.861692
0.074006 0.074006 0.074006
0.074647 0.074647 0.074647
0.074983 0.074983 0.074983
0.075898 0.075898 0.075898
0.076783 0.076783 0.076783
0.080354 0.080354 0.080354
0.093111 0.093111 0.093111
0.115785 0.115785 0.115785
0.142580 0.142580 0.142580
0.170199 0.170199 0.170199
0.201114 0.201114 0.201114
0.234928 0.234928 0.234928
0.270909 0.270909 0.270909
0.308995 0.308995 0.308995
0.348058 0.348058 0.348058
0.388190 0.388190 0.388190
0.428840 0.428840 0.428840
0.469703 0.469703 0.469703
0.522789 0.522789 0.522789
0.574151 0.574151 0.574151
0.621180 0.621180 0.621180
0.663630 0.663630 0.663630
0.758114 0.758114 0.758114
0.782010 0.782010 0.782010
0.802060 0.802060 0.802060
0.819577 0.819577 0.819577
0.835416 0.835416 0.835416
0.850034 0.850034 0.850034
0.861784 0.861784 0.861784
0.862150 0.862150 0.862150
0.862547 0.862547 0.862547
0.862974 0.862974 0.862974
0.096376 0.096376 0.096376
0.096620 0.096620 0.096620
0.096834 0.096834 0.096834
0.097292 0.097292 0.097292
0.097719 0.097719 0.097719
0.100191 0.100191 0.100191
0.104463 0.104463 0.104463
0.118166 0.118166 0.118166
0.146822 0.146822 0.146822
0.181247 0.181247 0.181247
0.219821 0.219821 0.219821
0.256016 0.256016 0.256016
0.293187 0.293187 0.293187
0.331243 0.331243 0.331243
0.369512 0.369512 0.369512
0.407935 0.407935 0.407935
0.447333 0.447333 0.447333
0.496162 0.496162 0.496162
0.550896 0.550896 0.550896
0.603082 0.603082 0.603082
0.652705 0.652705 0.652705
0.697200 0.697200 0.697200
0.735103 0.735103 0.735103
0.766629 0.766629 0.766629
0.792477 0.792477 0.792477
0.813260 0.813260 0.813260
0.830747 0.830747 0.830747
0.846159 0.846159 0.846159
0.860319 0.860319 0.860319
0.862119 0.862119 0.862119
0.862486 0.862486 0.862486
0.862882 0.862882 0.862882
0.114137 0.114137 0.114137
0.114321 0.114321 0.114321
0.114321 0.114321 0.114321
0.114321 0.114321 0.114321
0.114504 0.114504 0.114504
0.114870 0.114870 0.114870
0.119051 0.119051 0.119051
0.124422 0.124422 0.124422
0.138643 0.138643 0.138643
0.172030 0.172030 0.172030
0.211521 0.211521 0.211521
0.255283 0.255283 0.255283
0.296391 0.296391 0.296391
0.333745 0.333745 0.333745
0.371466 0.371466 0.371466
0.409400 0.409400 0.409400
0.452369 0.452369 0.452369
0.503655 0.503655 0.503655
0.553948 0.553948 0.553948
0.602808 0.602808 0.602808
0.650172 0.650172 0.650172
0.693233 0.693233 0.693233
0.730373 0.730373 0.730373
0.761624 0.761624 0.761624
0.787533 0.787533 0.787533
0.808591 0.808591 0.808591
0.826474 0.826474 0.826474
0.842374 0.842374 0.842374
0.857023 0.857023 0.857023
0.862119 0.862119 0.862119
0.862486 0.862486 0.862486
0.862852 0.862852 0.862852
0.133333 0.133333 0.133333
0.133333 0.133333 0.133333
0.133333 0.133333 0.133333
0.133333 0.133333 0.133333
0.133333 0.133333 0.133333
0.133486 0.133486 0.133486
0.136416 0.136416 0.136416
0.142458 0.142458 0.142458
0.150088 0.150088 0.150088
0.165591 0.165591 0.165591
0.202823 0.202823 0.202823
0.245518 0.245518 0.245518
0.291142 0.291142 0.291142
0.339117 0.339117 0.339117
0.377783 0.377783 0.377783
0.418433 0.418433 0.418433
0.466896 0.466896 0.466896
0.514153 0.514153 0.514153
0.560967 0.560967 0.560967
0.607080 0.607080 0.607080
0.652186 0.652186 0.652186
0.693446 0.693446 0.693446
0.729366 0.729366 0.729366
0.759823 0.759823 0.759823
0.785275 0.785275 0.785275
0.806180 0.806180 0.806180
0.824125 0.824125 0.824125
0.840085 0.840085 0.840085
0.854765 0.854765 0.854765
0.862211 0.862211 0.862211
0.862547 0.862547 0.862547
0.862882 0.862882 0.862882
0.156680 0.156680 0.156680
0.156558 0.156558 0.156558
0.156405 0.156405 0.156405
0.156283 0.156283 0.156283
0.156161 0.156161 0.156161
0.155917 0.155917 0.155917
0.155764 0.155764 0.155764
0.161349 0.161349 0.161349
0.168795 0.168795 0.168795
0.178103 0.178103 0.178103
0.193942 0.193942 0.193942
0.233005 0.233005 0.233005
0.277714 0.277714 0.277714
0.325170 0.325170 0.325170
0.380255 0.380255 0.380255
0.437903 0.437903 0.437903
0.484321 0.484321 0.484321
0.530175 0.530175 0.530175
0.574731 0.574731 0.574731
0.617700 0.617700 0.617700
0.658778 0.658778 0.658778
0.695888 0.695888 0.695888
0.728389 0.728389 0.728389
0.756527 0.756527 0.756527
0.780819 0.780819 0.780819
0.801633 0.801633 0.801633
0.820066 0.820066 0.820066
0.836820 0.836820 0.836820
0.852262 0.852262 0.852262
0.862333 0.862333 0.862333
0.862699 0.862699 0.862699
0.863066 0.863066 0.863066
0.179843 0.179843 0.179843
0.179751 0.179751 0.179751
0.179629 0.179629 0.179629
0.179507 0.179507 0.179507
0.179416 0.179416 0.179416
0.179202 0.179202 0.179202
0.179202 0.179202 0.179202
0.180819 0.180819 0.180819
0.188388 0.188388 0.188388
0.197665 0.197665 0.197665
0.208560 0.208560 0.208560
0.224063 0.224063 0.224063
0.265873 0.265873 0.265873
0.317967 0.317967 0.317967
0.373571 0.373571 0.373571
0.431220 0.431220 0.431220
0.490089 0.490089 0.490089
0.540459 0.540459 0.540459
0.582147 0.582147 0.582147
0.622858 0.622858 0.622858
0.662074 0.662074 0.662074
0.697749 0.697749 0.697749
0.729366 0.729366 0.729366
0.756832 0.756832 0.756832
0.780484 0.780484 0.780484
0.800748 0.800748 0.800748
0.818662 0.818662 0.818662
0.835080 0.835080 0.835080
0.850340 0.850340 0.850340
0.862486 0.862486 0.862486
0.862821 0.862821 0.862821
0.863157 0.863157 0.863157
0.205173 0.205173 0.205173
0.205173 0.205173 0.205173
0.205081 0.205081 0.205081
0.204898 0.204898 0.204898
0.204593 0.204593 0.204593
0.204318 0.204318 0.204318
0.204135 0.204135 0.204135
0.203861 0.203861 0.203861
0.208560 0.208560 0.208560
0.217960 0.217960 0.217960
0.229007 0.229007 0.229007
0.246036 0.246036 0.246036
0.299748 0.299748 0.299748
0.353521 0.353521 0.353521
0.416785 0.416785 0.416785
0.480751 0.480751 0.480751
0.543694 0.543694 0.543694
0.601007 0.601007 0.601007
0.651606 0.651606 0.651606
0.684871 0.684871 0.684871
0.713649 0.713649 0.713649
0.739712 0.739712 0.739712
0.762722 0.762722 0.762722
0.783444 0.783444 0.783444
0.801846 0.801846 0.801846
0.818265 0.818265 0.818265
0.833036 0.833036 0.833036
0.846586 0.846586 0.846586
0.859220 0.859220 0.859220
0.863371 0.863371 0.863371
0.863645 0.863645 0.863645
0.863951 0.863951 0.863951
0.241672 0.241672 0.241672
0.241520 0.241520 0.241520
0.240818 0.240818 0.240818
0.239658 0.239658 0.239658
0.238193 0.238193 0.238193
0.236637 0.236637 0.236637
0.235233 0.235233 0.235233
0.234134 0.234134 0.234134
0.233738 0.233738 0.233738
0.247227 0.247227 0.247227
0.264714 0.264714 0.264714
0.285405 0.285405 0.285405
0.308904 0.308904 0.308904
0.334112 0.334112 0.334112
0.388342 0.388342 0.388342
0.452888 0.452888 0.452888
0.516197 0.516197 0.516197
0.575738 0.575738 0.575738
0.629114 0.629114 0.629114
0.676081 0.676081 0.676081
0.713344 0.713344 0.713344
0.738338 0.738338 0.738338
0.760586 0.760586 0.760586
0.780697 0.780697 0.780697
0.798703 0.798703 0.798703
0.814878 0.814878 0.814878
0.829618 0.829618 0.829618
0.843320 0.843320 0.843320
0.856168 0.856168 0.856168
0.863523 0.863523 0.863523
0.863767 0.863767 0.863767
0.864073 0.864073 0.864073
0.266545 0.266545 0.266545
0.266361 0.266361 0.266361
0.265751 0.265751 0.265751
0.264714 0.264714 0.264714
0.263066 0.263066 0.263066
0.262577 0.262577 0.262577
0.263218 0.263218 0.263218
0.264042 0.264042 0.264042
0.265324 0.265324 0.265324
0.270176 0.270176 0.270176
0.286137 0.286137 0.286137
0.305241 0.305241 0.305241
0.326726 0.326726 0.326726
0.349798 0.349798 0.349798
0.373571 0.373571 0.373571
0.421759 0.421759 0.421759
0.484504 0.484504 0.484504
0.545769 0.545769 0.545769
0.602655 0.602655 0.602655
0.653925 0.653925 0.653925
0.697963 0.697963 0.697963
0.734585 0.734585 0.734585
0.760250 0.760250 0.760250
0.779965 0.779965 0.779965
0.797635 0.797635 0.797635
0.813565 0.813565 0.813565
0.828153 0.828153 0.828153
0.841764 0.841764 0.841764
0.854612 0.854612 0.854612
0.863767 0.863767 0.863767
0.864042 0.864042 0.864042
0.864347 0.864347 0.864347
0.300633 0.300633 0.300633
0.300755 0.300755 0.300755
0.300298 0.300298 0.300298
0.299474 0.299474 0.299474
0.298222 0.298222 0.298222
0.296849 0.296849 0.296849
0.295903 0.295903 0.295903
0.295232 0.295232 0.295232
0.295537 0.295537 0.295537
0.296544 0.296544 0.296544
0.306249 0.306249 0.306249
0.324254 0.324254 0.324254
0.344610 0.344610 0.344610
0.366339 0.366339 0.366339
0.388464 0.388464 0.388464
0.409888 0.409888 0.409888
0.452399 0.452399 0.452399
0.514275 0.514275 0.514275
0.574517 0.574517 0.574517
0.629450 0.629450 0.629450
0.677974 0.677974 0.677974
0.718379 0.718379 0.718379
0.751431 0.751431 0.751431
0.778927 0.778927 0.778927
0.796902 0.796902 0.796902
0.812955 0.812955 0.812955
0.827970 0.827970 0.827970
0.842130 0.842130 0.842130
0.855467 0.855467 0.855467
0.864317 0.864317 0.864317
0.864652 0.864652 0.864652
0.865019 0.865019 0.865019
0.336217 0.336217 0.336217
0.336522 0.336522 0.336522
0.336217 0.336217 0.336217
0.335485 0.335485 0.335485
0.334356 0.334356 0.334356
0.333135 0.333135 0.333135
0.332250 0.332250 0.332250
0.331731 0.331731 0.331731
0.331518 0.331518 0.331518
0.331670 0.331670 0.331670
0.331823 0.331823 0.331823
0.346349 0.346349 0.346349
0.363745 0.363745 0.363745
0.382330 0.382330 0.382330
0.401617 0.401617 0.401617
0.421149 0.421149 0.421149
0.441199 0.441199 0.441199
0.480537 0.480537 0.480537
0.543328 0.543328 0.543328
0.604150 0.604150 0.604150
0.658747 0.658747 0.658747
0.704433 0.704433 0.704433
0.741482 0.741482 0.741482
0.771817 0.771817 0.771817
0.796719 0.796719 0.796719
0.816281 0.816281 0.816281
0.830838 0.830838 0.830838
0.844511 0.844511 0.844511
0.857267 0.857267 0.857267
0.864927 0.864927 0.864927
0.865202 0.865202 0.865202
0.865507 0.865507 0.865507
0.368139 0.368139 0.368139
0.367864 0.367864 0.367864
0.367346 0.367346 0.367346
0.366369 0.366369 0.366369
0.365118 0.365118 0.365118
0.363684 0.363684 0.363684
0.362463 0.362463 0.362463
0.361425 0.361425 0.361425
0.360784 0.360784 0.360784
0.360479 0.360479 0.360479
0.360479 0.360479 0.360479
0.364233 0.364233 0.364233
0.381140 0.381140 0.381140
0.398993 0.398993 0.398993
0.417243 0.417243 0.417243
0.435340 0.435340 0.435340
0.453834 0.453834 0.453834
0.473335 0.473335 0.473335
0.511315 0.511315 0.511315
0.572320 0.572320 0.572320
0.631708 0.631708 0.631708
0.683131 0.683131 0.683131
0.724971 0.724971 0.724971
0.759274 0.759274 0.759274
0.787381 0.787381 0.787381
0.810605 0.810605 0.810605
0.829953 0.829953 0.829953
0.844816 0.844816 0.844816
0.857481 0.857481 0.857481
0.865446 0.865446 0.865446
0.865721 0.865721 0.865721
0.866056 0.866056 0.866056
0.402167 0.402167 0.402167
0.402899 0.402899 0.402899
0.440314 0.440314 0.440314
0.439063 0.439063 0.439063
0.436988 0.436988 0.436988
0.434302 0.434302 0.434302
0.431342 0.431342 0.431342
0.428473 0.428473 0.428473
0.426154 0.426154 0.426154
0.424414 0.424414 0.424414
0.422919 0.422919 0.422919
0.421180 0.421180 0.421180
0.428992 0.428992 0.428992
0.445411 0.445411 0.445411
0.462165 0.462165 0.462165
0.478981 0.478981 0.478981
0.496071 0.496071 0.496071
0.513512 0.513512 0.513512
0.532067 0.532067 0.532067
0.567864 0.567864 0.567864
0.623346 0.623346 0.623346
0.677455 0.677455 0.677455
0.721370 0.721370 0.721370
0.756649 0.756649 0.756649
0.784939 0.784939 0.784939
0.808103 0.808103 0.808103
0.827451 0.827451 0.827451
0.843931 0.843931 0.843931
0.857877 0.857877 0.857877
0.865965 0.865965 0.865965
0.866270 0.866270 0.866270
0.866545 0.866545 0.866545
0.447181 0.447181 0.447181
0.452338 0.452338 0.452338
0.457435 0.457435 0.457435
0.461372 0.461372 0.461372
0.463478 0.463478 0.463478
0.463020 0.463020 0.463020
0.461006 0.461006 0.461006
0.458381 0.458381 0.458381
0.456245 0.456245 0.456245
0.454322 0.454322 0.454322
0.452827 0.452827 0.452827
0.451148 0.451148 0.451148
0.448463 0.448463 0.448463
0.461738 0.461738 0.461738
0.477089 0.477089 0.477089
0.492653 0.492653 0.492653
0.508476 0.508476 0.508476
0.525017 0.525017 0.525017
0.542809 0.542809 0.542809
0.561913 0.561913 0.561913
0.595483 0.595483 0.595483
0.649287 0.649287 0.649287
0.700557 0.700557 0.700557
0.741512 0.741512 0.741512
0.774105 0.774105 0.774105
0.800595 0.800595 0.800595
0.822507 0.822507 0.822507
0.841001 0.841001 0.841001
0.856596 0.856596 0.856596
0.866300 0.866300 0.866300
0.866850 0.866850 0.866850
0.867124 0.867124 0.867124
0.479042 0.479042 0.479042
0.484199 0.484199 0.484199
0.489357 0.489357 0.489357
0.493355 0.493355 0.493355
0.495583 0.495583 0.495583
0.495277 0.495277 0.495277
0.493446 0.493446 0.493446
0.491096 0.491096 0.491096
0.489174 0.489174 0.489174
0.487434 0.487434 0.487434
0.486183 0.486183 0.486183
0.484749 0.484749 0.484749
0.482246 0.482246 0.482246
0.483223 0.483223 0.483223
0.497566 0.497566 0.497566
0.512108 0.512108 0.512108
0.526940 0.526940 0.526940
0.542535 0.542535 0.542535
0.559075 0.559075 0.559075
0.577081 0.577081 0.577081
0.596124 0.596124 0.596124
0.627893 0.627893 0.627893
0.677882 0.677882 0.677882
0.725093 0.725093 0.725093
0.762264 0.762264 0.762264
0.792111 0.792111 0.792111
0.816556 0.816556 0.816556
0.837125 0.837125 0.837125
0.854490 0.854490 0.854490
0.866117 0.866117 0.866117
0.866789 0.866789 0.866789
0.867491 0.867491 0.867491
0.513695 0.513695 0.513695
0.519005 0.519005 0.519005
0.524376 0.524376 0.524376
0.528618 0.528618 0.528618
0.531060 0.531060 0.531060
0.530907 0.530907 0.530907
0.529198 0.529198 0.529198
0.526848 0.526848 0.526848
0.524743 0.524743 0.524743
0.522850 0.522850 0.522850
0.521386 0.521386 0.521386
0.519829 0.519829 0.519829
0.517601 0.517601 0.517601
0.514885 0.514885 0.514885
0.521569 0.521569 0.521569
0.536675 0.536675 0.536675
0.552941 0.552941 0.552941
0.570214 0.570214 0.570214
0.588830 0.588830 0.588830
0.608789 0.608789 0.608789
0.629755 0.629755 0.629755
0.651179 0.651179 0.651179
0.680171 0.680171 0.680171
0.724331 0.724331 0.724331
0.765682 0.765682 0.765682
0.797940 0.797940 0.797940
0.823850 0.823850 0.823850
0.845090 0.845090 0.845090
0.862608 0.862608 0.862608
0.866789 0.866789 0.866789
0.867582 0.867582 0.867582
0.868345 0.868345 0.868345
0.575158 0.575158 0.575158
0.577722 0.577722 0.577722
0.579706 0.579706 0.579706
0.580804 0.580804 0.580804
0.580926 0.580926 0.580926
0.579675 0.579675 0.579675
0.578027 0.578027 0.578027
0.576501 0.576501 0.576501
0.575616 0.575616 0.575616
0.575280 0.575280 0.575280
0.575433 0.575433 0.575433
0.575128 0.575128 0.575128
0.573907 0.573907 0.573907
0.571923 0.571923 0.571923
0.569146 0.569146 0.569146
0.580652 0.580652 0.580652
0.594507 0.594507 0.594507
0.609369 0.609369 0.609369
0.625177 0.625177 0.625177
0.641901 0.641901 0.641901
0.658839 0.658839 0.658839
0.675837 0.675837 0.675837
0.692348 0.692348 0.692348
0.713802 0.713802 0.713802
0.751553 0.751553 0.751553
0.788327 0.788327 0.788327
0.817777 0.817777 0.817777
0.841825 0.841825 0.841825
0.861509 0.861509 0.861509
0.866545 0.866545 0.866545
0.867338 0.867338 0.867338
0.868132 0.868132 0.868132
0.615106 0.615106 0.615106
0.617792 0.617792 0.617792
0.620142 0.620142 0.620142
0.621515 0.621515 0.621515
0.621698 0.621698 0.621698
0.620417 0.620417 0.620417
0.618555 0.618555 0.618555
0.616693 0.616693 0.616693
0.615503 0.615503 0.615503
0.614984 0.614984 0.614984
0.615045 0.615045 0.615045
0.615137 0.615137 0.615137
0.614588 0.614588 0.614588
0.613642 0.613642 0.613642
0.612299 0.612299 0.612299
0.613947 0.613947 0.613947
0.627222 0.627222 0.627222
0.641352 0.641352 0.641352
0.656214 0.656214 0.656214
0.671626 0.671626 0.671626
0.687404 0.687404 0.687404
0.703243 0.703243 0.703243
0.718715 0.718715 0.718715
0.733547 0.733547 0.733547
0.738918 0.738918 0.738918
0.773312 0.773312 0.773312
0.807218 0.807218 0.807218
0.834836 0.834836 0.834836
0.857420 0.857420 0.857420
0.866056 0.866056 0.866056
0.866880 0.866880 0.866880
0.867704 0.867704 0.867704
0.675929 0.675929 0.675929
0.678920 0.678920 0.678920
0.680659 0.680659 0.680659
0.680964 0.680964 0.680964
0.679988 0.679988 0.679988
0.677943 0.677943 0.677943
0.675196 0.675196 0.675196
0.672053 0.672053 0.672053
0.669093 0.669093 0.669093
0.666682 0.666682 0.666682
0.664393 0.664393 0.664393
0.662898 0.662898 0.662898
0.661219 0.661219 0.661219
0.658930 0.658930 0.658930
0.655634 0.655634 0.655634
0.652094 0.652094 0.652094
0.655451 0.655451 0.655451
0.665858 0.665858 0.665858
0.678340 0.678340 0.678340
0.692592 0.692592 0.692592
0.707546 0.707546 0.707546
0.722225 0.722225 0.722225
0.735805 0.735805 0.735805
0.748074 0.748074 0.748074
0.758938 0.758938 0.758938
0.770260 0.770260 0.770260
0.801419 0.801419 0.801419
0.830747 0.830747 0.830747
0.855497 0.855497 0.855497
0.865660 0.865660 0.865660
0.866484 0.866484 0.866484
0.867338 0.867338 0.867338
0.711543 0.711543 0.711543
0.714351 0.714351 0.714351
0.716060 0.716060 0.716060
0.716457 0.716457 0.716457
0.715755 0.715755 0.715755
0.714290 0.714290 0.714290
0.712428 0.712428 0.712428
0.710445 0.710445 0.710445
0.708858 0.708858 0.708858
0.707851 0.707851 0.707851
0.707179 0.707179 0.707179
0.707179 0.707179 0.707179
0.707179 0.707179 0.707179
0.706691 0.706691 0.706691
0.705531 0.705531 0.705531
0.704097 0.704097 0.704097
0.702876 0.702876 0.702876
0.710445 0.710445 0.710445
0.720668 0.720668 0.720668
0.732296 0.732296 0.732296
0.744533 0.744533 0.744533
0.756680 0.756680 0.756680
0.768093 0.768093 0.768093
0.778531 0.778531 0.778531
0.787900 0.787900 0.787900
0.796353 0.796353 0.796353
0.804471 0.804471 0.804471
0.832700 0.832700 0.832700
0.858976 0.858976 0.858976
0.865537 0.865537 0.865537
0.866453 0.866453 0.866453
0.867369 0.867369 0.867369
0.752529 0.752529 0.752529
0.754391 0.754391 0.754391
0.755093 0.755093 0.755093
0.754726 0.754726 0.754726
0.753414 0.753414 0.753414
0.751553 0.751553 0.751553
0.749508 0.749508 0.749508
0.747585 0.747585 0.747585
0.746242 0.746242 0.746242
0.745693 0.745693 0.745693
0.745632 0.745632 0.745632
0.746517 0.746517 0.746517
0.747463 0.747463 0.747463
0.747982 0.747982 0.747982
0.747768 0.747768 0.747768
0.747158 0.747158 0.747158
0.746670 0.746670 0.746670
0.748409 0.748409 0.748409
0.756435 0.756435 0.756435
0.765835 0.765835 0.765835
0.775967 0.775967 0.775967
0.786160 0.786160 0.786160
0.795773 0.795773 0.795773
0.804746 0.804746 0.804746
0.812741 0.812741 0.812741
0.820005 0.820005 0.820005
0.826871 0.826871 0.826871
0.833341 0.833341 0.833341
0.858091 0.858091 0.858091
0.865080 0.865080 0.865080
0.865995 0.865995 0.865995
0.866911 0.866911 0.866911
0.786252 0.786252 0.786252
0.787381 0.787381 0.787381
0.787991 0.787991 0.787991
0.787991 0.787991 0.787991
0.787808 0.787808 0.787808
0.787991 0.787991 0.787991
0.789242 0.789242 0.789242
0.791348 0.791348 0.791348
0.794430 0.794430 0.794430
0.798398 0.798398 0.798398
0.802884 0.802884 0.802884
0.807645 0.807645 0.807645
0.812100 0.812100 0.812100
0.815824 0.815824 0.815824
0.818540 0.818540 0.818540
0.820035 0.820035 0.820035
0.821347 0.821347 0.821347
0.823239 0.823239 0.823239
0.827451 0.827451 0.827451
0.833494 0.833494 0.833494
0.840146 0.840146 0.840146
0.846921 0.846921 0.846921
0.853178 0.853178 0.853178
0.858976 0.858976 0.858976
0.863218 0.863218 0.863218
0.863676 0.863676 0.863676
0.864134 0.864134 0.864134
0.864652 0.864652 0.864652
0.865202 0.865202 0.865202
0.865782 0.865782 0.865782
0.866545 0.866545 0.866545
0.867552 0.867552 0.867552
0.841520 0.841520 0.841520
0.842161 0.842161 0.842161
0.842130 0.842130 0.842130
0.841642 0.841642 0.841642
0.840909 0.840909 0.840909
0.840269 0.840269 0.840269
0.840085 0.840085 0.840085
0.840482 0.840482 0.840482
0.841550 0.841550 0.841550
0.843229 0.843229 0.843229
0.845243 0.845243 0.845243
0.847684 0.847684 0.847684
0.850126 0.850126 0.850126
0.852384 0.852384 0.852384
