cubelut/BW2.cube
# Created by Adobe Lightroom plugin Export LUT (1.18.0)
# www.johnrellis.com/lightroom/exportlut.htm
# Preset: Monochromatic 04 - Free
# Color profile: /Library/Application Support/Adobe/Color/Profiles/Recommended/AdobeRGB1998.icc
LUT_3D_SIZE 5
DOMAIN_MIN 0.000000 0.000000 0.000000
DOMAIN_MAX 0.903226 0.903226 0.903226
0.000000 0.000000 0.000000
0.118898 0.118898 0.118898
0.362036 0.362036 0.362036
0.687984 0.687984 0.687984
0.848692 0.848692 0.848692
0.114137 0.114137 0.114137
0.124422 0.124422 0.124422
0.371466 0.371466 0.371466
0.693233 0.693233 0.693233
0.857023 0.857023 0.857023
0.300633 0.300633 0.300633
0.295232 0.295232 0.295232
0.388464 0.388464 0.388464
0.718379 0.718379 0.718379
0.855467 0.855467 0.855467
0.575158 0.575158 0.575158
0.576501 0.576501 0.576501
0.569146 0.569146 0.569146
0.675837 0.675837 0.675837
0.861509 0.861509 0.861509
0.861997 0.861997 0.861997
0.861875 0.861875 0.861875
0.861143 0.861143 0.861143
0.861753 0.861753 0.861753
0.864683 0.864683 0.864683
0.113191 0.113191 0.113191
0.123751 0.123751 0.123751
0.355505 0.355505 0.355505
0.661555 0.661555 0.661555
0.839231 0.839231 0.839231
0.137331 0.137331 0.137331
0.196201 0.196201 0.196201
0.393347 0.393347 0.393347
0.674556 0.674556 0.674556
0.843168 0.843168 0.843168
0.320653 0.320653 0.320653
0.343145 0.343145 0.343145
0.389471 0.389471 0.389471
0.718257 0.718257 0.718257
0.856443 0.856443 0.856443
0.587640 0.587640 0.587640
0.595270 0.595270 0.595270
0.580224 0.580224 0.580224
0.678889 0.678889 0.678889
0.865080 0.865080 0.865080
0.865324 0.865324 0.865324
0.865110 0.865110 0.865110
0.864652 0.864652 0.864652
0.864714 0.864714 0.864714
0.868589 0.868589 0.868589
0.313054 0.313054 0.313054
0.325322 0.325322 0.325322
0.357885 0.357885 0.357885
0.627680 0.627680 0.627680
0.846403 0.846403 0.846403
0.358129 0.358129 0.358129
0.371649 0.371649 0.371649
0.403510 0.403510 0.403510
0.655329 0.655329 0.655329
0.856870 0.856870 0.856870
0.394385 0.394385 0.394385
0.423865 0.423865 0.423865
0.529107 0.529107 0.529107
0.751949 0.751949 0.751949
0.873777 0.873777 0.873777
0.610498 0.610498 0.610498
0.617212 0.617212 0.617212
0.655970 0.655970 0.655970
0.717433 0.717433 0.717433
0.884367 0.884367 0.884367
0.853544 0.853544 0.853544
0.862333 0.862333 0.862333
0.875853 0.875853 0.875853
0.873014 0.873014 0.873014
0.879454 0.879454 0.879454
0.582147 0.582147 0.582147
0.589532 0.589532 0.589532
0.615778 0.615778 0.615778
0.641108 0.641108 0.641108
0.839963 0.839963 0.839963
0.606409 0.606409 0.606409
0.611475 0.611475 0.611475
0.628901 0.628901 0.628901
0.649256 0.649256 0.649256
0.838437 0.838437 0.838437
0.632654 0.632654 0.632654
0.646509 0.646509 0.646509
0.680903 0.680903 0.680903
0.690547 0.690547 0.690547
0.864012 0.864012 0.864012
0.678035 0.678035 0.678035
0.685451 0.685451 0.685451
0.726467 0.726467 0.726467
0.798245 0.798245 0.798245
0.911650 0.911650 0.911650
0.852873 0.852873 0.852873
0.858183 0.858183 0.858183
0.879911 0.879911 0.879911
0.899626 0.899626 0.899626
0.903593 0.903593 0.903593
0.823117 0.823117 0.823117
0.823850 0.823850 0.823850
0.829709 0.829709 0.829709
0.837369 0.837369 0.837369
0.848020 0.848020 0.848020
0.823484 0.823484 0.823484
0.824247 0.824247 0.824247
0.829679 0.829679 0.829679
0.834714 0.834714 0.834714
0.847227 0.847227 0.847227
0.834287 0.834287 0.834287
0.836576 0.836576 0.836576
0.839322 0.839322 0.839322
0.842985 0.842985 0.842985
0.862272 0.862272 0.862272
0.849454 0.849454 0.849454
0.849821 0.849821 0.849821
0.859983 0.859983 0.859983
0.882658 0.882658 0.882658
0.905058 0.905058 0.905058
0.875151 0.875151 0.875151
0.877440 0.877440 0.877440
0.887297 0.887297 0.887297
0.909514 0.909514 0.909514
0.947387 0.947387 0.947387
