cubelut/BW3.cube
# Created by Adobe Lightroom plugin Export LUT (1.18.0)
# www.johnrellis.com/lightroom/exportlut.htm
# Preset: MoodyBW2
# Color profile: /Library/Application Support/Adobe/Color/Profiles/Recommended/AdobeRGB1998.icc
LUT_3D_SIZE 5
DOMAIN_MIN 0.000000 0.000000 0.000000
DOMAIN_MAX 0.903226 0.903226 0.903226
0.000000 0.000000 0.000000
0.092164 0.090120 0.081025
0.233188 0.230320 0.211887
0.453040 0.455512 0.439887
0.730953 0.741329 0.742580
0.164096 0.161379 0.146456
0.192630 0.189914 0.173190
0.281987 0.279606 0.259983
0.485420 0.489052 0.475319
0.752132 0.762570 0.764645
0.446113 0.448280 0.432319
0.467536 0.470527 0.455665
0.527214 0.532494 0.521355
0.619287 0.627741 0.622705
0.802090 0.812070 0.815671
0.737026 0.747433 0.748928
0.747189 0.757626 0.759518
0.778958 0.789242 0.792264
0.810941 0.820737 0.824521
0.900114 0.906889 0.910765
0.933959 0.938842 0.941894
0.936828 0.941527 0.944488
0.945068 0.949248 0.951904
0.961242 0.964324 0.966339
0.977539 0.979370 0.980621
0.067872 0.066651 0.059876
0.089845 0.087861 0.079072
0.251774 0.249088 0.229953
0.469123 0.472175 0.457465
0.731868 0.742245 0.743496
0.137453 0.134890 0.122011
0.177432 0.174563 0.158907
0.309667 0.307774 0.287907
0.499031 0.503227 0.490272
0.749569 0.760006 0.761990
0.432319 0.433936 0.417304
0.452461 0.454810 0.439246
0.508141 0.512688 0.500298
0.604059 0.612055 0.606012
0.804288 0.814237 0.817868
0.730495 0.740841 0.742061
0.740627 0.751034 0.752682
0.772824 0.783139 0.785946
0.807065 0.816953 0.820645
0.897765 0.904662 0.908568
0.932464 0.937438 0.940520
0.935363 0.940154 0.943175
0.946136 0.950225 0.952850
0.961852 0.964843 0.966857
0.977935 0.979736 0.980987
0.143465 0.141024 0.127626
0.159731 0.157107 0.142611
0.224704 0.221897 0.203708
0.445930 0.448096 0.432105
0.731563 0.741939 0.743191
0.230472 0.227634 0.209323
0.253391 0.250706 0.231540
0.298863 0.296757 0.276951
0.497230 0.501335 0.488319
0.756710 0.767117 0.769375
0.382940 0.382910 0.364294
0.408515 0.409339 0.391669
0.486061 0.489754 0.476020
0.632258 0.641047 0.636835
0.814939 0.824674 0.828519
0.709926 0.720180 0.720424
0.718410 0.728695 0.729366
0.753201 0.763577 0.765743
0.798703 0.808713 0.812222
0.888304 0.895659 0.899687
0.926360 0.931701 0.934997
0.930022 0.935149 0.938323
0.941833 0.946227 0.949004
0.959808 0.962982 0.965057
0.976562 0.978454 0.979767
0.291264 0.289006 0.269169
0.302068 0.300023 0.280186
0.332555 0.331151 0.311498
0.424933 0.426307 0.409277
0.695369 0.705440 0.704921
0.372076 0.371740 0.352819
0.378515 0.378393 0.359655
0.398199 0.398657 0.380591
0.471687 0.474830 0.460273
0.717769 0.728084 0.728695
0.478004 0.481392 0.467170
0.499031 0.503227 0.490272
0.572747 0.579706 0.571588
0.612848 0.621088 0.615625
0.796323 0.806394 0.809873
0.669306 0.678950 0.677028
0.679957 0.689784 0.688472
0.716457 0.726741 0.727321
0.780819 0.791073 0.794156
0.889250 0.896544 0.900572
0.917418 0.923278 0.926787
0.920897 0.926543 0.929961
0.933318 0.938231 0.941314
0.954162 0.957733 0.960052
0.975372 0.977386 0.978729
0.579095 0.586206 0.578546
0.583276 0.590570 0.583185
0.594476 0.602136 0.595453
0.609308 0.617456 0.611780
0.707576 0.717769 0.717922
0.628473 0.637110 0.632685
0.630823 0.639551 0.635248
0.637842 0.646754 0.642908
0.648249 0.657404 0.654200
0.730922 0.741299 0.742519
0.719142 0.729458 0.730159
0.734737 0.745113 0.746517
0.742580 0.752956 0.754696
0.746090 0.756527 0.758389
0.796689 0.806760 0.810239
0.818570 0.828214 0.832120
0.822141 0.831724 0.835691
0.831266 0.840635 0.844694
0.862974 0.871336 0.875547
0.883513 0.891051 0.895140
0.918791 0.924590 0.928069
0.921263 0.926879 0.930297
0.929046 0.934234 0.937407
0.944915 0.949126 0.951781
0.973846 0.975982 0.977417
