cubelut/BW3.cube
# Created by Adobe Lightroom plugin Export LUT (1.18.0)
# www.johnrellis.com/lightroom/exportlut.htm
# Preset: MoodyBW2
# Color profile: /Library/Application Support/Adobe/Color/Profiles/Recommended/AdobeRGB1998.icc
LUT_3D_SIZE 32
DOMAIN_MIN 0.0 0.0 0.0
DOMAIN_MAX 1.0 1.0 1.0
0.000000 0.000000 0.000000
0.007263 0.006836 0.004669
0.015290 0.014649 0.011383
0.036652 0.035187 0.027527
0.058198 0.056428 0.047425
0.070039 0.068757 0.061769
0.080354 0.078889 0.070924
0.092164 0.090120 0.081025
0.105287 0.103426 0.093172
0.120912 0.118502 0.106874
0.139010 0.136416 0.123354
0.159365 0.156710 0.142184
0.182132 0.179355 0.163272
0.206821 0.203952 0.186526
0.233188 0.230320 0.211887
0.260716 0.258091 0.238804
0.289067 0.286839 0.267124
0.318151 0.316381 0.296605
0.347601 0.346502 0.327062
0.381933 0.381842 0.363226
0.417151 0.418250 0.400916
0.453040 0.455512 0.439887
0.490425 0.494301 0.480812
0.530297 0.535729 0.524743
0.571160 0.578027 0.569787
0.611810 0.619989 0.614496
0.651942 0.661189 0.658198
0.691341 0.701350 0.700649
0.730953 0.741329 0.742580
0.771359 0.781674 0.784451
0.810758 0.820584 0.824369
0.847349 0.856229 0.860441
0.015290 0.014649 0.011383
0.018219 0.017578 0.014313
0.024292 0.023438 0.019074
0.042725 0.041047 0.032319
0.061311 0.060212 0.050935
0.071748 0.070497 0.063294
0.082094 0.080629 0.072480
0.093568 0.091890 0.082643
0.106813 0.104891 0.094301
0.122347 0.119936 0.108248
0.140230 0.137606 0.124544
0.160494 0.157870 0.143313
0.183261 0.180331 0.164218
0.207767 0.204868 0.187472
0.233829 0.230961 0.212497
0.261295 0.258671 0.239322
0.289372 0.287144 0.267399
0.318242 0.316564 0.296696
0.347478 0.346441 0.326940
0.381537 0.381445 0.362799
0.416327 0.417426 0.400031
0.451789 0.454139 0.438483
0.488777 0.492622 0.479011
0.528405 0.533684 0.522606
0.569207 0.576043 0.567681
0.609857 0.618006 0.612360
0.650111 0.659327 0.656245
0.689693 0.699672 0.698878
0.729397 0.739773 0.740932
0.769894 0.780209 0.782956
0.809445 0.819272 0.823026
0.846189 0.855131 0.859312
0.034485 0.033234 0.026673
0.039582 0.038117 0.030457
0.043702 0.042023 0.033295
0.055268 0.053498 0.043702
0.065339 0.064118 0.056641
0.074769 0.073396 0.065827
0.084413 0.082856 0.074342
0.095796 0.094057 0.084535
0.108858 0.106966 0.096376
0.124239 0.122072 0.110201
0.142153 0.139712 0.126314
0.162570 0.159884 0.145083
0.185000 0.182040 0.165896
0.209537 0.206638 0.189059
0.235477 0.232578 0.213993
0.262608 0.260075 0.240696
0.290745 0.288487 0.268711
0.319341 0.317662 0.297826
0.348455 0.347509 0.328008
0.382269 0.382238 0.363622
0.416754 0.417853 0.400488
0.452003 0.454353 0.438697
0.488838 0.492683 0.479103
0.528252 0.533532 0.522454
0.568963 0.575738 0.567346
0.609491 0.617639 0.611933
0.649714 0.658961 0.655818
0.689296 0.699275 0.698482
0.729030 0.739406 0.740536
0.769528 0.779843 0.782559
0.809049 0.818906 0.822660
0.845823 0.854765 0.858946
0.065339 0.064118 0.056641
0.067170 0.065949 0.059083
0.069337 0.068055 0.061006
0.072480 0.071138 0.063661
0.077943 0.076509 0.068574
0.080690 0.079194 0.070893
0.090059 0.088441 0.079347
0.101167 0.099062 0.089357
0.113893 0.111879 0.100710
0.129213 0.126955 0.114656
0.146975 0.144472 0.130770
0.167300 0.164553 0.149416
0.189670 0.186801 0.170260
0.213840 0.210910 0.193240
0.239353 0.236545 0.217868
0.266300 0.263737 0.244358
0.294041 0.291875 0.272099
0.322393 0.320775 0.300999
0.351751 0.350835 0.331456
0.384619 0.384680 0.366094
0.418280 0.419440 0.402167
0.452949 0.455360 0.439765
0.489570 0.493385 0.479866
0.528985 0.534325 0.523308
0.569940 0.576745 0.568444
0.610773 0.618921 0.613367
0.651148 0.660365 0.657374
0.690791 0.700740 0.700008
0.730404 0.740749 0.741970
0.770657 0.780972 0.783749
0.809812 0.819669 0.823423
0.846250 0.855161 0.859342
0.084962 0.083406 0.074983
0.086671 0.084718 0.076173
0.088563 0.086549 0.077913
0.091890 0.089876 0.081056
0.095583 0.093538 0.084291
0.102296 0.100160 0.090303
0.103395 0.101228 0.091279
0.109102 0.107149 0.096345
0.121767 0.119631 0.107851
0.136965 0.134615 0.121675
0.154452 0.151888 0.137728
0.174563 0.171725 0.156283
0.196506 0.193729 0.176852
0.220401 0.217533 0.199496
0.245701 0.242863 0.223972
0.272282 0.269780 0.250309
0.299718 0.297612 0.277775
0.327672 0.326177 0.306401
0.357610 0.356847 0.337560
0.389776 0.389929 0.371557
0.422583 0.423835 0.406775
0.456733 0.459297 0.443854
0.492897 0.496803 0.483528
0.532097 0.537560 0.526726
0.572686 0.579614 0.571466
0.613184 0.621424 0.616022
0.653285 0.662562 0.659663
0.692500 0.702510 0.701869
0.731930 0.742275 0.743557
0.771908 0.782223 0.785000
0.810819 0.820615 0.824399
0.846983 0.855894 0.860075
0.107027 0.105104 0.094514
0.108248 0.106325 0.095674
0.110109 0.108156 0.097475
0.114107 0.111818 0.100954
0.118105 0.116030 0.104433
0.122652 0.120485 0.108614
0.132235 0.129702 0.117159
0.132845 0.130526 0.117861
0.135927 0.133333 0.120455
0.147951 0.145449 0.131716
0.165316 0.162600 0.147677
0.185000 0.182040 0.165896
0.206516 0.203677 0.186343
0.229923 0.227085 0.208682
0.254765 0.252079 0.232975
0.280888 0.278538 0.258885
0.307897 0.305913 0.286076
0.335302 0.334020 0.314305
0.365759 0.365179 0.346075
0.397009 0.397498 0.379339
0.429389 0.430884 0.414099
0.463233 0.466011 0.450965
0.515618 0.520439 0.508537
0.555138 0.561486 0.552178
0.594598 0.602289 0.595605
0.633387 0.642206 0.638087
0.671443 0.681117 0.679316
0.708919 0.719142 0.719356
0.747036 0.757443 0.759335
0.785367 0.795590 0.798764
0.822080 0.831662 0.835599
0.856016 0.864652 0.868833
0.134249 0.131960 0.119295
0.135592 0.133028 0.120302
0.137331 0.134737 0.121859
0.140993 0.138369 0.125185
0.146822 0.144350 0.130617
0.151034 0.148501 0.134615
0.156466 0.153872 0.139467
0.170077 0.167300 0.152041
0.170809 0.168002 0.152712
0.174441 0.171603 0.156161
0.181094 0.178378 0.162448
0.200473 0.197665 0.180606
0.221805 0.218906 0.200809
0.244633 0.241794 0.222965
0.268772 0.266209 0.246799
0.293980 0.291814 0.272007
0.320043 0.318425 0.298589
0.348455 0.347509 0.328008
0.378515 0.378393 0.359655
0.409705 0.410498 0.392889
0.442481 0.444495 0.428382
0.477577 0.480903 0.466712
0.515862 0.520684 0.508782
0.556390 0.562768 0.553552
0.596918 0.604639 0.598138
0.636133 0.645014 0.641047
0.674128 0.683833 0.682185
0.711360 0.721614 0.721920
0.749172 0.759579 0.761563
0.787076 0.797238 0.800473
0.823331 0.832883 0.836851
0.856931 0.865507 0.869718
0.164096 0.161379 0.146456
0.165194 0.162478 0.147555
0.166812 0.164065 0.149020
0.170321 0.167544 0.152163
0.175723 0.172885 0.157290
0.181827 0.178897 0.162905
0.186557 0.183780 0.167514
0.192630 0.189914 0.173190
0.210269 0.207370 0.189883
0.212131 0.209201 0.191562
0.216617 0.213779 0.195987
0.222995 0.220218 0.202029
0.236484 0.233707 0.215122
0.258610 0.255894 0.236728
0.281987 0.279606 0.259983
0.306310 0.304356 0.284611
0.332464 0.331029 0.311315
0.360662 0.360021 0.340764
0.389288 0.389502 0.371099
0.419226 0.420447 0.403204
0.451057 0.453376 0.437690
0.485420 0.489052 0.475319
0.523125 0.528252 0.516838
0.562768 0.569329 0.560540
0.602228 0.610132 0.603967
0.640681 0.649683 0.645991
0.677943 0.687739 0.686275
0.714687 0.724971 0.725460
0.752132 0.762570 0.764645
0.789578 0.799710 0.803037
0.825345 0.834867 0.838865
0.858518 0.867063 0.871275
0.197604 0.194827 0.177798
0.198611 0.195804 0.178775
0.200168 0.197360 0.180270
0.203342 0.200320 0.183139
0.208316 0.205447 0.187961
0.214908 0.212100 0.194339
0.220768 0.217868 0.199893
0.226383 0.223606 0.205356
0.233188 0.230320 0.211887
0.251011 0.248356 0.229252
0.258091 0.255467 0.236271
0.263066 0.260410 0.241062
0.269932 0.267430 0.247898
0.278264 0.275792 0.256138
0.297673 0.295567 0.275731
0.321752 0.320134 0.300298
0.348180 0.347143 0.327703
0.374914 0.374640 0.355810
0.402106 0.402777 0.384802
0.430915 0.432532 0.415839
0.461891 0.464607 0.449500
0.495644 0.499733 0.486580
0.532799 0.538231 0.527459
0.571344 0.578241 0.570031
0.609735 0.617853 0.612177
0.647089 0.656245 0.652979
0.683528 0.693416 0.692287
0.719631 0.729946 0.730648
0.756466 0.766873 0.769131
0.793240 0.803311 0.806699
0.828244 0.837675 0.841703
0.860777 0.869230 0.873442
0.234470 0.231724 0.213107
0.235538 0.232670 0.214054
0.236820 0.234012 0.215366
0.239750 0.236942 0.218204
0.244327 0.241489 0.222629
0.250431 0.247654 0.228702
0.257939 0.255314 0.236088
0.263340 0.260685 0.241367
0.269596 0.267094 0.247623
0.276860 0.274418 0.254887
0.292851 0.290593 0.270848
0.305974 0.304021 0.284215
0.311315 0.309483 0.289616
0.318425 0.316655 0.296880
0.327886 0.326390 0.306645
0.340642 0.339483 0.319829
0.365759 0.365179 0.346075
0.391180 0.391394 0.373083
0.417273 0.418433 0.401068
0.444923 0.447028 0.431006
0.474952 0.478187 0.463813
0.507866 0.512413 0.500023
0.543664 0.549554 0.539452
0.580499 0.587701 0.580102
0.617304 0.625666 0.620539
0.653620 0.662928 0.660060
0.689204 0.699153 0.698329
0.724910 0.735225 0.736202
0.761410 0.771817 0.774228
0.797665 0.807706 0.811215
0.832090 0.841428 0.845518
0.864103 0.872435 0.876646
0.273503 0.270970 0.251469
0.274418 0.271977 0.252384
0.275761 0.273228 0.253666
0.278325 0.275853 0.256199
0.282444 0.280064 0.260410
0.288121 0.285893 0.266117
0.295323 0.293217 0.273381
0.302770 0.300755 0.280949
0.308446 0.306554 0.286748
0.315251 0.313420 0.293614
0.322789 0.321141 0.301396
0.336309 0.334936 0.315312
0.355871 0.355016 0.335698
0.362951 0.362371 0.343206
0.371283 0.370916 0.351995
0.380682 0.380621 0.361913
0.390875 0.391089 0.372778
0.407813 0.408637 0.390936
0.432654 0.434302 0.417700
0.459388 0.462074 0.446845
0.488746 0.492531 0.478981
0.521294 0.526329 0.514824
0.556146 0.562493 0.553277
0.591791 0.599390 0.592554
0.627314 0.635981 0.631434
0.662318 0.671778 0.669429
0.696773 0.706813 0.706416
0.731594 0.741970 0.743252
0.767300 0.777646 0.780270
0.802579 0.812558 0.816159
0.836088 0.845335 0.849424
0.867338 0.875547 0.879759
0.314519 0.312749 0.292882
0.315373 0.313603 0.293736
0.316472 0.314702 0.294926
0.318914 0.317205 0.297368
0.322728 0.321111 0.301335
0.328008 0.326421 0.306676
0.334600 0.333227 0.313542
0.342412 0.341253 0.321691
0.349126 0.348089 0.328649
0.355322 0.354498 0.335180
0.362402 0.361761 0.342565
0.372015 0.371679 0.352728
0.393133 0.393408 0.375158
0.419226 0.420447 0.403204
0.426032 0.427405 0.410498
0.433722 0.435462 0.418891
0.442390 0.444373 0.428260
0.451881 0.454261 0.438605
0.462531 0.465309 0.450202
0.486152 0.489815 0.476081
0.515251 0.520043 0.508110
0.546838 0.552819 0.542992
0.579583 0.586755 0.579065
0.612818 0.621027 0.615595
0.646052 0.655177 0.651850
0.678950 0.688746 0.687343
0.711696 0.721981 0.722316
0.745205 0.755581 0.757412
0.779232 0.789517 0.792538
0.812711 0.822477 0.826291
0.844297 0.853300 0.857450
0.874022 0.881987 0.886137
0.359625 0.358892 0.339635
0.360327 0.359686 0.340398
0.361273 0.360632 0.341405
0.363226 0.362646 0.343511
0.366430 0.365911 0.346868
0.370703 0.370306 0.351385
0.376532 0.376318 0.357519
0.383520 0.383581 0.364996
0.391974 0.392248 0.373938
0.399847 0.400366 0.382361
0.408515 0.409339 0.391669
0.417975 0.419135 0.401831
0.428107 0.429633 0.412787
0.438605 0.440497 0.424109
0.469551 0.472572 0.457893
0.476417 0.479744 0.465461
0.483864 0.487495 0.473610
0.492195 0.496101 0.482765
0.501884 0.506157 0.493385
0.514214 0.519005 0.506981
0.531029 0.536461 0.525566
0.561395 0.567926 0.559045
0.592706 0.600275 0.593500
0.624384 0.632929 0.628229
0.656245 0.665614 0.662898
0.687831 0.697780 0.696864
0.719661 0.729976 0.730709
0.752407 0.762814 0.764920
0.785550 0.795743 0.798947
0.818021 0.827695 0.831601
0.848722 0.857572 0.861784
0.877775 0.885557 0.889677
0.401343 0.401923 0.383978
0.402075 0.402686 0.384771
0.402808 0.403449 0.385534
0.404608 0.405310 0.387488
0.407385 0.408148 0.390417
0.411841 0.412787 0.395209
0.417945 0.419043 0.401801
0.425269 0.426642 0.409674
0.433936 0.435645 0.419074
0.442969 0.445014 0.428870
0.450416 0.452735 0.436988
0.458869 0.461555 0.446235
0.467903 0.470893 0.456123
0.477424 0.480751 0.466529
0.487190 0.490913 0.477211
0.520714 0.525719 0.514122
0.527062 0.532311 0.521172
0.534386 0.539940 0.529259
0.543023 0.548882 0.538781
0.554223 0.560510 0.551141
0.567803 0.574548 0.566094
0.583520 0.590814 0.583398
0.606867 0.614923 0.609094
0.637263 0.646143 0.642267
0.667628 0.677241 0.675227
0.698054 0.708186 0.707820
0.729000 0.739376 0.740536
0.760922 0.771267 0.773709
0.793088 0.803189 0.806577
0.824399 0.833921 0.837888
0.854093 0.862760 0.866972
0.882261 0.889860 0.893980
0.446113 0.448280 0.432319
0.446876 0.449042 0.433143
0.447669 0.449866 0.433997
0.449470 0.451728 0.435920
0.452186 0.454627 0.438972
0.456153 0.458686 0.443275
0.461219 0.463935 0.448768
0.467536 0.470527 0.455665
0.475227 0.478462 0.464118
0.484474 0.488106 0.474281
0.492775 0.496742 0.483375
0.500542 0.504814 0.491951
0.509056 0.513634 0.501366
0.518120 0.523064 0.511315
0.527214 0.532494 0.521355
0.536217 0.541802 0.531243
0.570550 0.577417 0.569146
0.576410 0.583459 0.575586
0.583825 0.591119 0.583764
0.593439 0.601038 0.594324
0.605341 0.613336 0.607416
0.619287 0.627741 0.622705
0.635004 0.643824 0.639826
0.652308 0.661555 0.658595
0.679591 0.689418 0.688075
0.709041 0.719265 0.719478
0.739406 0.749844 0.751431
0.770779 0.781125 0.783871
0.802090 0.812070 0.815671
0.832425 0.841733 0.845823
0.861173 0.869596 0.873808
0.888487 0.895811 0.899870
0.491554 0.495430 0.482002
0.492348 0.496284 0.482918
0.493111 0.497078 0.483742
0.494820 0.498817 0.485603
0.497383 0.501518 0.488472
0.501183 0.505486 0.492683
0.506065 0.510491 0.497993
0.512139 0.516869 0.504753
0.519432 0.524437 0.512779
0.528008 0.533318 0.522210
0.537530 0.543206 0.532738
0.544427 0.550378 0.540368
0.551507 0.557671 0.548150
0.558923 0.565393 0.556359
0.566552 0.573266 0.564721
0.574395 0.581415 0.573358
0.582238 0.589502 0.581994
0.612848 0.621088 0.615625
0.622187 0.630732 0.625879
0.630884 0.639612 0.635370
0.641718 0.650721 0.647120
0.654322 0.663630 0.660792
0.668513 0.678126 0.676143
0.684230 0.694118 0.693019
0.701442 0.711574 0.711421
0.722011 0.732357 0.733181
0.751583 0.761990 0.764096
0.781857 0.792081 0.795193
0.811795 0.821622 0.825406
0.840543 0.849668 0.853819
0.867948 0.876127 0.880308
0.894041 0.901122 0.905089
0.536675 0.542321 0.531762
0.537194 0.542840 0.532311
0.537804 0.543481 0.533013
0.539330 0.545068 0.534722
0.541802 0.547631 0.537438
0.545129 0.551049 0.541100
0.549371 0.555505 0.545800
0.554772 0.561059 0.551751
0.561151 0.567681 0.558770
0.568597 0.575402 0.567010
0.577020 0.584100 0.576257
0.585229 0.592584 0.585290
0.591424 0.599023 0.592157
0.597864 0.605615 0.599176
0.604364 0.612360 0.606317
0.610956 0.619104 0.613519
0.617639 0.626032 0.620874
0.624781 0.633387 0.628687
0.651148 0.660426 0.657374
0.665278 0.674830 0.672663
0.674708 0.684443 0.682795
0.685908 0.695827 0.694850
0.698817 0.708888 0.708583
0.713405 0.723659 0.724086
0.729580 0.739925 0.741115
0.747433 0.757839 0.759762
0.766934 0.777310 0.779934
0.792111 0.802243 0.805600
0.820768 0.830381 0.834348
0.848295 0.857176 0.861357
0.874632 0.882536 0.886687
0.899840 0.906615 0.910491
0.580438 0.587640 0.580041
0.581140 0.588373 0.580835
0.590753 0.598291 0.591363
0.592035 0.599603 0.592767
0.593957 0.601617 0.594903
0.596521 0.604242 0.597711
0.599878 0.607721 0.601404
0.604059 0.612055 0.606012
0.609247 0.617365 0.611658
0.615290 0.623590 0.618311
0.622187 0.630671 0.625818
0.629755 0.638453 0.634119
0.635767 0.644617 0.640681
0.640925 0.649928 0.646296
0.646296 0.655390 0.652094
0.651728 0.660975 0.658015
0.657435 0.666804 0.664179
0.663325 0.672847 0.670527
0.669490 0.679133 0.677211
0.691646 0.701656 0.700954
0.709346 0.719539 0.719783
0.719326 0.729610 0.730343
0.731014 0.741390 0.742641
0.744381 0.754788 0.756619
0.759060 0.769436 0.771817
0.775174 0.785458 0.788388
0.792569 0.802670 0.806058
0.811215 0.820981 0.824765
0.830777 0.840146 0.844205
0.856077 0.864683 0.868894
0.881254 0.888884 0.893004
0.905425 0.911925 0.915679
0.623896 0.632471 0.627710
0.625483 0.634058 0.629419
0.627161 0.635767 0.631250
0.629297 0.637995 0.633600
0.631769 0.640528 0.636286
0.634424 0.643244 0.639185
0.637568 0.646479 0.642603
0.641230 0.650233 0.646601
0.645777 0.654871 0.651545
0.650965 0.660182 0.657160
0.656916 0.666285 0.663630
0.663447 0.672999 0.670710
0.670405 0.680049 0.678187
0.675013 0.684779 0.683162
0.679652 0.689448 0.688106
0.684413 0.694301 0.693233
0.689418 0.699367 0.698543
0.694697 0.704768 0.704219
0.700343 0.710475 0.710201
0.706447 0.716670 0.716732
0.725856 0.736202 0.737209
0.747524 0.757931 0.759823
0.758572 0.768948 0.771328
0.771084 0.781430 0.784176
0.784695 0.794919 0.798093
0.799557 0.809567 0.813107
0.815396 0.825132 0.828977
0.832181 0.841520 0.845609
0.849851 0.858701 0.862882
0.868193 0.876371 0.880552
0.888029 0.895384 0.899443
0.911254 0.917449 0.921111
0.661921 0.671412 0.669032
0.663264 0.672786 0.670466
0.664759 0.674311 0.672084
0.666621 0.676204 0.674128
0.668788 0.678401 0.676448
0.671138 0.680812 0.678981
0.673793 0.683497 0.681819
0.677028 0.686793 0.685298
0.680903 0.690761 0.689448
0.685389 0.695338 0.694301
0.690639 0.700587 0.699855
0.696376 0.706447 0.706020
0.702480 0.712581 0.712490
0.708339 0.718532 0.718715
0.712459 0.722713 0.723079
0.716762 0.727047 0.727626
0.721340 0.731655 0.732448
0.726192 0.736538 0.737575
0.731380 0.741787 0.743038
0.737148 0.747524 0.749020
0.743252 0.753658 0.755398
0.760250 0.770626 0.773037
0.784634 0.794858 0.798032
0.796048 0.806119 0.809567
0.808499 0.818326 0.822049
0.821805 0.831388 0.835325
0.835966 0.845212 0.849332
0.851072 0.859892 0.864073
0.867063 0.875303 0.879484
0.883726 0.891264 0.895354
0.900938 0.907652 0.911528
0.918547 0.924346 0.927825
0.698116 0.708248 0.707881
0.699336 0.709438 0.709163
0.700679 0.710811 0.710597
0.702327 0.712490 0.712337
0.704311 0.714443 0.714412
0.706355 0.716548 0.716609
0.708705 0.718929 0.719112
0.711513 0.721736 0.722072
0.714900 0.725154 0.725643
0.718868 0.729183 0.729854
0.723476 0.733822 0.734737
0.728634 0.738979 0.740139
0.734127 0.744503 0.745876
0.740047 0.750454 0.752102
0.744900 0.755337 0.757137
0.749111 0.759518 0.761501
0.753658 0.764065 0.766201
0.758572 0.768948 0.771328
0.763912 0.774289 0.776791
0.769589 0.779934 0.782650
0.775723 0.786038 0.788937
0.782132 0.792355 0.795468
0.796353 0.806394 0.809873
0.821714 0.831296 0.835233
0.833005 0.842313 0.846403
0.845060 0.854032 0.858213
0.857847 0.866392 0.870603
0.871427 0.879484 0.883665
0.885832 0.893278 0.897368
0.900877 0.907622 0.911467
0.916411 0.922332 0.925872
0.932372 0.937346 0.940429
0.737026 0.747433 0.748928
0.737758 0.748135 0.749660
0.738430 0.748806 0.750362
0.739467 0.749874 0.751461
0.740871 0.751278 0.752926
0.742519 0.752926 0.754635
0.744594 0.755001 0.756832
0.747189 0.757626 0.759518
0.750362 0.760800 0.762814
0.754116 0.764553 0.766720
0.758450 0.768826 0.771176
0.763119 0.773526 0.775998
0.768124 0.778500 0.781155
0.773404 0.783719 0.786557
0.778958 0.789242 0.792264
0.782803 0.793027 0.796139
0.786770 0.796933 0.800168
0.791012 0.801144 0.804501
0.795621 0.805692 0.809140
0.800443 0.810483 0.814023
0.805570 0.815488 0.819150
0.810941 0.820737 0.824521
0.816434 0.826169 0.830014
0.827085 0.836545 0.840574
0.851957 0.860716 0.864927
0.862821 0.871214 0.875425
0.874510 0.882414 0.886595
0.886961 0.894347 0.898405
0.900114 0.906889 0.910765
0.913878 0.919951 0.923522
0.928130 0.933379 0.936584
0.942779 0.947112 0.949859
0.771542 0.781827 0.784634
0.772152 0.782498 0.785306
0.772854 0.783200 0.786007
0.773800 0.784115 0.786954
0.774990 0.785306 0.788174
0.776455 0.786740 0.789670
0.778256 0.788510 0.791501
0.780423 0.790677 0.793729
0.783139 0.793362 0.796475
0.786343 0.796536 0.799741
0.790066 0.800198 0.803525
0.794095 0.804196 0.807614
0.798459 0.808499 0.812009
0.803098 0.813016 0.816648
0.807950 0.817838 0.821561
0.812619 0.822416 0.826200
0.816159 0.825864 0.829709
0.819974 0.829587 0.833524
0.824033 0.833555 0.837552
0.828367 0.837797 0.841825
0.832944 0.842222 0.846311
0.837705 0.846891 0.850980
0.842649 0.851682 0.855833
0.847684 0.856596 0.860777
0.853910 0.862638 0.866850
0.877531 0.885344 0.889494
0.889036 0.896330 0.900359
0.900450 0.907225 0.911101
0.912566 0.918700 0.922332
0.925292 0.930694 0.933989
0.938445 0.943053 0.945983
0.952056 0.955749 0.958160
0.806882 0.816800 0.820493
0.807492 0.817380 0.821103
0.808011 0.817899 0.821622
0.808713 0.818540 0.822263
0.809567 0.819394 0.823148
0.810636 0.820432 0.824216
0.811917 0.821714 0.825498
0.813535 0.823301 0.827115
0.815549 0.825254 0.829129
0.817960 0.827634 0.831540
0.820737 0.830350 0.834287
0.823911 0.833433 0.837430
0.827359 0.836851 0.840879
0.831083 0.840452 0.844511
0.834928 0.844175 0.848295
0.838987 0.848142 0.852293
0.842374 0.851438 0.855619
0.845487 0.854429 0.858610
0.848966 0.857816 0.861997
0.852781 0.861509 0.865721
0.856901 0.865446 0.869688
0.861112 0.869566 0.873777
0.865446 0.873716 0.877928
0.869718 0.877836 0.882017
0.874022 0.881956 0.886137
0.879454 0.887205 0.891325
0.900938 0.907683 0.911528
0.913420 0.919524 0.923125
0.924498 0.929961 0.933257
0.936126 0.940887 0.943847
0.948241 0.952209 0.954772
0.960723 0.963806 0.965850
0.836179 0.845396 0.849516
0.836698 0.845914 0.850034
0.837156 0.846342 0.850492
0.837736 0.846921 0.851041
0.838437 0.847593 0.851743
0.839353 0.848508 0.852628
0.840513 0.849638 0.853788
0.841947 0.851011 0.855161
0.843687 0.852720 0.856901
0.845823 0.854765 0.858976
0.848264 0.857145 0.861357
0.851072 0.859831 0.864042
0.854124 0.862791 0.867002
0.857328 0.865873 0.870115
0.860716 0.869169 0.873381
0.864256 0.872587 0.876799
0.868040 0.876219 0.880430
0.870878 0.878935 0.883146
0.873899 0.881865 0.886015
0.877256 0.885039 0.889189
0.880766 0.888426 0.892546
0.884459 0.891966 0.896056
0.888243 0.895598 0.899626
0.892088 0.899229 0.903227
0.895903 0.902892 0.906828
0.899779 0.906554 0.910430
0.903685 0.910277 0.914092
0.923064 0.928588 0.931975
0.936187 0.940948 0.943908
0.946838 0.950896 0.953521
0.957946 0.961242 0.963409
0.969268 0.971740 0.973388
0.863676 0.872038 0.876219
0.864042 0.872374 0.876585
0.864317 0.872648 0.876860
0.864714 0.873014 0.877226
0.865232 0.873503 0.877714
0.865904 0.874174 0.878386
0.866819 0.875029 0.879240
0.867979 0.876158 0.880339
0.869444 0.877562 0.881773
0.871244 0.879301 0.883482
0.873350 0.881285 0.885466
0.875761 0.883635 0.887785
0.878416 0.886137 0.890288
0.881224 0.888853 0.892973
0.884123 0.891630 0.895720
0.887175 0.894560 0.898619
0.890410 0.897642 0.901671
0.893614 0.900694 0.904662
0.896239 0.903197 0.907134
0.899138 0.905943 0.909819
0.902220 0.908904 0.912718
0.905486 0.911986 0.915770
0.908812 0.915129 0.918853
0.912230 0.918364 0.921996
0.915648 0.921599 0.925139
0.919066 0.924865 0.928313
0.922576 0.928161 0.931548
0.926177 0.931518 0.934813
0.942626 0.946960 0.949706
0.955932 0.959350 0.961608
0.966033 0.968780 0.970581
0.976287 0.978241 0.979553
0.888212 0.895537 0.899565
0.888457 0.895781 0.899809
0.888701 0.895995 0.900023
0.889036 0.896361 0.900389
0.889555 0.896849 0.900847
0.890349 0.897581 0.901610
0.891417 0.898619 0.902617
0.892821 0.899962 0.903929
0.894499 0.901549 0.905516
0.896483 0.903441 0.907378
0.898711 0.905547 0.909422
0.901122 0.907836 0.911681
0.903655 0.910246 0.914061
0.906310 0.912749 0.916503
0.908965 0.915282 0.918975
0.911650 0.917815 0.921477
0.914488 0.920500 0.924071
0.917449 0.923308 0.926818
0.920134 0.925811 0.929259
0.922576 0.928161 0.931548
0.925261 0.930663 0.933959
0.928008 0.933257 0.936492
0.930877 0.935943 0.939086
0.933806 0.938689 0.941711
0.936736 0.941436 0.944396
0.939727 0.944244 0.947082
0.942748 0.947082 0.949828
0.945861 0.949981 0.952605
0.949065 0.952972 0.955505
0.962554 0.965545 0.967498
0.975097 0.977142 0.978515
0.984009 0.985351 0.986267
0.913298 0.919402 0.923003
0.913481 0.919554 0.923186
0.913634 0.919677 0.923308
0.913878 0.919921 0.923491
0.914214 0.920256 0.923827
0.914763 0.920775 0.924346
0.915526 0.921477 0.925048
0.916503 0.922423 0.925963
0.917723 0.923583 0.927062
0.919158 0.924956 0.928374
0.920806 0.926452 0.929900
0.922637 0.928191 0.931579
0.924620 0.930053 0.933379
0.926726 0.932067 0.935302
