cubelut/BW3.cube
# Created by Adobe Lightroom plugin Export LUT (1.18.0)
# www.johnrellis.com/lightroom/exportlut.htm
# Preset: MoodyBW2
# Color profile: /Library/Application Support/Adobe/Color/Profiles/Recommended/AdobeRGB1998.icc
LUT_3D_SIZE 8
DOMAIN_MIN 0.000000 0.000000 0.000000
DOMAIN_MAX 0.903226 0.903226 0.903226
0.000000 0.000000 0.000000
0.058198 0.056428 0.047425
0.105287 0.103426 0.093172
0.182132 0.179355 0.163272
0.289067 0.286839 0.267124
0.417151 0.418250 0.400916
0.571160 0.578027 0.569787
0.730953 0.741329 0.742580
0.084962 0.083406 0.074983
0.095583 0.093538 0.084291
0.121767 0.119631 0.107851
0.196506 0.193729 0.176852
0.299718 0.297612 0.277775
0.422583 0.423835 0.406775
0.572686 0.579614 0.571466
0.731930 0.742275 0.743557
0.197604 0.194827 0.177798
0.208316 0.205447 0.187961
0.233188 0.230320 0.211887
0.269932 0.267430 0.247898
0.348180 0.347143 0.327703
0.461891 0.464607 0.449500
0.609735 0.617853 0.612177
0.756466 0.766873 0.769131
0.359625 0.358892 0.339635
0.366430 0.365911 0.346868
0.391974 0.392248 0.373938
0.428107 0.429633 0.412787
0.483864 0.487495 0.473610
0.531029 0.536461 0.525566
0.656245 0.665614 0.662898
0.785550 0.795743 0.798947
0.536675 0.542321 0.531762
0.541802 0.547631 0.537438
0.561151 0.567681 0.558770
0.591424 0.599023 0.592157
0.617639 0.626032 0.620874
0.674708 0.684443 0.682795
0.729580 0.739925 0.741115
0.820768 0.830381 0.834348
0.698116 0.708248 0.707881
0.704311 0.714443 0.714412
0.714900 0.725154 0.725643
0.734127 0.744503 0.745876
0.753658 0.764065 0.766201
0.775723 0.786038 0.788937
0.833005 0.842313 0.846403
0.885832 0.893278 0.897368
0.836179 0.845396 0.849516
0.838437 0.847593 0.851743
0.843687 0.852720 0.856901
0.854124 0.862791 0.867002
0.868040 0.876219 0.880430
0.880766 0.888426 0.892546
0.895903 0.902892 0.906828
0.936187 0.940948 0.943908
0.933959 0.938842 0.941894
0.934752 0.939574 0.942596
0.937896 0.942535 0.945464
0.944060 0.948302 0.950988
0.949462 0.953338 0.955840
0.959014 0.962219 0.964324
0.968261 0.970825 0.972503
0.977539 0.979370 0.980621
0.034485 0.033234 0.026673
0.051423 0.049836 0.039918
0.112581 0.110292 0.099428
0.197910 0.195010 0.178164
0.300175 0.298070 0.278294
0.420081 0.421302 0.404089
0.567498 0.574273 0.565789
0.726009 0.736355 0.737362
0.075105 0.073701 0.066194
0.090059 0.088441 0.079347
0.135927 0.133333 0.120455
0.211643 0.208743 0.191196
0.311162 0.309239 0.289464
0.427588 0.429084 0.412238
0.570794 0.577722 0.569451
0.726741 0.737087 0.738125
0.188937 0.185946 0.169589
0.199100 0.196292 0.179202
0.226169 0.223239 0.205081
0.265751 0.263188 0.243778
0.354376 0.353521 0.334142
0.462409 0.465217 0.450111
0.602167 0.610071 0.603906
0.749325 0.759731 0.761715
0.350774 0.349798 0.330358
0.358007 0.357305 0.337987
0.384924 0.384985 0.366461
0.416480 0.417578 0.400214
0.467720 0.470680 0.455848
0.522179 0.527306 0.515801
0.646845 0.656001 0.652705
0.778561 0.788846 0.791836
0.530694 0.536095 0.525170
0.535210 0.540795 0.530144
0.553277 0.559533 0.550103
0.581842 0.589075 0.581537
0.606989 0.615045 0.609216
0.665431 0.674983 0.672816
0.722072 0.732387 0.733242
0.817319 0.826993 0.830900
0.692164 0.702205 0.701534
0.695430 0.705470 0.704982
0.706386 0.716579 0.716640
0.726741 0.737087 0.738155
0.748501 0.758907 0.760891
0.772366 0.782712 0.785519
0.829892 0.839292 0.843351
0.882750 0.890349 0.894438
0.830747 0.840116 0.844175
0.831846 0.841184 0.845243
0.837919 0.847105 0.851225
0.849760 0.858579 0.862760
0.864988 0.873289 0.877501
0.878019 0.885771 0.889921
0.892699 0.899840 0.903838
0.933379 0.938323 0.941375
0.931762 0.936797 0.939910
0.932860 0.937804 0.940887
0.936248 0.940978 0.943938
0.942626 0.946960 0.949737
0.950652 0.954467 0.956909
0.959411 0.962615 0.964691
0.967773 0.970367 0.972107
0.976745 0.978637 0.979950
0.075105 0.073701 0.066194
0.079469 0.078004 0.069917
0.104280 0.102113 0.091981
0.189029 0.186191 0.169711
0.309728 0.307805 0.287968
0.445930 0.448096 0.432105
0.588830 0.596338 0.589288
0.737636 0.748013 0.749538
0.105959 0.104067 0.093629
0.115419 0.113405 0.102205
0.132326 0.130068 0.117525
0.214664 0.211704 0.194034
0.329870 0.328466 0.308721
0.453162 0.455634 0.440009
0.592828 0.600458 0.593683
0.740322 0.750729 0.752346
0.165194 0.162478 0.147555
0.177981 0.175265 0.159518
0.215366 0.212528 0.194705
0.287510 0.285191 0.265446
0.381231 0.381140 0.362463
0.485756 0.489418 0.475654
0.618769 0.627161 0.622095
0.757443 0.767849 0.770138
0.338048 0.336736 0.317113
0.345861 0.344823 0.325261
0.373327 0.373022 0.354131
0.410407 0.411292 0.393652
0.459754 0.462440 0.447211
0.543114 0.549004 0.538903
0.661982 0.671473 0.669093
0.787320 0.797513 0.800748
0.519615 0.524620 0.512963
0.525200 0.530358 0.519066
0.544060 0.549950 0.539879
0.577752 0.584894 0.577111
0.604700 0.612665 0.606683
0.660761 0.670222 0.667750
0.718349 0.728664 0.729305
0.823087 0.832639 0.836606
0.686305 0.696254 0.695247
0.689570 0.699550 0.698756
0.700191 0.710323 0.710079
0.719814 0.730129 0.730861
0.743435 0.753841 0.755581
0.767330 0.777676 0.780331
0.825772 0.835264 0.839261
0.881224 0.888853 0.892973
0.828855 0.838285 0.842313
0.830228 0.839597 0.843656
0.835691 0.844938 0.849027
0.846708 0.855650 0.859831
0.861997 0.870420 0.874632
0.876738 0.884581 0.888731
0.892943 0.900084 0.904051
0.934783 0.939635 0.942657
0.930602 0.935698 0.938842
0.931212 0.936278 0.939391
0.934386 0.939239 0.942260
0.941497 0.945892 0.948699
0.949554 0.953429 0.955932
0.959167 0.962371 0.964477
0.967864 0.970428 0.972168
0.977142 0.979034 0.980285
0.114443 0.112459 0.101350
0.120302 0.118196 0.106447
0.136355 0.134005 0.120974
0.178439 0.175723 0.159884
0.284428 0.282109 0.262394
0.422950 0.424292 0.407202
0.580682 0.587884 0.580316
0.738247 0.748653 0.750210
0.154330 0.151736 0.137575
0.157534 0.154910 0.140475
0.167788 0.165042 0.149966
0.203342 0.200320 0.183139
0.305699 0.303716 0.283909
0.438422 0.440314 0.423957
0.591547 0.599084 0.592248
0.744533 0.754940 0.756771
0.203799 0.200809 0.183658
0.215885 0.213077 0.195285
0.255863 0.253147 0.234012
0.280003 0.277623 0.257969
0.377203 0.376989 0.358190
0.496773 0.500816 0.487770
0.638727 0.647669 0.643885
0.768093 0.778408 0.781094
0.304967 0.302892 0.283085
0.314580 0.312810 0.292943
0.346258 0.345220 0.325689
0.396460 0.396857 0.378668
0.471626 0.474769 0.460182
0.565911 0.572625 0.564050
0.676387 0.686152 0.684596
0.795407 0.805478 0.808927
0.502739 0.507042 0.494362
0.507500 0.511986 0.499611
0.526482 0.531731 0.520531
0.561028 0.567590 0.558648
0.596704 0.604425 0.597894
0.649714 0.658900 0.655787
0.727382 0.737728 0.738827
0.830808 0.840177 0.844236
0.678462 0.688258 0.686824
0.683955 0.693812 0.692714
0.693965 0.704005 0.703456
0.713466 0.723720 0.724147
0.741634 0.752041 0.753750
0.764706 0.775113 0.777646
0.821378 0.830991 0.834928
0.876738 0.884581 0.888731
0.823606 0.833158 0.837125
0.825772 0.835264 0.839261
0.832609 0.841917 0.846006
0.844511 0.853513 0.857664
0.860472 0.868956 0.873136
0.876799 0.884642 0.888792
0.892332 0.899474 0.903441
0.934295 0.939178 0.942199
0.929503 0.934661 0.937865
0.930541 0.935637 0.938781
0.933745 0.938659 0.941680
0.939757 0.944305 0.947143
0.948089 0.952056 0.954620
0.958434 0.961700 0.963836
0.967742 0.970336 0.972045
0.977386 0.979248 0.980499
0.177646 0.174807 0.159152
0.182773 0.180026 0.163851
0.196780 0.194034 0.177188
0.216526 0.213687 0.195865
0.278172 0.275731 0.256138
0.399207 0.399725 0.381659
0.554559 0.560876 0.551537
0.723384 0.733669 0.734585
0.213474 0.210544 0.192966
0.217136 0.214298 0.196445
0.226902 0.224002 0.205814
0.242069 0.239353 0.220554
0.298863 0.296757 0.276951
0.415381 0.416419 0.398993
0.568170 0.574945 0.566522
0.730739 0.741146 0.742367
0.282444 0.280064 0.260410
0.298711 0.296574 0.276768
0.309789 0.307866 0.288029
0.322789 0.321141 0.301396
0.363378 0.362737 0.343603
0.465675 0.468605 0.453681
0.609674 0.617792 0.612116
0.754086 0.764492 0.766659
0.349401 0.348425 0.329015
0.358434 0.357671 0.338445
0.388128 0.388251 0.369818
0.437720 0.439551 0.423194
0.460883 0.463630 0.448463
0.555627 0.562005 0.552728
0.674342 0.684047 0.682399
0.795163 0.805234 0.808682
0.460029 0.462715 0.447486
0.466835 0.469764 0.454902
0.489326 0.493172 0.479652
0.528191 0.533471 0.522393
0.578119 0.585199 0.577478
0.651545 0.660792 0.657801
0.736965 0.747341 0.748836
0.834195 0.843503 0.847593
0.656977 0.666346 0.663691
0.660426 0.669856 0.667414
0.671382 0.681056 0.679255
0.691890 0.701900 0.701228
0.721157 0.731472 0.732265
0.754086 0.764462 0.766659
0.808438 0.818296 0.822019
0.873686 0.881651 0.885832
0.813504 0.823270 0.827054
0.815122 0.824857 0.828702
0.821622 0.831235 0.835172
0.834012 0.843320 0.847410
0.851652 0.860410 0.864622
0.872709 0.880674 0.884855
0.888762 0.896086 0.900114
0.930632 0.935729 0.938872
0.924102 0.929595 0.932921
0.924956 0.930388 0.933684
0.928191 0.933410 0.936645
0.935821 0.940581 0.943572
0.944671 0.948882 0.951568
0.955749 0.959228 0.961456
0.966583 0.969238 0.971038
0.976471 0.978393 0.979706
0.266361 0.263798 0.244450
0.270268 0.267765 0.248264
0.280827 0.278477 0.258793
0.298863 0.296757 0.276951
0.324041 0.322393 0.302617
0.394812 0.395148 0.376959
0.535058 0.540612 0.529992
0.702266 0.712428 0.712276
0.294621 0.292424 0.272618
0.297002 0.294926 0.275090
0.305303 0.303319 0.283452
0.320775 0.319127 0.299290
0.341711 0.340459 0.320928
0.409339 0.410132 0.392523
0.546715 0.552728 0.542870
0.709255 0.719478 0.719692
0.374731 0.374456 0.355596
0.376471 0.376287 0.357458
0.382635 0.382605 0.363958
0.393042 0.393378 0.375067
0.406531 0.407233 0.389502
0.461677 0.464393 0.449287
0.589715 0.597223 0.590265
0.736233 0.746609 0.748104
0.418738 0.419928 0.402686
0.430182 0.431739 0.414984
0.470069 0.473152 0.458503
0.498665 0.502800 0.489876
0.509453 0.514031 0.501762
0.549432 0.555566 0.545861
0.655421 0.664759 0.662013
0.780423 0.790677 0.793729
0.515618 0.520439 0.508537
0.521996 0.527062 0.515557
0.543053 0.548943 0.538842
0.577020 0.584131 0.576318
0.622187 0.630671 0.625818
0.642237 0.651301 0.647730
0.726101 0.736446 0.737453
0.829526 0.838926 0.842985
0.627039 0.635645 0.631128
0.632136 0.640955 0.636713
0.646632 0.655787 0.652522
0.670130 0.679805 0.677882
0.700679 0.710811 0.710597
0.743313 0.753719 0.755489
0.808988 0.818845 0.822568
0.879393 0.887114 0.891264
0.797513 0.807553 0.811063
0.800870 0.810849 0.814450
0.810636 0.820432 0.824216
0.824399 0.833921 0.837888
0.841886 0.850950 0.855131
0.864561 0.872892 0.877104
0.885863 0.893309 0.897368
0.925353 0.930755 0.934081
0.919158 0.924956 0.928374
0.919982 0.925719 0.929168
0.923278 0.928801 0.932158
0.929992 0.935119 0.938293
0.939361 0.943908 0.946777
0.951568 0.955322 0.957763
0.965423 0.968200 0.970031
0.975799 0.977783 0.979126
0.386969 0.387060 0.368627
0.389410 0.389624 0.371221
0.397864 0.398291 0.380194
0.410315 0.411200 0.393622
0.424842 0.426215 0.409247
0.456519 0.459022 0.443641
0.531792 0.537255 0.526360
0.689937 0.699916 0.699123
0.411353 0.412207 0.394629
0.412970 0.413947 0.396429
0.419440 0.420661 0.403449
0.429816 0.431373 0.414618
0.443214 0.445258 0.429175
0.472511 0.475685 0.461128
0.546532 0.552514 0.542626
0.699611 0.709743 0.709468
0.475380 0.478614 0.464302
0.476570 0.479927 0.465614
0.481239 0.484718 0.470710
0.488991 0.492775 0.479194
0.499763 0.503960 0.491066
0.520836 0.525872 0.514336
0.587182 0.594629 0.587457
0.723232 0.733577 0.734432
0.543542 0.549432 0.539330
0.552880 0.559106 0.549645
0.575372 0.582391 0.574456
0.580255 0.587457 0.579858
0.587457 0.594903 0.587762
0.595789 0.603479 0.596918
0.647150 0.656275 0.653010
0.762173 0.772580 0.775021
0.601282 0.609155 0.602930
0.605707 0.613733 0.607813
0.619654 0.628077 0.623041
0.658045 0.667445 0.664820
0.682216 0.692073 0.690852
0.687495 0.697444 0.696559
0.718990 0.729305 0.729976
0.813413 0.823178 0.826993
0.699153 0.709255 0.708949
0.701930 0.712093 0.711940
0.711574 0.721828 0.722164
0.726802 0.737148 0.738216
0.747768 0.758175 0.760128
0.782406 0.792630 0.795773
0.799130 0.809140 0.812680
0.869383 0.877501 0.881682
0.785977 0.796139 0.799344
0.787869 0.798032 0.801297
0.795041 0.805112 0.808560
0.807126 0.817014 0.820676
0.824949 0.834440 0.838437
0.848539 0.857389 0.861601
0.878843 0.886564 0.890715
0.924895 0.930327 0.933623
0.906615 0.913085 0.916838
0.908110 0.914458 0.918181
0.912566 0.918700 0.922332
0.921416 0.927062 0.930449
0.933135 0.938079 0.941131
0.945739 0.949859 0.952514
0.961059 0.964141 0.966155
0.974792 0.976837 0.978241
0.579095 0.586206 0.578546
0.580102 0.587274 0.579644
0.584619 0.591943 0.584619
0.590753 0.598291 0.591363
0.598596 0.606378 0.600000
0.607233 0.615290 0.609461
0.644648 0.653742 0.650324
0.707576 0.717769 0.717922
0.595911 0.603601 0.597040
0.596704 0.604425 0.597894
0.600122 0.607965 0.601678
0.605524 0.613550 0.607630
0.612421 0.620630 0.615167
0.620020 0.628504 0.623499
0.654536 0.663874 0.661036
0.715419 0.725704 0.726223
0.642664 0.651698 0.648127
0.643183 0.652277 0.648737
0.645686 0.654810 0.651453
0.648371 0.657557 0.654383
0.653101 0.662379 0.659480
0.658656 0.668086 0.665492
0.683680 0.693538 0.692409
0.738552 0.748959 0.750515
0.704891 0.715084 0.715084
0.705104 0.715297 0.715297
0.706416 0.716609 0.716670
0.708156 0.718379 0.718532
0.710506 0.720760 0.721035
0.713405 0.723659 0.724086
0.726619 0.736995 0.738033
0.774380 0.784695 0.787564
0.731746 0.742123 0.743404
0.735988 0.746395 0.747829
0.751156 0.761563 0.763638
0.775082 0.785367 0.788266
0.776516 0.786831 0.789761
0.778347 0.788602 0.791592
0.780819 0.791073 0.794156
0.820493 0.830106 0.834012
0.800443 0.810483 0.814023
0.801755 0.811704 0.815305
0.805478 0.815396 0.819059
0.810452 0.820279 0.824063
0.829404 0.838804 0.842863
0.846036 0.854978 0.859159
0.847410 0.856291 0.860502
0.870176 0.878294 0.882475
0.867948 0.876127 0.880308
0.868894 0.877012 0.881224
0.871824 0.879881 0.884062
0.876616 0.884459 0.888609
0.883665 0.891203 0.895293
0.893339 0.900420 0.904417
0.912566 0.918700 0.922332
0.923217 0.928771 0.932128
0.918791 0.924590 0.928069
0.919585 0.925322 0.928771
0.921996 0.927611 0.930999
0.926116 0.931487 0.934783
0.932647 0.937621 0.940673
0.942046 0.946410 0.949187
0.955261 0.958740 0.960998
0.973846 0.975982 0.977417
