cubelut/BW4.cube
# Created by Adobe Lightroom plugin Export LUT (1.18.0)
# www.johnrellis.com/lightroom/exportlut.htm
# Preset: MoodyBW3
# Color profile: /Library/Application Support/Adobe/Color/Profiles/Recommended/AdobeRGB1998.icc
LUT_3D_SIZE 8
DOMAIN_MIN 0.000000 0.000000 0.000000
DOMAIN_MAX 0.903226 0.903226 0.903226
0.173526 0.173526 0.173526
0.174990 0.174990 0.174990
0.182650 0.182650 0.182650
0.208652 0.208652 0.208652
0.276371 0.276371 0.276371
0.396246 0.396246 0.396246
0.536126 0.536126 0.536126
0.644282 0.644282 0.644282
0.176425 0.176425 0.176425
0.178866 0.178866 0.178866
0.189120 0.189120 0.189120
0.219394 0.219394 0.219394
0.291936 0.291936 0.291936
0.408515 0.408515 0.408515
0.542779 0.542779 0.542779
0.648005 0.648005 0.648005
0.197574 0.197574 0.197574
0.201785 0.201785 0.201785
0.221103 0.221103 0.221103
0.271916 0.271916 0.271916
0.353246 0.353246 0.353246
0.463661 0.463661 0.463661
0.575463 0.575463 0.575463
0.666682 0.666682 0.666682
0.275792 0.275792 0.275792
0.282383 0.282383 0.282383
0.308659 0.308659 0.308659
0.367773 0.367773 0.367773
0.463233 0.463233 0.463233
0.540215 0.540215 0.540215
0.618219 0.618219 0.618219
0.693172 0.693172 0.693172
0.425544 0.425544 0.425544
0.431983 0.431983 0.431983
0.454932 0.454932 0.454932
0.495308 0.495308 0.495308
0.543206 0.543206 0.543206
0.607782 0.607782 0.607782
0.663264 0.663264 0.663264
0.725856 0.725856 0.725856
0.567895 0.567895 0.567895
0.572351 0.572351 0.572351
0.583246 0.583246 0.583246
0.601740 0.601740 0.601740
0.627741 0.627741 0.627741
0.658045 0.658045 0.658045
0.710109 0.710109 0.710109
0.763149 0.763149 0.763149
0.671138 0.671138 0.671138
0.673121 0.673121 0.673121
0.679103 0.679103 0.679103
0.690089 0.690089 0.690089
0.705531 0.705531 0.705531
0.726925 0.726925 0.726925
0.751553 0.751553 0.751553
0.800870 0.800870 0.800870
0.761318 0.761318 0.761318
0.762539 0.762539 0.762539
0.767117 0.767117 0.767117
0.775692 0.775692 0.775692
0.786069 0.786069 0.786069
0.802548 0.802548 0.802548
0.823056 0.823056 0.823056
0.845640 0.845640 0.845640
0.173861 0.173861 0.173861
0.175082 0.175082 0.175082
0.185183 0.185183 0.185183
0.216464 0.216464 0.216464
0.287877 0.287877 0.287877
0.402655 0.402655 0.402655
0.537713 0.537713 0.537713
0.643977 0.643977 0.643977
0.175998 0.175998 0.175998
0.180056 0.180056 0.180056
0.192752 0.192752 0.192752
0.227207 0.227207 0.227207
0.302495 0.302495 0.302495
0.415869 0.415869 0.415869
0.544732 0.544732 0.544732
0.647486 0.647486 0.647486
0.199222 0.199222 0.199222
0.205631 0.205631 0.205631
0.223972 0.223972 0.223972
0.276371 0.276371 0.276371
0.358587 0.358587 0.358587
0.466804 0.466804 0.466804
0.574517 0.574517 0.574517
0.665370 0.665370 0.665370
0.280217 0.280217 0.280217
0.287877 0.287877 0.287877
0.313390 0.313390 0.313390
0.367407 0.367407 0.367407
0.459449 0.459449 0.459449
0.537591 0.537591 0.537591
0.615961 0.615961 0.615961
0.691585 0.691585 0.691585
0.430488 0.430488 0.430488
0.436347 0.436347 0.436347
0.458045 0.458045 0.458045
0.495399 0.495399 0.495399
0.541833 0.541833 0.541833
0.606256 0.606256 0.606256
0.662379 0.662379 0.662379
0.725002 0.725002 0.725002
0.568872 0.568872 0.568872
0.572015 0.572015 0.572015
0.582879 0.582879 0.582879
0.601495 0.601495 0.601495
0.627558 0.627558 0.627558
0.658106 0.658106 0.658106
0.709834 0.709834 0.709834
0.762631 0.762631 0.762631
0.670436 0.670436 0.670436
0.671962 0.671962 0.671962
0.678126 0.678126 0.678126
0.689509 0.689509 0.689509
0.705196 0.705196 0.705196
0.726436 0.726436 0.726436
0.750668 0.750668 0.750668
0.799863 0.799863 0.799863
0.760800 0.760800 0.760800
0.762173 0.762173 0.762173
0.766842 0.766842 0.766842
0.775479 0.775479 0.775479
0.787411 0.787411 0.787411
0.803220 0.803220 0.803220
0.823117 0.823117 0.823117
0.845365 0.845365 0.845365
0.175540 0.175540 0.175540
0.177005 0.177005 0.177005
0.186313 0.186313 0.186313
0.223301 0.223301 0.223301
0.304295 0.304295 0.304295
0.425727 0.425727 0.425727
0.550774 0.550774 0.550774
0.649683 0.649683 0.649683
0.180270 0.180270 0.180270
0.184024 0.184024 0.184024
0.195529 0.195529 0.195529
0.236728 0.236728 0.236728
0.320592 0.320592 0.320592
0.437964 0.437964 0.437964
0.557397 0.557397 0.557397
0.653620 0.653620 0.653620
0.195712 0.195712 0.195712
0.203677 0.203677 0.203677
0.233738 0.233738 0.233738
0.289006 0.289006 0.289006
0.376715 0.376715 0.376715
0.483803 0.483803 0.483803
0.583398 0.583398 0.583398
0.669368 0.669368 0.669368
0.282078 0.282078 0.282078
0.294102 0.294102 0.294102
0.330419 0.330419 0.330419
0.380652 0.380652 0.380652
0.469886 0.469886 0.469886
0.547051 0.547051 0.547051
0.622400 0.622400 0.622400
0.695216 0.695216 0.695216
0.433997 0.433997 0.433997
0.445106 0.445106 0.445106
0.473091 0.473091 0.473091
0.506401 0.506401 0.506401
0.549554 0.549554 0.549554
0.610437 0.610437 0.610437
0.665888 0.665888 0.665888
0.727474 0.727474 0.727474
0.572839 0.572839 0.572839
0.578149 0.578149 0.578149
0.589685 0.589685 0.589685
0.606806 0.606806 0.606806
0.630945 0.630945 0.630945
0.660304 0.660304 0.660304
0.711208 0.711208 0.711208
0.764492 0.764492 0.764492
0.673976 0.673976 0.673976
0.675868 0.675868 0.675868
0.681697 0.681697 0.681697
0.692348 0.692348 0.692348
0.707362 0.707362 0.707362
0.728328 0.728328 0.728328
0.752865 0.752865 0.752865
0.802365 0.802365 0.802365
0.762509 0.762509 0.762509
0.763516 0.763516 0.763516
0.767971 0.767971 0.767971
0.776852 0.776852 0.776852
0.788663 0.788663 0.788663
0.804349 0.804349 0.804349
0.824369 0.824369 0.824369
0.846830 0.846830 0.846830
0.180056 0.180056 0.180056
0.182528 0.182528 0.182528
0.193057 0.193057 0.193057
0.224643 0.224643 0.224643
0.315404 0.315404 0.315404
0.435523 0.435523 0.435523
0.558251 0.558251 0.558251
0.652796 0.652796 0.652796
0.189639 0.189639 0.189639
0.192538 0.192538 0.192538
0.204501 0.204501 0.204501
0.239445 0.239445 0.239445
0.332769 0.332769 0.332769
0.450355 0.450355 0.450355
0.565667 0.565667 0.565667
0.656641 0.656641 0.656641
0.206363 0.206363 0.206363
0.215091 0.215091 0.215091
0.251194 0.251194 0.251194
0.297520 0.297520 0.297520
0.391577 0.391577 0.391577
0.499001 0.499001 0.499001
0.593042 0.593042 0.593042
0.672908 0.672908 0.672908
0.264775 0.264775 0.264775
0.277531 0.277531 0.277531
0.326970 0.326970 0.326970
0.401923 0.401923 0.401923
0.481605 0.481605 0.481605
0.556603 0.556603 0.556603
0.627955 0.627955 0.627955
0.697871 0.697871 0.697871
0.435859 0.435859 0.435859
0.446174 0.446174 0.446174
0.480110 0.480110 0.480110
0.522057 0.522057 0.522057
0.559991 0.559991 0.559991
0.616449 0.616449 0.616449
0.670527 0.670527 0.670527
0.730129 0.730129 0.730129
0.574151 0.574151 0.574151
0.580133 0.580133 0.580133
0.596124 0.596124 0.596124
0.616571 0.616571 0.616571
0.638270 0.638270 0.638270
0.665766 0.665766 0.665766
0.714656 0.714656 0.714656
0.766995 0.766995 0.766995
0.673976 0.673976 0.673976
0.676783 0.676783 0.676783
0.686000 0.686000 0.686000
0.697810 0.697810 0.697810
0.712459 0.712459 0.712459
0.732235 0.732235 0.732235
0.756100 0.756100 0.756100
0.805234 0.805234 0.805234
0.763546 0.763546 0.763546
0.765316 0.765316 0.765316
0.771206 0.771206 0.771206
0.779110 0.779110 0.779110
0.790799 0.790799 0.790799
0.806119 0.806119 0.806119
0.826261 0.826261 0.826261
0.848997 0.848997 0.848997
0.191348 0.191348 0.191348
0.195041 0.195041 0.195041
0.209018 0.209018 0.209018
0.240604 0.240604 0.240604
0.314061 0.314061 0.314061
0.450416 0.450416 0.450416
0.568414 0.568414 0.568414
0.659846 0.659846 0.659846
0.204685 0.204685 0.204685
0.208652 0.208652 0.208652
0.223789 0.223789 0.223789
0.257633 0.257633 0.257633
0.332403 0.332403 0.332403
0.466316 0.466316 0.466316
0.575952 0.575952 0.575952
0.663813 0.663813 0.663813
0.239292 0.239292 0.239292
0.255711 0.255711 0.255711
0.280919 0.280919 0.280919
0.320104 0.320104 0.320104
0.394202 0.394202 0.394202
0.509209 0.509209 0.509209
0.598749 0.598749 0.598749
0.676448 0.676448 0.676448
0.289372 0.289372 0.289372
0.302678 0.302678 0.302678
0.349401 0.349401 0.349401
0.428687 0.428687 0.428687
0.490364 0.490364 0.490364
0.565362 0.565362 0.565362
0.632441 0.632441 0.632441
0.697597 0.697597 0.697597
0.399664 0.399664 0.399664
0.412421 0.412421 0.412421
0.454841 0.454841 0.454841
0.520653 0.520653 0.520653
0.572656 0.572656 0.572656
0.620386 0.620386 0.620386
0.671809 0.671809 0.671809
0.729335 0.729335 0.729335
0.572503 0.572503 0.572503
0.577539 0.577539 0.577539
0.593347 0.593347 0.593347
0.618067 0.618067 0.618067
0.643793 0.643793 0.643793
0.670832 0.670832 0.670832
0.717433 0.717433 0.717433
0.768185 0.768185 0.768185
0.673243 0.673243 0.673243
0.675776 0.675776 0.675776
0.684565 0.684565 0.684565
0.699489 0.699489 0.699489
0.716213 0.716213 0.716213
0.735378 0.735378 0.735378
0.759365 0.759365 0.759365
0.807767 0.807767 0.807767
0.762203 0.762203 0.762203
0.763851 0.763851 0.763851
0.769619 0.769619 0.769619
0.780545 0.780545 0.780545
0.792569 0.792569 0.792569
0.808011 0.808011 0.808011
0.828031 0.828031 0.828031
0.851133 0.851133 0.851133
0.216312 0.216312 0.216312
0.221347 0.221347 0.221347
0.240269 0.240269 0.240269
0.280430 0.280430 0.280430
0.346349 0.346349 0.346349
0.448829 0.448829 0.448829
0.577539 0.577539 0.577539
0.669642 0.669642 0.669642
0.233799 0.233799 0.233799
0.239048 0.239048 0.239048
0.258915 0.258915 0.258915
0.299168 0.299168 0.299168
0.364019 0.364019 0.364019
0.463844 0.463844 0.463844
0.584619 0.584619 0.584619
0.673121 0.673121 0.673121
0.298161 0.298161 0.298161
0.304082 0.304082 0.304082
0.325811 0.325811 0.325811
0.366155 0.366155 0.366155
0.425849 0.425849 0.425849
0.510735 0.510735 0.510735
0.608392 0.608392 0.608392
0.685634 0.685634 0.685634
0.332067 0.332067 0.332067
0.347326 0.347326 0.347326
0.413245 0.413245 0.413245
0.472267 0.472267 0.472267
0.514824 0.514824 0.514824
0.570794 0.570794 0.570794
0.642115 0.642115 0.642115
0.705959 0.705959 0.705959
0.438575 0.438575 0.438575
0.450416 0.450416 0.450416
0.487709 0.487709 0.487709
0.537743 0.537743 0.537743
0.589685 0.589685 0.589685
0.626154 0.626154 0.626154
0.676967 0.676967 0.676967
0.731441 0.731441 0.731441
0.547234 0.547234 0.547234
0.554101 0.554101 0.554101
0.574884 0.574884 0.574884
0.606683 0.606683 0.606683
0.645106 0.645106 0.645106
0.681117 0.681117 0.681117
0.720058 0.720058 0.720058
0.767941 0.767941 0.767941
0.673487 0.673487 0.673487
0.676234 0.676234 0.676234
0.684871 0.684871 0.684871
0.699306 0.699306 0.699306
0.718959 0.718959 0.718959
0.741176 0.741176 0.741176
0.765286 0.765286 0.765286
0.811734 0.811734 0.811734
0.761868 0.761868 0.761868
0.763424 0.763424 0.763424
0.769070 0.769070 0.769070
0.779263 0.779263 0.779263
0.793912 0.793912 0.793912
0.810849 0.810849 0.810849
0.830869 0.830869 0.830869
0.854856 0.854856 0.854856
0.272648 0.272648 0.272648
0.279454 0.279454 0.279454
0.304753 0.304753 0.304753
0.350561 0.350561 0.350561
0.416175 0.416175 0.416175
0.499214 0.499214 0.499214
0.579034 0.579034 0.579034
0.675166 0.675166 0.675166
0.296513 0.296513 0.296513
0.303044 0.303044 0.303044
0.327520 0.327520 0.327520
0.372168 0.372168 0.372168
0.436103 0.436103 0.436103
0.513481 0.513481 0.513481
0.588281 0.588281 0.588281
0.680781 0.680781 0.680781
0.366461 0.366461 0.366461
0.372869 0.372869 0.372869
0.396094 0.396094 0.396094
0.436896 0.436896 0.436896
0.491371 0.491371 0.491371
0.549371 0.549371 0.549371
0.610620 0.610620 0.610620
0.692744 0.692744 0.692744
0.431800 0.431800 0.431800
0.449073 0.449073 0.449073
0.494759 0.494759 0.494759
0.522240 0.522240 0.522240
0.556878 0.556878 0.556878
0.595605 0.595605 0.595605
0.642451 0.642451 0.642451
0.712795 0.712795 0.712795
0.494484 0.494484 0.494484
0.503258 0.503258 0.503258
0.529870 0.529870 0.529870
0.578882 0.578882 0.578882
0.618219 0.618219 0.618219
0.644434 0.644434 0.644434
0.681666 0.681666 0.681666
0.740963 0.740963 0.740963
0.586389 0.586389 0.586389
0.591180 0.591180 0.591180
0.606744 0.606744 0.606744
0.629694 0.629694 0.629694
0.658198 0.658198 0.658198
0.695186 0.695186 0.695186
0.724971 0.724971 0.724971
0.773190 0.773190 0.773190
0.656580 0.656580 0.656580
0.659419 0.659419 0.659419
0.669429 0.669429 0.669429
0.685695 0.685695 0.685695
0.709255 0.709255 0.709255
0.741939 0.741939 0.741939
0.775509 0.775509 0.775509
0.814786 0.814786 0.814786
0.760128 0.760128 0.760128
0.762264 0.762264 0.762264
0.768765 0.768765 0.768765
0.778744 0.778744 0.778744
0.793698 0.793698 0.793698
0.813504 0.813504 0.813504
0.836179 0.836179 0.836179
0.861051 0.861051 0.861051
0.399512 0.399512 0.399512
0.407080 0.407080 0.407080
0.435004 0.435004 0.435004
0.480140 0.480140 0.480140
0.532097 0.532097 0.532097
0.583154 0.583154 0.583154
0.635248 0.635248 0.635248
0.686824 0.686824 0.686824
0.422522 0.422522 0.422522
0.429633 0.429633 0.429633
0.455512 0.455512 0.455512
0.496712 0.496712 0.496712
0.543969 0.543969 0.543969
0.591577 0.591577 0.591577
0.641169 0.641169 0.641169
0.691279 0.691279 0.691279
0.485939 0.485939 0.485939
0.491493 0.491493 0.491493
0.510796 0.510796 0.510796
0.539818 0.539818 0.539818
0.576654 0.576654 0.576654
0.615686 0.615686 0.615686
0.657984 0.657984 0.657984
0.703731 0.703731 0.703731
0.555291 0.555291 0.555291
0.559503 0.559503 0.559503
0.572107 0.572107 0.572107
0.592340 0.592340 0.592340
0.618463 0.618463 0.618463
0.648157 0.648157 0.648157
0.682216 0.682216 0.682216
0.722927 0.722927 0.722927
0.565789 0.565789 0.565789
0.574151 0.574151 0.574151
0.601038 0.601038 0.601038
0.639155 0.639155 0.639155
0.660853 0.660853 0.660853
0.684657 0.684657 0.684657
0.712673 0.712673 0.712673
0.749538 0.749538 0.749538
0.635279 0.635279 0.635279
0.638422 0.638422 0.638422
0.648371 0.648371 0.648371
0.663447 0.663447 0.663447
0.691951 0.691951 0.691951
0.725612 0.725612 0.725612
0.748684 0.748684 0.748684
0.782406 0.782406 0.782406
0.699794 0.699794 0.699794
0.701961 0.701961 0.701961
0.709102 0.709102 0.709102
0.720974 0.720974 0.720974
0.738277 0.738277 0.738277
0.761379 0.761379 0.761379
0.795773 0.795773 0.795773
0.825681 0.825681 0.825681
0.757321 0.757321 0.757321
0.759091 0.759091 0.759091
0.764767 0.764767 0.764767
0.774655 0.774655 0.774655
0.789670 0.789670 0.789670
0.810605 0.810605 0.810605
0.840970 0.840970 0.840970
0.875273 0.875273 0.875273
