cubelut/BW4.cube
# Created by Adobe Lightroom plugin Export LUT (1.18.0)
# www.johnrellis.com/lightroom/exportlut.htm
# Preset: MoodyBW3
# Color profile: /Library/Application Support/Adobe/Color/Profiles/Recommended/AdobeRGB1998.icc
LUT_3D_SIZE 32
DOMAIN_MIN 0.0 0.0 0.0
DOMAIN_MAX 1.0 1.0 1.0
0.173526 0.173526 0.173526
0.173526 0.173526 0.173526
0.173617 0.173617 0.173617
0.174197 0.174197 0.174197
0.174990 0.174990 0.174990
0.175998 0.175998 0.175998
0.177646 0.177646 0.177646
0.179751 0.179751 0.179751
0.182650 0.182650 0.182650
0.186648 0.186648 0.186648
0.192050 0.192050 0.192050
0.199222 0.199222 0.199222
0.208652 0.208652 0.208652
0.220768 0.220768 0.220768
0.236027 0.236027 0.236027
0.254520 0.254520 0.254520
0.276371 0.276371 0.276371
0.302861 0.302861 0.302861
0.331243 0.331243 0.331243
0.362432 0.362432 0.362432
0.396246 0.396246 0.396246
0.432319 0.432319 0.432319
0.469581 0.469581 0.469581
0.504326 0.504326 0.504326
0.536126 0.536126 0.536126
0.565637 0.565637 0.565637
0.593347 0.593347 0.593347
0.619409 0.619409 0.619409
0.644282 0.644282 0.644282
0.668452 0.668452 0.668452
0.692226 0.692226 0.692226
0.715846 0.715846 0.715846
0.173526 0.173526 0.173526
0.173617 0.173617 0.173617
0.173861 0.173861 0.173861
0.174411 0.174411 0.174411
0.175326 0.175326 0.175326
0.176425 0.176425 0.176425
0.178103 0.178103 0.178103
0.180270 0.180270 0.180270
0.183169 0.183169 0.183169
0.187259 0.187259 0.187259
0.192752 0.192752 0.192752
0.200076 0.200076 0.200076
0.209567 0.209567 0.209567
0.221775 0.221775 0.221775
0.237034 0.237034 0.237034
0.255711 0.255711 0.255711
0.277592 0.277592 0.277592
0.303777 0.303777 0.303777
0.332036 0.332036 0.332036
0.362982 0.362982 0.362982
0.396582 0.396582 0.396582
0.432441 0.432441 0.432441
0.469520 0.469520 0.469520
0.504234 0.504234 0.504234
0.536004 0.536004 0.536004
0.565515 0.565515 0.565515
0.593194 0.593194 0.593194
0.619226 0.619226 0.619226
0.644160 0.644160 0.644160
0.668330 0.668330 0.668330
0.692073 0.692073 0.692073
0.715694 0.715694 0.715694
0.173983 0.173983 0.173983
0.174075 0.174075 0.174075
0.174197 0.174197 0.174197
0.174868 0.174868 0.174868
0.175753 0.175753 0.175753
0.177005 0.177005 0.177005
0.178653 0.178653 0.178653
0.180911 0.180911 0.180911
0.183902 0.183902 0.183902
0.188083 0.188083 0.188083
0.193759 0.193759 0.193759
0.201236 0.201236 0.201236
0.210910 0.210910 0.210910
0.223301 0.223301 0.223301
0.238743 0.238743 0.238743
0.257481 0.257481 0.257481
0.279698 0.279698 0.279698
0.305699 0.305699 0.305699
0.333806 0.333806 0.333806
0.364569 0.364569 0.364569
0.398108 0.398108 0.398108
0.433814 0.433814 0.433814
0.470680 0.470680 0.470680
0.505150 0.505150 0.505150
0.536736 0.536736 0.536736
0.566064 0.566064 0.566064
0.593652 0.593652 0.593652
0.619684 0.619684 0.619684
0.644495 0.644495 0.644495
0.668605 0.668605 0.668605
0.692317 0.692317 0.692317
0.715938 0.715938 0.715938
0.174868 0.174868 0.174868
0.174990 0.174990 0.174990
0.175204 0.175204 0.175204
0.175753 0.175753 0.175753
0.177005 0.177005 0.177005
0.178439 0.178439 0.178439
0.180179 0.180179 0.180179
0.182528 0.182528 0.182528
0.185794 0.185794 0.185794
0.190249 0.190249 0.190249
0.196201 0.196201 0.196201
0.204044 0.204044 0.204044
0.214206 0.214206 0.214206
0.226963 0.226963 0.226963
0.242710 0.242710 0.242710
0.261814 0.261814 0.261814
0.284398 0.284398 0.284398
0.310185 0.310185 0.310185
0.338048 0.338048 0.338048
0.368536 0.368536 0.368536
0.401740 0.401740 0.401740
0.437110 0.437110 0.437110
0.473610 0.473610 0.473610
0.507591 0.507591 0.507591
0.538933 0.538933 0.538933
0.568109 0.568109 0.568109
0.595453 0.595453 0.595453
0.621302 0.621302 0.621302
0.645930 0.645930 0.645930
0.669856 0.669856 0.669856
0.693385 0.693385 0.693385
0.716793 0.716793 0.716793
0.176425 0.176425 0.176425
0.176669 0.176669 0.176669
0.177005 0.177005 0.177005
0.177646 0.177646 0.177646
0.178866 0.178866 0.178866
0.181033 0.181033 0.181033
0.182956 0.182956 0.182956
0.185611 0.185611 0.185611
0.189120 0.189120 0.189120
0.193942 0.193942 0.193942
0.200381 0.200381 0.200381
0.208743 0.208743 0.208743
0.219394 0.219394 0.219394
0.232792 0.232792 0.232792
0.249210 0.249210 0.249210
0.268711 0.268711 0.268711
0.291936 0.291936 0.291936
0.317754 0.317754 0.317754
0.345495 0.345495 0.345495
0.375708 0.375708 0.375708
0.408515 0.408515 0.408515
0.443488 0.443488 0.443488
0.479133 0.479133 0.479133
0.512261 0.512261 0.512261
0.542779 0.542779 0.542779
0.571435 0.571435 0.571435
0.598291 0.598291 0.598291
0.623621 0.623621 0.623621
0.648005 0.648005 0.648005
0.671656 0.671656 0.671656
0.694972 0.694972 0.694972
0.718227 0.718227 0.718227
0.179202 0.179202 0.179202
0.179416 0.179416 0.179416
0.179751 0.179751 0.179751
0.180484 0.180484 0.180484
0.181796 0.181796 0.181796
0.183810 0.183810 0.183810
0.187686 0.187686 0.187686
0.190524 0.190524 0.190524
0.194430 0.194430 0.194430
0.199710 0.199710 0.199710
0.206729 0.206729 0.206729
0.215854 0.215854 0.215854
0.227268 0.227268 0.227268
0.241428 0.241428 0.241428
0.258610 0.258610 0.258610
0.278691 0.278691 0.278691
0.302495 0.302495 0.302495
0.328252 0.328252 0.328252
0.355871 0.355871 0.355871
0.385870 0.385870 0.385870
0.418402 0.418402 0.418402
0.452949 0.452949 0.452949
0.494850 0.494850 0.494850
0.525841 0.525841 0.525841
0.554620 0.554620 0.554620
0.581598 0.581598 0.581598
0.607080 0.607080 0.607080
0.631281 0.631281 0.631281
0.654688 0.654688 0.654688
0.677577 0.677577 0.677577
0.700252 0.700252 0.700252
0.722927 0.722927 0.722927
0.183169 0.183169 0.183169
0.183505 0.183505 0.183505
0.183902 0.183902 0.183902
0.184756 0.184756 0.184756
0.186221 0.186221 0.186221
0.188602 0.188602 0.188602
0.191958 0.191958 0.191958
0.198337 0.198337 0.198337
0.202640 0.202640 0.202640
0.208652 0.208652 0.208652
0.216464 0.216464 0.216464
0.226535 0.226535 0.226535
0.238987 0.238987 0.238987
0.254215 0.254215 0.254215
0.272038 0.272038 0.272038
0.293370 0.293370 0.293370
0.317449 0.317449 0.317449
0.343267 0.343267 0.343267
0.370886 0.370886 0.370886
0.400916 0.400916 0.400916
0.433509 0.433509 0.433509
0.467872 0.467872 0.467872
0.500938 0.500938 0.500938
0.531487 0.531487 0.531487
0.559899 0.559899 0.559899
0.586389 0.586389 0.586389
0.611292 0.611292 0.611292
0.634974 0.634974 0.634974
0.657923 0.657923 0.657923
0.680415 0.680415 0.680415
0.702785 0.702785 0.702785
0.725216 0.725216 0.725216
0.188998 0.188998 0.188998
0.189425 0.189425 0.189425
0.189822 0.189822 0.189822
0.190829 0.190829 0.190829
0.192538 0.192538 0.192538
0.195132 0.195132 0.195132
0.198825 0.198825 0.198825
0.203769 0.203769 0.203769
0.213931 0.213931 0.213931
0.220432 0.220432 0.220432
0.229007 0.229007 0.229007
0.239963 0.239963 0.239963
0.253361 0.253361 0.253361
0.269261 0.269261 0.269261
0.288121 0.288121 0.288121
0.309911 0.309911 0.309911
0.333684 0.333684 0.333684
0.359075 0.359075 0.359075
0.386175 0.386175 0.386175
0.415503 0.415503 0.415503
0.447272 0.447272 0.447272
0.480049 0.480049 0.480049
0.510948 0.510948 0.510948
0.539849 0.539849 0.539849
0.566979 0.566979 0.566979
0.592462 0.592462 0.592462
0.616480 0.616480 0.616480
0.639460 0.639460 0.639460
0.661891 0.661891 0.661891
0.683955 0.683955 0.683955
0.705959 0.705959 0.705959
0.728115 0.728115 0.728115
0.197574 0.197574 0.197574
0.197971 0.197971 0.197971
0.198550 0.198550 0.198550
0.199802 0.199802 0.199802
0.201785 0.201785 0.201785
0.204501 0.204501 0.204501
0.208652 0.208652 0.208652
0.214115 0.214115 0.214115
0.221103 0.221103 0.221103
0.236637 0.236637 0.236637
0.246036 0.246036 0.246036
0.257694 0.257694 0.257694
0.271916 0.271916 0.271916
0.288548 0.288548 0.288548
0.308324 0.308324 0.308324
0.329900 0.329900 0.329900
0.353246 0.353246 0.353246
0.378180 0.378180 0.378180
0.404456 0.404456 0.404456
0.433051 0.433051 0.433051
0.463661 0.463661 0.463661
0.493904 0.493904 0.493904
0.522637 0.522637 0.522637
0.549798 0.549798 0.549798
0.575463 0.575463 0.575463
0.599664 0.599664 0.599664
0.622736 0.622736 0.622736
0.644923 0.644923 0.644923
0.666682 0.666682 0.666682
0.688258 0.688258 0.688258
0.709834 0.709834 0.709834
0.731624 0.731624 0.731624
0.209659 0.209659 0.209659
0.210086 0.210086 0.210086
0.210727 0.210727 0.210727
0.212161 0.212161 0.212161
0.214450 0.214450 0.214450
0.217594 0.217594 0.217594
0.221958 0.221958 0.221958
0.228092 0.228092 0.228092
0.235935 0.235935 0.235935
0.245579 0.245579 0.245579
0.266087 0.266087 0.266087
0.279637 0.279637 0.279637
0.294652 0.294652 0.294652
0.312169 0.312169 0.312169
0.331823 0.331823 0.331823
0.353124 0.353124 0.353124
0.376135 0.376135 0.376135
0.400305 0.400305 0.400305
0.425727 0.425727 0.425727
0.453223 0.453223 0.453223
0.481575 0.481575 0.481575
0.508965 0.508965 0.508965
0.535210 0.535210 0.535210
0.560357 0.560357 0.560357
0.584436 0.584436 0.584436
0.607385 0.607385 0.607385
0.629419 0.629419 0.629419
0.650904 0.650904 0.650904
0.672084 0.672084 0.672084
0.693202 0.693202 0.693202
0.714382 0.714382 0.714382
0.735866 0.735866 0.735866
0.225864 0.225864 0.225864
0.226444 0.226444 0.226444
0.227207 0.227207 0.227207
0.228824 0.228824 0.228824
0.231510 0.231510 0.231510
0.235142 0.235142 0.235142
0.240055 0.240055 0.240055
0.246708 0.246708 0.246708
0.255222 0.255222 0.255222
0.265660 0.265660 0.265660
0.277836 0.277836 0.277836
0.302403 0.302403 0.302403
0.322118 0.322118 0.322118
0.339391 0.339391 0.339391
0.358404 0.358404 0.358404
0.379126 0.379126 0.379126
0.401129 0.401129 0.401129
0.424292 0.424292 0.424292
0.448524 0.448524 0.448524
0.474159 0.474159 0.474159
0.499641 0.499641 0.499641
0.524498 0.524498 0.524498
0.548699 0.548699 0.548699
0.572076 0.572076 0.572076
0.594568 0.594568 0.594568
0.616175 0.616175 0.616175
0.637110 0.637110 0.637110
0.657710 0.657710 0.657710
0.678157 0.678157 0.678157
0.698665 0.698665 0.698665
0.719387 0.719387 0.719387
0.740475 0.740475 0.740475
0.247532 0.247532 0.247532
0.248173 0.248173 0.248173
0.249058 0.249058 0.249058
0.250889 0.250889 0.250889
0.253941 0.253941 0.253941
0.258061 0.258061 0.258061
0.263493 0.263493 0.263493
0.270115 0.270115 0.270115
0.279210 0.279210 0.279210
0.290166 0.290166 0.290166
0.303685 0.303685 0.303685
0.318975 0.318975 0.318975
0.349920 0.349920 0.349920
0.375555 0.375555 0.375555
0.394049 0.394049 0.394049
0.413855 0.413855 0.413855
0.434852 0.434852 0.434852
0.456611 0.456611 0.456611
0.478401 0.478401 0.478401
0.500542 0.500542 0.500542
0.522637 0.522637 0.522637
0.544549 0.544549 0.544549
0.566064 0.566064 0.566064
0.587243 0.587243 0.587243
0.607782 0.607782 0.607782
0.627771 0.627771 0.627771
0.647364 0.647364 0.647364
0.666865 0.666865 0.666865
0.686366 0.686366 0.686366
0.706081 0.706081 0.706081
0.726131 0.726131 0.726131
0.746639 0.746639 0.746639
0.275792 0.275792 0.275792
0.276432 0.276432 0.276432
0.277256 0.277256 0.277256
0.279210 0.279210 0.279210
0.282383 0.282383 0.282383
0.286595 0.286595 0.286595
0.292241 0.292241 0.292241
0.299046 0.299046 0.299046
0.308659 0.308659 0.308659
0.320775 0.320775 0.320775
0.334661 0.334661 0.334661
0.350317 0.350317 0.350317
0.367773 0.367773 0.367773
0.394751 0.394751 0.394751
0.425055 0.425055 0.425055
0.443824 0.443824 0.443824
0.463233 0.463233 0.463233
0.482338 0.482338 0.482338
0.501152 0.501152 0.501152
0.520531 0.520531 0.520531
0.540215 0.540215 0.540215
0.559991 0.559991 0.559991
0.579706 0.579706 0.579706
0.599115 0.599115 0.599115
0.618219 0.618219 0.618219
0.637018 0.637018 0.637018
0.655695 0.655695 0.655695
0.674342 0.674342 0.674342
0.693172 0.693172 0.693172
0.712337 0.712337 0.712337
0.731930 0.731930 0.731930
0.752041 0.752041 0.752041
0.307530 0.307530 0.307530
0.308202 0.308202 0.308202
0.309117 0.309117 0.309117
0.311162 0.311162 0.311162
0.314336 0.314336 0.314336
0.319127 0.319127 0.319127
0.325383 0.325383 0.325383
0.332921 0.332921 0.332921
0.341894 0.341894 0.341894
0.353185 0.353185 0.353185
0.366705 0.366705 0.366705
0.381903 0.381903 0.381903
0.398444 0.398444 0.398444
0.416297 0.416297 0.416297
0.441169 0.441169 0.441169
0.474342 0.474342 0.474342
0.490761 0.490761 0.490761
0.506859 0.506859 0.506859
0.523064 0.523064 0.523064
0.540063 0.540063 0.540063
0.557641 0.557641 0.557641
0.575586 0.575586 0.575586
0.593530 0.593530 0.593530
0.611444 0.611444 0.611444
0.629206 0.629206 0.629206
0.646845 0.646845 0.646845
0.664546 0.664546 0.664546
0.682399 0.682399 0.682399
0.700587 0.700587 0.700587
0.719203 0.719203 0.719203
0.738308 0.738308 0.738308
0.758022 0.758022 0.758022
0.344640 0.344640 0.344640
0.345434 0.345434 0.345434
0.346349 0.346349 0.346349
0.348516 0.348516 0.348516
0.351843 0.351843 0.351843
0.356420 0.356420 0.356420
0.362219 0.362219 0.362219
0.369421 0.369421 0.369421
0.377996 0.377996 0.377996
0.388128 0.388128 0.388128
0.400946 0.400946 0.400946
0.415351 0.415351 0.415351
0.430945 0.430945 0.430945
0.447700 0.447700 0.447700
0.464942 0.464942 0.464942
0.485420 0.485420 0.485420
0.516625 0.516625 0.516625
0.530175 0.530175 0.530175
0.544213 0.544213 0.544213
0.559167 0.559167 0.559167
0.574792 0.574792 0.574792
0.590936 0.590936 0.590936
0.607263 0.607263 0.607263
0.623713 0.623713 0.623713
0.640253 0.640253 0.640253
0.656947 0.656947 0.656947
0.673854 0.673854 0.673854
0.691096 0.691096 0.691096
0.708736 0.708736 0.708736
0.726894 0.726894 0.726894
0.745632 0.745632 0.745632
0.764950 0.764950 0.764950
0.384741 0.384741 0.384741
0.385565 0.385565 0.385565
0.386389 0.386389 0.386389
0.388464 0.388464 0.388464
0.391699 0.391699 0.391699
0.396094 0.396094 0.396094
0.401740 0.401740 0.401740
0.408606 0.408606 0.408606
0.416785 0.416785 0.416785
0.426154 0.426154 0.426154
0.437232 0.437232 0.437232
0.450416 0.450416 0.450416
0.464393 0.464393 0.464393
0.478767 0.478767 0.478767
0.493141 0.493141 0.493141
0.507378 0.507378 0.507378
0.522759 0.522759 0.522759
0.552117 0.552117 0.552117
0.564385 0.564385 0.564385
0.577691 0.577691 0.577691
0.591730 0.591730 0.591730
0.606317 0.606317 0.606317
0.621271 0.621271 0.621271
0.636469 0.636469 0.636469
0.651942 0.651942 0.651942
0.667720 0.667720 0.667720
0.683772 0.683772 0.683772
0.700282 0.700282 0.700282
0.717311 0.717311 0.717311
0.734890 0.734890 0.734890
0.753048 0.753048 0.753048
0.771878 0.771878 0.771878
0.425544 0.425544 0.425544
0.426215 0.426215 0.426215
0.427039 0.427039 0.427039
0.428992 0.428992 0.428992
0.431983 0.431983 0.431983
0.436072 0.436072 0.436072
0.441169 0.441169 0.441169
0.447517 0.447517 0.447517
0.454932 0.454932 0.454932
0.463416 0.463416 0.463416
0.472755 0.472755 0.472755
0.483650 0.483650 0.483650
0.495308 0.495308 0.495308
0.507256 0.507256 0.507256
0.519249 0.519249 0.519249
0.531243 0.531243 0.531243
0.543206 0.543206 0.543206
0.555169 0.555169 0.555169
0.583520 0.583520 0.583520
0.595209 0.595209 0.595209
0.607782 0.607782 0.607782
0.620935 0.620935 0.620935
0.634607 0.634607 0.634607
0.648737 0.648737 0.648737
0.663264 0.663264 0.663264
0.678157 0.678157 0.678157
0.693507 0.693507 0.693507
0.709407 0.709407 0.709407
0.725856 0.725856 0.725856
0.742947 0.742947 0.742947
0.760678 0.760678 0.760678
0.779110 0.779110 0.779110
0.466316 0.466316 0.466316
0.467018 0.467018 0.467018
0.471992 0.471992 0.471992
0.473610 0.473610 0.473610
0.476112 0.476112 0.476112
0.479469 0.479469 0.479469
0.483711 0.483711 0.483711
0.488685 0.488685 0.488685
0.494697 0.494697 0.494697
0.501366 0.501366 0.501366
0.508873 0.508873 0.508873
0.516960 0.516960 0.516960
0.526360 0.526360 0.526360
0.536248 0.536248 0.536248
0.546288 0.546288 0.546288
0.556451 0.556451 0.556451
0.566766 0.566766 0.566766
0.577081 0.577081 0.577081
0.587457 0.587457 0.587457
0.613123 0.613123 0.613123
0.624475 0.624475 0.624475
0.636347 0.636347 0.636347
0.648798 0.648798 0.648798
0.661860 0.661860 0.661860
0.675257 0.675257 0.675257
0.689204 0.689204 0.689204
0.703700 0.703700 0.703700
0.718837 0.718837 0.718837
0.734646 0.734646 0.734646
0.751217 0.751217 0.751217
0.768521 0.768521 0.768521
0.786496 0.786496 0.786496
0.504601 0.504601 0.504601
0.505547 0.505547 0.505547
0.506706 0.506706 0.506706
0.508537 0.508537 0.508537
0.510918 0.510918 0.510918
0.513848 0.513848 0.513848
0.517327 0.517327 0.517327
0.521538 0.521538 0.521538
0.526482 0.526482 0.526482
0.532006 0.532006 0.532006
0.538201 0.538201 0.538201
0.544915 0.544915 0.544915
0.552514 0.552514 0.552514
0.560876 0.560876 0.560876
0.569482 0.569482 0.569482
0.578363 0.578363 0.578363
0.587335 0.587335 0.587335
0.596429 0.596429 0.596429
0.605615 0.605615 0.605615
0.614893 0.614893 0.614893
0.637354 0.637354 0.637354
0.650019 0.650019 0.650019
0.661646 0.661646 0.661646
0.673854 0.673854 0.673854
0.686549 0.686549 0.686549
0.699825 0.699825 0.699825
0.713741 0.713741 0.713741
0.728328 0.728328 0.728328
0.743648 0.743648 0.743648
0.759762 0.759762 0.759762
0.776577 0.776577 0.776577
0.794156 0.794156 0.794156
0.537621 0.537621 0.537621
0.538415 0.538415 0.538415
0.539391 0.539391 0.539391
0.540887 0.540887 0.540887
0.542870 0.542870 0.542870
0.545312 0.545312 0.545312
0.548241 0.548241 0.548241
0.551751 0.551751 0.551751
0.555871 0.555871 0.555871
0.560540 0.560540 0.560540
0.565789 0.565789 0.565789
0.571588 0.571588 0.571588
0.577661 0.577661 0.577661
0.584741 0.584741 0.584741
0.592187 0.592187 0.592187
0.599817 0.599817 0.599817
0.607660 0.607660 0.607660
0.615686 0.615686 0.615686
0.623835 0.623835 0.623835
0.632197 0.632197 0.632197
0.640650 0.640650 0.640650
0.660487 0.660487 0.660487
0.674281 0.674281 0.674281
0.685756 0.685756 0.685756
0.697810 0.697810 0.697810
0.710445 0.710445 0.710445
0.723781 0.723781 0.723781
0.737850 0.737850 0.737850
0.752712 0.752712 0.752712
0.768368 0.768368 0.768368
0.784756 0.784756 0.784756
0.801938 0.801938 0.801938
0.567895 0.567895 0.567895
0.568536 0.568536 0.568536
0.569390 0.569390 0.569390
0.570703 0.570703 0.570703
0.572351 0.572351 0.572351
0.574395 0.574395 0.574395
0.576837 0.576837 0.576837
0.579797 0.579797 0.579797
0.583246 0.583246 0.583246
0.587243 0.587243 0.587243
0.591669 0.591669 0.591669
0.596551 0.596551 0.596551
0.601740 0.601740 0.601740
0.607385 0.607385 0.607385
0.613916 0.613916 0.613916
0.620691 0.620691 0.620691
0.627741 0.627741 0.627741
0.635004 0.635004 0.635004
0.642512 0.642512 0.642512
0.650202 0.650202 0.650202
0.658045 0.658045 0.658045
0.666011 0.666011 0.666011
0.683680 0.683680 0.683680
0.698604 0.698604 0.698604
0.710109 0.710109 0.710109
0.722286 0.722286 0.722286
0.735134 0.735134 0.735134
0.748745 0.748745 0.748745
0.763149 0.763149 0.763149
0.778347 0.778347 0.778347
0.794278 0.794278 0.794278
0.811032 0.811032 0.811032
0.597162 0.597162 0.597162
0.597589 0.597589 0.597589
0.598077 0.598077 0.598077
0.598962 0.598962 0.598962
0.600244 0.600244 0.600244
0.601923 0.601923 0.601923
0.603998 0.603998 0.603998
0.606500 0.606500 0.606500
0.609491 0.609491 0.609491
0.612940 0.612940 0.612940
0.616846 0.616846 0.616846
0.621057 0.621057 0.621057
0.625574 0.625574 0.625574
0.630396 0.630396 0.630396
0.635798 0.635798 0.635798
0.641749 0.641749 0.641749
0.647974 0.647974 0.647974
0.654475 0.654475 0.654475
0.661158 0.661158 0.661158
0.668055 0.668055 0.668055
0.675166 0.675166 0.675166
0.682368 0.682368 0.682368
0.689723 0.689723 0.689723
0.705348 0.705348 0.705348
0.721187 0.721187 0.721187
0.732876 0.732876 0.732876
0.745296 0.745296 0.745296
0.758480 0.758480 0.758480
0.772457 0.772457 0.772457
0.787228 0.787228 0.787228
0.802823 0.802823 0.802823
0.819303 0.819303 0.819303
0.622919 0.622919 0.622919
0.623316 0.623316 0.623316
0.623743 0.623743 0.623743
0.624506 0.624506 0.624506
0.625635 0.625635 0.625635
0.627008 0.627008 0.627008
0.628809 0.628809 0.628809
0.630915 0.630915 0.630915
0.633509 0.633509 0.633509
0.636439 0.636439 0.636439
0.639796 0.639796 0.639796
0.643519 0.643519 0.643519
0.647486 0.647486 0.647486
0.651789 0.651789 0.651789
0.656336 0.656336 0.656336
0.661616 0.661616 0.661616
0.667262 0.667262 0.667262
0.673152 0.673152 0.673152
0.679316 0.679316 0.679316
0.685664 0.685664 0.685664
0.692226 0.692226 0.692226
0.698970 0.698970 0.698970
0.705928 0.705928 0.705928
0.712947 0.712947 0.712947
0.726223 0.726223 0.726223
0.743130 0.743130 0.743130
0.755154 0.755154 0.755154
0.767941 0.767941 0.767941
0.781552 0.781552 0.781552
0.796017 0.796017 0.796017
0.811307 0.811307 0.811307
0.827573 0.827573 0.827573
0.648188 0.648188 0.648188
0.648524 0.648524 0.648524
0.648890 0.648890 0.648890
0.649500 0.649500 0.649500
0.650416 0.650416 0.650416
0.651575 0.651575 0.651575
0.653071 0.653071 0.653071
0.654841 0.654841 0.654841
0.656977 0.656977 0.656977
0.659480 0.659480 0.659480
0.662287 0.662287 0.662287
0.665492 0.665492 0.665492
0.668971 0.668971 0.668971
0.672724 0.672724 0.672724
0.676692 0.676692 0.676692
0.681056 0.681056 0.681056
0.686061 0.686061 0.686061
0.691371 0.691371 0.691371
0.697017 0.697017 0.697017
0.702907 0.702907 0.702907
0.709041 0.709041 0.709041
0.715389 0.715389 0.715389
0.721859 0.721859 0.721859
0.728420 0.728420 0.728420
0.735073 0.735073 0.735073
0.747402 0.747402 0.747402
0.765347 0.765347 0.765347
0.777737 0.777737 0.777737
0.790982 0.790982 0.790982
0.805051 0.805051 0.805051
0.820066 0.820066 0.820066
0.836027 0.836027 0.836027
0.671138 0.671138 0.671138
0.671443 0.671443 0.671443
0.671778 0.671778 0.671778
0.672328 0.672328 0.672328
0.673121 0.673121 0.673121
0.674189 0.674189 0.674189
0.675532 0.675532 0.675532
0.677150 0.677150 0.677150
0.679103 0.679103 0.679103
0.681361 0.681361 0.681361
0.683955 0.683955 0.683955
0.686854 0.686854 0.686854
0.690089 0.690089 0.690089
0.693507 0.693507 0.693507
0.697200 0.697200 0.697200
0.701106 0.701106 0.701106
0.705531 0.705531 0.705531
0.710445 0.710445 0.710445
0.715663 0.715663 0.715663
0.721157 0.721157 0.721157
0.726925 0.726925 0.726925
0.732876 0.732876 0.732876
0.738949 0.738949 0.738949
0.745205 0.745205 0.745205
0.751553 0.751553 0.751553
0.758022 0.758022 0.758022
0.768948 0.768948 0.768948
0.787930 0.787930 0.787930
0.800870 0.800870 0.800870
0.814633 0.814633 0.814633
0.829313 0.829313 0.829313
0.844968 0.844968 0.844968
0.693782 0.693782 0.693782
0.694057 0.694057 0.694057
0.694270 0.694270 0.694270
0.694759 0.694759 0.694759
0.695430 0.695430 0.695430
0.696376 0.696376 0.696376
0.697536 0.697536 0.697536
0.698970 0.698970 0.698970
0.700771 0.700771 0.700771
0.702815 0.702815 0.702815
0.705196 0.705196 0.705196
0.707881 0.707881 0.707881
0.710811 0.710811 0.710811
0.714015 0.714015 0.714015
0.717433 0.717433 0.717433
0.721035 0.721035 0.721035
0.724910 0.724910 0.724910
0.729427 0.729427 0.729427
0.734279 0.734279 0.734279
0.739467 0.739467 0.739467
0.744869 0.744869 0.744869
0.750484 0.750484 0.750484
0.756252 0.756252 0.756252
0.762203 0.762203 0.762203
0.768246 0.768246 0.768246
0.774441 0.774441 0.774441
0.780789 0.780789 0.780789
0.790677 0.790677 0.790677
0.810269 0.810269 0.810269
0.823728 0.823728 0.823728
0.838102 0.838102 0.838102
0.853422 0.853422 0.853422
0.715846 0.715846 0.715846
0.716030 0.716030 0.716030
0.716274 0.716274 0.716274
0.716732 0.716732 0.716732
0.717372 0.717372 0.717372
0.718318 0.718318 0.718318
0.719539 0.719539 0.719539
0.721065 0.721065 0.721065
0.722896 0.722896 0.722896
0.725032 0.725032 0.725032
0.727413 0.727413 0.727413
0.730098 0.730098 0.730098
0.732998 0.732998 0.732998
0.736080 0.736080 0.736080
0.739345 0.739345 0.739345
0.742763 0.742763 0.742763
0.746426 0.746426 0.746426
0.750393 0.750393 0.750393
0.755001 0.755001 0.755001
0.759823 0.759823 0.759823
0.764889 0.764889 0.764889
0.770230 0.770230 0.770230
0.775692 0.775692 0.775692
0.781308 0.781308 0.781308
0.787106 0.787106 0.787106
0.792996 0.792996 0.792996
0.799039 0.799039 0.799039
0.805234 0.805234 0.805234
0.814115 0.814115 0.814115
0.833158 0.833158 0.833158
0.848020 0.848020 0.848020
0.862882 0.862882 0.862882
0.739132 0.739132 0.739132
0.739315 0.739315 0.739315
0.739467 0.739467 0.739467
0.739864 0.739864 0.739864
0.740444 0.740444 0.740444
0.741238 0.741238 0.741238
0.742306 0.742306 0.742306
0.743618 0.743618 0.743618
0.745205 0.745205 0.745205
0.747097 0.747097 0.747097
0.749172 0.749172 0.749172
0.751553 0.751553 0.751553
0.754147 0.754147 0.754147
0.756954 0.756954 0.756954
