cubelut/BW4.cube
# Created by Adobe Lightroom plugin Export LUT (1.18.0)
# www.johnrellis.com/lightroom/exportlut.htm
# Preset: MoodyBW3
# Color profile: /Library/Application Support/Adobe/Color/Profiles/Recommended/AdobeRGB1998.icc
LUT_3D_SIZE 5
DOMAIN_MIN 0.000000 0.000000 0.000000
DOMAIN_MAX 0.903226 0.903226 0.903226
0.173526 0.173526 0.173526
0.179751 0.179751 0.179751
0.236027 0.236027 0.236027
0.432319 0.432319 0.432319
0.644282 0.644282 0.644282
0.188998 0.188998 0.188998
0.203769 0.203769 0.203769
0.288121 0.288121 0.288121
0.480049 0.480049 0.480049
0.661891 0.661891 0.661891
0.344640 0.344640 0.344640
0.369421 0.369421 0.369421
0.464942 0.464942 0.464942
0.590936 0.590936 0.590936
0.708736 0.708736 0.708736
0.597162 0.597162 0.597162
0.606500 0.606500 0.606500
0.635798 0.635798 0.635798
0.682368 0.682368 0.682368
0.772457 0.772457 0.772457
0.761318 0.761318 0.761318
0.765591 0.765591 0.765591
0.779599 0.779599 0.779599
0.807401 0.807401 0.807401
0.845640 0.845640 0.845640
0.174990 0.174990 0.174990
0.181796 0.181796 0.181796
0.254643 0.254643 0.254643
0.452186 0.452186 0.452186
0.647425 0.647425 0.647425
0.187778 0.187778 0.187778
0.211521 0.211521 0.211521
0.307286 0.307286 0.307286
0.493660 0.493660 0.493660
0.663294 0.663294 0.663294
0.352453 0.352453 0.352453
0.385931 0.385931 0.385931
0.470069 0.470069 0.470069
0.593256 0.593256 0.593256
0.710384 0.710384 0.710384
0.602380 0.602380 0.602380
0.611933 0.611933 0.611933
0.639368 0.639368 0.639368
0.684230 0.684230 0.684230
0.773648 0.773648 0.773648
0.762722 0.762722 0.762722
0.766964 0.766964 0.766964
0.782223 0.782223 0.782223
0.809079 0.809079 0.809079
0.847074 0.847074 0.847074
0.184665 0.184665 0.184665
0.195621 0.195621 0.195621
0.262669 0.262669 0.262669
0.476570 0.476570 0.476570
0.656001 0.656001 0.656001
0.215000 0.215000 0.215000
0.240665 0.240665 0.240665
0.322759 0.322759 0.322759
0.516289 0.516289 0.516289
0.669703 0.669703 0.669703
0.326452 0.326452 0.326452
0.371466 0.371466 0.371466
0.499794 0.499794 0.499794
0.604822 0.604822 0.604822
0.713313 0.713313 0.713313
0.601434 0.601434 0.601434
0.614679 0.614679 0.614679
0.649775 0.649775 0.649775
0.691188 0.691188 0.691188
0.776852 0.776852 0.776852
0.762570 0.762570 0.762570
0.768521 0.768521 0.768521
0.785275 0.785275 0.785275
0.811307 0.811307 0.811307
0.849638 0.849638 0.849638
0.225956 0.225956 0.225956
0.245212 0.245212 0.245212
0.323186 0.323186 0.323186
0.484840 0.484840 0.484840
0.671809 0.671809 0.671809
0.289860 0.289860 0.289860
0.310765 0.310765 0.310765
0.386786 0.386786 0.386786
0.524712 0.524712 0.524712
0.683314 0.683314 0.683314
0.392798 0.392798 0.392798
0.433875 0.433875 0.433875
0.544305 0.544305 0.544305
0.614069 0.614069 0.614069
0.719234 0.719234 0.719234
0.577966 0.577966 0.577966
0.594690 0.594690 0.594690
0.642573 0.642573 0.642573
0.704707 0.704707 0.704707
0.778012 0.778012 0.778012
0.761624 0.761624 0.761624
0.767208 0.767208 0.767208
0.786069 0.786069 0.786069
0.816648 0.816648 0.816648
0.855894 0.855894 0.855894
0.399512 0.399512 0.399512
0.426154 0.426154 0.426154
0.505882 0.505882 0.505882
0.595636 0.595636 0.595636
0.686824 0.686824 0.686824
0.467506 0.467506 0.467506
0.488197 0.488197 0.488197
0.546532 0.546532 0.546532
0.618463 0.618463 0.618463
0.699519 0.699519 0.699519
0.559289 0.559289 0.559289
0.588006 0.588006 0.588006
0.628626 0.628626 0.628626
0.673610 0.673610 0.673610
0.735500 0.735500 0.735500
0.651759 0.651759 0.651759
0.660761 0.660761 0.660761
0.686641 0.686641 0.686641
0.742428 0.742428 0.742428
0.792447 0.792447 0.792447
0.757321 0.757321 0.757321
0.762966 0.762966 0.762966
0.781460 0.781460 0.781460
0.816953 0.816953 0.816953
0.875273 0.875273 0.875273
