cubelut/BW5.cube
# Created by Adobe Lightroom plugin Export LUT (1.18.0)
# www.johnrellis.com/lightroom/exportlut.htm
# Preset: MoodyBW4
# Color profile: /Library/Application Support/Adobe/Color/Profiles/Recommended/AdobeRGB1998.icc
LUT_3D_SIZE 32
DOMAIN_MIN 0.0 0.0 0.0
DOMAIN_MAX 1.0 1.0 1.0
0.000000 0.000000 0.000000
0.002869 0.001709 0.004120
0.006561 0.005615 0.009094
0.015045 0.011994 0.021332
0.027802 0.021088 0.036500
0.041321 0.031128 0.052003
0.054383 0.044343 0.062318
0.064210 0.056947 0.070466
0.072480 0.066011 0.078676
0.082490 0.074586 0.088441
0.095460 0.086061 0.100404
0.111391 0.100008 0.114839
0.130861 0.117586 0.131472
0.154635 0.139101 0.151431
0.183108 0.163912 0.174777
0.215335 0.192172 0.201022
0.251194 0.223819 0.230228
0.290166 0.258885 0.262272
0.332586 0.297856 0.297490
0.377722 0.340520 0.335729
0.425177 0.386816 0.377325
0.473610 0.435798 0.422004
0.521508 0.486488 0.469764
0.567376 0.536980 0.519188
0.609949 0.585595 0.568200
0.649470 0.632166 0.616480
0.686366 0.676722 0.663752
0.720668 0.718685 0.709407
0.751827 0.756588 0.751888
0.780392 0.790585 0.790890
0.806882 0.820615 0.826017
0.831449 0.847013 0.856901
0.003845 0.002686 0.005097
0.007721 0.005402 0.010163
0.009461 0.007355 0.013214
0.017151 0.012757 0.023407
0.028565 0.022065 0.038575
0.042298 0.032105 0.052766
0.055970 0.045106 0.063142
0.064607 0.057679 0.070802
0.072786 0.066377 0.078981
0.083040 0.075227 0.088960
0.095918 0.086275 0.101076
0.111727 0.100710 0.115206
0.131350 0.118105 0.131960
0.155337 0.139651 0.151949
0.183658 0.164492 0.175204
0.215885 0.192782 0.201511
0.251560 0.224247 0.230625
0.290562 0.259220 0.262608
0.332586 0.297856 0.297490
0.377386 0.340246 0.335454
0.424506 0.386175 0.376745
0.472908 0.435096 0.421363
0.520653 0.485573 0.468879
0.566644 0.536156 0.518364
0.609216 0.584710 0.567285
0.648890 0.631434 0.615656
0.685817 0.676051 0.663020
0.720150 0.718074 0.708766
0.751431 0.756130 0.751369
0.780056 0.790188 0.790463
0.806577 0.820249 0.825620
0.831144 0.846677 0.856535
0.009461 0.007355 0.013214
0.012543 0.009064 0.016236
0.017151 0.012757 0.023407
0.022980 0.017395 0.030426
0.030304 0.024018 0.041596
0.044038 0.034058 0.055024
0.056428 0.047181 0.063935
0.065339 0.058900 0.071443
0.073793 0.066987 0.079896
0.083925 0.075776 0.089723
0.096620 0.087037 0.101717
0.112551 0.101320 0.115969
0.132296 0.119203 0.132906
0.156435 0.140475 0.152895
0.184665 0.165438 0.176089
0.216922 0.193637 0.202335
0.252659 0.225223 0.231418
0.291539 0.260105 0.263371
0.333349 0.298558 0.298192
0.377905 0.340734 0.335912
0.424964 0.386633 0.377142
0.473243 0.435462 0.421698
0.520867 0.485786 0.469123
0.566644 0.536156 0.518364
0.609247 0.584771 0.567346
0.648798 0.631403 0.615625
0.685756 0.676020 0.662959
0.720119 0.718013 0.708705
0.751369 0.756069 0.751308
0.780056 0.790127 0.790372
0.806516 0.820218 0.825559
0.831113 0.846677 0.856535
0.022004 0.016419 0.029450
0.023743 0.018372 0.032502
0.027588 0.021088 0.037598
0.040192 0.031373 0.051209
0.049287 0.038727 0.059083
0.048554 0.037751 0.058717
0.059480 0.049958 0.065797
0.067140 0.060365 0.073060
0.075471 0.068299 0.081331
0.085481 0.077577 0.091493
0.098451 0.088808 0.103456
0.114687 0.103426 0.117769
0.134585 0.121218 0.134768
0.158846 0.142702 0.155001
0.187228 0.167605 0.178073
0.219516 0.195773 0.204379
0.255192 0.227420 0.233463
0.293980 0.262303 0.265446
0.335393 0.300450 0.299870
0.379675 0.342351 0.337377
0.426184 0.387823 0.378241
0.474128 0.436347 0.422553
0.521660 0.486702 0.469917
0.567285 0.536919 0.519097
0.609949 0.585595 0.568200
0.649592 0.632288 0.616602
0.686488 0.676905 0.663935
0.720851 0.718898 0.709651
0.751980 0.756802 0.752132
0.780484 0.790677 0.791012
0.806851 0.820554 0.825986
0.831357 0.846891 0.856809
0.038239 0.029419 0.049744
0.041321 0.031128 0.052003
0.044251 0.034058 0.054231
0.052186 0.041413 0.061128
0.063813 0.056214 0.070130
0.069520 0.063111 0.075654
0.066651 0.060456 0.073060
0.069520 0.063111 0.075654
0.077821 0.070680 0.083864
0.088533 0.079744 0.093935
0.101656 0.091646 0.106172
0.118135 0.106386 0.120638
0.138430 0.124514 0.137942
0.162783 0.146242 0.158175
0.191104 0.171084 0.181430
0.223667 0.199527 0.207767
0.259190 0.231022 0.236820
0.298283 0.266209 0.268894
0.339391 0.304234 0.303258
0.383185 0.345830 0.340459
0.429358 0.390967 0.381079
0.476875 0.439216 0.425177
0.523980 0.489143 0.472297
0.569329 0.539178 0.521355
0.611597 0.587488 0.570123
0.650935 0.633906 0.618280
0.687648 0.678309 0.665461
0.721706 0.719966 0.710872
0.752712 0.757656 0.753109
0.781094 0.791348 0.791806
0.807340 0.821134 0.826627
0.831785 0.847349 0.857298
0.055695 0.046296 0.063539
0.058015 0.047730 0.064729
0.059480 0.049958 0.065797
0.062287 0.054170 0.068299
0.069184 0.062715 0.075349
0.079866 0.072511 0.086061
0.090486 0.081636 0.096101
0.086030 0.077790 0.091981
0.083314 0.075563 0.089204
0.092561 0.083528 0.097688
0.105959 0.095521 0.110231
0.123079 0.110780 0.124941
0.143587 0.129305 0.142336
0.168399 0.151095 0.162753
0.196933 0.176211 0.186038
0.229435 0.204593 0.212589
0.265385 0.236515 0.241917
0.304204 0.271611 0.273808
0.344976 0.309422 0.307897
0.388464 0.350958 0.345037
0.434394 0.396063 0.385657
0.481575 0.444099 0.429694
0.536095 0.502312 0.485054
0.580224 0.551446 0.533623
0.621088 0.598566 0.581537
0.659144 0.643763 0.628626
0.694789 0.686976 0.674800
0.727626 0.727169 0.718837
0.757565 0.763546 0.759792
0.785183 0.796109 0.797330
0.810758 0.824857 0.831022
0.834592 0.850248 0.860685
0.067414 0.060761 0.073732
0.068544 0.061952 0.074342
0.069581 0.062623 0.075685
0.071839 0.065309 0.078096
0.076295 0.069368 0.082460
0.087190 0.078614 0.092744
0.102327 0.092073 0.106813
0.121462 0.109255 0.123598
0.114870 0.103639 0.117952
0.111147 0.100069 0.114626
0.112551 0.101320 0.115969
0.130007 0.117128 0.130831
0.151308 0.136049 0.148775
0.176516 0.158206 0.169406
0.205539 0.183688 0.193118
0.238010 0.212222 0.219455
0.274388 0.244572 0.249210
0.313054 0.279759 0.281193
0.353948 0.317906 0.315526
0.397467 0.359655 0.352911
0.443519 0.405158 0.393927
0.490730 0.453651 0.438605
0.537285 0.503624 0.486336
0.581659 0.553094 0.535271
0.622827 0.600610 0.583612
0.660914 0.645869 0.630884
0.696376 0.688930 0.676905
0.728969 0.728847 0.720699
0.758694 0.764889 0.761288
0.786069 0.797116 0.798550
0.811490 0.825650 0.831968
0.835172 0.850919 0.861418
0.078645 0.071626 0.084993
0.079591 0.072175 0.085786
0.080781 0.073060 0.086854
0.083314 0.075563 0.089204
0.087709 0.079194 0.093202
0.096437 0.086793 0.101289
0.111360 0.100282 0.114839
0.131838 0.118654 0.132448
0.163851 0.147036 0.158938
0.155734 0.140078 0.152346
0.150729 0.135622 0.148196
0.147585 0.132815 0.145571
0.159548 0.143252 0.155367
0.185122 0.165774 0.176425
0.214328 0.191318 0.200168
0.247349 0.220432 0.227085
0.283299 0.252628 0.256535
0.321416 0.287419 0.288151
0.361730 0.325261 0.322057
0.404700 0.366674 0.359197
0.449989 0.411719 0.399939
0.496407 0.459632 0.444221
0.542107 0.508934 0.491524
0.585595 0.557580 0.539788
0.625971 0.604303 0.587427
0.663508 0.649073 0.634241
0.698512 0.691554 0.679774
0.730709 0.730983 0.723079
0.760159 0.766629 0.763302
0.787320 0.798550 0.800168
0.812558 0.826810 0.833310
0.836057 0.851804 0.862486
0.093751 0.084565 0.099062
0.094667 0.085603 0.099947
0.096223 0.086519 0.101045
0.098665 0.089052 0.103670
0.103182 0.093050 0.107607
0.109560 0.098543 0.113130
0.124117 0.111910 0.125948
0.144839 0.130190 0.143160
0.171847 0.154147 0.165530
0.220035 0.196384 0.204837
0.211093 0.188479 0.197604
0.204471 0.182650 0.192233
0.200351 0.179019 0.188815
0.197665 0.176699 0.186679
0.225437 0.201083 0.209201
0.258305 0.230167 0.236057
0.293797 0.262181 0.265232
0.331548 0.296880 0.296605
0.371252 0.334325 0.330144
0.413703 0.375525 0.367102
0.458198 0.420020 0.407507
0.503593 0.467262 0.451392
0.548241 0.515679 0.498146
0.590631 0.563287 0.545556
0.630213 0.609277 0.592584
0.666987 0.653285 0.638697
0.701503 0.695247 0.683742
0.733150 0.733913 0.726345
0.762142 0.769009 0.766018
0.788907 0.800412 0.802365
0.813901 0.828305 0.835050
0.837247 0.853025 0.863859
0.113375 0.101900 0.116518
0.114351 0.102724 0.117433
0.115724 0.103944 0.118502
0.118471 0.106783 0.121187
0.123476 0.110903 0.125124
0.130007 0.117128 0.130831
0.141024 0.126925 0.140139
0.162112 0.145724 0.157656
0.189212 0.169284 0.179690
0.222202 0.198215 0.206668
0.285161 0.254276 0.258152
0.277226 0.247166 0.251591
0.270359 0.240909 0.245945
0.265537 0.236576 0.242008
0.262242 0.233707 0.239261
0.270634 0.241215 0.246159
0.305943 0.273136 0.275212
0.343359 0.307927 0.306615
0.382635 0.345251 0.339971
0.424323 0.385992 0.376593
0.467811 0.429908 0.416541
0.511833 0.476112 0.459785
0.555138 0.523308 0.505608
0.596155 0.569696 0.551965
0.634668 0.614588 0.598077
0.670771 0.657801 0.643519
0.704616 0.699031 0.687892
0.735744 0.737087 0.729915
0.764401 0.771695 0.769100
0.790921 0.802670 0.805020
0.815640 0.830198 0.837278
0.838804 0.854612 0.865721
0.137789 0.124025 0.137331
0.138888 0.125002 0.138216
0.140261 0.126314 0.139559
0.143587 0.129305 0.142336
0.148745 0.133852 0.146548
0.156008 0.140200 0.152651
0.165652 0.148623 0.160433
0.183963 0.164858 0.175540
0.211093 0.188479 0.197604
0.243687 0.217105 0.224063
0.281865 0.251286 0.255436
0.349065 0.313268 0.311345
0.353033 0.317052 0.314763
0.345617 0.309972 0.308385
0.339666 0.304479 0.303502
0.335515 0.300542 0.299931
0.332189 0.297520 0.297185
0.355993 0.319829 0.317266
0.394659 0.356909 0.350378
0.435554 0.397162 0.386725
0.478096 0.440467 0.426337
0.520867 0.485786 0.469123
0.563012 0.532097 0.514366
0.602838 0.577325 0.559777
0.640284 0.621241 0.605005
0.675471 0.663508 0.649622
0.708553 0.703822 0.693111
0.739010 0.741054 0.734340
0.767056 0.774838 0.772763
0.793118 0.805203 0.807950
0.817563 0.832273 0.839719
0.840452 0.856321 0.867643
0.168399 0.151095 0.162753
0.169497 0.152132 0.163729
0.171237 0.153628 0.165042
0.174594 0.156649 0.167910
0.180270 0.161440 0.172396
0.187900 0.168154 0.178622
0.197787 0.176822 0.186770
0.210300 0.187900 0.197024
0.237247 0.211551 0.218967
0.269780 0.240391 0.245487
0.307195 0.274357 0.276310
0.349065 0.313268 0.311345
0.422766 0.384436 0.375158
0.439033 0.400641 0.389868
0.431189 0.392828 0.382727
0.424659 0.386389 0.376928
0.419440 0.381170 0.372229
0.415320 0.377081 0.368566
0.413703 0.375525 0.367102
0.453712 0.415442 0.403326
0.494728 0.457862 0.442573
0.535851 0.502098 0.484840
0.575860 0.546563 0.528710
0.613794 0.590082 0.572778
0.649592 0.632288 0.616602
0.683436 0.673152 0.659907
0.715206 0.712001 0.702083
0.744503 0.747768 0.741909
0.771633 0.780270 0.779019
0.796994 0.809598 0.813077
0.820829 0.835782 0.843809
0.843198 0.859129 0.870878
0.205966 0.183993 0.193301
0.207126 0.185000 0.194400
0.208743 0.186496 0.195773
0.212345 0.189548 0.198550
0.218021 0.194583 0.203281
0.225772 0.201358 0.209567
0.236088 0.210513 0.217960
0.248783 0.221653 0.228214
0.268925 0.239658 0.244755
0.300786 0.268437 0.271031
0.337591 0.302495 0.301671
0.378576 0.341375 0.336461
0.422766 0.384436 0.375158
0.486519 0.449256 0.434516
0.513115 0.477455 0.461097
0.506157 0.470008 0.454017
0.499916 0.463325 0.447700
0.494575 0.457679 0.442390
0.490852 0.453742 0.438727
0.489723 0.452613 0.437659
0.506065 0.469917 0.453925
0.545739 0.512963 0.495491
0.584314 0.556146 0.538323
0.620996 0.598444 0.581353
0.655665 0.639582 0.624201
0.688594 0.679469 0.666651
0.719539 0.717342 0.707942
0.748104 0.752132 0.746822
0.774716 0.783871 0.783169
0.799619 0.812558 0.816556
0.823087 0.838193 0.846647
0.845212 0.861173 0.873198
0.248020 0.221073 0.227756
0.249393 0.222202 0.228794
0.251011 0.223758 0.230167
0.254704 0.227024 0.233158
0.260288 0.232029 0.237736
0.268132 0.238987 0.244175
0.278172 0.248020 0.252384
0.290562 0.259220 0.262608
0.305303 0.272618 0.274784
0.333196 0.298375 0.298009
0.368414 0.331640 0.327794
0.407294 0.369207 0.361425
0.448493 0.410163 0.398474
0.490669 0.453559 0.438544
0.545251 0.512352 0.494911
0.578820 0.549920 0.532067
0.572473 0.542687 0.524865
0.566888 0.536431 0.518639
0.562554 0.531579 0.513817
0.560845 0.529686 0.511925
0.561364 0.530297 0.512505
0.564355 0.533562 0.515801
0.593591 0.566674 0.548974
0.628962 0.607813 0.591058
0.662470 0.647791 0.632898
0.694484 0.686671 0.674434
0.724453 0.723323 0.714595
0.752285 0.757137 0.752529
0.778256 0.788052 0.787991
0.802670 0.815946 0.820554
0.825772 0.841032 0.849973
0.847562 0.863584 0.875914
0.294560 0.262852 0.265934
0.295872 0.263951 0.266911
0.297337 0.265293 0.268132
0.300847 0.268589 0.271092
0.306462 0.273655 0.275731
0.313939 0.280552 0.281926
0.323674 0.289525 0.290013
0.335515 0.300542 0.299931
0.349615 0.313817 0.311833
0.368017 0.331304 0.327459
0.401404 0.363500 0.356298
0.437812 0.399451 0.388769
0.476112 0.438392 0.424414
0.514702 0.479133 0.462715
0.552361 0.520256 0.502617
0.596918 0.570489 0.552819
0.633600 0.613275 0.596735
0.628199 0.606928 0.590173
0.624109 0.602136 0.585199
0.622034 0.599664 0.582635
0.622126 0.599786 0.582757
0.624079 0.602045 0.585107
0.627924 0.606561 0.589776
0.637293 0.617639 0.601251
0.669734 0.656519 0.642145
0.700801 0.694362 0.682765
0.729854 0.729885 0.721889
0.756985 0.762814 0.758999
0.782406 0.792874 0.793576
0.806424 0.820096 0.825437
0.829129 0.844572 0.854093
0.850584 0.866606 0.879332
0.343786 0.308324 0.306950
0.345068 0.309545 0.308019
0.346593 0.310979 0.309300
0.350042 0.314183 0.312169
0.355383 0.319249 0.316716
0.362768 0.326299 0.322972
0.372107 0.335149 0.330938
0.383459 0.346075 0.340734
0.397009 0.359197 0.352422
0.412390 0.374212 0.365972
0.436652 0.398291 0.387701
0.470130 0.432227 0.418708
0.504570 0.468299 0.452399
0.539300 0.505821 0.488502
0.573114 0.543420 0.525597
0.605127 0.579980 0.562432
0.640497 0.621454 0.605249
0.679561 0.668482 0.654871
0.675807 0.663874 0.649989
0.673915 0.661585 0.647547
0.673793 0.661463 0.647425
0.675380 0.663416 0.649500
0.678553 0.667231 0.653559
0.683131 0.672816 0.659510
0.689113 0.680110 0.667353
0.707942 0.703090 0.692287
0.735958 0.737362 0.730190
0.762203 0.769070 0.766110
0.786954 0.798123 0.799680
0.810330 0.824399 0.830472
0.832547 0.848142 0.858213
0.853544 0.869535 0.882628
0.394324 0.356634 0.350134
0.395422 0.357580 0.351049
0.396765 0.358953 0.352300
0.400031 0.362158 0.355138
0.405097 0.367041 0.359533
0.411994 0.373877 0.365667
0.420691 0.382391 0.373297
0.431128 0.392737 0.382666
0.443519 0.405158 0.393927
0.457618 0.419379 0.406897
0.473243 0.435462 0.421698
0.501671 0.465248 0.449500
0.532860 0.498817 0.481636
0.563928 0.533135 0.515343
0.594110 0.567315 0.549584
0.622766 0.600549 0.583551
0.650080 0.632868 0.617182
0.678706 0.667445 0.653773
0.719356 0.717098 0.707668
0.717617 0.714931 0.705287
0.717403 0.714687 0.705043
0.718654 0.716243 0.706722
0.721187 0.719326 0.710140
0.725154 0.724147 0.715480
0.730159 0.730282 0.722316
0.736324 0.737789 0.730678
0.743587 0.746639 0.740658
0.767361 0.775235 0.773159
0.791440 0.803281 0.805722
0.814359 0.828763 0.835599
0.836057 0.851804 0.862486
0.856718 0.872709 0.886168
0.445075 0.406683 0.395331
0.446143 0.407782 0.396338
0.452186 0.413886 0.401923
0.455177 0.416938 0.404639
0.459632 0.421454 0.408820
0.465736 0.427710 0.414588
0.473426 0.435615 0.421851
0.482612 0.445167 0.430671
0.493568 0.456611 0.441413
0.505852 0.469673 0.453681
0.519493 0.484291 0.467628
0.536828 0.503136 0.485878
0.564416 0.533654 0.515862
0.591730 0.564599 0.546868
0.618402 0.595453 0.578271
0.643977 0.625635 0.609583
0.668666 0.655268 0.640803
0.692134 0.683772 0.671321
0.714931 0.711666 0.701717
0.755001 0.760433 0.756252
0.754726 0.760098 0.755886
0.755642 0.761227 0.757168
0.757778 0.763760 0.760037
0.761044 0.767666 0.764553
0.765194 0.772641 0.770230
0.770382 0.778836 0.777340
0.776577 0.786099 0.785733
0.783810 0.794522 0.795499
0.796170 0.808652 0.812009
0.818509 0.833280 0.840879
0.839750 0.855619 0.866850
0.860014 0.875944 0.889708
0.496468 0.459693 0.444282
0.497963 0.461280 0.445777
0.499702 0.463081 0.447456
0.502861 0.466499 0.450690
0.507286 0.471199 0.455177
0.512932 0.477302 0.460945
0.519799 0.484627 0.467994
0.527886 0.493416 0.476417
0.537591 0.503960 0.486671
0.548272 0.515740 0.498177
0.560143 0.528923 0.511192
0.572930 0.543206 0.525383
0.592615 0.565606 0.547814
0.616693 0.593439 0.576226
0.640467 0.621454 0.605219
0.663569 0.649104 0.634272
0.685908 0.676204 0.663172
0.707393 0.702419 0.691585
0.727535 0.727108 0.718746
0.746456 0.750149 0.744594
0.783658 0.794339 0.795285
0.785733 0.796719 0.798032
0.787655 0.798978 0.800687
0.790555 0.802304 0.804562
0.794339 0.806577 0.809567
0.799039 0.811856 0.815763
0.804623 0.818082 0.823087
0.811124 0.825284 0.831510
0.818570 0.833341 0.840970
0.826810 0.842130 0.851255
0.843687 0.859648 0.871458
0.863523 0.879362 0.893431
0.544366 0.511437 0.493965
0.545739 0.512963 0.495491
0.547356 0.514733 0.497200
0.550011 0.517662 0.500084
0.553826 0.521904 0.504234
0.558770 0.527337 0.509636
0.564691 0.533959 0.516167
0.571649 0.541802 0.523980
0.579797 0.551019 0.533165
0.588952 0.561395 0.543664
0.599176 0.573114 0.555474
0.610071 0.585687 0.568292
0.621576 0.599145 0.582116
0.642329 0.623682 0.607538
0.663478 0.648981 0.634150
0.684199 0.674098 0.660914
0.704463 0.698817 0.687617
0.723690 0.722377 0.713527
0.741939 0.744625 0.738399
0.759182 0.765499 0.762020
0.775479 0.784817 0.784237
0.807279 0.821073 0.826535
0.813474 0.827787 0.834501
0.816098 0.830686 0.837858
0.819577 0.834440 0.842252
0.823850 0.838987 0.847593
0.828916 0.844327 0.853819
0.834836 0.850553 0.861021
0.841642 0.857511 0.869047
0.849180 0.865202 0.877745
0.857450 0.873411 0.886931
0.867002 0.882719 0.897093
0.589593 0.562097 0.544335
0.590692 0.563378 0.545617
0.592035 0.564965 0.547204
0.594354 0.567590 0.549889
0.597620 0.571313 0.553643
0.601740 0.576043 0.558465
0.606653 0.581781 0.564294
0.612573 0.588617 0.571283
0.619471 0.596643 0.579522
0.627192 0.605737 0.588922
0.635859 0.615961 0.599512
0.645167 0.627039 0.611048
0.655116 0.638911 0.623529
0.667903 0.654353 0.639857
0.686793 0.677302 0.664363
0.705501 0.700099 0.689021
0.723507 0.722164 0.713283
0.740871 0.743313 0.736904
0.757473 0.763394 0.759609
0.773251 0.782223 0.781216
0.788388 0.799802 0.801633
0.802792 0.816037 0.820676
0.829953 0.845457 0.855100
0.839170 0.855009 0.866148
0.842435 0.858366 0.869993
0.846433 0.862394 0.874601
0.851133 0.867124 0.879942
0.856565 0.872526 0.885985
0.862760 0.878630 0.892668
0.869718 0.885313 0.899870
0.877287 0.892546 0.907500
0.885435 0.900206 0.915373
0.632929 0.612482 0.595911
0.633722 0.613397 0.596857
0.634516 0.614374 0.597864
0.636316 0.616510 0.600061
0.638880 0.619562 0.603265
0.642267 0.623560 0.607416
0.646418 0.628534 0.612634
0.651453 0.634546 0.618921
0.657374 0.641657 0.626398
0.664027 0.649622 0.634852
0.671504 0.658717 0.644465
0.679622 0.668513 0.654932
0.688136 0.678889 0.666102
0.697169 0.689906 0.677974
0.711116 0.706996 0.696559
0.727382 0.726894 0.718532
0.743221 0.746212 0.740139
0.758602 0.764767 0.761227
0.773465 0.782437 0.781460
0.787686 0.799008 0.800717
0.801480 0.814603 0.818967
0.814633 0.829068 0.835966
0.827207 0.842557 0.851743
0.850248 0.866239 0.878935
0.861601 0.877501 0.891417
0.865324 0.881102 0.895354
0.869718 0.885344 0.899870
0.874784 0.890166 0.904997
0.880522 0.895598 0.910674
0.886931 0.901579 0.916777
0.893919 0.908049 0.923247
0.901671 0.915129 0.930114
0.671260 0.658412 0.644160
0.671870 0.659113 0.644923
0.672694 0.660121 0.645991
0.674159 0.661891 0.647883
0.676356 0.664546 0.650690
0.679164 0.668025 0.654383
0.682765 0.672358 0.659052
0.687007 0.677546 0.664607
0.692012 0.683650 0.671199
0.697749 0.690639 0.678737
0.704097 0.698421 0.687190
0.710964 0.706813 0.696376
0.718227 0.715663 0.706142
0.725856 0.725032 0.716457
0.733822 0.734798 0.727321
0.748104 0.752102 0.746792
0.762142 0.769009 0.766018
0.775845 0.785214 0.784695
0.789242 0.800748 0.802762
0.802243 0.815457 0.819974
0.814847 0.829313 0.836271
0.826993 0.842283 0.851438
0.838651 0.854459 0.865537
0.849790 0.865812 0.878447
0.868803 0.884459 0.898955
0.881804 0.896788 0.911894
0.885893 0.900633 0.915801
0.890654 0.905028 0.920226
0.896025 0.909972 0.925109
0.902037 0.915465 0.930419
0.908629 0.921416 0.936095
0.915984 0.928038 0.942168
0.707942 0.703090 0.692287
0.708492 0.703792 0.693080
0.709102 0.704555 0.693904
0.710292 0.705959 0.695460
0.712093 0.708186 0.697902
0.714412 0.710994 0.700984
0.717281 0.714534 0.704860
0.720729 0.718746 0.709529
0.724758 0.723690 0.714961
0.729366 0.729305 0.721248
0.734524 0.735622 0.728267
0.740169 0.742519 0.735988
0.746242 0.749874 0.744289
0.752651 0.757595 0.753048
0.759304 0.765652 0.762203
0.768093 0.776120 0.774197
0.780423 0.790616 0.790951
0.792630 0.804654 0.807340
0.804715 0.818204 0.823209
0.816526 0.831174 0.838407
0.828092 0.843473 0.852811
0.839261 0.855100 0.866239
0.849973 0.865995 0.878660
0.860258 0.876188 0.889982
0.870085 0.885710 0.900267
0.886442 0.901122 0.916289
0.900481 0.914031 0.929046
0.904906 0.918059 0.932921
0.909972 0.922637 0.937224
0.915557 0.927642 0.941833
0.921782 0.933165 0.946807
0.928771 0.939361 0.952270
0.739712 0.741939 0.735378
0.740169 0.742519 0.735988
0.740749 0.743191 0.736782
0.741726 0.744381 0.738094
0.743191 0.746181 0.740078
0.745144 0.748531 0.742733
0.747555 0.751461 0.746090
0.750454 0.754971 0.750057
0.753902 0.759121 0.754757
0.757839 0.763882 0.760189
0.762264 0.769131 0.766201
0.767117 0.774899 0.772824
0.772305 0.781064 0.779904
0.777829 0.787564 0.787411
0.783658 0.794339 0.795254
0.789670 0.801266 0.803342
0.799191 0.812039 0.816007
0.810147 0.824186 0.830259
0.820981 0.835935 0.843992
0.831662 0.847257 0.857206
0.842130 0.858061 0.869627
0.852323 0.868345 0.881285
0.862181 0.878050 0.892027
0.871672 0.887205 0.901854
0.880766 0.895842 0.910918
0.889494 0.903990 0.919158
0.903105 0.916442 0.931365
0.917815 0.929656 0.943664
0.922545 0.933867 0.947448
0.927825 0.938506 0.951537
0.933715 0.943694 0.955993
0.940398 0.949493 0.960906
0.768978 0.777157 0.775387
0.769375 0.777584 0.775906
0.769711 0.778042 0.776394
0.770535 0.778988 0.777523
0.771725 0.780392 0.779110
0.773342 0.782284 0.781308
0.775326 0.784634 0.784024
0.777798 0.787533 0.787381
0.780697 0.790921 0.791318
0.784024 0.794797 0.795834
0.787839 0.799161 0.800900
0.792020 0.803952 0.806485
0.796536 0.809049 0.812467
0.801358 0.814481 0.818845
0.806424 0.820096 0.825437
0.811734 0.825956 0.832273
0.817380 0.832090 0.839475
0.827176 0.842527 0.851682
0.836942 0.852689 0.863493
0.846586 0.862577 0.874784
0.856077 0.872068 0.885435
0.865385 0.881163 0.895384
0.874388 0.889799 0.904601
0.883116 0.898039 0.913146
0.891539 0.905821 0.921050
0.899596 0.913268 0.928313
0.907378 0.920317 0.935027
0.918822 0.930541 0.944457
0.933562 0.943542 0.955871
0.938537 0.947875 0.959533
0.944152 0.952728 0.963561
0.950469 0.958160 0.968048
0.795560 0.807980 0.811215
0.795865 0.808316 0.811612
0.796231 0.808682 0.812070
0.796902 0.809476 0.812955
0.797940 0.810666 0.814328
0.799405 0.812284 0.816251
0.801297 0.814389 0.818723
0.803555 0.816922 0.821714
0.806271 0.819944 0.825254
0.809384 0.823331 0.829252
0.812772 0.827085 0.833616
0.816556 0.831174 0.838437
0.820645 0.835569 0.843565
0.824949 0.840146 0.848936
0.829435 0.844877 0.854429
0.834073 0.849760 0.860105
0.838956 0.854795 0.865904
0.845365 0.861326 0.873381
0.854093 0.870085 0.883238
0.862730 0.878569 0.892607
0.871275 0.886839 0.901488
0.879667 0.894774 0.909819
0.887846 0.902434 0.917632
0.895781 0.909728 0.924895
0.903441 0.916716 0.931640
0.910796 0.923369 0.937896
0.917876 0.929717 0.943725
0.924712 0.935760 0.949126
0.934234 0.944121 0.956390
0.948699 0.956664 0.966796
0.953979 0.961151 0.970428
0.959899 0.966217 0.974456
0.821469 0.836454 0.844633
0.821714 0.836728 0.844907
0.821958 0.836973 0.845212
0.822507 0.837583 0.845945
0.823392 0.838529 0.847044
0.824613 0.839780 0.848508
0.826139 0.841428 0.850431
0.828031 0.843412 0.852750
0.830259 0.845762 0.855467
0.832853 0.848478 0.858610
0.835721 0.851469 0.862058
0.838895 0.854734 0.865843
0.842344 0.858274 0.869902
0.846036 0.862028 0.874174
