cubelut/BW5.cube
# Created by Adobe Lightroom plugin Export LUT (1.18.0)
# www.johnrellis.com/lightroom/exportlut.htm
# Preset: MoodyBW4
# Color profile: /Library/Application Support/Adobe/Color/Profiles/Recommended/AdobeRGB1998.icc
LUT_3D_SIZE 8
DOMAIN_MIN 0.000000 0.000000 0.000000
DOMAIN_MAX 0.903226 0.903226 0.903226
0.000000 0.000000 0.000000
0.027802 0.021088 0.036500
0.072480 0.066011 0.078676
0.130861 0.117586 0.131472
0.251194 0.223819 0.230228
0.425177 0.386816 0.377325
0.609949 0.585595 0.568200
0.751827 0.756588 0.751888
0.038239 0.029419 0.049744
0.063813 0.056214 0.070130
0.077821 0.070680 0.083864
0.138430 0.124514 0.137942
0.259190 0.231022 0.236820
0.429358 0.390967 0.381079
0.611597 0.587488 0.570123
0.752712 0.757656 0.753109
0.093751 0.084565 0.099062
0.103182 0.093050 0.107607
0.171847 0.154147 0.165530
0.200351 0.179019 0.188815
0.293797 0.262181 0.265232
0.458198 0.420020 0.407507
0.630213 0.609277 0.592584
0.762142 0.769009 0.766018
0.205966 0.183993 0.193301
0.218021 0.194583 0.203281
0.268925 0.239658 0.244755
0.422766 0.384436 0.375158
0.499916 0.463325 0.447700
0.506065 0.469917 0.453925
0.655665 0.639582 0.624201
0.774716 0.783871 0.783169
0.394324 0.356634 0.350134
0.405097 0.367041 0.359533
0.443519 0.405158 0.393927
0.532860 0.498817 0.481636
0.650080 0.632868 0.617182
0.717403 0.714687 0.705043
0.730159 0.730282 0.722316
0.791440 0.803281 0.805722
0.589593 0.562097 0.544335
0.597620 0.571313 0.553643
0.619471 0.596643 0.579522
0.655116 0.638911 0.623529
0.723507 0.722164 0.713283
0.788388 0.799802 0.801633
0.842435 0.858366 0.869993
0.862760 0.878630 0.892668
0.739712 0.741939 0.735378
0.743191 0.746181 0.740078
0.753902 0.759121 0.754757
0.772305 0.781064 0.779904
0.799191 0.812039 0.816007
0.842130 0.858061 0.869627
0.880766 0.895842 0.910918
0.922545 0.933867 0.947448
0.844541 0.860533 0.872465
0.846250 0.862242 0.874388
0.852293 0.868284 0.881224
0.862974 0.878843 0.892882
0.876036 0.891386 0.906279
0.898405 0.912139 0.927214
0.925109 0.936095 0.949432
0.949035 0.956909 0.967010
0.020844 0.016663 0.028382
0.030701 0.022797 0.040620
0.085206 0.077272 0.091218
0.159884 0.143679 0.155886
0.283543 0.252811 0.256840
0.448157 0.409827 0.398199
0.620691 0.598047 0.580987
0.755856 0.761440 0.757412
0.036500 0.027466 0.047456
0.067140 0.060365 0.073060
0.097078 0.087556 0.102144
0.167269 0.150210 0.161776
0.291295 0.259831 0.263157
0.453437 0.415198 0.403113
0.622675 0.600397 0.583429
0.756558 0.762325 0.758389
0.098054 0.088289 0.102785
0.116091 0.104341 0.118868
0.176608 0.158328 0.169528
0.204044 0.182345 0.191928
0.320226 0.286290 0.287114
0.477760 0.440131 0.426032
0.637903 0.618372 0.602014
0.764950 0.772366 0.769894
0.219211 0.195621 0.204196
0.233494 0.208133 0.215793
0.278050 0.247807 0.252232
0.421912 0.383581 0.374426
0.491676 0.454627 0.439521
0.517998 0.482704 0.466133
0.660945 0.645930 0.630915
0.776913 0.786496 0.786191
0.407294 0.369207 0.361425
0.417334 0.379065 0.370306
0.453529 0.415290 0.403143
0.534722 0.500847 0.483650
0.648524 0.631037 0.615259
0.713649 0.710079 0.699977
0.727901 0.727504 0.719234
0.793973 0.806180 0.809079
0.595148 0.568475 0.550805
0.601404 0.575677 0.558099
0.622583 0.600336 0.583337
0.657649 0.641993 0.626764
0.723751 0.722469 0.713619
0.788357 0.799771 0.801633
0.841276 0.857145 0.868620
0.861662 0.877531 0.891447
0.740749 0.743191 0.736782
0.743648 0.746700 0.740719
0.754452 0.759792 0.755520
0.773037 0.781918 0.780911
0.799191 0.812039 0.816007
0.841825 0.857755 0.869261
0.880186 0.895262 0.910307
0.921630 0.933043 0.946715
0.844816 0.860746 0.872740
0.846586 0.862577 0.874784
0.852659 0.868650 0.881651
0.863340 0.879179 0.893248
0.877470 0.892729 0.907652
0.898833 0.912535 0.927611
0.925139 0.936126 0.949462
0.948913 0.956817 0.966949
0.062989 0.055634 0.069398
0.068116 0.061555 0.074372
0.084199 0.076081 0.089967
0.163821 0.147189 0.159060
0.335241 0.300267 0.299687
0.516838 0.481453 0.464881
0.660121 0.644923 0.629877
0.774746 0.783932 0.783200
0.080507 0.072755 0.086610
0.090242 0.081361 0.095857
0.106203 0.095766 0.110201
0.197787 0.176822 0.186770
0.368231 0.331426 0.327642
0.520867 0.485786 0.469123
0.661891 0.647089 0.632136
0.775753 0.785153 0.784604
0.095430 0.086061 0.100649
0.115908 0.104158 0.118685
0.191470 0.171298 0.181643
0.269780 0.240391 0.245487
0.397803 0.359930 0.353155
0.539727 0.506340 0.488991
0.672877 0.660334 0.646204
0.781674 0.792050 0.792630
0.208865 0.186618 0.195773
0.239841 0.213748 0.221012
0.317357 0.283665 0.284794
0.436835 0.398444 0.387854
0.485573 0.448310 0.433600
0.571527 0.541650 0.523796
0.692134 0.683772 0.671321
0.792416 0.804410 0.807004
0.407965 0.369879 0.362036
0.435187 0.396796 0.386389
0.488045 0.450843 0.435981
0.550805 0.518547 0.500938
0.655818 0.639734 0.624414
0.710231 0.705898 0.695369
0.726345 0.725673 0.717159
0.807004 0.820737 0.826169
0.605585 0.580529 0.562982
0.620203 0.597559 0.580468
0.641260 0.622400 0.606195
0.672419 0.659785 0.645624
0.728359 0.728115 0.719875
0.790097 0.801724 0.803891
0.839078 0.854917 0.866056
0.860258 0.876188 0.889982
0.749813 0.754177 0.749142
0.752865 0.757870 0.753323
0.762844 0.769863 0.766995
0.779812 0.789853 0.790066
0.802152 0.815335 0.819852
0.843473 0.859434 0.871214
0.881621 0.896635 0.911711
0.921721 0.933104 0.946777
0.848325 0.864317 0.876768
0.849668 0.865660 0.878294
0.855406 0.871397 0.884703
0.866056 0.881834 0.896117
0.879759 0.894896 0.909941
0.899504 0.913146 0.928222
0.925841 0.936736 0.949981
0.949676 0.957488 0.967468
0.103182 0.093050 0.107607
0.110964 0.099855 0.114443
0.136019 0.122560 0.135958
0.168765 0.151492 0.162997
0.295476 0.263645 0.266667
0.505425 0.469276 0.453285
0.680262 0.669337 0.655818
0.798215 0.810971 0.814694
0.135409 0.121889 0.135348
0.141604 0.127596 0.140719
0.164096 0.147311 0.159182
0.196933 0.176211 0.186038
0.329717 0.295140 0.295079
0.529259 0.494911 0.477882
0.691493 0.683009 0.670497
0.799069 0.811887 0.815824
0.165866 0.148898 0.160678
0.189273 0.169528 0.179934
0.252262 0.224796 0.231113
0.292790 0.261173 0.264378
0.441321 0.402930 0.391913
0.602564 0.576989 0.559411
0.717739 0.715114 0.705501
0.804654 0.818143 0.823117
0.202762 0.181216 0.190829
0.228244 0.203525 0.211521
0.316960 0.283299 0.284398
0.457130 0.418921 0.406500
0.535241 0.501427 0.484199
0.635737 0.615839 0.599390
0.730678 0.730922 0.723049
0.813138 0.827420 0.834043
0.382818 0.345434 0.340185
0.409583 0.371466 0.363439
0.495094 0.458198 0.442908
0.580774 0.552087 0.534295
0.665858 0.651850 0.637171
0.702480 0.696407 0.685023
0.750332 0.754818 0.749874
0.825620 0.840848 0.849760
0.591119 0.563897 0.546105
0.607721 0.583001 0.565545
0.653834 0.637354 0.621912
0.695491 0.687892 0.675776
0.736934 0.738582 0.731563
0.794675 0.806943 0.809995
0.835721 0.851469 0.862058
0.855955 0.871946 0.885313
0.742550 0.745418 0.739254
0.749752 0.754116 0.749081
0.772091 0.780819 0.779599
0.790738 0.802457 0.804776
0.811429 0.825589 0.831907
0.846525 0.862516 0.874754
0.883757 0.898650 0.913787
0.920836 0.932311 0.946075
0.847257 0.863249 0.875547
0.850584 0.866606 0.879332
0.861479 0.877348 0.891264
0.870085 0.885710 0.900298
0.883360 0.898283 0.913390
0.900053 0.913695 0.928740
0.926757 0.937530 0.950683
0.950835 0.958465 0.968292
0.187778 0.168032 0.178622
0.197147 0.176272 0.186252
0.226932 0.202365 0.210452
0.271122 0.241642 0.246586
0.318669 0.284977 0.285954
0.460121 0.422004 0.409308
0.656611 0.640711 0.625422
0.787564 0.798856 0.800565
0.226505 0.201999 0.210086
0.234257 0.208835 0.216403
0.259556 0.231327 0.237125
0.300786 0.268437 0.271031
0.346319 0.310765 0.309056
0.487282 0.450050 0.435248
0.669795 0.656641 0.642267
0.793301 0.805417 0.808225
0.296605 0.264714 0.267582
0.323552 0.289403 0.289952
0.354376 0.318273 0.315831
0.391455 0.353796 0.347631
0.435279 0.396857 0.386419
0.567071 0.536614 0.518791
0.709163 0.704616 0.693996
0.811398 0.825589 0.831876
0.326177 0.291844 0.292119
0.349493 0.313756 0.311803
0.427039 0.388678 0.378973
0.518364 0.483101 0.466499
0.559594 0.528283 0.510552
0.665675 0.651637 0.636957
0.761654 0.768429 0.765408
0.836454 0.852232 0.862974
0.377386 0.340246 0.335454
0.401007 0.363073 0.355932
0.476783 0.439094 0.425086
0.581659 0.553094 0.535271
0.676020 0.664149 0.650233
0.719905 0.717739 0.708400
0.783566 0.794247 0.795163
0.845518 0.861479 0.873564
0.563561 0.532738 0.514977
0.580255 0.551537 0.533654
0.630213 0.609277 0.592584
0.697505 0.690333 0.678431
0.746090 0.749722 0.744106
0.798856 0.811673 0.815549
0.827420 0.842802 0.852018
0.859709 0.875639 0.889372
0.728511 0.728267 0.720089
0.735958 0.737362 0.730190
0.759457 0.765805 0.762356
0.793759 0.805936 0.808804
0.820035 0.834928 0.842832
0.848173 0.864195 0.876616
0.885985 0.900725 0.915892
0.918029 0.929839 0.943816
0.839139 0.854978 0.866117
0.842557 0.858488 0.870115
0.853910 0.869902 0.883024
0.872526 0.888029 0.902770
0.886900 0.901579 0.916747
0.902495 0.915892 0.930846
0.927184 0.937957 0.951049
0.952056 0.959533 0.969116
0.332586 0.297856 0.297490
0.341344 0.306035 0.304845
0.369116 0.332311 0.328344
0.414343 0.376074 0.367651
0.455970 0.417762 0.405402
0.507591 0.471565 0.455482
0.637934 0.618433 0.602106
0.771145 0.779721 0.778347
0.367742 0.330968 0.327214
0.374731 0.337713 0.333165
0.398718 0.360845 0.353948
0.438819 0.400458 0.389685
0.477943 0.440284 0.426184
0.526513 0.491920 0.475013
0.649012 0.631617 0.615839
0.777279 0.786923 0.786679
0.462165 0.424079 0.411231
0.467262 0.429297 0.415991
0.484840 0.447486 0.432868
0.515099 0.479622 0.463142
0.547784 0.515190 0.497688
0.586389 0.558495 0.540703
0.684993 0.675044 0.661921
0.797848 0.810513 0.814176
0.489570 0.452430 0.437476
0.507286 0.471199 0.455177
0.568566 0.538323 0.520500
0.611353 0.587152 0.569818
0.637018 0.617365 0.600946
0.664027 0.649622 0.634852
0.742763 0.745632 0.739528
0.828183 0.843595 0.852934
0.526513 0.491920 0.475013
0.542321 0.509148 0.491737
0.590997 0.563745 0.545983
0.656977 0.641138 0.625879
0.711818 0.707881 0.697536
0.735500 0.736812 0.729580
0.799985 0.812924 0.817014
0.862608 0.878447 0.892485
0.570611 0.540612 0.522789
0.584314 0.556146 0.538323
0.627497 0.606073 0.589258
0.686793 0.677302 0.664363
0.748043 0.752041 0.746731
0.806058 0.819699 0.824949
0.835752 0.851469 0.862089
0.881041 0.896086 0.911131
0.708919 0.704341 0.693660
0.717342 0.714595 0.704921
0.743008 0.745968 0.739864
0.779751 0.789792 0.790005
0.821347 0.836332 0.844450
0.853971 0.869963 0.883116
0.889952 0.904417 0.919615
0.912840 0.925200 0.939605
0.828458 0.843839 0.853269
0.832029 0.847593 0.857603
0.843992 0.859983 0.871824
0.863279 0.879118 0.893187
0.887449 0.902068 0.917266
0.907164 0.920104 0.934844
0.927855 0.938537 0.951537
0.954131 0.961303 0.970550
0.531945 0.497810 0.480720
0.538537 0.504997 0.487678
0.556939 0.525353 0.507652
0.585657 0.557641 0.539818
0.620600 0.598016 0.580926
0.640223 0.621118 0.604883
0.673854 0.661555 0.647486
0.768093 0.776089 0.774166
0.551934 0.519799 0.502159
0.557366 0.525811 0.508110
0.573144 0.543511 0.525658
0.598444 0.572259 0.554620
0.630121 0.609155 0.592462
0.648249 0.630762 0.614954
0.679927 0.668940 0.655360
0.770474 0.778927 0.777432
0.612726 0.588800 0.571466
0.615808 0.592401 0.575158
0.626215 0.604547 0.587701
0.644556 0.626246 0.610254
0.668147 0.654658 0.640162
0.684321 0.674250 0.661097
0.711513 0.707454 0.697078
0.788998 0.800504 0.802487
0.654170 0.637781 0.622309
0.663935 0.649531 0.634730
0.690852 0.682185 0.669612
0.703548 0.697719 0.686458
0.720027 0.717891 0.708583
0.734463 0.735531 0.728145
0.754452 0.759762 0.755489
0.814908 0.829404 0.836332
0.665644 0.651606 0.636927
0.673487 0.661128 0.647028
0.699794 0.693141 0.681483
0.740688 0.743130 0.736660
0.767605 0.775509 0.773526
0.781338 0.791653 0.792172
0.796506 0.809018 0.812436
0.848203 0.864225 0.876646
0.690608 0.681910 0.669306
0.697780 0.690669 0.678798
0.720790 0.718807 0.709621
0.754391 0.759701 0.755459
0.793362 0.805478 0.808286
0.829282 0.844755 0.854307
0.844999 0.860990 0.872984
0.890166 0.904570 0.919799
0.720974 0.719020 0.709834
0.727108 0.726558 0.718166
0.745907 0.749447 0.743801
0.776089 0.785550 0.785092
0.812711 0.827024 0.833524
0.853544 0.869535 0.882628
0.894713 0.908782 0.923949
0.917693 0.929564 0.943572
0.811643 0.825834 0.832181
0.815305 0.829831 0.836881
0.829252 0.844694 0.854215
0.850248 0.866239 0.878935
0.876829 0.892149 0.907073
0.906767 0.919738 0.934508
0.931304 0.941588 0.954192
0.957031 0.963775 0.972503
0.710201 0.705837 0.695308
0.712917 0.709163 0.698970
0.720363 0.718318 0.709041
0.733822 0.734737 0.727291
0.750881 0.755459 0.750607
0.770260 0.778683 0.777127
0.775631 0.785031 0.784451
0.793912 0.806088 0.809018
0.718379 0.715846 0.706294
0.720790 0.718807 0.709621
0.727718 0.727291 0.718959
0.739773 0.741970 0.735409
0.755764 0.761349 0.757290
0.774136 0.783230 0.782406
0.779263 0.789242 0.789364
0.796963 0.809537 0.813046
0.743893 0.747036 0.741085
0.745602 0.749050 0.743374
0.750423 0.754940 0.749996
0.761105 0.767788 0.764645
0.773861 0.782925 0.782010
0.788998 0.800504 0.802487
0.794339 0.806577 0.809567
0.810208 0.824247 0.830289
0.775906 0.785336 0.784848
0.778958 0.788907 0.788968
0.782620 0.793149 0.793912
0.789975 0.801602 0.803769
0.799985 0.812924 0.817014
0.812192 0.826444 0.832883
0.818296 0.833066 0.840665
0.831632 0.847166 0.857115
0.776303 0.785794 0.785367
0.781064 0.791318 0.791775
0.795468 0.807889 0.811093
0.818326 0.833097 0.840696
0.827756 0.843137 0.852415
0.837705 0.853513 0.864439
0.846159 0.862150 0.874327
0.858732 0.874662 0.888334
0.789303 0.800870 0.802884
0.792508 0.804501 0.807156
0.803403 0.816739 0.821500
0.821439 0.836423 0.844572
0.847105 0.863066 0.875364
0.868528 0.884184 0.898680
0.880430 0.895537 0.910613
0.890806 0.905180 0.920378
0.808438 0.822293 0.828031
0.811246 0.825406 0.831662
0.820859 0.835782 0.843839
0.837400 0.853178 0.864042
0.859953 0.875883 0.889647
0.887449 0.902068 0.917266
0.912902 0.925292 0.939666
0.923980 0.935119 0.948547
0.830747 0.846281 0.856077
0.833066 0.848722 0.858885
0.841428 0.857328 0.868803
0.856199 0.872160 0.885557
0.876493 0.891783 0.906706
0.902190 0.915618 0.930571
0.931182 0.941466 0.954101
0.960601 0.966827 0.974914
