cubelut/BW5.cube
# Created by Adobe Lightroom plugin Export LUT (1.18.0)
# www.johnrellis.com/lightroom/exportlut.htm
# Preset: MoodyBW4
# Color profile: /Library/Application Support/Adobe/Color/Profiles/Recommended/AdobeRGB1998.icc
LUT_3D_SIZE 5
DOMAIN_MIN 0.000000 0.000000 0.000000
DOMAIN_MAX 0.903226 0.903226 0.903226
0.000000 0.000000 0.000000
0.064210 0.056947 0.070466
0.183108 0.163912 0.174777
0.473610 0.435798 0.422004
0.751827 0.756588 0.751888
0.078645 0.071626 0.084993
0.131838 0.118654 0.132448
0.214328 0.191318 0.200168
0.496407 0.459632 0.444221
0.760159 0.766629 0.763302
0.294560 0.262852 0.265934
0.335515 0.300542 0.299931
0.552361 0.520256 0.502617
0.624079 0.602045 0.585107
0.782406 0.792874 0.793576
0.632929 0.612482 0.595911
0.651453 0.634546 0.618921
0.711116 0.706996 0.696559
0.814633 0.829068 0.835966
0.880522 0.895598 0.910674
0.844541 0.860533 0.872465
0.850309 0.866331 0.879026
0.868467 0.884123 0.898589
0.905272 0.918395 0.933227
0.949035 0.956909 0.967010
0.054383 0.044343 0.062318
0.071901 0.065309 0.077760
0.247807 0.220829 0.227512
0.536400 0.502647 0.485420
0.768490 0.776577 0.774716
0.079866 0.072511 0.086061
0.145266 0.130678 0.143587
0.297704 0.265690 0.268437
0.553460 0.521447 0.503807
0.774716 0.783932 0.783169
0.307195 0.274357 0.276310
0.376165 0.339055 0.334417
0.556725 0.525078 0.507408
0.620203 0.597559 0.580468
0.795438 0.807858 0.811063
0.649104 0.631739 0.615961
0.667414 0.653742 0.639185
0.717342 0.714595 0.704921
0.816007 0.830594 0.837766
0.879179 0.894316 0.909361
0.847776 0.863767 0.876158
0.853361 0.869352 0.882414
0.871977 0.887510 0.902190
0.906279 0.919310 0.934112
0.949767 0.957549 0.967529
0.138735 0.124849 0.138247
0.167056 0.149752 0.161532
0.236942 0.211185 0.218631
0.537591 0.503960 0.486671
0.793759 0.805936 0.808804
0.220035 0.196384 0.204959
0.263981 0.235325 0.240787
0.331548 0.296880 0.296605
0.604517 0.579309 0.561761
0.811887 0.826108 0.832486
0.283970 0.253147 0.257115
0.367834 0.331090 0.327276
0.582940 0.554528 0.536706
0.699916 0.693294 0.681636
0.829374 0.844816 0.854368
0.624628 0.602716 0.585779
0.665553 0.651484 0.636805
0.743954 0.747097 0.741146
0.821500 0.836484 0.844633
0.871550 0.887114 0.901762
0.843320 0.859251 0.871031
0.854551 0.870542 0.883757
0.878080 0.893278 0.908263
0.906645 0.919646 0.934417
0.951232 0.958831 0.968566
0.377905 0.340734 0.335912
0.404608 0.366644 0.359106
0.480659 0.443122 0.428809
0.553368 0.521355 0.503716
0.765286 0.772763 0.770321
0.474037 0.436255 0.422431
0.491341 0.454292 0.439216
0.546227 0.513420 0.495949
0.604852 0.579675 0.562158
0.785977 0.797055 0.798428
0.545190 0.512352 0.494820
0.591730 0.564599 0.546868
0.680598 0.669703 0.656245
0.716732 0.713863 0.704097
0.840513 0.856413 0.867765
0.613916 0.590204 0.572900
0.648951 0.631525 0.615808
0.737423 0.739132 0.732204
0.830900 0.846433 0.856260
0.889830 0.904295 0.919493
0.824979 0.840177 0.848966
0.837186 0.852964 0.863798
0.872526 0.887999 0.902739
0.913054 0.925383 0.939757
0.954711 0.961791 0.970947
0.710201 0.705837 0.695308
0.717922 0.715328 0.705715
0.742031 0.744747 0.738491
0.772976 0.781888 0.780850
0.793912 0.806088 0.809018
0.736904 0.738491 0.731472
0.742550 0.745418 0.739254
0.761410 0.768154 0.765042
0.788144 0.799496 0.801328
0.806516 0.820188 0.825559
0.775631 0.784970 0.784421
0.790311 0.801968 0.804196
0.808469 0.822385 0.828092
0.826688 0.842008 0.851102
0.844236 0.860197 0.872068
0.794553 0.806821 0.809842
0.804868 0.818387 0.823423
0.836881 0.852689 0.863462
0.879393 0.894530 0.909575
0.898680 0.912413 0.927489
0.830747 0.846281 0.856077
0.838682 0.854520 0.865629
0.865660 0.881437 0.895689
0.909148 0.921874 0.936522
0.960601 0.966827 0.974914
