cubelut/BW6.cube
# Created by Adobe Lightroom plugin Export LUT (1.18.0)
# www.johnrellis.com/lightroom/exportlut.htm
# Preset: SP-09
# Color profile: /Library/Application Support/Adobe/Color/Profiles/Recommended/AdobeRGB1998.icc
LUT_3D_SIZE 5
DOMAIN_MIN 0.000000 0.000000 0.000000
DOMAIN_MAX 0.903226 0.903226 0.903226
0.108125 0.108125 0.108125
0.111269 0.111269 0.111269
0.129397 0.129397 0.129397
0.170321 0.170321 0.170321
0.345892 0.345892 0.345892
0.119234 0.119234 0.119234
0.132418 0.132418 0.132418
0.159579 0.159579 0.159579
0.223972 0.223972 0.223972
0.432319 0.432319 0.432319
0.175082 0.175082 0.175082
0.187991 0.187991 0.187991
0.281926 0.281926 0.281926
0.462989 0.462989 0.462989
0.672633 0.672633 0.672633
0.385657 0.385657 0.385657
0.405249 0.405249 0.405249
0.476997 0.476997 0.476997
0.652949 0.652949 0.652949
0.813931 0.813931 0.813931
0.738796 0.738796 0.738796
0.747372 0.747372 0.747372
0.775784 0.775784 0.775784
0.827451 0.827451 0.827451
0.889097 0.889097 0.889097
0.109712 0.109712 0.109712
0.116701 0.116701 0.116701
0.141146 0.141146 0.141146
0.179416 0.179416 0.179416
0.346777 0.346777 0.346777
0.119417 0.119417 0.119417
0.138949 0.138949 0.138949
0.161837 0.161837 0.161837
0.231815 0.231815 0.231815
0.430884 0.430884 0.430884
0.179080 0.179080 0.179080
0.212345 0.212345 0.212345
0.298222 0.298222 0.298222
0.475257 0.475257 0.475257
0.669825 0.669825 0.669825
0.402533 0.402533 0.402533
0.436286 0.436286 0.436286
0.504967 0.504967 0.504967
0.661402 0.661402 0.661402
0.816159 0.816159 0.816159
0.746609 0.746609 0.746609
0.754788 0.754788 0.754788
0.782010 0.782010 0.782010
0.829862 0.829862 0.829862
0.890471 0.890471 0.890471
0.117800 0.117800 0.117800
0.126619 0.126619 0.126619
0.158206 0.158206 0.158206
0.311254 0.311254 0.311254
0.436194 0.436194 0.436194
0.139101 0.139101 0.139101
0.150362 0.150362 0.150362
0.191653 0.191653 0.191653
0.333471 0.333471 0.333471
0.448737 0.448737 0.448737
0.171237 0.171237 0.171237
0.204685 0.204685 0.204685
0.346044 0.346044 0.346044
0.452186 0.452186 0.452186
0.636255 0.636255 0.636255
0.385107 0.385107 0.385107
0.434546 0.434546 0.434546
0.576745 0.576745 0.576745
0.685145 0.685145 0.685145
0.821164 0.821164 0.821164
0.739071 0.739071 0.739071
0.755428 0.755428 0.755428
0.798276 0.798276 0.798276
0.836118 0.836118 0.836118
0.894774 0.894774 0.894774
0.139834 0.139834 0.139834
0.147097 0.147097 0.147097
0.181460 0.181460 0.181460
0.313451 0.313451 0.313451
0.707881 0.707881 0.707881
0.169497 0.169497 0.169497
0.180270 0.180270 0.180270
0.228000 0.228000 0.228000
0.364508 0.364508 0.364508
0.726741 0.726741 0.726741
0.221195 0.221195 0.221195
0.261143 0.261143 0.261143
0.405951 0.405951 0.405951
0.533623 0.533623 0.533623
0.739864 0.739864 0.739864
0.368078 0.368078 0.368078
0.413153 0.413153 0.413153
0.557092 0.557092 0.557092
0.721736 0.721736 0.721736
0.794858 0.794858 0.794858
0.720302 0.720302 0.720302
0.737392 0.737392 0.737392
0.787991 0.787991 0.787991
0.854856 0.854856 0.854856
0.902525 0.902525 0.902525
0.215244 0.215244 0.215244
0.233890 0.233890 0.233890
0.303380 0.303380 0.303380
0.439796 0.439796 0.439796
0.671077 0.671077 0.671077
0.272953 0.272953 0.272953
0.291814 0.291814 0.291814
0.361608 0.361608 0.361608
0.496254 0.496254 0.496254
0.693416 0.693416 0.693416
0.400244 0.400244 0.400244
0.462928 0.462928 0.462928
0.542718 0.542718 0.542718
0.635645 0.635645 0.635645
0.753170 0.753170 0.753170
0.522698 0.522698 0.522698
0.556420 0.556420 0.556420
0.646998 0.646998 0.646998
0.768551 0.768551 0.768551
0.835080 0.835080 0.835080
0.715694 0.715694 0.715694
0.730037 0.730037 0.730037
0.776059 0.776059 0.776059
0.844633 0.844633 0.844633
0.917510 0.917510 0.917510
