cubelut/BW6.cube
# Created by Adobe Lightroom plugin Export LUT (1.18.0)
# www.johnrellis.com/lightroom/exportlut.htm
# Preset: SP-09
# Color profile: /Library/Application Support/Adobe/Color/Profiles/Recommended/AdobeRGB1998.icc
LUT_3D_SIZE 32
DOMAIN_MIN 0.0 0.0 0.0
DOMAIN_MAX 1.0 1.0 1.0
0.108125 0.108125 0.108125
0.108125 0.108125 0.108125
0.108309 0.108309 0.108309
0.108736 0.108736 0.108736
0.109133 0.109133 0.109133
0.109712 0.109712 0.109712
0.110323 0.110323 0.110323
0.111269 0.111269 0.111269
0.112428 0.112428 0.112428
0.113924 0.113924 0.113924
0.115999 0.115999 0.115999
0.118532 0.118532 0.118532
0.121706 0.121706 0.121706
0.125429 0.125429 0.125429
0.129397 0.129397 0.129397
0.133486 0.133486 0.133486
0.137758 0.137758 0.137758
0.142153 0.142153 0.142153
0.147097 0.147097 0.147097
0.153048 0.153048 0.153048
0.160464 0.160464 0.160464
0.170321 0.170321 0.170321
0.182956 0.182956 0.182956
0.199222 0.199222 0.199222
0.219059 0.219059 0.219059
0.243168 0.243168 0.243168
0.271763 0.271763 0.271763
0.305638 0.305638 0.305638
0.345892 0.345892 0.345892
0.394659 0.394659 0.394659
0.454078 0.454078 0.454078
0.521386 0.521386 0.521386
0.108309 0.108309 0.108309
0.108522 0.108522 0.108522
0.108736 0.108736 0.108736
0.109133 0.109133 0.109133
0.109712 0.109712 0.109712
0.110323 0.110323 0.110323
0.110872 0.110872 0.110872
0.111849 0.111849 0.111849
0.113008 0.113008 0.113008
0.114687 0.114687 0.114687
0.116701 0.116701 0.116701
0.119417 0.119417 0.119417
0.122560 0.122560 0.122560
0.126284 0.126284 0.126284
0.130190 0.130190 0.130190
0.134279 0.134279 0.134279
0.138491 0.138491 0.138491
0.142885 0.142885 0.142885
0.147799 0.147799 0.147799
0.153964 0.153964 0.153964
0.161593 0.161593 0.161593
0.171450 0.171450 0.171450
0.184451 0.184451 0.184451
0.200839 0.200839 0.200839
0.220859 0.220859 0.220859
0.245121 0.245121 0.245121
0.273808 0.273808 0.273808
0.307866 0.307866 0.307866
0.348425 0.348425 0.348425
0.397375 0.397375 0.397375
0.456825 0.456825 0.456825
0.524071 0.524071 0.524071
0.108522 0.108522 0.108522
0.108736 0.108736 0.108736
0.109133 0.109133 0.109133
0.109712 0.109712 0.109712
0.110323 0.110323 0.110323
0.110872 0.110872 0.110872
0.111666 0.111666 0.111666
0.112612 0.112612 0.112612
0.113924 0.113924 0.113924
0.115602 0.115602 0.115602
0.117800 0.117800 0.117800
0.120638 0.120638 0.120638
0.123751 0.123751 0.123751
0.127443 0.127443 0.127443
0.131472 0.131472 0.131472
0.135348 0.135348 0.135348
0.139528 0.139528 0.139528
0.143862 0.143862 0.143862
0.149020 0.149020 0.149020
0.155123 0.155123 0.155123
0.163058 0.163058 0.163058
0.173190 0.173190 0.173190
0.186435 0.186435 0.186435
0.203098 0.203098 0.203098
0.223392 0.223392 0.223392
0.247807 0.247807 0.247807
0.276738 0.276738 0.276738
0.310918 0.310918 0.310918
0.351690 0.351690 0.351690
0.401007 0.401007 0.401007
0.460578 0.460578 0.460578
0.527703 0.527703 0.527703
0.109529 0.109529 0.109529
0.109529 0.109529 0.109529
0.109712 0.109712 0.109712
0.110689 0.110689 0.110689
0.112032 0.112032 0.112032
0.113191 0.113191 0.113191
0.113924 0.113924 0.113924
0.114870 0.114870 0.114870
0.116365 0.116365 0.116365
0.118166 0.118166 0.118166
0.120455 0.120455 0.120455
0.123232 0.123232 0.123232
0.126436 0.126436 0.126436
0.130037 0.130037 0.130037
0.133791 0.133791 0.133791
0.137758 0.137758 0.137758
0.141726 0.141726 0.141726
0.146273 0.146273 0.146273
0.151431 0.151431 0.151431
0.158083 0.158083 0.158083
0.166323 0.166323 0.166323
0.177096 0.177096 0.177096
0.190951 0.190951 0.190951
0.208103 0.208103 0.208103
0.228916 0.228916 0.228916
0.253727 0.253727 0.253727
0.283024 0.283024 0.283024
0.317754 0.317754 0.317754
0.358984 0.358984 0.358984
0.408789 0.408789 0.408789
0.468879 0.468879 0.468879
0.535424 0.535424 0.535424
0.110689 0.110689 0.110689
0.110872 0.110872 0.110872
0.111086 0.111086 0.111086
0.111849 0.111849 0.111849
0.113558 0.113558 0.113558
0.116365 0.116365 0.116365
0.117800 0.117800 0.117800
0.119417 0.119417 0.119417
0.120821 0.120821 0.120821
0.122713 0.122713 0.122713
0.124941 0.124941 0.124941
0.127596 0.127596 0.127596
0.130831 0.130831 0.130831
0.134127 0.134127 0.134127
0.137606 0.137606 0.137606
0.141299 0.141299 0.141299
0.145296 0.145296 0.145296
0.150088 0.150088 0.150088
0.155764 0.155764 0.155764
0.162936 0.162936 0.162936
0.172030 0.172030 0.172030
0.183688 0.183688 0.183688
0.198459 0.198459 0.198459
0.216373 0.216373 0.216373
0.237736 0.237736 0.237736
0.263218 0.263218 0.263218
0.293126 0.293126 0.293126
0.328313 0.328313 0.328313
0.370459 0.370459 0.370459
0.421393 0.421393 0.421393
0.481697 0.481697 0.481697
0.547356 0.547356 0.547356
0.112612 0.112612 0.112612
0.112795 0.112795 0.112795
0.113008 0.113008 0.113008
0.113558 0.113558 0.113558
0.115236 0.115236 0.115236
0.118349 0.118349 0.118349
0.122896 0.122896 0.122896
0.124788 0.124788 0.124788
0.127260 0.127260 0.127260
0.129213 0.129213 0.129213
0.131136 0.131136 0.131136
0.133486 0.133486 0.133486
0.136263 0.136263 0.136263
0.139254 0.139254 0.139254
0.142458 0.142458 0.142458
0.146273 0.146273 0.146273
0.150790 0.150790 0.150790
0.156039 0.156039 0.156039
0.162448 0.162448 0.162448
0.170413 0.170413 0.170413
0.180606 0.180606 0.180606
0.193362 0.193362 0.193362
0.209018 0.209018 0.209018
0.227848 0.227848 0.227848
0.250156 0.250156 0.250156
0.276310 0.276310 0.276310
0.307012 0.307012 0.307012
0.343114 0.343114 0.343114
0.386358 0.386358 0.386358
0.438575 0.438575 0.438575
0.498787 0.498787 0.498787
0.563073 0.563073 0.563073
0.115236 0.115236 0.115236
0.115419 0.115419 0.115419
0.115785 0.115785 0.115785
0.116548 0.116548 0.116548
0.117617 0.117617 0.117617
0.120821 0.120821 0.120821
0.124941 0.124941 0.124941
0.130983 0.130983 0.130983
0.133028 0.133028 0.133028
0.135653 0.135653 0.135653
0.138643 0.138643 0.138643
0.140566 0.140566 0.140566
0.143008 0.143008 0.143008
0.145998 0.145998 0.145998
0.149416 0.149416 0.149416
0.153689 0.153689 0.153689
0.158694 0.158694 0.158694
0.164889 0.164889 0.164889
0.172152 0.172152 0.172152
0.181369 0.181369 0.181369
0.192752 0.192752 0.192752
0.206638 0.206638 0.206638
0.223392 0.223392 0.223392
0.243015 0.243015 0.243015
0.266209 0.266209 0.266209
0.293126 0.293126 0.293126
0.324865 0.324865 0.324865
0.362188 0.362188 0.362188
0.406836 0.406836 0.406836
0.460243 0.460243 0.460243
0.519799 0.519799 0.519799
0.581781 0.581781 0.581781
0.119234 0.119234 0.119234
0.119417 0.119417 0.119417
0.119753 0.119753 0.119753
0.120638 0.120638 0.120638
0.121859 0.121859 0.121859
0.123934 0.123934 0.123934
0.127749 0.127749 0.127749
0.132418 0.132418 0.132418
0.139528 0.139528 0.139528
0.141878 0.141878 0.141878
0.144717 0.144717 0.144717
0.148470 0.148470 0.148470
0.152255 0.152255 0.152255
0.155520 0.155520 0.155520
0.159579 0.159579 0.159579
0.164523 0.164523 0.164523
0.170535 0.170535 0.170535
0.177646 0.177646 0.177646
0.186221 0.186221 0.186221
0.196506 0.196506 0.196506
0.209110 0.209110 0.209110
0.223972 0.223972 0.223972
0.241672 0.241672 0.241672
0.262303 0.262303 0.262303
0.286259 0.286259 0.286259
0.314397 0.314397 0.314397
0.347143 0.347143 0.347143
0.385870 0.385870 0.385870
0.432319 0.432319 0.432319
0.486122 0.486122 0.486122
0.544274 0.544274 0.544274
0.602869 0.602869 0.602869
0.124269 0.124269 0.124269
0.124605 0.124605 0.124605
0.124941 0.124941 0.124941
0.125612 0.125612 0.125612
0.126925 0.126925 0.126925
0.128420 0.128420 0.128420
0.131472 0.131472 0.131472
0.135805 0.135805 0.135805
0.140566 0.140566 0.140566
0.148348 0.148348 0.148348
0.152895 0.152895 0.152895
0.157046 0.157046 0.157046
0.162570 0.162570 0.162570
0.169375 0.169375 0.169375
0.175082 0.175082 0.175082
0.180911 0.180911 0.180911
0.187991 0.187991 0.187991
0.196109 0.196109 0.196109
0.205447 0.205447 0.205447
0.216648 0.216648 0.216648
0.230137 0.230137 0.230137
0.245884 0.245884 0.245884
0.264378 0.264378 0.264378
0.285954 0.285954 0.285954
0.310918 0.310918 0.310918
0.339971 0.339971 0.339971
0.374243 0.374243 0.374243
0.414740 0.414740 0.414740
0.462531 0.462531 0.462531
0.515618 0.515618 0.515618
0.571191 0.571191 0.571191
0.625513 0.625513 0.625513
0.130190 0.130190 0.130190
0.130495 0.130495 0.130495
0.130831 0.130831 0.130831
0.131472 0.131472 0.131472
0.132570 0.132570 0.132570
0.133944 0.133944 0.133944
0.135805 0.135805 0.135805
0.139528 0.139528 0.139528
0.144167 0.144167 0.144167
0.150088 0.150088 0.150088
0.160220 0.160220 0.160220
0.169162 0.169162 0.169162
0.175540 0.175540 0.175540
0.183597 0.183597 0.183597
0.193240 0.193240 0.193240
0.204044 0.204044 0.204044
0.211612 0.211612 0.211612
0.220249 0.220249 0.220249
0.230137 0.230137 0.230137
0.241886 0.241886 0.241886
0.256016 0.256016 0.256016
0.272557 0.272557 0.272557
0.291814 0.291814 0.291814
0.314183 0.314183 0.314183
0.340185 0.340185 0.340185
0.370703 0.370703 0.370703
0.406531 0.406531 0.406531
0.448890 0.448890 0.448890
0.496529 0.496529 0.496529
0.547692 0.547692 0.547692
0.599634 0.599634 0.599634
0.648707 0.648707 0.648707
0.136416 0.136416 0.136416
0.136721 0.136721 0.136721
0.137026 0.137026 0.137026
0.137606 0.137606 0.137606
0.138491 0.138491 0.138491
0.139834 0.139834 0.139834
0.141573 0.141573 0.141573
0.144167 0.144167 0.144167
0.149020 0.149020 0.149020
0.155245 0.155245 0.155245
0.163668 0.163668 0.163668
0.177096 0.177096 0.177096
0.193454 0.193454 0.193454
0.202274 0.202274 0.202274
0.212680 0.212680 0.212680
0.224796 0.224796 0.224796
0.238285 0.238285 0.238285
0.250462 0.250462 0.250462
0.260441 0.260441 0.260441
0.272435 0.272435 0.272435
0.287022 0.287022 0.287022
0.303960 0.303960 0.303960
0.324102 0.324102 0.324102
0.347417 0.347417 0.347417
0.374762 0.374762 0.374762
0.406775 0.406775 0.406775
0.444343 0.444343 0.444343
0.486976 0.486976 0.486976
0.533165 0.533165 0.533165
0.581048 0.581048 0.581048
0.627924 0.627924 0.627924
0.672053 0.672053 0.672053
0.143008 0.143008 0.143008
0.143160 0.143160 0.143160
0.143435 0.143435 0.143435
0.144167 0.144167 0.144167
0.145144 0.145144 0.145144
0.146548 0.146548 0.146548
0.148348 0.148348 0.148348
0.150637 0.150637 0.150637
0.155123 0.155123 0.155123
0.162203 0.162203 0.162203
0.171450 0.171450 0.171450
0.183688 0.183688 0.183688
0.200473 0.200473 0.200473
0.225620 0.225620 0.225620
0.236423 0.236423 0.236423
0.248692 0.248692 0.248692
0.262516 0.262516 0.262516
0.277775 0.277775 0.277775
0.294713 0.294713 0.294713
0.308385 0.308385 0.308385
0.323156 0.323156 0.323156
0.340856 0.340856 0.340856
0.361608 0.361608 0.361608
0.386175 0.386175 0.386175
0.414923 0.414923 0.414923
0.448493 0.448493 0.448493
0.486244 0.486244 0.486244
0.527398 0.527398 0.527398
0.570764 0.570764 0.570764
0.614099 0.614099 0.614099
0.655543 0.655543 0.655543
0.695094 0.695094 0.695094
0.150912 0.150912 0.150912
0.151186 0.151186 0.151186
0.151431 0.151431 0.151431
0.152102 0.152102 0.152102
0.153292 0.153292 0.153292
0.154879 0.154879 0.154879
0.157046 0.157046 0.157046
0.159701 0.159701 0.159701
0.163180 0.163180 0.163180
0.170993 0.170993 0.170993
0.181460 0.181460 0.181460
0.194644 0.194644 0.194644
0.210727 0.210727 0.210727
0.229801 0.229801 0.229801
0.264042 0.264042 0.264042
0.276432 0.276432 0.276432
0.290288 0.290288 0.290288
0.305394 0.305394 0.305394
0.322484 0.322484 0.322484
0.342596 0.342596 0.342596
0.364904 0.364904 0.364904
0.383124 0.383124 0.383124
0.405005 0.405005 0.405005
0.430701 0.430701 0.430701
0.460517 0.460517 0.460517
0.493721 0.493721 0.493721
0.530053 0.530053 0.530053
0.568414 0.568414 0.568414
0.607355 0.607355 0.607355
0.645380 0.645380 0.645380
0.681910 0.681910 0.681910
0.717525 0.717525 0.717525
0.161227 0.161227 0.161227
0.161471 0.161471 0.161471
0.161959 0.161959 0.161959
0.162814 0.162814 0.162814
0.164157 0.164157 0.164157
0.166079 0.166079 0.166079
0.168673 0.168673 0.168673
0.172030 0.172030 0.172030
0.176120 0.176120 0.176120
0.182528 0.182528 0.182528
0.193851 0.193851 0.193851
0.207919 0.207919 0.207919
0.224460 0.224460 0.224460
0.243778 0.243778 0.243778
0.265751 0.265751 0.265751
0.307744 0.307744 0.307744
0.321477 0.321477 0.321477
0.336614 0.336614 0.336614
0.353826 0.353826 0.353826
0.374334 0.374334 0.374334
0.398413 0.398413 0.398413
0.426673 0.426673 0.426673
0.454170 0.454170 0.454170
0.479896 0.479896 0.479896
0.508721 0.508721 0.508721
0.540063 0.540063 0.540063
0.573388 0.573388 0.573388
0.607568 0.607568 0.607568
0.641413 0.641413 0.641413
0.674525 0.674525 0.674525
0.707027 0.707027 0.707027
0.739467 0.739467 0.739467
0.175082 0.175082 0.175082
0.175418 0.175418 0.175418
0.175875 0.175875 0.175875
0.177005 0.177005 0.177005
0.178653 0.178653 0.178653
0.181033 0.181033 0.181033
0.184115 0.184115 0.184115
0.187991 0.187991 0.187991
0.192752 0.192752 0.192752
0.198459 0.198459 0.198459
0.208835 0.208835 0.208835
0.223392 0.223392 0.223392
0.240360 0.240360 0.240360
0.259953 0.259953 0.259953
0.281926 0.281926 0.281926
0.306371 0.306371 0.306371
0.356359 0.356359 0.356359
0.371527 0.371527 0.371527
0.388861 0.388861 0.388861
0.409888 0.409888 0.409888
0.434546 0.434546 0.434546
0.462989 0.462989 0.462989
0.494514 0.494514 0.494514
0.528496 0.528496 0.528496
0.556542 0.556542 0.556542
0.584863 0.584863 0.584863
0.614069 0.614069 0.614069
0.643397 0.643397 0.643397
0.672633 0.672633 0.672633
0.701686 0.701686 0.701686
0.730953 0.730953 0.730953
0.760891 0.760891 0.760891
0.193240 0.193240 0.193240
0.193637 0.193637 0.193637
0.194156 0.194156 0.194156
0.195438 0.195438 0.195438
0.197391 0.197391 0.197391
0.199985 0.199985 0.199985
0.203494 0.203494 0.203494
0.207828 0.207828 0.207828
0.212955 0.212955 0.212955
0.219150 0.219150 0.219150
0.226291 0.226291 0.226291
0.241123 0.241123 0.241123
0.258335 0.258335 0.258335
0.277989 0.277989 0.277989
0.299870 0.299870 0.299870
0.324315 0.324315 0.324315
0.351141 0.351141 0.351141
0.405707 0.405707 0.405707
0.427924 0.427924 0.427924
0.449104 0.449104 0.449104
0.473548 0.473548 0.473548
0.500938 0.500938 0.500938
0.530785 0.530785 0.530785
0.562463 0.562463 0.562463
0.594903 0.594903 0.594903
0.625666 0.625666 0.625666
0.650385 0.650385 0.650385
0.675624 0.675624 0.675624
0.701167 0.701167 0.701167
0.727138 0.727138 0.727138
0.753872 0.753872 0.753872
0.781674 0.781674 0.781674
0.215244 0.215244 0.215244
0.215702 0.215702 0.215702
0.216312 0.216312 0.216312
0.217685 0.217685 0.217685
0.219760 0.219760 0.219760
0.222629 0.222629 0.222629
0.226383 0.226383 0.226383
0.230838 0.230838 0.230838
0.236332 0.236332 0.236332
0.242802 0.242802 0.242802
0.250248 0.250248 0.250248
0.260868 0.260868 0.260868
0.278294 0.278294 0.278294
0.297795 0.297795 0.297795
0.319829 0.319829 0.319829
0.344091 0.344091 0.344091
0.371008 0.371008 0.371008
0.400610 0.400610 0.400610
0.457893 0.457893 0.457893
0.490364 0.490364 0.490364
0.513512 0.513512 0.513512
0.539086 0.539086 0.539086
0.566552 0.566552 0.566552
0.595239 0.595239 0.595239
0.623957 0.623957 0.623957
0.652308 0.652308 0.652308
0.680110 0.680110 0.680110
0.704799 0.704799 0.704799
0.727474 0.727474 0.727474
0.751156 0.751156 0.751156
0.775875 0.775875 0.775875
0.801358 0.801358 0.801358
0.240665 0.240665 0.240665
0.241123 0.241123 0.241123
0.241825 0.241825 0.241825
0.243168 0.243168 0.243168
0.245426 0.245426 0.245426
0.248417 0.248417 0.248417
0.252262 0.252262 0.252262
0.256992 0.256992 0.256992
0.262730 0.262730 0.262730
0.269383 0.269383 0.269383
0.277012 0.277012 0.277012
0.285710 0.285710 0.285710
0.300389 0.300389 0.300389
0.320317 0.320317 0.320317
0.342565 0.342565 0.342565
0.367132 0.367132 0.367132
0.394507 0.394507 0.394507
0.424537 0.424537 0.424537
0.456825 0.456825 0.456825
0.512902 0.512902 0.512902
0.552880 0.552880 0.552880
0.576043 0.576043 0.576043
0.600580 0.600580 0.600580
0.625666 0.625666 0.625666
0.650843 0.650843 0.650843
0.676020 0.676020 0.676020
0.701015 0.701015 0.701015
0.726131 0.726131 0.726131
0.751583 0.751583 0.751583
0.773892 0.773892 0.773892
0.796567 0.796567 0.796567
0.819791 0.819791 0.819791
0.269841 0.269841 0.269841
0.270390 0.270390 0.270390
0.270970 0.270970 0.270970
0.272435 0.272435 0.272435
0.274723 0.274723 0.274723
0.277928 0.277928 0.277928
0.281926 0.281926 0.281926
0.286839 0.286839 0.286839
0.292760 0.292760 0.292760
0.299596 0.299596 0.299596
0.307469 0.307469 0.307469
0.316503 0.316503 0.316503
0.326604 0.326604 0.326604
0.346380 0.346380 0.346380
0.369085 0.369085 0.369085
0.394202 0.394202 0.394202
0.422126 0.422126 0.422126
0.452399 0.452399 0.452399
0.484169 0.484169 0.484169
0.516533 0.516533 0.516533
0.567285 0.567285 0.567285
0.610498 0.610498 0.610498
0.631739 0.631739 0.631739
0.653559 0.653559 0.653559
0.675715 0.675715 0.675715
0.698177 0.698177 0.698177
0.720912 0.720912 0.720912
0.744106 0.744106 0.744106
0.768002 0.768002 0.768002
0.792294 0.792294 0.792294
0.815824 0.815824 0.815824
0.836759 0.836759 0.836759
0.303319 0.303319 0.303319
0.303777 0.303777 0.303777
0.304540 0.304540 0.304540
0.306035 0.306035 0.306035
0.308446 0.308446 0.308446
0.311711 0.311711 0.311711
0.315831 0.315831 0.315831
0.320989 0.320989 0.320989
0.327031 0.327031 0.327031
0.334203 0.334203 0.334203
0.342443 0.342443 0.342443
0.351843 0.351843 0.351843
0.362371 0.362371 0.362371
0.376745 0.376745 0.376745
0.400092 0.400092 0.400092
0.425879 0.425879 0.425879
0.454231 0.454231 0.454231
0.483986 0.483986 0.483986
0.514519 0.514519 0.514519
0.545190 0.545190 0.545190
0.575097 0.575097 0.575097
0.617365 0.617365 0.617365
0.660029 0.660029 0.660029
0.679133 0.679133 0.679133
0.698817 0.698817 0.698817
0.719081 0.719081 0.719081
0.739925 0.739925 0.739925
0.761654 0.761654 0.761654
0.783963 0.783963 0.783963
0.806577 0.806577 0.806577
0.829068 0.829068 0.829068
0.850950 0.850950 0.850950
0.341588 0.341588 0.341588
0.342107 0.342107 0.342107
0.342901 0.342901 0.342901
0.344457 0.344457 0.344457
0.346990 0.346990 0.346990
0.350408 0.350408 0.350408
0.354772 0.354772 0.354772
0.360174 0.360174 0.360174
0.366522 0.366522 0.366522
0.373999 0.373999 0.373999
0.382696 0.382696 0.382696
0.392493 0.392493 0.392493
0.403479 0.403479 0.403479
0.415808 0.415808 0.415808
0.436011 0.436011 0.436011
0.462165 0.462165 0.462165
0.489754 0.489754 0.489754
0.518334 0.518334 0.518334
0.547051 0.547051 0.547051
0.575402 0.575402 0.575402
0.602686 0.602686 0.602686
0.628168 0.628168 0.628168
0.661341 0.661341 0.661341
0.702632 0.702632 0.702632
0.720363 0.720363 0.720363
0.738888 0.738888 0.738888
0.758297 0.758297 0.758297
0.778561 0.778561 0.778561
0.799283 0.799283 0.799283
0.820249 0.820249 0.820249
0.840909 0.840909 0.840909
0.861051 0.861051 0.861051
0.385657 0.385657 0.385657
0.386267 0.386267 0.386267
0.386999 0.386999 0.386999
0.388739 0.388739 0.388739
0.391363 0.391363 0.391363
0.395056 0.395056 0.395056
0.399634 0.399634 0.399634
0.405249 0.405249 0.405249
0.412024 0.412024 0.412024
0.419898 0.419898 0.419898
0.429084 0.429084 0.429084
0.439429 0.439429 0.439429
0.450874 0.450874 0.450874
0.463386 0.463386 0.463386
0.476997 0.476997 0.476997
0.501671 0.501671 0.501671
0.527886 0.527886 0.527886
0.554528 0.554528 0.554528
0.580865 0.580865 0.580865
0.606317 0.606317 0.606317
0.630396 0.630396 0.630396
0.652949 0.652949 0.652949
0.674128 0.674128 0.674128
0.700221 0.700221 0.700221
0.740658 0.740658 0.740658
0.757870 0.757870 0.757870
0.775937 0.775937 0.775937
0.794736 0.794736 0.794736
0.813931 0.813931 0.813931
0.833188 0.833188 0.833188
0.852140 0.852140 0.852140
0.870634 0.870634 0.870634
0.436652 0.436652 0.436652
0.437263 0.437263 0.437263
0.438117 0.438117 0.438117
0.439796 0.439796 0.439796
0.442634 0.442634 0.442634
0.446418 0.446418 0.446418
0.451240 0.451240 0.451240
0.457069 0.457069 0.457069
0.463996 0.463996 0.463996
0.471901 0.471901 0.471901
0.481025 0.481025 0.481025
0.491035 0.491035 0.491035
0.502007 0.502007 0.502007
0.514092 0.514092 0.514092
0.526940 0.526940 0.526940
0.543236 0.543236 0.543236
0.567346 0.567346 0.567346
0.591302 0.591302 0.591302
0.614588 0.614588 0.614588
0.636744 0.636744 0.636744
0.657771 0.657771 0.657771
0.677699 0.677699 0.677699
0.696590 0.696590 0.696590
0.714626 0.714626 0.714626
0.735470 0.735470 0.735470
0.774594 0.774594 0.774594
0.792691 0.792691 0.792691
0.810056 0.810056 0.810056
0.827726 0.827726 0.827726
0.845335 0.845335 0.845335
0.862669 0.862669 0.862669
0.879698 0.879698 0.879698
0.493050 0.493050 0.493050
0.493629 0.493629 0.493629
0.494392 0.494392 0.494392
0.496132 0.496132 0.496132
0.498787 0.498787 0.498787
0.502464 0.502464 0.502464
0.507012 0.507012 0.507012
0.512596 0.512596 0.512596
0.519097 0.519097 0.519097
0.526604 0.526604 0.526604
0.535058 0.535058 0.535058
0.544335 0.544335 0.544335
0.554406 0.554406 0.554406
0.565270 0.565270 0.565270
0.576745 0.576745 0.576745
0.588800 0.588800 0.588800
0.606409 0.606409 0.606409
0.627070 0.627070 0.627070
0.647059 0.647059 0.647059
0.666224 0.666224 0.666224
0.684627 0.684627 0.684627
0.702327 0.702327 0.702327
0.719356 0.719356 0.719356
0.735744 0.735744 0.735744
0.751705 0.751705 0.751705
0.768673 0.768673 0.768673
0.804898 0.804898 0.804898
0.824430 0.824430 0.824430
0.840574 0.840574 0.840574
0.856657 0.856657 0.856657
0.872526 0.872526 0.872526
0.888182 0.888182 0.888182
0.550713 0.550713 0.550713
0.551232 0.551232 0.551232
0.551995 0.551995 0.551995
0.553521 0.553521 0.553521
0.555901 0.555901 0.555901
0.559228 0.559228 0.559228
0.563378 0.563378 0.563378
0.568292 0.568292 0.568292
0.574090 0.574090 0.574090
0.580743 0.580743 0.580743
0.588128 0.588128 0.588128
0.596155 0.596155 0.596155
0.604852 0.604852 0.604852
0.614008 0.614008 0.614008
0.623651 0.623651 0.623651
0.633661 0.633661 0.633661
0.643977 0.643977 0.643977
0.661036 0.661036 0.661036
0.678187 0.678187 0.678187
0.694911 0.694911 0.694911
0.711147 0.711147 0.711147
0.726955 0.726955 0.726955
0.742428 0.742428 0.742428
0.757534 0.757534 0.757534
0.772335 0.772335 0.772335
0.786648 0.786648 0.786648
0.800412 0.800412 0.800412
0.832792 0.832792 0.832792
0.852537 0.852537 0.852537
0.867155 0.867155 0.867155
0.881743 0.881743 0.881743
0.896239 0.896239 0.896239
0.605859 0.605859 0.605859
0.606317 0.606317 0.606317
0.606897 0.606897 0.606897
0.608240 0.608240 0.608240
0.610193 0.610193 0.610193
0.613001 0.613001 0.613001
0.616449 0.616449 0.616449
0.620508 0.620508 0.620508
0.625299 0.625299 0.625299
0.630732 0.630732 0.630732
0.636774 0.636774 0.636774
0.643336 0.643336 0.643336
0.650477 0.650477 0.650477
0.658045 0.658045 0.658045
0.666011 0.666011 0.666011
0.674342 0.674342 0.674342
0.682948 0.682948 0.682948
0.693416 0.693416 0.693416
0.708309 0.708309 0.708309
0.722988 0.722988 0.722988
0.737545 0.737545 0.737545
0.751919 0.751919 0.751919
0.766079 0.766079 0.766079
0.779965 0.779965 0.779965
0.793484 0.793484 0.793484
0.806485 0.806485 0.806485
0.818997 0.818997 0.818997
0.830869 0.830869 0.830869
0.857786 0.857786 0.857786
0.876951 0.876951 0.876951
0.890349 0.890349 0.890349
0.903777 0.903777 0.903777
0.655024 0.655024 0.655024
0.655390 0.655390 0.655390
0.655848 0.655848 0.655848
0.656916 0.656916 0.656916
0.658564 0.658564 0.658564
0.660822 0.660822 0.660822
0.663569 0.663569 0.663569
0.666926 0.666926 0.666926
0.670893 0.670893 0.670893
0.675319 0.675319 0.675319
0.680262 0.680262 0.680262
0.685695 0.685695 0.685695
0.691615 0.691615 0.691615
0.697932 0.697932 0.697932
0.704616 0.704616 0.704616
0.711666 0.711666 0.711666
0.719081 0.719081 0.719081
0.726772 0.726772 0.726772
0.737789 0.737789 0.737789
0.751003 0.751003 0.750973
0.764157 0.764157 0.764157
0.777249 0.777249 0.777249
0.790127 0.790127 0.790127
0.802670 0.802670 0.802670
0.814786 0.814786 0.814786
0.826444 0.826444 0.826444
0.837583 0.837583 0.837583
0.848112 0.848112 0.848112
0.858061 0.858061 0.858061
0.880003 0.880003 0.880003
0.898405 0.898405 0.898405
0.910918 0.910918 0.910918
0.698726 0.698726 0.698726
0.699001 0.699001 0.699001
0.699428 0.699428 0.699428
0.700313 0.700313 0.700313
0.701686 0.701686 0.701686
0.703487 0.703487 0.703487
0.705837 0.705837 0.705837
0.708614 0.708614 0.708614
0.711910 0.711910 0.711910
0.715633 0.715633 0.715633
0.719844 0.719844 0.719844
0.724483 0.724483 0.724483
0.729519 0.729519 0.729519
0.734981 0.734981 0.734981
