cubelut/BW6.cube
# Created by Adobe Lightroom plugin Export LUT (1.18.0)
# www.johnrellis.com/lightroom/exportlut.htm
# Preset: SP-09
# Color profile: /Library/Application Support/Adobe/Color/Profiles/Recommended/AdobeRGB1998.icc
LUT_3D_SIZE 8
DOMAIN_MIN 0.000000 0.000000 0.000000
DOMAIN_MAX 0.903226 0.903226 0.903226
0.108125 0.108125 0.108125
0.109133 0.109133 0.109133
0.112428 0.112428 0.112428
0.121706 0.121706 0.121706
0.137758 0.137758 0.137758
0.160464 0.160464 0.160464
0.219059 0.219059 0.219059
0.345892 0.345892 0.345892
0.110689 0.110689 0.110689
0.113558 0.113558 0.113558
0.120821 0.120821 0.120821
0.130831 0.130831 0.130831
0.145296 0.145296 0.145296
0.172030 0.172030 0.172030
0.237736 0.237736 0.237736
0.370459 0.370459 0.370459
0.124269 0.124269 0.124269
0.126925 0.126925 0.126925
0.140566 0.140566 0.140566
0.162570 0.162570 0.162570
0.187991 0.187991 0.187991
0.230137 0.230137 0.230137
0.310918 0.310918 0.310918
0.462531 0.462531 0.462531
0.150912 0.150912 0.150912
0.153292 0.153292 0.153292
0.163180 0.163180 0.163180
0.210727 0.210727 0.210727
0.290288 0.290288 0.290288
0.364904 0.364904 0.364904
0.460517 0.460517 0.460517
0.607355 0.607355 0.607355
0.215244 0.215244 0.215244
0.219760 0.219760 0.219760
0.236332 0.236332 0.236332
0.278294 0.278294 0.278294
0.371008 0.371008 0.371008
0.513512 0.513512 0.513512
0.623957 0.623957 0.623957
0.727474 0.727474 0.727474
0.341588 0.341588 0.341588
0.346990 0.346990 0.346990
0.366522 0.366522 0.366522
0.403479 0.403479 0.403479
0.489754 0.489754 0.489754
0.602686 0.602686 0.602686
0.720363 0.720363 0.720363
0.799283 0.799283 0.799283
0.550713 0.550713 0.550713
0.555901 0.555901 0.555901
0.574090 0.574090 0.574090
0.604852 0.604852 0.604852
0.643977 0.643977 0.643977
0.711147 0.711147 0.711147
0.772335 0.772335 0.772335
0.852537 0.852537 0.852537
0.738796 0.738796 0.738796
0.741329 0.741329 0.741329
0.750210 0.750210 0.750210
0.765774 0.765774 0.765774
0.787076 0.787076 0.787076
0.817258 0.817258 0.817258
0.856168 0.856168 0.856168
0.889097 0.889097 0.889097
0.108736 0.108736 0.108736
0.110109 0.110109 0.110109
0.115785 0.115785 0.115785
0.125765 0.125765 0.125765
0.141146 0.141146 0.141146
0.164767 0.164767 0.164767
0.224125 0.224125 0.224125
0.348363 0.348363 0.348363
0.110323 0.110323 0.110323
0.115419 0.115419 0.115419
0.122377 0.122377 0.122377
0.133639 0.133639 0.133639
0.148470 0.148470 0.148470
0.176547 0.176547 0.176547
0.242557 0.242557 0.242557
0.372564 0.372564 0.372564
0.125612 0.125612 0.125612
0.131777 0.131777 0.131777
0.142885 0.142885 0.142885
0.165469 0.165469 0.165469
0.190433 0.190433 0.190433
0.233890 0.233890 0.233890
0.314336 0.314336 0.314336
0.463508 0.463508 0.463508
0.153811 0.153811 0.153811
0.158694 0.158694 0.158694
0.169375 0.169375 0.169375
0.215610 0.215610 0.215610
0.293431 0.293431 0.293431
0.365393 0.365393 0.365393
0.461555 0.461555 0.461555
0.607202 0.607202 0.607202
0.224125 0.224125 0.224125
0.228672 0.228672 0.228672
0.245365 0.245365 0.245365
0.284642 0.284642 0.284642
0.376471 0.376471 0.376471
0.515953 0.515953 0.515953
0.626337 0.626337 0.626337
0.727047 0.727047 0.727047
0.351141 0.351141 0.351141
0.356512 0.356512 0.356512
0.375952 0.375952 0.375952
0.412818 0.412818 0.412818
0.495613 0.495613 0.495613
0.606165 0.606165 0.606165
0.721309 0.721309 0.721309
0.800076 0.800076 0.800076
0.558160 0.558160 0.558160
0.563317 0.563317 0.563317
0.580926 0.580926 0.580926
0.610620 0.610620 0.610620
0.648585 0.648585 0.648585
0.713100 0.713100 0.713100
0.773617 0.773617 0.773617
0.853025 0.853025 0.853025
0.741238 0.741238 0.741238
0.743709 0.743709 0.743709
0.752499 0.752499 0.752499
0.767819 0.767819 0.767819
0.788846 0.788846 0.788846
0.818082 0.818082 0.818082
0.856779 0.856779 0.856779
0.889494 0.889494 0.889494
0.110109 0.110109 0.110109
0.111452 0.111452 0.111452
0.121004 0.121004 0.121004
0.143160 0.143160 0.143160
0.152651 0.152651 0.152651
0.170199 0.170199 0.170199
0.228519 0.228519 0.228519
0.344213 0.344213 0.344213
0.115236 0.115236 0.115236
0.119234 0.119234 0.119234
0.128725 0.128725 0.128725
0.146273 0.146273 0.146273
0.156161 0.156161 0.156161
0.181460 0.181460 0.181460
0.246342 0.246342 0.246342
0.367773 0.367773 0.367773
0.124605 0.124605 0.124605
0.130983 0.130983 0.130983
0.148898 0.148898 0.148898
0.163180 0.163180 0.163180
0.190433 0.190433 0.190433
0.236881 0.236881 0.236881
0.315953 0.315953 0.315953
0.457374 0.457374 0.457374
0.151980 0.151980 0.151980
0.158968 0.158968 0.158968
0.188296 0.188296 0.188296
0.230045 0.230045 0.230045
0.301579 0.301579 0.301579
0.362554 0.362554 0.362554
0.459419 0.459419 0.459419
0.601831 0.601831 0.601831
0.221103 0.221103 0.221103
0.233890 0.233890 0.233890
0.272496 0.272496 0.272496
0.304234 0.304234 0.304234
0.393469 0.393469 0.393469
0.523583 0.523583 0.523583
0.633021 0.633021 0.633021
0.724056 0.724056 0.724056
0.354620 0.354620 0.354620
0.369238 0.369238 0.369238
0.406409 0.406409 0.406409
0.443183 0.443183 0.443183
0.513725 0.513725 0.513725
0.617151 0.617151 0.617151
0.724483 0.724483 0.724483
0.802487 0.802487 0.802487
0.567132 0.567132 0.567132
0.579004 0.579004 0.579004
0.601678 0.601678 0.601678
0.628412 0.628412 0.628412
0.662776 0.662776 0.662776
0.719295 0.719295 0.719295
0.777890 0.777890 0.777890
0.854765 0.854765 0.854765
0.746822 0.746822 0.746822
0.751369 0.751369 0.751369
0.759762 0.759762 0.759762
0.774441 0.774441 0.774441
0.794614 0.794614 0.794614
0.820615 0.820615 0.820615
0.858640 0.858640 0.858640
0.890929 0.890929 0.890929
0.113924 0.113924 0.113924
0.116365 0.116365 0.116365
0.125093 0.125093 0.125093
0.142885 0.142885 0.142885
0.207553 0.207553 0.207553
0.240665 0.240665 0.240665
0.287144 0.287144 0.287144
0.354498 0.354498 0.354498
0.123415 0.123415 0.123415
0.125765 0.125765 0.125765
0.133333 0.133333 0.133333
0.149294 0.149294 0.149294
0.220432 0.220432 0.220432
0.247227 0.247227 0.247227
0.293065 0.293065 0.293065
0.358373 0.358373 0.358373
0.132876 0.132876 0.132876
0.138216 0.138216 0.138216
0.156405 0.156405 0.156405
0.178103 0.178103 0.178103
0.240665 0.240665 0.240665
0.269261 0.269261 0.269261
0.312505 0.312505 0.312505
0.424933 0.424933 0.424933
0.149569 0.149569 0.149569
0.155764 0.155764 0.155764
0.184115 0.184115 0.184115
0.253849 0.253849 0.253849
0.294652 0.294652 0.294652
0.352300 0.352300 0.352300
0.443977 0.443977 0.443977
0.579217 0.579217 0.579217
0.213840 0.213840 0.213840
0.225956 0.225956 0.225956
0.270451 0.270451 0.270451
0.348547 0.348547 0.348547
0.421515 0.421515 0.421515
0.535363 0.535363 0.535363
0.627161 0.627161 0.627161
0.714199 0.714199 0.714199
0.345892 0.345892 0.345892
0.360174 0.360174 0.360174
0.410773 0.410773 0.410773
0.489998 0.489998 0.489998
0.540490 0.540490 0.540490
0.634241 0.634241 0.634241
0.729488 0.729488 0.729488
0.805539 0.805539 0.805539
0.558404 0.558404 0.558404
0.570459 0.570459 0.570459
0.608545 0.608545 0.608545
0.653285 0.653285 0.653285
0.683406 0.683406 0.683406
0.728573 0.728573 0.728573
0.784939 0.784939 0.784939
0.857633 0.857633 0.857633
0.742306 0.742306 0.742306
0.747250 0.747250 0.747250
0.763760 0.763760 0.763760
0.784207 0.784207 0.784207
0.803281 0.803281 0.803281
0.826047 0.826047 0.826047
0.861448 0.861448 0.861448
0.893278 0.893278 0.893278
0.123079 0.123079 0.123079
0.125612 0.125612 0.125612
0.133944 0.133944 0.133944
0.146822 0.146822 0.146822
0.183902 0.183902 0.183902
0.314458 0.314458 0.314458
0.438636 0.438636 0.438636
0.532158 0.532158 0.532158
0.132570 0.132570 0.132570
0.134585 0.134585 0.134585
0.141299 0.141299 0.141299
0.154360 0.154360 0.154360
0.195712 0.195712 0.195712
0.329839 0.329839 0.329839
0.445106 0.445106 0.445106
0.535851 0.535851 0.535851
0.149142 0.149142 0.149142
0.157046 0.157046 0.157046
0.168795 0.168795 0.168795
0.189822 0.189822 0.189822
0.241215 0.241215 0.241215
0.384039 0.384039 0.384039
0.466255 0.466255 0.466255
0.546777 0.546777 0.546777
0.162325 0.162325 0.162325
0.170199 0.170199 0.170199
0.204685 0.204685 0.204685
0.276616 0.276616 0.276616
0.328313 0.328313 0.328313
0.445350 0.445350 0.445350
0.496193 0.496193 0.496193
0.556909 0.556909 0.556909
0.207553 0.207553 0.207553
0.218906 0.218906 0.218906
0.261265 0.261265 0.261265
0.340398 0.340398 0.340398
0.459602 0.459602 0.459602
0.520775 0.520775 0.520775
0.598413 0.598413 0.598413
0.685145 0.685145 0.685145
0.332708 0.332708 0.332708
0.346502 0.346502 0.346502
0.395514 0.395514 0.395514
0.483742 0.483742 0.483742
0.587823 0.587823 0.587823
0.655146 0.655146 0.655146
0.734615 0.734615 0.734615
0.800229 0.800229 0.800229
0.544335 0.544335 0.544335
0.556573 0.556573 0.556573
0.595972 0.595972 0.595972
0.651637 0.651637 0.651637
0.706538 0.706538 0.706538
0.739101 0.739101 0.739101
0.794217 0.794217 0.794217
0.861021 0.861021 0.861021
0.734981 0.734981 0.734981
0.740017 0.740017 0.740017
0.756802 0.756802 0.756802
0.783658 0.783658 0.783658
0.813352 0.813352 0.813352
0.834928 0.834928 0.834928
0.864744 0.864744 0.864744
0.896574 0.896574 0.896574
0.136110 0.136110 0.136110
0.138216 0.138216 0.138216
0.145571 0.145571 0.145571
0.160952 0.160952 0.160952
0.194736 0.194736 0.194736
0.279393 0.279393 0.279393
0.492287 0.492287 0.492287
0.691676 0.691676 0.691676
0.144015 0.144015 0.144015
0.145998 0.145998 0.145998
0.153689 0.153689 0.153689
0.171237 0.171237 0.171237
0.207736 0.207736 0.207736
0.294102 0.294102 0.294102
0.507378 0.507378 0.507378
0.693690 0.693690 0.693690
0.175418 0.175418 0.175418
0.178531 0.178531 0.178531
0.190738 0.190738 0.190738
0.216129 0.216129 0.216129
0.258061 0.258061 0.258061
0.346197 0.346197 0.346197
0.556573 0.556573 0.556573
0.699947 0.699947 0.699947
0.189120 0.189120 0.189120
0.202548 0.202548 0.202548
0.256352 0.256352 0.256352
0.309117 0.309117 0.309117
0.353948 0.353948 0.353948
0.440436 0.440436 0.440436
0.626337 0.626337 0.626337
0.707820 0.707820 0.707820
0.241825 0.241825 0.241825
0.253849 0.253849 0.253849
0.297704 0.297704 0.297704
0.377722 0.377722 0.377722
0.495033 0.495033 0.495033
0.563622 0.563622 0.563622
0.677638 0.677638 0.677638
0.714992 0.714992 0.714992
0.327184 0.327184 0.327184
0.340185 0.340185 0.340185
0.386481 0.386481 0.386481
0.470161 0.470161 0.470161
0.576928 0.576928 0.576928
0.681453 0.681453 0.681453
0.721828 0.721828 0.721828
0.773648 0.773648 0.773648
0.520836 0.520836 0.520836
0.533837 0.533837 0.533837
0.576165 0.576165 0.576165
0.635676 0.635676 0.635676
0.699397 0.699397 0.699397
0.763149 0.763149 0.763149
0.806851 0.806851 0.806851
0.864164 0.864164 0.864164
0.723842 0.723842 0.723842
0.729000 0.729000 0.729000
0.746181 0.746181 0.746181
0.773831 0.773831 0.773831
0.809415 0.809415 0.809415
0.846281 0.846281 0.846281
0.868864 0.868864 0.868864
0.901122 0.901122 0.901122
0.155642 0.155642 0.155642
0.158450 0.158450 0.158450
0.169619 0.169619 0.169619
0.194644 0.194644 0.194644
0.238895 0.238895 0.238895
0.314946 0.314946 0.314946
0.449866 0.449866 0.449866
0.688258 0.688258 0.688258
0.166537 0.166537 0.166537
0.169741 0.169741 0.169741
0.182223 0.182223 0.182223
0.209201 0.209201 0.209201
0.254734 0.254734 0.254734
0.330266 0.330266 0.330266
0.465431 0.465431 0.465431
0.695003 0.695003 0.695003
0.212619 0.212619 0.212619
0.216831 0.216831 0.216831
0.232609 0.232609 0.232609
0.263066 0.263066 0.263066
0.310582 0.310582 0.310582
0.384131 0.384131 0.384131
0.517144 0.517144 0.517144
0.716793 0.716793 0.716793
0.267430 0.267430 0.267430
0.283970 0.283970 0.283970
0.329107 0.329107 0.329107
0.361334 0.361334 0.361334
0.411109 0.411109 0.411109
0.479591 0.479591 0.479591
0.593408 0.593408 0.593408
0.749996 0.749996 0.749996
0.294591 0.294591 0.294591
0.306676 0.306676 0.306676
0.349889 0.349889 0.349889
0.455909 0.455909 0.455909
0.545708 0.545708 0.545708
0.599084 0.599084 0.599084
0.671748 0.671748 0.671748
0.791745 0.791745 0.791745
0.391638 0.391638 0.391638
0.404639 0.404639 0.404639
0.450752 0.450752 0.450752
0.526207 0.526207 0.526207
0.616602 0.616602 0.616602
0.705653 0.705653 0.705653
0.748043 0.748043 0.748043
0.826749 0.826749 0.826749
0.522240 0.522240 0.522240
0.533684 0.533684 0.533684
0.571374 0.571374 0.571374
0.626795 0.626795 0.626795
0.689784 0.689784 0.689784
0.755856 0.755856 0.755856
0.824369 0.824369 0.824369
0.853605 0.853605 0.853605
0.703578 0.703578 0.703578
0.709255 0.709255 0.709255
0.728023 0.728023 0.728023
0.758358 0.758358 0.758358
0.797452 0.797452 0.797452
0.840177 0.840177 0.840177
0.881010 0.881010 0.881010
0.907591 0.907591 0.907591
0.215244 0.215244 0.215244
0.220584 0.220584 0.220584
0.240269 0.240269 0.240269
0.277409 0.277409 0.277409
0.334783 0.334783 0.334783
0.415473 0.415473 0.415473
0.544060 0.544060 0.544060
0.671077 0.671077 0.671077
0.232792 0.232792 0.232792
0.238132 0.238132 0.238132
0.257694 0.257694 0.257694
0.294835 0.294835 0.294835
0.352178 0.352178 0.352178
0.433112 0.433112 0.433112
0.556970 0.556970 0.556970
0.678004 0.678004 0.678004
0.291875 0.291875 0.291875
0.297276 0.297276 0.297276
0.317174 0.317174 0.317144
0.354620 0.354620 0.354620
0.412696 0.412696 0.412696
0.491981 0.491981 0.491981
0.597284 0.597284 0.597284
0.700221 0.700221 0.700221
0.393408 0.393408 0.393408
0.399115 0.399115 0.399115
0.419745 0.419745 0.419745
0.458289 0.458289 0.458289
0.513237 0.513237 0.513237
0.578485 0.578485 0.578485
0.651728 0.651728 0.651728
0.733333 0.733333 0.733333
0.397284 0.397284 0.397284
0.415473 0.415473 0.415473
0.479744 0.479744 0.479744
0.579583 0.579583 0.579583
0.619196 0.619196 0.619196
0.663233 0.663233 0.663233
0.708583 0.708583 0.708583
0.775082 0.775082 0.775082
0.488930 0.488930 0.488930
0.499977 0.499977 0.499977
0.536522 0.536522 0.536522
0.592462 0.592462 0.592462
0.678676 0.678676 0.678676
0.741573 0.741573 0.741573
0.775113 0.775113 0.775113
0.822843 0.822843 0.822843
0.618433 0.618433 0.618433
0.625666 0.625666 0.625666
0.648981 0.648981 0.648981
0.685115 0.685115 0.685115
0.730465 0.730465 0.730465
0.782986 0.782986 0.782986
0.842405 0.842405 0.842405
0.871305 0.871305 0.871305
0.715694 0.715694 0.715694
0.720027 0.720027 0.720027
0.734768 0.734768 0.734768
0.759976 0.759976 0.759976
0.794095 0.794095 0.794095
0.834165 0.834165 0.834165
0.876097 0.876097 0.876097
0.917510 0.917510 0.917510
