cubelut/BW7.cube
# Created by Adobe Lightroom plugin Export LUT (1.18.0)
# www.johnrellis.com/lightroom/exportlut.htm
# Preset: Wood-Neck_Free-LR-Presets.co
# Color profile: /Library/Application Support/Adobe/Color/Profiles/Recommended/AdobeRGB1998.icc
LUT_3D_SIZE 8
DOMAIN_MIN 0.000000 0.000000 0.000000
DOMAIN_MAX 0.903226 0.903226 0.903226
0.142153 0.142153 0.142153
0.158846 0.158846 0.158846
0.191043 0.191043 0.191043
0.233799 0.233799 0.233799
0.288426 0.288426 0.288426
0.362707 0.362707 0.362707
0.463630 0.463630 0.463630
0.588342 0.588342 0.588342
0.204044 0.204044 0.204044
0.193637 0.193637 0.193637
0.173190 0.173190 0.173190
0.220249 0.220249 0.220249
0.275853 0.275853 0.275853
0.347387 0.347387 0.347387
0.445655 0.445655 0.445655
0.573846 0.573846 0.573846
0.319615 0.319615 0.319615
0.333165 0.333165 0.333165
0.287327 0.287327 0.287327
0.218631 0.218631 0.218631
0.242283 0.242283 0.242283
0.314733 0.314733 0.314733
0.417456 0.417456 0.417456
0.550927 0.550927 0.550927
0.479347 0.479347 0.479347
0.488167 0.488167 0.488167
0.521782 0.521782 0.521782
0.431495 0.431495 0.431495
0.338781 0.338781 0.338781
0.258000 0.258000 0.258000
0.350561 0.350561 0.350561
0.482918 0.482918 0.482918
0.638514 0.638514 0.638514
0.643183 0.643183 0.643183
0.660853 0.660853 0.660853
0.664698 0.664698 0.664698
0.582544 0.582544 0.582544
0.488624 0.488624 0.488624
0.391150 0.391150 0.391150
0.371923 0.371923 0.371923
0.746914 0.746914 0.746914
0.752865 0.752865 0.752865
0.761898 0.761898 0.761898
0.778225 0.778225 0.778225
0.760769 0.760769 0.760769
0.705623 0.705623 0.705623
0.655634 0.655634 0.655634
0.602594 0.602594 0.602594
0.841367 0.841367 0.841367
0.843626 0.843626 0.843626
0.848386 0.848386 0.848386
0.858152 0.858152 0.858152
0.871183 0.871183 0.871183
0.848325 0.848325 0.848325
0.810727 0.810727 0.810727
0.785306 0.785306 0.785306
0.919982 0.919982 0.919982
0.920775 0.920775 0.920775
0.924132 0.924132 0.924132
0.930846 0.930846 0.930846
0.935698 0.935698 0.935698
0.940429 0.940429 0.940429
0.929412 0.929412 0.929412
0.909606 0.909606 0.909606
0.163790 0.163790 0.163790
0.170901 0.170901 0.170901
0.223392 0.223392 0.223392
0.277470 0.277470 0.277470
0.325750 0.325750 0.325750
0.392798 0.392798 0.392798
0.484962 0.484962 0.484962
0.600641 0.600641 0.600641
0.186526 0.186526 0.186526
0.199496 0.199496 0.199496
0.226627 0.226627 0.226627
0.264775 0.264775 0.264775
0.313664 0.313664 0.313664
0.379919 0.379919 0.379919
0.469398 0.469398 0.469398
0.586694 0.586694 0.586694
0.301457 0.301457 0.301457
0.309178 0.309178 0.309178
0.290654 0.290654 0.290654
0.233249 0.233249 0.233249
0.277928 0.277928 0.277928
0.344945 0.344945 0.344945
0.437903 0.437903 0.437903
0.563378 0.563378 0.563378
0.458747 0.458747 0.458747
0.466316 0.466316 0.466316
0.502098 0.502098 0.502098
0.424353 0.424353 0.424353
0.338323 0.338323 0.338323
0.284276 0.284276 0.284276
0.372168 0.372168 0.372168
0.499214 0.499214 0.499214
0.627222 0.627222 0.627222
0.631373 0.631373 0.631373
0.648157 0.648157 0.648157
0.656092 0.656092 0.656092
0.573632 0.573632 0.573632
0.485298 0.485298 0.485298
0.392248 0.392248 0.392248
0.396582 0.396582 0.396582
0.738369 0.738369 0.738369
0.741268 0.741268 0.741268
0.750881 0.750881 0.750881
0.768612 0.768612 0.768612
0.756374 0.756374 0.756374
0.703548 0.703548 0.703548
0.654475 0.654475 0.654475
0.599664 0.599664 0.599664
0.833829 0.833829 0.833829
0.834745 0.834745 0.834745
0.840452 0.840452 0.840452
0.851896 0.851896 0.851896
0.866545 0.866545 0.866545
0.845121 0.845121 0.845121
0.806271 0.806271 0.806271
0.780056 0.780056 0.780056
0.916472 0.916472 0.916472
0.917693 0.917693 0.917693
0.921386 0.921386 0.921386
0.928466 0.928466 0.928466
0.936980 0.936980 0.936980
0.941344 0.941344 0.941344
0.928862 0.928862 0.928862
0.908019 0.908019 0.908019
0.204593 0.204593 0.204593
0.211612 0.211612 0.211612
0.231418 0.231418 0.231418
0.296086 0.296086 0.296086
0.385565 0.385565 0.385565
0.500542 0.500542 0.500542
0.581506 0.581506 0.581506
0.667811 0.667811 0.667811
0.227207 0.227207 0.227207
0.237278 0.237278 0.237278
0.250980 0.250980 0.250980
0.311498 0.311498 0.311498
0.399176 0.399176 0.399176
0.489631 0.489631 0.489631
0.569177 0.569177 0.569177
0.659113 0.659113 0.659113
0.271977 0.271977 0.271977
0.280034 0.280034 0.280034
0.303075 0.303075 0.303075
0.339330 0.339330 0.339330
0.392126 0.392126 0.392126
0.455879 0.455879 0.455879
0.538994 0.538994 0.538994
0.636561 0.636561 0.636561
0.429419 0.429419 0.429419
0.435981 0.435981 0.435981
0.461463 0.461463 0.461463
0.438666 0.438666 0.438666
0.365698 0.365698 0.365698
0.392554 0.392554 0.392554
0.479896 0.479896 0.479896
0.590753 0.590753 0.590753
0.608240 0.608240 0.608240
0.611536 0.611536 0.611536
0.624933 0.624933 0.624933
0.657588 0.657588 0.657588
0.585321 0.585321 0.585321
0.506828 0.506828 0.506828
0.415503 0.415503 0.415503
0.498665 0.498665 0.498665
0.727962 0.727962 0.727962
0.729763 0.729763 0.729763
0.737270 0.737270 0.737270
0.754879 0.754879 0.754879
0.755367 0.755367 0.755367
0.704372 0.704372 0.704372
0.660334 0.660334 0.660334
0.608362 0.608362 0.608362
0.828733 0.828733 0.828733
0.829374 0.829374 0.829374
0.833982 0.833982 0.833982
0.844755 0.844755 0.844755
0.859770 0.859770 0.859770
0.846006 0.846006 0.846006
0.809995 0.809995 0.809995
0.787533 0.787533 0.787533
0.913237 0.913237 0.913237
0.913634 0.913634 0.913634
0.917113 0.917113 0.917113
0.925322 0.925322 0.925322
0.934112 0.934112 0.934112
0.942199 0.942199 0.942199
0.930205 0.930205 0.930205
0.910063 0.910063 0.910063
0.259464 0.259464 0.259464
0.266361 0.266361 0.266361
0.285344 0.285344 0.285344
0.307195 0.307195 0.307195
0.386847 0.386847 0.386847
0.497322 0.497322 0.497322
0.615381 0.615381 0.615381
0.720974 0.720974 0.720974
0.285405 0.285405 0.285405
0.289860 0.289860 0.289860
0.303960 0.303960 0.303960
0.322972 0.322972 0.322972
0.401740 0.401740 0.401740
0.507988 0.507988 0.507988
0.620996 0.620996 0.620996
0.724208 0.724208 0.724208
0.311162 0.311162 0.311162
0.319127 0.319127 0.319127
0.353368 0.353368 0.353368
0.372168 0.372168 0.372168
0.452399 0.452399 0.452399
0.552239 0.552239 0.552239
0.653254 0.653254 0.653254
0.722744 0.722744 0.722744
0.388922 0.388922 0.388922
0.395697 0.395697 0.395697
0.418128 0.418128 0.418128
0.454597 0.454597 0.454597
0.498939 0.498939 0.498939
0.552575 0.552575 0.552575
0.617121 0.617121 0.617121
0.691096 0.691096 0.691096
0.575891 0.575891 0.575891
0.579004 0.579004 0.579004
0.592615 0.592615 0.592615
0.618799 0.618799 0.618799
0.598352 0.598352 0.598352
0.534386 0.534386 0.534386
0.546502 0.546502 0.546502
0.634028 0.634028 0.634028
0.713710 0.713710 0.713710
0.718074 0.718074 0.718074
0.723598 0.723598 0.723598
0.736995 0.736995 0.736995
0.761959 0.761959 0.761959
0.712612 0.712612 0.712612
0.672358 0.672358 0.672358
0.613519 0.613519 0.613519
0.819211 0.819211 0.819211
0.820798 0.820798 0.820798
0.825772 0.825772 0.825772
0.835904 0.835904 0.835904
0.852506 0.852506 0.852506
0.851194 0.851194 0.851194
0.814420 0.814420 0.814420
0.792477 0.792477 0.792477
0.910002 0.910002 0.910002
0.911009 0.911009 0.911009
0.913848 0.913848 0.913848
0.920195 0.920195 0.920195
0.929686 0.929686 0.929686
0.941283 0.941283 0.941283
0.932372 0.932372 0.932372
0.912383 0.912383 0.912383
0.331090 0.331090 0.331090
0.336828 0.336828 0.336828
0.353429 0.353429 0.353429
0.379431 0.379431 0.379431
0.406897 0.406897 0.406897
0.501579 0.501579 0.501579
0.616114 0.616114 0.616114
0.722560 0.722560 0.722560
0.353429 0.353429 0.353429
0.358373 0.358373 0.358373
0.371893 0.371893 0.371893
0.394110 0.394110 0.394110
0.420478 0.420478 0.420478
0.513146 0.513146 0.513146
0.623713 0.623713 0.623713
0.726650 0.726650 0.726650
0.392554 0.392554 0.392554
0.406439 0.406439 0.406439
0.420508 0.420508 0.420508
0.441840 0.441840 0.441840
0.463172 0.463172 0.463172
0.547204 0.547204 0.547204
0.645686 0.645686 0.645686
0.738582 0.738582 0.738582
0.438087 0.438087 0.438087
0.444556 0.444556 0.444556
0.466682 0.466682 0.466682
0.513024 0.513024 0.513024
0.532006 0.532006 0.532006
0.603632 0.603632 0.603632
0.682826 0.682826 0.682826
0.762844 0.762844 0.762844
0.530388 0.530388 0.530388
0.535363 0.535363 0.535363
0.551019 0.551019 0.551019
0.576226 0.576226 0.576226
0.606073 0.606073 0.606073
0.641352 0.641352 0.641352
0.685847 0.685847 0.685847
0.741024 0.741024 0.741024
0.680446 0.680446 0.680446
0.682826 0.682826 0.682826
0.690028 0.690028 0.690028
0.704402 0.704402 0.704402
0.726314 0.726314 0.726314
0.715236 0.715236 0.715236
0.676661 0.676661 0.676661
0.678920 0.678920 0.678920
0.801938 0.801938 0.801938
0.802914 0.802914 0.802914
0.807584 0.807584 0.807584
0.817411 0.817411 0.817411
0.833158 0.833158 0.833158
0.854276 0.854276 0.854276
0.816098 0.816098 0.816098
0.791226 0.791226 0.791226
0.899535 0.899535 0.899535
0.900298 0.900298 0.900298
0.903258 0.903258 0.903258
0.911559 0.911559 0.911559
0.921050 0.921050 0.921050
0.934386 0.934386 0.934386
0.934356 0.934356 0.934356
0.912779 0.912779 0.912779
0.430152 0.430152 0.430152
0.434668 0.434668 0.434668
0.447700 0.447700 0.447700
0.472450 0.472450 0.472450
0.503197 0.503197 0.503197
0.527001 0.527001 0.527001
0.624720 0.624720 0.624689
0.726711 0.726711 0.726711
0.445686 0.445686 0.445686
0.449165 0.449165 0.449165
0.460914 0.460914 0.460914
0.483558 0.483558 0.483558
0.512291 0.512291 0.512291
0.535180 0.535180 0.535180
0.630060 0.630060 0.630060
0.729732 0.729732 0.729732
0.496620 0.496620 0.496620
0.499397 0.499397 0.499397
0.509422 0.509422 0.509422
0.527123 0.527123 0.527123
0.550286 0.550286 0.550286
0.569268 0.569268 0.569268
0.652766 0.652766 0.652766
0.743771 0.743771 0.743771
0.514641 0.514641 0.514641
0.524681 0.524681 0.524681
0.559838 0.559838 0.559838
0.588739 0.588739 0.588739
0.606653 0.606653 0.606653
0.621363 0.621363 0.621363
0.689357 0.689357 0.689357
0.768093 0.768093 0.768093
0.585443 0.585443 0.585443
0.589380 0.589380 0.589380
0.602380 0.602380 0.602380
0.622614 0.622614 0.622614
0.655756 0.655756 0.655756
0.668666 0.668666 0.668666
0.725460 0.725460 0.725460
0.794949 0.794949 0.794949
0.657618 0.657618 0.657618
0.661067 0.661067 0.661067
0.669581 0.669581 0.669581
0.683223 0.683223 0.683223
0.700649 0.700649 0.700618
0.725643 0.725643 0.725643
0.757839 0.757839 0.757839
0.800443 0.800443 0.800443
0.779232 0.779232 0.779232
0.781643 0.781643 0.781643
0.787991 0.787991 0.787991
0.798581 0.798581 0.798581
0.813474 0.813474 0.813474
0.834379 0.834379 0.834379
0.822995 0.822995 0.822995
0.791745 0.791745 0.791745
0.888243 0.888243 0.888243
0.888975 0.888975 0.888975
0.892149 0.892149 0.892149
0.899260 0.899260 0.899260
0.909239 0.909239 0.909239
0.923003 0.923003 0.923003
0.939025 0.939025 0.939025
0.915221 0.915221 0.915221
0.556115 0.556115 0.556115
0.559838 0.559838 0.559838
0.570428 0.570428 0.570428
0.587518 0.587518 0.587518
0.608057 0.608057 0.608057
0.629114 0.629114 0.629114
0.645991 0.645991 0.645991
0.733120 0.733120 0.733120
0.568109 0.568109 0.568109
0.571130 0.571130 0.571130
0.580224 0.580224 0.580224
0.595087 0.595087 0.595087
0.614374 0.614374 0.614374
0.634546 0.634546 0.634546
0.650477 0.650477 0.650477
0.735500 0.735500 0.735500
0.602930 0.602930 0.602930
0.604822 0.604822 0.604822
0.611322 0.611322 0.611322
0.622919 0.622919 0.622919
0.638453 0.638453 0.638453
0.656428 0.656428 0.656428
0.670314 0.670314 0.670314
0.749172 0.749172 0.749172
0.631495 0.631495 0.631495
0.637354 0.637354 0.637354
0.652796 0.652796 0.652796
0.661616 0.661616 0.661616
0.673793 0.673793 0.673793
0.689174 0.689174 0.689174
0.700130 0.700130 0.700130
0.770291 0.770291 0.770291
0.652979 0.652979 0.652979
0.655177 0.655177 0.655177
0.662776 0.662776 0.662776
0.689937 0.689937 0.689937
0.711391 0.711391 0.711391
0.723720 0.723720 0.723720
0.734371 0.734371 0.734371
0.797604 0.797604 0.797604
0.711727 0.711727 0.711727
0.713405 0.713405 0.713405
0.719112 0.719112 0.719112
0.728267 0.728267 0.728267
0.740322 0.740322 0.740322
0.766842 0.766842 0.766842
0.778561 0.778561 0.778561
0.833341 0.833341 0.833341
0.768002 0.768002 0.768002
0.769436 0.769436 0.769436
0.773922 0.773922 0.773922
0.781704 0.781704 0.781704
0.792905 0.792905 0.792905
0.808621 0.808621 0.808621
0.830533 0.830533 0.830533
0.860960 0.860960 0.860960
0.867857 0.867857 0.867857
0.869139 0.869139 0.869139
0.874144 0.874144 0.874144
0.882414 0.882414 0.882414
0.893828 0.893828 0.893828
0.908019 0.908019 0.908019
0.926238 0.926238 0.926238
0.919371 0.919371 0.919371
0.696498 0.696498 0.696498
0.698146 0.698146 0.698146
0.702998 0.702998 0.702998
0.711788 0.711788 0.711788
0.723598 0.723598 0.723598
0.737942 0.737942 0.737942
0.751095 0.751095 0.751095
0.761959 0.761959 0.761959
0.701778 0.701778 0.701778
0.703273 0.703273 0.703273
0.707881 0.707881 0.707881
0.715999 0.715999 0.715999
0.727291 0.727291 0.727291
0.741115 0.741115 0.741115
0.753872 0.753872 0.753872
0.764401 0.764401 0.764401
0.718624 0.718624 0.718624
0.719783 0.719783 0.719783
0.723384 0.723384 0.723384
0.730861 0.730861 0.730861
0.740627 0.740627 0.740627
0.752834 0.752834 0.752834
0.764950 0.764950 0.764950
0.774533 0.774533 0.774533
0.742947 0.742947 0.742947
0.743954 0.743954 0.743954
0.747005 0.747005 0.747005
0.752926 0.752926 0.752926
0.761288 0.761288 0.761288
0.771969 0.771969 0.771969
0.783505 0.783505 0.783505
0.791806 0.791806 0.791806
0.745815 0.745815 0.745815
0.749233 0.749233 0.749233
0.760281 0.760281 0.760281
0.778714 0.778714 0.778714
0.785794 0.785794 0.785794
0.795224 0.795224 0.795224
0.807126 0.807126 0.807126
0.815305 0.815305 0.815305
0.782101 0.782101 0.782101
0.782712 0.782712 0.782712
0.784848 0.784848 0.784848
0.788205 0.788205 0.788205
0.804807 0.804807 0.804807
0.825071 0.825071 0.825071
0.836912 0.836912 0.836912
0.846311 0.846311 0.846311
0.830747 0.830747 0.830747
0.831357 0.831357 0.831357
0.833371 0.833371 0.833371
0.837217 0.837217 0.837217
0.842924 0.842924 0.842924
0.850919 0.850919 0.850919
0.872557 0.872557 0.872557
0.882872 0.882872 0.882872
0.875853 0.875853 0.875853
0.876402 0.876402 0.876402
0.878477 0.878477 0.878477
0.882536 0.882536 0.882536
0.888640 0.888640 0.888640
0.897276 0.897276 0.897276
0.909483 0.909483 0.909483
0.927214 0.927214 0.927214
