cubelut/BW7.cube
# Created by Adobe Lightroom plugin Export LUT (1.18.0)
# www.johnrellis.com/lightroom/exportlut.htm
# Preset: Wood-Neck_Free-LR-Presets.co
# Color profile: /Library/Application Support/Adobe/Color/Profiles/Recommended/AdobeRGB1998.icc
LUT_3D_SIZE 32
DOMAIN_MIN 0.0 0.0 0.0
DOMAIN_MAX 1.0 1.0 1.0
0.142153 0.142153 0.142153
0.144015 0.144015 0.144015
0.146273 0.146273 0.146273
0.151827 0.151827 0.151827
0.158846 0.158846 0.158846
0.166323 0.166323 0.166323
0.174075 0.174075 0.174075
0.182223 0.182223 0.182223
0.191043 0.191043 0.191043
0.200381 0.200381 0.200381
0.210819 0.210819 0.210819
0.221958 0.221958 0.221958
0.233799 0.233799 0.233799
0.246616 0.246616 0.246616
0.259953 0.259953 0.259953
0.273808 0.273808 0.273808
0.288426 0.288426 0.288426
0.303624 0.303624 0.303624
0.319738 0.319738 0.319738
0.340337 0.340337 0.340337
0.362707 0.362707 0.362707
0.386236 0.386236 0.386236
0.410895 0.410895 0.410895
0.436622 0.436622 0.436622
0.463630 0.463630 0.463630
0.492317 0.492317 0.492317
0.522759 0.522759 0.522759
0.555138 0.555138 0.555138
0.588342 0.588342 0.588342
0.621790 0.621790 0.621790
0.655665 0.655665 0.655665
0.690089 0.690089 0.690089
0.149416 0.149416 0.149416
0.148470 0.148470 0.148470
0.145296 0.145296 0.145296
0.148196 0.148196 0.148196
0.155764 0.155764 0.155764
0.163546 0.163546 0.163546
0.171695 0.171695 0.171695
0.180056 0.180056 0.180056
0.188998 0.188998 0.188998
0.198550 0.198550 0.198550
0.209018 0.209018 0.209018
0.220188 0.220188 0.220188
0.232151 0.232151 0.232151
0.244999 0.244999 0.244999
0.258213 0.258213 0.258213
0.272099 0.272099 0.272099
0.286534 0.286534 0.286534
0.301640 0.301640 0.301640
0.317662 0.317662 0.317662
0.337896 0.337896 0.337896
0.359655 0.359655 0.359655
0.382788 0.382788 0.382788
0.407080 0.407080 0.407080
0.432654 0.432654 0.432654
0.459419 0.459419 0.459419
0.488014 0.488014 0.488014
0.518486 0.518486 0.518486
0.551141 0.551141 0.551141
0.584619 0.584619 0.584619
0.618372 0.618372 0.618372
0.652491 0.652491 0.652491
0.687068 0.687068 0.687068
0.158572 0.158572 0.158572
0.161349 0.161349 0.161349
0.156558 0.156558 0.156558
0.150515 0.150515 0.150515
0.151705 0.151705 0.151705
0.159976 0.159976 0.159976
0.168551 0.168551 0.168551
0.177310 0.177310 0.177310
0.186313 0.186313 0.186313
0.196201 0.196201 0.196201
0.206638 0.206638 0.206638
0.217960 0.217960 0.217960
0.230198 0.230198 0.230198
0.243015 0.243015 0.243015
0.256352 0.256352 0.256352
0.270237 0.270237 0.270237
0.284581 0.284581 0.284581
0.299626 0.299626 0.299626
0.315709 0.315709 0.315709
0.335760 0.335760 0.335760
0.357275 0.357275 0.357275
0.380224 0.380224 0.380224
0.404303 0.404303 0.404303
0.429694 0.429694 0.429694
0.456397 0.456397 0.456397
0.484871 0.484871 0.484871
0.515496 0.515496 0.515496
0.548180 0.548180 0.548180
0.581933 0.581933 0.581933
0.615930 0.615930 0.615930
0.650263 0.650263 0.650263
0.685023 0.685023 0.685023
0.179080 0.179080 0.179080
0.181888 0.181888 0.181888
0.184756 0.184756 0.184756
0.173739 0.173739 0.173739
0.162936 0.162936 0.162936
0.152255 0.152255 0.152255
0.161715 0.161715 0.161715
0.171450 0.171450 0.171450
0.181155 0.181155 0.181155
0.191440 0.191440 0.191440
0.202274 0.202274 0.202274
0.213840 0.213840 0.213840
0.226200 0.226200 0.226200
0.239139 0.239139 0.239139
0.252567 0.252567 0.252567
0.266606 0.266606 0.266606
0.281041 0.281041 0.281041
0.295964 0.295964 0.295964
0.312383 0.312383 0.312383
0.331823 0.331823 0.331823
0.352697 0.352697 0.352697
0.375128 0.375128 0.375128
0.398962 0.398962 0.398962
0.424506 0.424506 0.424506
0.451637 0.451637 0.451637
0.480690 0.480690 0.480690
0.511833 0.511833 0.511833
0.544976 0.544976 0.544976
0.579217 0.579217 0.579217
0.613397 0.613397 0.613397
0.647700 0.647700 0.647700
0.682429 0.682429 0.682429
0.204044 0.204044 0.204044
0.206363 0.206363 0.206363
0.209567 0.209567 0.209567
0.209476 0.209476 0.209476
0.193637 0.193637 0.193637
0.179416 0.179416 0.179416
0.166201 0.166201 0.166201
0.162325 0.162325 0.162325
0.173190 0.173190 0.173190
0.184115 0.184115 0.184115
0.195438 0.195438 0.195438
0.207553 0.207553 0.207553
0.220249 0.220249 0.220249
0.233402 0.233402 0.233402
0.247074 0.247074 0.247074
0.261051 0.261051 0.261051
0.275853 0.275853 0.275853
0.290898 0.290898 0.290898
0.307988 0.307988 0.307988
0.326879 0.326879 0.326879
0.347387 0.347387 0.347387
0.369360 0.369360 0.369360
0.392981 0.392981 0.392981
0.418463 0.418463 0.418463
0.445655 0.445655 0.445655
0.474769 0.474769 0.474769
0.505943 0.505943 0.505943
0.539300 0.539300 0.539300
0.573846 0.573846 0.573846
0.608545 0.608545 0.608545
0.643275 0.643275 0.643275
0.678431 0.678431 0.678431
0.230045 0.230045 0.230045
0.232151 0.232151 0.232151
0.234684 0.234684 0.234684
0.240269 0.240269 0.240269
0.233188 0.233188 0.233188
0.214542 0.214542 0.214542
0.198062 0.198062 0.198062
0.183505 0.183505 0.183505
0.169955 0.169955 0.169955
0.175082 0.175082 0.175082
0.187045 0.187045 0.187045
0.199802 0.199802 0.199802
0.212772 0.212772 0.212772
0.226291 0.226291 0.226291
0.239963 0.239963 0.239963
0.254520 0.254520 0.254520
0.269322 0.269322 0.269322
0.284581 0.284581 0.284581
0.302159 0.302159 0.302159
0.320867 0.320867 0.320867
0.341131 0.341131 0.341131
0.363409 0.363409 0.363409
0.402655 0.402655 0.402655
0.429389 0.429389 0.429389
0.457465 0.457465 0.457465
0.487160 0.487160 0.487160
0.518425 0.518425 0.518425
0.551568 0.551568 0.551568
0.585229 0.585229 0.585229
0.618860 0.618860 0.618860
0.652583 0.652583 0.652583
0.686519 0.686519 0.686519
0.259678 0.259678 0.259678
0.261265 0.261265 0.261265
0.263615 0.263615 0.263615
0.268498 0.268498 0.268498
0.276158 0.276158 0.276158
0.259190 0.259190 0.259190
0.238285 0.238285 0.238285
0.220249 0.220249 0.220249
0.204318 0.204318 0.204318
0.189731 0.189731 0.189731
0.177768 0.177768 0.177768
0.191043 0.191043 0.191043
0.204807 0.204807 0.204807
0.218631 0.218631 0.218631
0.232853 0.232853 0.232853
0.247532 0.247532 0.247532
0.262577 0.262577 0.262577
0.278935 0.278935 0.278935
0.296849 0.296849 0.296849
0.316045 0.316045 0.316045
0.337377 0.337377 0.337377
0.360998 0.360998 0.360998
0.386847 0.386847 0.386847
0.414801 0.414801 0.414801
0.444221 0.444221 0.444221
0.475044 0.475044 0.475044
0.507134 0.507134 0.507134
0.540795 0.540795 0.540795
0.575494 0.575494 0.575494
0.609949 0.609949 0.609949
0.644373 0.644373 0.644373
0.679042 0.679042 0.679042
0.288243 0.288243 0.288243
0.289677 0.289677 0.289677
0.291691 0.291691 0.291691
0.296086 0.296086 0.296086
0.302861 0.302861 0.302861
0.303380 0.303380 0.303380
0.283757 0.283757 0.283757
0.261631 0.261631 0.261631
0.242954 0.242954 0.242954
0.226535 0.226535 0.226535
0.211093 0.211093 0.211093
0.196201 0.196201 0.196201
0.193637 0.193637 0.193637
0.207919 0.207919 0.207919
0.222538 0.222538 0.222538
0.237278 0.237278 0.237278
0.252842 0.252842 0.252842
0.269718 0.269718 0.269718
0.287022 0.287022 0.287022
0.305913 0.305913 0.305913
0.326604 0.326604 0.326604
0.349523 0.349523 0.349523
0.374731 0.374731 0.374731
0.402106 0.402106 0.402106
0.431312 0.431312 0.431312
0.461982 0.461982 0.461982
0.494148 0.494148 0.494148
0.528252 0.528252 0.528252
0.563836 0.563836 0.563836
0.599481 0.599481 0.599481
0.634974 0.634974 0.634974
0.670619 0.670619 0.670619
0.319615 0.319615 0.319615
0.320928 0.320928 0.320928
0.322820 0.322820 0.322820
0.326726 0.326726 0.326726
0.333165 0.333165 0.333165
0.341558 0.341558 0.341558
0.332586 0.332586 0.332586
0.311192 0.311192 0.311192
0.287327 0.287327 0.287327
0.267033 0.267033 0.267033
0.250980 0.250980 0.250980
0.234440 0.234440 0.234440
0.218631 0.218631 0.218631
0.202914 0.202914 0.202914
0.210636 0.210636 0.210636
0.225956 0.225956 0.225956
0.242283 0.242283 0.242283
0.258976 0.258976 0.258976
0.276158 0.276158 0.276158
0.294591 0.294591 0.294591
0.314733 0.314733 0.314733
0.337194 0.337194 0.337194
0.361944 0.361944 0.361944
0.388647 0.388647 0.388647
0.417456 0.417456 0.417456
0.448066 0.448066 0.448066
0.480293 0.480293 0.480293
0.514641 0.514641 0.514641
0.550927 0.550927 0.550927
0.587823 0.587823 0.587823
0.624353 0.624353 0.624353
0.660945 0.660945 0.660945
0.354589 0.354589 0.354589
0.355779 0.355779 0.355779
0.357549 0.357549 0.357549
0.361212 0.361212 0.361212
0.367071 0.367071 0.367071
0.374945 0.374945 0.374945
0.384710 0.384710 0.384710
0.364721 0.364721 0.364721
0.341283 0.341283 0.341283
0.315618 0.315618 0.315618
0.292546 0.292546 0.292546
0.276616 0.276616 0.276616
0.259464 0.259464 0.259464
0.242496 0.242496 0.242496
0.226200 0.226200 0.226200
0.213504 0.213504 0.213504
0.229709 0.229709 0.229709
0.246708 0.246708 0.246708
0.264103 0.264103 0.264103
0.282444 0.282444 0.282444
0.302098 0.302098 0.302098
0.323583 0.323583 0.323583
0.347143 0.347143 0.347143
0.373053 0.373053 0.373053
0.401038 0.401038 0.401038
0.431189 0.431189 0.431189
0.463447 0.463447 0.463447
0.498177 0.498177 0.498177
0.535454 0.535454 0.535454
0.574151 0.574151 0.574151
0.612573 0.612573 0.612573
0.650752 0.650752 0.650752
0.391943 0.391943 0.391943
0.393103 0.393103 0.393103
0.394720 0.394720 0.394720
0.398260 0.398260 0.398260
0.403693 0.403693 0.403693
0.411139 0.411139 0.411139
0.420508 0.420508 0.420508
0.421973 0.421973 0.421973
0.399756 0.399756 0.399756
0.374731 0.374731 0.374731
0.347021 0.347021 0.347021
0.320531 0.320531 0.320531
0.305180 0.305180 0.305180
0.287449 0.287449 0.287449
0.269780 0.269780 0.269780
0.252262 0.252262 0.252262
0.234379 0.234379 0.234379
0.232364 0.232364 0.232364
0.249882 0.249882 0.249882
0.268040 0.268040 0.268040
0.287449 0.287449 0.287449
0.308324 0.308324 0.308324
0.331304 0.331304 0.331304
0.356634 0.356634 0.356634
0.384192 0.384192 0.384192
0.413855 0.413855 0.413855
0.445960 0.445960 0.445960
0.480629 0.480629 0.480629
0.518059 0.518059 0.518059
0.557824 0.557824 0.557824
0.598047 0.598047 0.598047
0.637720 0.637720 0.637720
0.432319 0.432319 0.432319
0.433387 0.433387 0.433387
0.434852 0.434852 0.434852
0.438087 0.438087 0.438087
0.443183 0.443183 0.443183
0.450080 0.450080 0.450080
0.458808 0.458808 0.458808
0.469245 0.469245 0.469245
0.460456 0.460456 0.460456
0.437171 0.437171 0.437171
0.410986 0.410986 0.410986
0.383734 0.383734 0.383734
0.363928 0.363928 0.363928
0.348302 0.348302 0.348302
0.327306 0.327306 0.327306
0.306554 0.306554 0.306554
0.286137 0.286137 0.286137
0.265873 0.265873 0.265873
0.245792 0.245792 0.245792
0.256931 0.256931 0.256931
0.276616 0.276616 0.276616
0.297704 0.297704 0.297704
0.320378 0.320378 0.320378
0.345312 0.345312 0.345312
0.372595 0.372595 0.372595
0.402197 0.402197 0.402197
0.434241 0.434241 0.434241
0.468879 0.468879 0.468879
0.506462 0.506462 0.506462
0.546715 0.546715 0.546715
0.587945 0.587945 0.587945
0.628748 0.628748 0.628748
0.479347 0.479347 0.479347
0.480354 0.480354 0.480354
0.481422 0.481422 0.481422
0.484016 0.484016 0.484016
0.488167 0.488167 0.488167
0.493904 0.493904 0.493904
0.501366 0.501366 0.501366
0.510521 0.510521 0.510521
0.521782 0.521782 0.521782
0.505180 0.505180 0.505180
0.484230 0.484230 0.484230
0.459602 0.459602 0.459602
0.431495 0.431495 0.431495
0.399084 0.399084 0.399084
0.384039 0.384039 0.384039
0.361608 0.361608 0.361608
0.338781 0.338781 0.338781
0.316228 0.316228 0.316228
0.294408 0.294408 0.294408
0.273167 0.273167 0.273167
0.258000 0.258000 0.258000
0.278569 0.278569 0.278569
0.300511 0.300511 0.300511
0.324376 0.324376 0.324376
0.350561 0.350561 0.350561
0.379370 0.379370 0.379370
0.410773 0.410773 0.410773
0.445289 0.445289 0.445289
0.482918 0.482918 0.482918
0.523857 0.523857 0.523857
0.567163 0.567163 0.567163
0.610529 0.610529 0.610529
0.520653 0.520653 0.520653
0.521508 0.521508 0.521508
0.522545 0.522545 0.522545
0.524804 0.524804 0.524804
0.528344 0.528344 0.528344
0.534112 0.534112 0.534112
0.541985 0.541985 0.541985
0.551446 0.551446 0.551446
0.562371 0.562371 0.562371
0.566339 0.566339 0.566339
0.548394 0.548394 0.548394
0.527062 0.527062 0.527062
0.501823 0.501823 0.501823
0.472328 0.472328 0.472328
0.438392 0.438392 0.438392
0.421515 0.421515 0.421515
0.397284 0.397284 0.397284
0.373022 0.373022 0.373022
0.348852 0.348852 0.348852
0.325597 0.325597 0.325597
0.303075 0.303075 0.303075
0.280674 0.280674 0.280674
0.279850 0.279850 0.279850
0.302800 0.302800 0.302800
0.327947 0.327947 0.327947
0.355749 0.355749 0.355749
0.386481 0.386481 0.386481
0.420325 0.420325 0.420325
0.457740 0.457740 0.457740
0.499092 0.499092 0.499092
0.543816 0.543816 0.543816
0.590082 0.590082 0.590082
0.565087 0.565087 0.565087
0.565942 0.565942 0.565942
0.566796 0.566796 0.566796
0.568963 0.568963 0.568963
0.572229 0.572229 0.572229
0.576776 0.576776 0.576776
0.582605 0.582605 0.582605
0.589776 0.589776 0.589776
0.598383 0.598383 0.598383
0.608362 0.608362 0.608362
0.603479 0.603479 0.603479
0.586908 0.586908 0.586908
0.566796 0.566796 0.566796
0.541985 0.541985 0.541985
0.512108 0.512108 0.512108
0.477302 0.477302 0.477302
0.459052 0.459052 0.459052
0.434089 0.434089 0.434089
0.409277 0.409277 0.409277
0.384833 0.384833 0.384833
0.360723 0.360723 0.360723
0.336675 0.336675 0.336675
0.312505 0.312505 0.312505
0.288121 0.288121 0.288121
0.304295 0.304295 0.304295
0.330938 0.330938 0.330938
0.360723 0.360723 0.360723
0.394263 0.394232 0.394232
0.431708 0.431708 0.431708
0.473610 0.473610 0.473610
0.519707 0.519707 0.519707
0.569207 0.569207 0.569207
0.604913 0.604913 0.604913
0.605737 0.605737 0.605737
0.606561 0.606561 0.606561
0.608270 0.608270 0.608270
0.610956 0.610956 0.610956
0.614740 0.614740 0.614740
0.619593 0.619593 0.619593
0.625605 0.625605 0.625605
0.632624 0.632624 0.632624
0.640650 0.640650 0.640650
0.649561 0.649561 0.649561
0.637018 0.637018 0.637018
0.620874 0.620874 0.620874
0.601312 0.601312 0.601312
0.577569 0.577569 0.577569
0.548669 0.548669 0.548669
0.514427 0.514427 0.514427
0.495003 0.495003 0.495003
0.471962 0.471962 0.471962
0.448157 0.448157 0.448157
0.424353 0.424353 0.424353
0.400092 0.400092 0.400092
0.375372 0.375372 0.375372
0.349828 0.349828 0.349828
0.323400 0.323400 0.323400
0.306157 0.306157 0.306157
0.334569 0.334569 0.334569
0.366888 0.366888 0.366888
0.403632 0.403632 0.403632
0.444800 0.444800 0.444800
0.490944 0.490944 0.490944
0.541588 0.541588 0.541588
0.638514 0.638514 0.638514
0.639033 0.639033 0.639033
0.639582 0.639582 0.639582
0.641016 0.641016 0.641016
0.643183 0.643183 0.643183
0.646204 0.646204 0.646204
0.650141 0.650141 0.650141
0.655024 0.655024 0.655024
0.660853 0.660853 0.660853
0.667475 0.667475 0.667475
0.674952 0.674952 0.674952
0.677424 0.677424 0.677424
0.664698 0.664698 0.664698
0.649378 0.649378 0.649378
0.631006 0.631006 0.631006
0.608972 0.608972 0.608972
0.582544 0.582544 0.582544
0.550866 0.550866 0.550866
0.530663 0.530663 0.530663
0.511009 0.511009 0.511009
0.488624 0.488624 0.488624
0.465736 0.465736 0.465736
0.441901 0.441901 0.441901
0.417243 0.417243 0.417243
0.391150 0.391150 0.391150
0.363531 0.363531 0.363531
0.334478 0.334478 0.334478
0.336767 0.336767 0.336767
0.371923 0.371923 0.371923
0.412146 0.412146 0.412146
0.457832 0.457832 0.457832
0.509239 0.509239 0.509239
0.668910 0.668910 0.668910
0.669581 0.669581 0.669581
0.679774 0.679774 0.679774
0.680842 0.680842 0.680842
0.682460 0.682460 0.682460
0.684657 0.684657 0.684657
0.687495 0.687495 0.687495
0.691096 0.691096 0.691096
0.695521 0.695521 0.695521
0.700679 0.700679 0.700679
0.706538 0.706538 0.706538
0.712917 0.712917 0.712917
0.708766 0.708766 0.708766
0.696498 0.696498 0.696498
0.681910 0.681910 0.681910
0.664668 0.664668 0.664668
0.644221 0.644221 0.644221
0.620172 0.620172 0.620172
0.591638 0.591638 0.591638
0.572137 0.572137 0.572137
0.556023 0.556023 0.556023
0.535363 0.535363 0.535363
0.513512 0.513512 0.513512
0.490608 0.490608 0.490608
0.465919 0.465919 0.465919
0.439582 0.439582 0.439582
0.411017 0.411017 0.411017
0.380438 0.380438 0.380438
0.347387 0.347387 0.347387
0.376379 0.376379 0.376379
0.420600 0.420600 0.420600
0.471473 0.471473 0.471473
0.698787 0.698787 0.698787
0.700343 0.700343 0.700343
0.702022 0.702022 0.702022
0.704036 0.704036 0.704036
0.706294 0.706294 0.706294
0.708583 0.708583 0.708583
0.711238 0.711238 0.711238
0.714321 0.714321 0.714321
0.718135 0.718135 0.718135
0.722560 0.722560 0.722560
0.727626 0.727626 0.727626
0.733181 0.733181 0.733181
0.739010 0.739010 0.739010
0.729732 0.729732 0.729732
0.718044 0.718044 0.718044
0.704311 0.704311 0.704311
0.688380 0.688380 0.688380
0.669856 0.669856 0.669856
0.648066 0.648066 0.648066
0.622766 0.622766 0.622766
0.604395 0.604395 0.604395
0.592889 0.592889 0.592889
0.575830 0.575830 0.575830
0.557336 0.557336 0.557336
0.536645 0.536645 0.536645
0.514153 0.514153 0.514153
0.489631 0.489631 0.489631
0.462806 0.462806 0.462806
0.433234 0.433234 0.433234
0.399878 0.399878 0.399878
0.380407 0.380407 0.380407
0.429511 0.429511 0.429511
0.723293 0.723293 0.723293
0.724666 0.724666 0.724666
0.726131 0.726131 0.726131
0.727901 0.727901 0.727901
0.729885 0.729885 0.729885
0.731930 0.731930 0.731930
0.734218 0.734218 0.734218
0.736934 0.736934 0.736934
0.740261 0.740261 0.740261
0.744167 0.744167 0.744167
0.748623 0.748623 0.748623
0.753536 0.753536 0.753536
0.758724 0.758724 0.758724
0.760220 0.760220 0.760220
0.750454 0.750454 0.750454
0.739254 0.739254 0.739254
0.726467 0.726467 0.726467
0.711788 0.711788 0.711788
0.695064 0.695064 0.695064
0.675807 0.675807 0.675807
0.653315 0.653315 0.653315
0.636011 0.636011 0.636011
0.628260 0.628260 0.628260
0.614466 0.614466 0.614466
0.599268 0.599268 0.599268
0.582513 0.582513 0.582513
0.563836 0.563836 0.563836
0.542809 0.542809 0.542809
0.519280 0.519280 0.519280
0.492531 0.492531 0.492531
0.461341 0.461341 0.461341
0.424140 0.424140 0.424140
0.746914 0.746914 0.746914
0.748135 0.748135 0.748135
0.749508 0.749508 0.749508
0.751095 0.751095 0.751095
0.752865 0.752865 0.752865
0.754635 0.754635 0.754635
0.756649 0.756649 0.756649
0.759060 0.759060 0.759060
0.761898 0.761898 0.761898
0.765347 0.765347 0.765347
0.769284 0.769284 0.769284
0.773617 0.773617 0.773617
0.778225 0.778225 0.778225
0.783139 0.783139 0.783139
0.780148 0.780148 0.780148
0.771084 0.771084 0.771084
0.760769 0.760769 0.760769
0.749355 0.749355 0.749355
0.736507 0.736507 0.736507
0.722042 0.722042 0.722042
0.705623 0.705623 0.705623
0.686519 0.686519 0.686519
0.670527 0.670527 0.670527
0.666316 0.666316 0.666316
0.655634 0.655634 0.655634
0.644099 0.644099 0.644099
0.631464 0.631464 0.631464
0.617792 0.617792 0.617792
0.602594 0.602594 0.602594
0.585229 0.585229 0.585229
0.564355 0.564355 0.564355
0.538445 0.538445 0.538445
0.773800 0.773800 0.773800
0.774441 0.774441 0.774441
0.775082 0.775082 0.775082
0.776059 0.776059 0.776059
0.777249 0.777249 0.777249
0.778653 0.778653 0.778653
0.780392 0.780392 0.780392
0.782589 0.782589 0.782589
0.785306 0.785306 0.785306
0.788479 0.788479 0.788479
0.792172 0.792172 0.792172
0.796109 0.796109 0.796109
0.800320 0.800320 0.800320
0.804685 0.804685 0.804685
0.809262 0.809262 0.809262
0.802457 0.802457 0.802457
0.793912 0.793912 0.793912
0.784329 0.784329 0.784329
0.773709 0.773709 0.773709
0.761746 0.761746 0.761746
0.748287 0.748287 0.748287
0.733120 0.733120 0.733120
0.715572 0.715572 0.715572
0.699733 0.699733 0.699733
0.697871 0.697871 0.697871
0.689693 0.689693 0.689693
0.681086 0.681086 0.681086
0.672084 0.672084 0.672084
0.662562 0.662562 0.662562
0.652064 0.652064 0.652064
0.640253 0.640253 0.640253
0.626642 0.626642 0.626642
0.796231 0.796231 0.796231
0.796841 0.796841 0.796841
0.797482 0.797482 0.797482
0.798367 0.798367 0.798367
0.799435 0.799435 0.799435
0.800626 0.800626 0.800626
0.802121 0.802121 0.802121
0.803952 0.803952 0.803952
0.806271 0.806271 0.806271
0.809049 0.809049 0.809049
0.812253 0.812253 0.812253
0.815763 0.815763 0.815763
0.819486 0.819486 0.819486
0.823453 0.823453 0.823453
0.827665 0.827665 0.827665
0.829160 0.829160 0.829160
0.822293 0.822293 0.822293
0.814603 0.814603 0.814603
0.806027 0.806027 0.806027
0.796445 0.796445 0.796445
0.785672 0.785672 0.785672
0.773556 0.773556 0.773556
0.759915 0.759915 0.759915
0.744228 0.744228 0.744228
0.726131 0.726131 0.726131
0.726162 0.726162 0.726162
0.720729 0.720729 0.720729
0.714992 0.714992 0.714992
0.709224 0.709224 0.709224
0.703395 0.703395 0.703395
0.697414 0.697414 0.697414
0.691432 0.691432 0.691432
0.820920 0.820920 0.820920
0.821561 0.821561 0.821561
0.822080 0.822080 0.822080
0.822690 0.822690 0.822690
0.823423 0.823423 0.823423
0.824338 0.824338 0.824338
0.825437 0.825437 0.825437
0.826810 0.826810 0.826810
0.828519 0.828519 0.828519
0.830625 0.830625 0.830625
0.833066 0.833066 0.833066
0.835904 0.835904 0.835904
0.838987 0.838987 0.838987
0.842283 0.842283 0.842283
0.845670 0.845670 0.845670
0.849271 0.849271 0.849271
0.847166 0.847166 0.847166
0.840696 0.840696 0.840696
0.833707 0.833707 0.833707
0.826047 0.826047 0.826047
0.817563 0.817563 0.817563
0.807980 0.807980 0.807980
0.796902 0.796902 0.796902
0.784176 0.784176 0.784176
0.769436 0.769436 0.769436
0.753597 0.753597 0.753597
0.755001 0.755001 0.755001
0.752377 0.752377 0.752377
0.749020 0.749020 0.749020
0.746029 0.746029 0.746029
0.743740 0.743740 0.743740
0.742275 0.742275 0.742275
0.841367 0.841367 0.841367
0.841917 0.841917 0.841917
0.842435 0.842435 0.842435
0.842985 0.842985 0.842985
0.843626 0.843626 0.843626
0.844419 0.844419 0.844419
0.845457 0.845457 0.845457
0.846769 0.846769 0.846769
0.848386 0.848386 0.848386
0.850370 0.850370 0.850370
0.852659 0.852659 0.852659
0.855283 0.855283 0.855283
0.858152 0.858152 0.858152
0.861173 0.861173 0.861173
0.864317 0.864317 0.864317
0.867643 0.867643 0.867643
0.871183 0.871183 0.871183
0.866667 0.866667 0.866667
0.861082 0.861082 0.861082
0.855039 0.855039 0.855039
0.848325 0.848325 0.848325
0.840787 0.840787 0.840787
0.832151 0.832151 0.832151
0.822232 0.822232 0.822232
0.810727 0.810727 0.810727
0.797482 0.797482 0.797482
0.782162 0.782162 0.782162
0.784848 0.784848 0.784848
0.785306 0.785306 0.785306
0.784604 0.784604 0.784604
0.785061 0.785061 0.785061
0.786679 0.786679 0.786679
0.862058 0.862058 0.862058
0.862486 0.862486 0.862486
0.862760 0.862760 0.862760
0.863157 0.863157 0.863157
0.863584 0.863584 0.863584
0.864225 0.864225 0.864225
0.865049 0.865049 0.865049
0.866117 0.866117 0.866117
0.867521 0.867521 0.867521
0.869261 0.869261 0.869261
0.871305 0.871305 0.871305
0.873716 0.873716 0.873716
0.876310 0.876310 0.876310
0.879057 0.879057 0.879057
0.881865 0.881865 0.881865
0.884825 0.884825 0.884825
0.887938 0.887938 0.887938
0.889311 0.889311 0.889311
0.884886 0.884886 0.884886
0.880125 0.880125 0.880125
0.874846 0.874846 0.874846
0.868986 0.868986 0.868986
0.862272 0.862272 0.862272
0.854643 0.854643 0.854643
0.845823 0.845823 0.845823
0.835599 0.835599 0.835599
0.823880 0.823880 0.823880
0.810300 0.810300 0.810300
0.812955 0.812955 0.812955
0.816373 0.816373 0.816373
0.818570 0.818570 0.818570
0.822141 0.822141 0.822141
0.881102 0.881102 0.881102
0.881407 0.881407 0.881407
0.881651 0.881651 0.881651
0.882017 0.882017 0.882017
0.882536 0.882536 0.882536
0.883330 0.883330 0.883330
0.884489 0.884489 0.884489
0.885924 0.885924 0.885924
0.887724 0.887724 0.887724
0.889830 0.889830 0.889830
0.892180 0.892180 0.892180
0.894743 0.894743 0.894743
0.897429 0.897429 0.897429
0.900114 0.900114 0.900114
0.902831 0.902831 0.902831
0.905516 0.905516 0.905516
0.908324 0.908324 0.908324
0.911284 0.911284 0.911284
0.910552 0.910552 0.910552
0.906950 0.906950 0.906950
0.902983 0.902983 0.902983
0.898528 0.898528 0.898528
0.893492 0.893492 0.893492
0.887755 0.887755 0.887755
0.881132 0.881132 0.881132
0.873564 0.873564 0.873564
0.864866 0.864866 0.864866
0.854856 0.854856 0.854856
0.843442 0.843442 0.843442
0.846311 0.846311 0.846311
0.852384 0.852384 0.852384
0.857176 0.857176 0.857176
0.902708 0.902708 0.902708
0.902922 0.902922 0.902922
0.903044 0.903044 0.903044
0.903258 0.903258 0.903258
0.903624 0.903624 0.903624
0.904173 0.904173 0.904173
0.904936 0.904936 0.904936
0.905943 0.905943 0.905943
0.907225 0.907225 0.907225
0.908751 0.908751 0.908751
0.910491 0.910491 0.910491
0.912413 0.912413 0.912413
0.914488 0.914488 0.914488
