cubelut/BW7.cube
# Created by Adobe Lightroom plugin Export LUT (1.18.0)
# www.johnrellis.com/lightroom/exportlut.htm
# Preset: Wood-Neck_Free-LR-Presets.co
# Color profile: /Library/Application Support/Adobe/Color/Profiles/Recommended/AdobeRGB1998.icc
LUT_3D_SIZE 5
DOMAIN_MIN 0.000000 0.000000 0.000000
DOMAIN_MAX 0.903226 0.903226 0.903226
0.142153 0.142153 0.142153
0.182223 0.182223 0.182223
0.259953 0.259953 0.259953
0.386236 0.386236 0.386236
0.588342 0.588342 0.588342
0.288243 0.288243 0.288243
0.261631 0.261631 0.261631
0.222538 0.222538 0.222538
0.349523 0.349523 0.349523
0.563836 0.563836 0.563836
0.565087 0.565087 0.565087
0.589776 0.589776 0.589776
0.512108 0.512108 0.512108
0.336675 0.336675 0.336675
0.431708 0.431708 0.431708
0.773800 0.773800 0.773800
0.782589 0.782589 0.782589
0.809262 0.809262 0.809262
0.733120 0.733120 0.733120
0.662562 0.662562 0.662562
0.919982 0.919982 0.919982
0.922972 0.922972 0.922972
0.931060 0.931060 0.931060
0.938170 0.938170 0.938170
0.909606 0.909606 0.909606
0.192752 0.192752 0.192752
0.214298 0.214298 0.214298
0.336767 0.336767 0.336767
0.486122 0.486122 0.486122
0.645624 0.645624 0.645624
0.248539 0.248539 0.248539
0.274083 0.274083 0.274083
0.339513 0.339513 0.339513
0.452125 0.452125 0.452125
0.624170 0.624170 0.624170
0.531945 0.531945 0.531945
0.549371 0.549371 0.549371
0.507927 0.507927 0.507927
0.357946 0.357946 0.357946
0.525292 0.525292 0.525292
0.762051 0.762051 0.762051
0.769650 0.769650 0.769650
0.797726 0.797726 0.797726
0.733761 0.733761 0.733761
0.666529 0.666529 0.666529
0.916197 0.916197 0.916197
0.919341 0.919341 0.919341
0.931121 0.931121 0.931121
0.940185 0.940185 0.940185
0.911589 0.911589 0.911589
0.293187 0.293187 0.293187
0.311437 0.311437 0.311437
0.352667 0.352667 0.352667
0.527825 0.527825 0.527825
0.721584 0.721584 0.721584
0.343908 0.343908 0.343908
0.366461 0.366461 0.366461
0.402075 0.402075 0.402075
0.562432 0.562432 0.562432
0.736568 0.736568 0.736568
0.459083 0.459083 0.459083
0.477577 0.477577 0.477577
0.534051 0.534051 0.534051
0.611383 0.611383 0.611383
0.716670 0.716670 0.716670
0.730495 0.730495 0.730495
0.735225 0.735225 0.735225
0.759701 0.759701 0.759701
0.740444 0.740444 0.740444
0.666255 0.666255 0.666255
0.904326 0.904326 0.904326
0.907958 0.907958 0.907958
0.920287 0.920287 0.920287
0.941100 0.941100 0.941100
0.911498 0.911498 0.911498
0.455818 0.455818 0.455818
0.469642 0.469642 0.469642
0.512169 0.512169 0.512169
0.556573 0.556573 0.556573
0.726070 0.726070 0.726070
0.505180 0.505180 0.505180
0.515221 0.515221 0.515221
0.547539 0.547539 0.547539
0.583642 0.583642 0.583642
0.736568 0.736568 0.736568
0.561456 0.561456 0.561456
0.575463 0.575463 0.575463
0.632654 0.632654 0.632654
0.656428 0.656428 0.656428
0.777371 0.777371 0.777371
0.688167 0.688167 0.688167
0.693782 0.693782 0.693782
0.714839 0.714839 0.714839
0.751858 0.751858 0.751858
0.813321 0.813321 0.813321
0.884337 0.884337 0.884337
0.887877 0.887877 0.887877
0.901213 0.901213 0.901213
0.924529 0.924529 0.924529
0.915618 0.915618 0.915618
0.696498 0.696498 0.696498
0.701411 0.701411 0.701411
0.717372 0.717372 0.717372
0.741939 0.741939 0.741939
0.761959 0.761959 0.761959
0.713741 0.713741 0.713741
0.717708 0.717708 0.717708
0.731197 0.731197 0.731197
0.752834 0.752834 0.752834
0.771633 0.771633 0.771633
0.745174 0.745174 0.745174
0.756191 0.756191 0.756191
0.768673 0.768673 0.768673
0.785306 0.785306 0.785306
0.802579 0.802579 0.802579
0.794858 0.794858 0.794858
0.796963 0.796963 0.796963
0.803372 0.803372 0.803372
0.836118 0.836118 0.836118
0.854826 0.854826 0.854826
0.875853 0.875853 0.875853
0.877775 0.877775 0.877775
0.885313 0.885313 0.885313
0.899931 0.899931 0.899931
0.927214 0.927214 0.927214
