cubelut/BW8.cube
# Created by Adobe Lightroom plugin Export LUT (1.18.0)
# www.johnrellis.com/lightroom/exportlut.htm
# Preset: MoodyBW5
# Color profile: /Library/Application Support/Adobe/Color/Profiles/Recommended/AdobeRGB1998.icc
LUT_3D_SIZE 32
DOMAIN_MIN 0.0 0.0 0.0
DOMAIN_MAX 1.0 1.0 1.0
0.131930 0.131930 0.131930
0.132418 0.132418 0.132418
0.133028 0.133028 0.133028
0.134890 0.134890 0.134890
0.137179 0.137179 0.137179
0.140414 0.140414 0.140414
0.144717 0.144717 0.144717
0.149569 0.149569 0.149569
0.155520 0.155520 0.155520
0.162570 0.162570 0.162570
0.170993 0.170993 0.170993
0.181155 0.181155 0.181155
0.192966 0.192966 0.192966
0.206729 0.206729 0.206729
0.222202 0.222202 0.222202
0.239200 0.239200 0.239200
0.257145 0.257145 0.257145
0.275853 0.275853 0.275853
0.294713 0.294713 0.294713
0.316381 0.316381 0.316381
0.337957 0.337957 0.337957
0.358984 0.358984 0.358984
0.379522 0.379522 0.379522
0.400000 0.400000 0.400000
0.421027 0.421027 0.421027
0.444160 0.444160 0.444160
0.472877 0.472877 0.472877
0.508782 0.508782 0.508782
0.551995 0.551995 0.551995
0.599908 0.599908 0.599908
0.650965 0.650965 0.650965
0.703517 0.703517 0.703517
0.133028 0.133028 0.133028
0.133333 0.133333 0.133333
0.134127 0.134127 0.134127
0.135958 0.135958 0.135958
0.138491 0.138491 0.138491
0.141878 0.141878 0.141878
0.145998 0.145998 0.145998
0.150912 0.150912 0.150912
0.156680 0.156680 0.156680
0.163790 0.163790 0.163790
0.172152 0.172152 0.172152
0.182315 0.182315 0.182315
0.194156 0.194156 0.194156
0.207828 0.207828 0.207828
0.223209 0.223209 0.223209
0.240116 0.240116 0.240116
0.258000 0.258000 0.258000
0.276432 0.276432 0.276432
0.295109 0.295109 0.295109
0.316564 0.316564 0.316564
0.337713 0.337713 0.337713
0.358404 0.358404 0.358404
0.378759 0.378759 0.378759
0.399176 0.399176 0.399176
0.420050 0.420050 0.420050
0.443000 0.443000 0.443000
0.471504 0.471504 0.471504
0.507164 0.507164 0.507164
0.550164 0.550164 0.550164
0.598108 0.598108 0.598108
0.649165 0.649165 0.649165
0.701747 0.701747 0.701747
0.134585 0.134585 0.134585
0.134890 0.134890 0.134890
0.135500 0.135500 0.135500
0.137453 0.137453 0.137453
0.140261 0.140261 0.140261
0.143740 0.143740 0.143740
0.147921 0.147921 0.147921
0.152651 0.152651 0.152651
0.158450 0.158450 0.158450
0.165469 0.165469 0.165469
0.173983 0.173983 0.173983
0.184115 0.184115 0.184115
0.196017 0.196017 0.196017
0.209842 0.209842 0.209842
0.225132 0.225132 0.225132
0.241886 0.241886 0.241886
0.259678 0.259678 0.259678
0.277989 0.277989 0.277989
0.296513 0.296513 0.296513
0.317693 0.317693 0.317693
0.338567 0.338567 0.338567
0.359014 0.359014 0.359014
0.379248 0.379248 0.379248
0.399451 0.399451 0.399451
0.420294 0.420294 0.420294
0.443122 0.443122 0.443122
0.471565 0.471565 0.471565
0.507164 0.507164 0.507164
0.550195 0.550195 0.550195
0.598077 0.598077 0.598077
0.649012 0.649012 0.649012
0.701503 0.701503 0.701503
0.138491 0.138491 0.138491
0.138949 0.138949 0.138949
0.139528 0.139528 0.139528
0.141299 0.141299 0.141299
0.145144 0.145144 0.145144
0.148348 0.148348 0.148348
0.152255 0.152255 0.152255
0.156924 0.156924 0.156924
0.162692 0.162692 0.162692
0.169741 0.169741 0.169741
0.178317 0.178317 0.178317
0.188602 0.188602 0.188602
0.200565 0.200565 0.200565
0.214359 0.214359 0.214359
0.229557 0.229557 0.229557
0.246250 0.246250 0.246250
0.263767 0.263767 0.263767
0.281743 0.281743 0.281743
0.300298 0.300298 0.300298
0.320592 0.320592 0.320592
0.340734 0.340734 0.340734
0.360723 0.360723 0.360723
0.380652 0.380652 0.380652
0.400824 0.400824 0.400824
0.421729 0.421729 0.421729
0.444984 0.444984 0.444984
0.473945 0.473945 0.473945
0.510124 0.510124 0.510124
0.553338 0.553338 0.553338
0.600916 0.600916 0.600916
0.651423 0.651423 0.651423
0.703304 0.703304 0.703304
0.145693 0.145693 0.145693
0.146120 0.146120 0.146120
0.146822 0.146822 0.146822
0.148348 0.148348 0.148348
0.151034 0.151034 0.151034
0.155917 0.155917 0.155917
0.159335 0.159335 0.159335
0.163790 0.163790 0.163790
0.169497 0.169497 0.169497
0.176669 0.176669 0.176669
0.185275 0.185275 0.185275
0.195712 0.195712 0.195712
0.207736 0.207736 0.207736
0.221530 0.221530 0.221530
0.236790 0.236790 0.236790
0.253208 0.253208 0.253208
0.270451 0.270451 0.270451
0.287999 0.287999 0.287999
0.306615 0.306615 0.306615
0.326085 0.326085 0.326085
0.345495 0.345495 0.345495
0.364843 0.364843 0.364843
0.384253 0.384253 0.384253
0.404089 0.404089 0.404089
0.424781 0.424781 0.424781
0.448402 0.448402 0.448402
0.477699 0.477699 0.477699
0.514092 0.514092 0.514092
0.557275 0.557275 0.557275
0.604608 0.604608 0.604608
0.654780 0.654780 0.654780
0.706294 0.706294 0.706294
0.154879 0.154879 0.154879
0.155245 0.155245 0.155245
0.155917 0.155917 0.155917
0.157198 0.157198 0.157198
0.159701 0.159701 0.159701
0.163302 0.163302 0.163302
0.170199 0.170199 0.170199
0.174319 0.174319 0.174319
0.179751 0.179751 0.179751
0.186831 0.186831 0.186831
0.195621 0.195621 0.195621
0.206088 0.206088 0.206088
0.218204 0.218204 0.218204
0.231907 0.231907 0.231907
0.246921 0.246921 0.246921
0.263005 0.263005 0.263005
0.279789 0.279789 0.279789
0.296666 0.296666 0.296666
0.315160 0.315160 0.315160
0.333837 0.333837 0.333837
0.352453 0.352453 0.352453
0.371252 0.371252 0.371252
0.400549 0.400549 0.400549
0.420447 0.420447 0.420447
0.441901 0.441901 0.441901
0.467964 0.467964 0.467964
0.499886 0.499886 0.499886
0.538262 0.538262 0.538262
0.581353 0.581353 0.581353
0.627832 0.627832 0.627832
0.676204 0.676204 0.676204
0.725185 0.725185 0.725185
0.166903 0.166903 0.166903
0.167391 0.167391 0.167391
0.167971 0.167971 0.167971
0.169375 0.169375 0.169375
0.171572 0.171572 0.171572
0.175326 0.175326 0.175326
0.180056 0.180056 0.180056
0.189944 0.189944 0.189944
0.195132 0.195132 0.195132
0.202274 0.202274 0.202274
0.211185 0.211185 0.211185
0.221775 0.221775 0.221775
0.233982 0.233982 0.233982
0.247440 0.247440 0.247440
0.261906 0.261906 0.261906
0.277134 0.277134 0.277134
0.292882 0.292882 0.292882
0.310033 0.310033 0.310033
0.327794 0.327794 0.327794
0.345800 0.345800 0.345800
0.364294 0.364294 0.364294
0.383307 0.383307 0.383307
0.403021 0.403021 0.403021
0.423377 0.423377 0.423377
0.446052 0.446052 0.446052
0.473152 0.473152 0.473152
0.505943 0.505943 0.505943
0.544671 0.544671 0.544671
0.587579 0.587579 0.587579
0.633387 0.633387 0.633387
0.681117 0.681117 0.681117
0.729458 0.729458 0.729458
0.181033 0.181033 0.181033
0.181582 0.181582 0.181582
0.182223 0.182223 0.182223
0.183597 0.183597 0.183597
0.185794 0.185794 0.185794
0.189120 0.189120 0.189120
0.193851 0.193851 0.193851
0.199802 0.199802 0.199802
0.213138 0.213138 0.213138
0.219760 0.219760 0.219760
0.228428 0.228428 0.228428
0.238743 0.238743 0.238743
0.250370 0.250370 0.250370
0.263218 0.263218 0.263218
0.276890 0.276890 0.276890
0.291142 0.291142 0.291142
0.306432 0.306432 0.306432
0.322881 0.322881 0.322881
0.339117 0.339117 0.339117
0.355779 0.355779 0.355779
0.373114 0.373114 0.373114
0.391211 0.391211 0.391211
0.410224 0.410224 0.410224
0.430091 0.430091 0.430091
0.453162 0.453162 0.453162
0.480903 0.480903 0.480903
0.514244 0.514244 0.514244
0.552972 0.552972 0.552972
0.595514 0.595514 0.595514
0.640803 0.640803 0.640803
0.687922 0.687922 0.687922
0.735470 0.735470 0.735470
0.198734 0.198734 0.198734
0.199222 0.199222 0.199222
0.199985 0.199985 0.199985
0.201328 0.201328 0.201328
0.203586 0.203586 0.203586
0.206638 0.206638 0.206638
0.211185 0.211185 0.211185
0.217166 0.217166 0.217166
0.224216 0.224216 0.224216
0.238895 0.238895 0.238895
0.249363 0.249363 0.249363
0.258824 0.258824 0.258824
0.269780 0.269780 0.269780
0.281621 0.281621 0.281621
0.294163 0.294163 0.294163
0.307683 0.307683 0.307683
0.322606 0.322606 0.322606
0.337346 0.337346 0.337346
0.352026 0.352026 0.352026
0.367437 0.367437 0.367437
0.383734 0.383734 0.383734
0.401007 0.401007 0.401007
0.419257 0.419257 0.419257
0.439063 0.439063 0.439063
0.462928 0.462928 0.462928
0.491402 0.491402 0.491402
0.525414 0.525414 0.525414
0.563989 0.563989 0.563989
0.605982 0.605982 0.605982
0.650507 0.650507 0.650507
0.696651 0.696651 0.696651
0.743099 0.743099 0.743099
0.220005 0.220005 0.220005
0.220432 0.220432 0.220432
0.221103 0.221103 0.221103
0.222538 0.222538 0.222538
0.224704 0.224704 0.224704
0.227756 0.227756 0.227756
0.231724 0.231724 0.231724
0.237491 0.237491 0.237491
0.244450 0.244450 0.244450
0.252506 0.252506 0.252506
0.266697 0.266697 0.266697
0.280858 0.280858 0.280858
0.290715 0.290715 0.290715
0.301396 0.301396 0.301396
0.313603 0.313603 0.313603
0.326787 0.326787 0.326787
0.340032 0.340032 0.340032
0.353246 0.353246 0.353246
0.366644 0.366644 0.366644
0.380835 0.380835 0.380835
0.395972 0.395972 0.395972
0.412177 0.412177 0.412177
0.429389 0.429389 0.429389
0.449470 0.449470 0.449470
0.473701 0.473701 0.473701
0.502922 0.502922 0.502922
0.537438 0.537438 0.537438
0.576043 0.576043 0.576043
0.617823 0.617823 0.617823
0.661952 0.661952 0.661952
0.707424 0.707424 0.707424
0.752987 0.752987 0.752987
0.244083 0.244083 0.244083
0.244602 0.244602 0.244602
0.245212 0.245212 0.245212
0.246616 0.246616 0.246616
0.248844 0.248844 0.248844
0.251835 0.251835 0.251835
0.255711 0.255711 0.255711
0.260655 0.260655 0.260655
0.267155 0.267155 0.267155
0.274723 0.274723 0.274723
0.283207 0.283207 0.283207
0.295659 0.295659 0.295659
0.313268 0.313268 0.313268
0.323674 0.323674 0.323674
0.334630 0.334630 0.334630
0.345953 0.345953 0.345953
0.357458 0.357458 0.357458
0.369177 0.369177 0.369177
0.381323 0.381323 0.381323
0.394415 0.394415 0.394415
0.408728 0.408728 0.408728
0.424140 0.424140 0.424140
0.441688 0.441688 0.441688
0.462745 0.462745 0.462745
0.488045 0.488045 0.488045
0.518151 0.518151 0.518151
0.552667 0.552667 0.552667
0.590600 0.590600 0.590600
0.631495 0.631495 0.631495
0.674495 0.674495 0.674495
0.718837 0.718837 0.718837
0.762997 0.762997 0.762997
0.270573 0.270573 0.270573
0.271061 0.271061 0.271061
0.271641 0.271641 0.271641
0.272953 0.272953 0.272953
0.275059 0.275059 0.275059
0.277775 0.277775 0.277775
0.281437 0.281437 0.281437
0.285710 0.285710 0.285710
0.291386 0.291386 0.291386
0.298344 0.298344 0.298344
0.306035 0.306035 0.306035
0.315618 0.315618 0.315618
0.333593 0.333593 0.333593
0.353857 0.353857 0.353857
0.363317 0.363317 0.363317
0.373114 0.373114 0.373114
0.383215 0.383215 0.383215
0.393561 0.393561 0.393561
0.404425 0.404425 0.404425
0.416632 0.416632 0.416632
0.429938 0.429938 0.429938
0.445716 0.445716 0.445716
0.464485 0.464485 0.464485
0.487007 0.487007 0.487007
0.513939 0.513939 0.513939
0.544915 0.544915 0.544915
0.579004 0.579004 0.579004
0.615778 0.615778 0.615778
0.654932 0.654932 0.654932
0.695949 0.695949 0.695949
0.737881 0.737881 0.737881
0.779294 0.779294 0.779294
0.300237 0.300237 0.300237
0.300572 0.300572 0.300572
0.301061 0.301061 0.301061
0.302037 0.302037 0.302037
0.303624 0.303624 0.303624
0.305852 0.305852 0.305852
0.308904 0.308904 0.308904
0.312566 0.312566 0.312566
0.317174 0.317174 0.317144
0.324651 0.324651 0.324651
0.332952 0.332952 0.332952
0.342016 0.342016 0.342016
0.351476 0.351476 0.351476
0.361242 0.361242 0.361242
0.382910 0.382910 0.382910
0.391730 0.391730 0.391730
0.400763 0.400763 0.400763
0.410040 0.410040 0.410040
0.420050 0.420050 0.420050
0.431373 0.431373 0.431373
0.445075 0.445075 0.445075
0.461524 0.461524 0.461524
0.481086 0.481086 0.481086
0.504356 0.504356 0.504356
0.531792 0.531792 0.531792
0.562493 0.562493 0.562493
0.595850 0.595850 0.595850
0.631769 0.631769 0.631769
0.669856 0.669856 0.669856
0.709773 0.709773 0.709773
0.750393 0.750393 0.750393
0.790188 0.790188 0.790188
0.326513 0.326513 0.326513
0.326787 0.326787 0.326787
0.327184 0.327184 0.327184
0.328038 0.328038 0.328038
0.329351 0.329351 0.329351
0.331670 0.331670 0.331670
0.334936 0.334936 0.334936
0.338781 0.338781 0.338781
0.343359 0.343359 0.343359
0.349004 0.349004 0.349004
0.356085 0.356085 0.356085
0.363836 0.363836 0.363836
0.372015 0.372015 0.372015
0.380529 0.380529 0.380529
0.389136 0.389136 0.389136
0.410590 0.410590 0.410590
0.418555 0.418555 0.418555
0.426978 0.426978 0.426978
0.436591 0.436591 0.436591
0.448341 0.448341 0.448341
0.462715 0.462715 0.462715
0.480018 0.480018 0.480018
0.500481 0.500481 0.500481
0.524712 0.524712 0.524712
0.552209 0.552209 0.552209
0.582361 0.582361 0.582361
0.614984 0.614984 0.614984
0.649866 0.649866 0.649866
0.686854 0.686854 0.686854
0.725460 0.725460 0.725460
0.764431 0.764431 0.764431
0.802335 0.802335 0.802335
0.353704 0.353704 0.353704
0.354070 0.354070 0.354070
0.354406 0.354406 0.354406
0.355261 0.355261 0.355261
0.356603 0.356603 0.356603
0.358404 0.358404 0.358404
0.360906 0.360906 0.360906
0.364019 0.364019 0.364019
0.367864 0.367864 0.367864
0.372381 0.372381 0.372381
0.378149 0.378149 0.378149
0.385016 0.385016 0.385016
0.392279 0.392279 0.392279
0.399969 0.399969 0.399969
0.407752 0.407752 0.407752
0.415534 0.415534 0.415534
0.437415 0.437415 0.437415
0.445869 0.445869 0.445869
0.455879 0.455879 0.455879
0.468177 0.468177 0.468177
0.483162 0.483162 0.483162
0.501213 0.501213 0.501213
0.522454 0.522454 0.522454
0.546746 0.546746 0.546746
0.573846 0.573846 0.573846
0.603601 0.603601 0.603601
0.635767 0.635767 0.635767
0.670130 0.670130 0.670130
0.706386 0.706386 0.706386
0.743893 0.743893 0.743893
0.781338 0.781338 0.781338
0.817166 0.817166 0.817166
0.379614 0.379614 0.379614
0.379950 0.379950 0.379950
0.380316 0.380316 0.380316
0.381048 0.381048 0.381048
0.382238 0.382238 0.382238
0.383948 0.383948 0.383948
0.386084 0.386084 0.386084
0.388922 0.388922 0.388922
0.392248 0.392248 0.392248
0.396185 0.396185 0.396185
0.400610 0.400610 0.400610
0.406439 0.406439 0.406439
0.412634 0.412634 0.412634
0.419257 0.419257 0.419257
0.426001 0.426001 0.426001
0.433265 0.433265 0.433265
0.441169 0.441169 0.441169
0.465461 0.465461 0.465461
0.478065 0.478065 0.478065
0.491279 0.491279 0.491279
0.507317 0.507317 0.507317
0.526329 0.526329 0.526329
0.547936 0.547936 0.547936
0.572107 0.572107 0.572107
0.598779 0.598779 0.598779
0.627863 0.627863 0.627863
0.659052 0.659052 0.659052
0.692256 0.692256 0.692256
0.726986 0.726986 0.726986
0.762417 0.762417 0.762417
0.797269 0.797269 0.797269
0.830350 0.830350 0.830350
0.403571 0.403571 0.403571
0.403784 0.403784 0.403784
0.404059 0.404059 0.404059
0.404669 0.404669 0.404669
0.405707 0.405707 0.405707
0.407172 0.407172 0.407172
0.409125 0.409125 0.409125
0.411536 0.411536 0.411536
0.414496 0.414496 0.414496
0.417975 0.417975 0.417975
0.422004 0.422004 0.422004
0.426703 0.426703 0.426703
0.432654 0.432654 0.432654
0.439155 0.439155 0.439155
0.446174 0.446174 0.446174
0.453681 0.453681 0.453681
0.461830 0.461830 0.461830
0.470802 0.470802 0.470802
0.497292 0.497292 0.497292
0.516716 0.516716 0.516716
0.533013 0.533013 0.533013
0.551873 0.551873 0.551873
0.572992 0.572992 0.572992
0.596643 0.596643 0.596643
0.622583 0.622583 0.622583
0.650752 0.650752 0.650752
0.680995 0.680995 0.680995
0.713039 0.713039 0.713039
0.746304 0.746304 0.746304
0.779904 0.779904 0.779904
0.812589 0.812589 0.812589
0.843290 0.843290 0.843290
0.427008 0.427008 0.427008
0.427344 0.427344 0.427344
0.433997 0.433997 0.433997
0.434546 0.434546 0.434546
0.435462 0.435462 0.435462
0.436744 0.436744 0.436744
0.438422 0.438422 0.438422
0.440558 0.440558 0.440558
0.443336 0.443336 0.443336
0.446815 0.446815 0.446815
0.450935 0.450935 0.450935
0.455573 0.455573 0.455573
0.461341 0.461341 0.461341
0.468177 0.468177 0.468177
0.475624 0.475624 0.475624
0.483558 0.483558 0.483558
0.492226 0.492226 0.492226
0.501579 0.501579 0.501579
0.511833 0.511833 0.511833
0.539910 0.539910 0.539910
0.565545 0.565545 0.565545
0.583551 0.583551 0.583551
0.603754 0.603754 0.603754
0.626154 0.626154 0.626154
0.650416 0.650416 0.650416
0.676631 0.676631 0.676631
0.704707 0.704707 0.704707
0.734554 0.734554 0.734554
0.765621 0.765621 0.765621
0.796933 0.796933 0.796933
0.827207 0.827207 0.827207
0.855406 0.855406 0.855406
0.454810 0.454810 0.454810
0.455970 0.455970 0.455970
0.457313 0.457313 0.457313
0.458930 0.458930 0.458930
0.460639 0.460639 0.460639
0.462440 0.462440 0.462440
0.464363 0.464363 0.464363
0.466743 0.466743 0.466743
0.469795 0.469795 0.469795
0.473426 0.473426 0.473426
0.477760 0.477760 0.477760
0.482795 0.482795 0.482795
0.488258 0.488258 0.488258
0.495369 0.495369 0.495369
0.503166 0.503166 0.503166
0.511528 0.511528 0.511528
0.520531 0.520531 0.520531
0.530205 0.530205 0.530205
0.540642 0.540642 0.540642
0.551934 0.551934 0.551934
0.579126 0.579126 0.579126
0.610346 0.610346 0.610346
0.629938 0.629938 0.629938
0.651545 0.651545 0.651545
0.674952 0.674952 0.674952
0.700191 0.700191 0.700191
0.727108 0.727108 0.727108
0.755428 0.755428 0.755428
0.784543 0.784543 0.784543
0.813565 0.813565 0.813565
0.841398 0.841398 0.841398
0.867155 0.867155 0.867155
0.484932 0.484932 0.484932
0.486305 0.486305 0.486305
0.487800 0.487800 0.487800
0.489540 0.489540 0.489540
0.491432 0.491432 0.491432
0.493385 0.493385 0.493385
0.495491 0.495491 0.495491
0.498085 0.498085 0.498085
0.501366 0.501366 0.501366
0.505303 0.505303 0.505303
0.509972 0.509972 0.509972
0.515343 0.515343 0.515343
0.521111 0.521111 0.521111
0.527703 0.527703 0.527703
0.535668 0.535668 0.535668
0.544060 0.544060 0.544060
0.552972 0.552972 0.552972
0.562493 0.562493 0.562493
0.572656 0.572656 0.572656
0.583734 0.583734 0.583734
0.595422 0.595422 0.595422
0.620752 0.620752 0.620752
0.656550 0.656550 0.656550
0.677211 0.677211 0.677211
0.699580 0.699580 0.699580
0.723568 0.723568 0.723568
0.748898 0.748898 0.748898
0.775387 0.775387 0.775387
0.802396 0.802396 0.802396
0.829038 0.829038 0.829038
0.854490 0.854490 0.854490
0.877928 0.877928 0.877928
0.520775 0.520775 0.520775
0.522301 0.522301 0.522301
0.523857 0.523857 0.523857
0.525780 0.525780 0.525780
0.527794 0.527794 0.527794
0.529778 0.529778 0.529778
0.532036 0.532036 0.532036
0.534691 0.534691 0.534691
0.537957 0.537957 0.537957
0.541863 0.541863 0.541863
0.546532 0.546532 0.546532
0.551751 0.551751 0.551751
0.557427 0.557427 0.557427
0.563592 0.563592 0.563592
0.571008 0.571008 0.571008
0.579431 0.579431 0.579431
0.588556 0.588556 0.588556
0.598413 0.598413 0.598413
0.609033 0.609033 0.609033
0.620356 0.620356 0.620356
0.632410 0.632410 0.632410
0.644984 0.644984 0.644984
0.668147 0.668147 0.668147
0.707790 0.707790 0.707790
0.729397 0.729397 0.729397
0.752224 0.752224 0.752224
0.775937 0.775937 0.775937
0.800259 0.800259 0.800259
0.824643 0.824643 0.824643
0.848386 0.848386 0.848386
0.870787 0.870787 0.870787
0.891295 0.891295 0.891295
0.566094 0.566094 0.566094
0.566979 0.566979 0.566979
0.567864 0.567864 0.567864
0.569024 0.569024 0.569024
0.570459 0.570459 0.570459
0.572168 0.572168 0.572168
0.574304 0.574304 0.574304
0.576928 0.576928 0.576928
0.580316 0.580316 0.580316
0.584375 0.584375 0.584375
0.589105 0.589105 0.589105
0.594324 0.594324 0.594324
0.599878 0.599878 0.599878
0.605707 0.605707 0.605707
0.611994 0.611994 0.611994
0.619867 0.619867 0.619867
0.628443 0.628443 0.628443
0.637629 0.637629 0.637629
0.647395 0.647395 0.647395
0.657801 0.657801 0.657801
0.668757 0.668757 0.668757
0.680140 0.680140 0.680140
0.691951 0.691951 0.691951
0.711330 0.711330 0.711330
0.752621 0.752621 0.752621
0.773800 0.773800 0.773800
0.795804 0.795804 0.795804
0.818235 0.818235 0.818235
0.840452 0.840452 0.840452
0.861936 0.861936 0.861936
0.882109 0.882109 0.882109
0.900542 0.900542 0.900542
0.608392 0.608392 0.608392
0.609277 0.609277 0.609277
0.610224 0.610224 0.610224
0.611353 0.611353 0.611353
0.612726 0.612726 0.612726
0.614313 0.614313 0.614313
0.616236 0.616236 0.616236
0.618677 0.618677 0.618677
0.621729 0.621729 0.621729
0.625452 0.625452 0.625452
0.629816 0.629816 0.629816
0.634699 0.634699 0.634699
0.639948 0.639948 0.639948
0.645594 0.645594 0.645594
0.651637 0.651637 0.651637
0.658473 0.658473 0.658473
0.666651 0.666651 0.666651
0.675441 0.675441 0.675441
0.684810 0.684810 0.684810
0.694789 0.694789 0.694789
0.705257 0.705257 0.705257
0.716182 0.716182 0.716182
0.727474 0.727474 0.727474
0.738949 0.738949 0.738949
0.751644 0.751644 0.751644
0.791897 0.791897 0.791897
0.813352 0.813352 0.813352
0.833890 0.833890 0.833890
0.854124 0.854124 0.854124
0.873655 0.873655 0.873655
0.891966 0.891966 0.891966
0.908629 0.908629 0.908629
0.656550 0.656550 0.656550
0.657496 0.657496 0.657496
0.658228 0.658228 0.658228
0.659083 0.659083 0.659083
0.660090 0.660090 0.660090
0.661311 0.661311 0.661311
0.662745 0.662745 0.662745
0.664607 0.664607 0.664607
0.666957 0.666957 0.666957
0.669917 0.669917 0.669917
0.673396 0.673396 0.673396
0.677485 0.677485 0.677485
0.682002 0.682002 0.682002
0.686824 0.686824 0.686824
0.691951 0.691951 0.691951
0.697383 0.697383 0.697383
0.704005 0.704005 0.704005
0.711788 0.711788 0.711788
0.720394 0.720394 0.720394
0.729702 0.729702 0.729702
0.739590 0.739590 0.739590
0.749752 0.749752 0.749752
0.759976 0.759976 0.759976
0.770108 0.770108 0.770108
0.780148 0.780148 0.780148
0.791867 0.791867 0.791867
0.828153 0.828153 0.828153
0.849546 0.849546 0.849546
0.867643 0.867643 0.867643
0.885100 0.885100 0.885100
0.901457 0.901457 0.901457
0.916228 0.916228 0.916228
0.699580 0.699580 0.699580
0.700496 0.700496 0.700496
0.701259 0.701259 0.701259
0.702022 0.702022 0.702022
0.702968 0.702968 0.702968
0.704128 0.704128 0.704128
0.705592 0.705592 0.705592
0.707424 0.707424 0.707424
0.709773 0.709773 0.709773
0.712673 0.712673 0.712673
0.716060 0.716060 0.716060
0.720058 0.720058 0.720058
0.724392 0.724392 0.724392
0.729030 0.729030 0.729030
0.733944 0.733944 0.733944
0.739132 0.739132 0.739132
0.744686 0.744686 0.744686
0.751766 0.751766 0.751766
0.759548 0.759548 0.759548
0.767910 0.767910 0.767910
0.776669 0.776669 0.776669
0.785672 0.785672 0.785672
0.794736 0.794736 0.794736
0.803738 0.803738 0.803738
0.812589 0.812589 0.812589
0.821286 0.821286 0.821286
0.829953 0.829953 0.829953
0.861051 0.861051 0.861051
0.881346 0.881346 0.881346
0.896757 0.896757 0.896757
0.911131 0.911131 0.911131
0.923888 0.923888 0.923888
0.743801 0.743801 0.743801
0.744472 0.744472 0.744472
0.744900 0.744900 0.744900
0.745449 0.745449 0.745449
0.746090 0.746090 0.746090
0.746975 0.746975 0.746975
0.748135 0.748135 0.748135
0.749722 0.749722 0.749722
0.751766 0.751766 0.751766
0.754391 0.754391 0.754391
0.757443 0.757443 0.757443
0.761105 0.761105 0.761105
0.765103 0.765103 0.765103
0.769345 0.769345 0.769345
0.773709 0.773709 0.773709
0.778317 0.778317 0.778317
0.783230 0.783230 0.783230
0.788785 0.788785 0.788785
0.795529 0.795529 0.795529
0.802762 0.802762 0.802762
0.810391 0.810391 0.810391
0.818143 0.818143 0.818143
0.825956 0.825956 0.825956
0.833707 0.833707 0.833707
0.841306 0.841306 0.841306
0.848783 0.848783 0.848783
0.856138 0.856138 0.856138
0.863401 0.863401 0.863401
0.888029 0.888029 0.888029
0.906218 0.906218 0.906218
0.918791 0.918791 0.918791
0.929839 0.929839 0.929839
0.784665 0.784665 0.784665
0.785122 0.785122 0.785122
0.785489 0.785489 0.785489
0.786007 0.786007 0.786007
0.786801 0.786801 0.786801
0.787930 0.787930 0.787930
0.789639 0.789639 0.789639
0.791806 0.791806 0.791806
0.794491 0.794491 0.794491
0.797696 0.797696 0.797696
0.801236 0.801236 0.801236
0.805112 0.805112 0.805112
0.809140 0.809140 0.809140
0.813230 0.813230 0.813230
0.817319 0.817319 0.817319
0.821347 0.821347 0.821347
0.825559 0.825559 0.825559
0.830045 0.830045 0.830045
0.835294 0.835294 0.835294
0.841184 0.841184 0.841184
0.847349 0.847349 0.847349
0.853574 0.853574 0.853574
0.859831 0.859831 0.859831
0.866026 0.866026 0.866026
0.872129 0.872129 0.872129
0.878080 0.878080 0.878080
0.883970 0.883970 0.883970
0.889738 0.889738 0.889738
0.895476 0.895476 0.895476
0.913329 0.913329 0.913329
0.927764 0.927764 0.927764
0.936614 0.936614 0.936614
0.827329 0.827329 0.827329
0.827604 0.827604 0.827604
0.827787 0.827787 0.827787
0.828092 0.828092 0.828092
0.828580 0.828580 0.828580
0.829282 0.829282 0.829282
0.830350 0.830350 0.830350
0.831785 0.831785 0.831785
0.833585 0.833585 0.833585
0.835721 0.835721 0.835721
0.838132 0.838132 0.838132
0.840879 0.840879 0.840879
0.843809 0.843809 0.843809
0.846891 0.846891 0.846891
