cubelut/BW8.cube
# Created by Adobe Lightroom plugin Export LUT (1.18.0)
# www.johnrellis.com/lightroom/exportlut.htm
# Preset: MoodyBW5
# Color profile: /Library/Application Support/Adobe/Color/Profiles/Recommended/AdobeRGB1998.icc
LUT_3D_SIZE 5
DOMAIN_MIN 0.000000 0.000000 0.000000
DOMAIN_MAX 0.903226 0.903226 0.903226
0.131930 0.131930 0.131930
0.149569 0.149569 0.149569
0.222202 0.222202 0.222202
0.358984 0.358984 0.358984
0.551995 0.551995 0.551995
0.181033 0.181033 0.181033
0.199802 0.199802 0.199802
0.276890 0.276890 0.276890
0.391211 0.391211 0.391211
0.595514 0.595514 0.595514
0.353704 0.353704 0.353704
0.364019 0.364019 0.364019
0.407752 0.407752 0.407752
0.501213 0.501213 0.501213
0.706386 0.706386 0.706386
0.566094 0.566094 0.566094
0.576928 0.576928 0.576928
0.611994 0.611994 0.611994
0.680140 0.680140 0.680140
0.840452 0.840452 0.840452
0.859922 0.859922 0.859922
0.863828 0.863828 0.863828
0.874266 0.874266 0.874266
0.899504 0.899504 0.899504
0.926635 0.926635 0.926635
0.138216 0.138216 0.138216
0.153170 0.153170 0.153170
0.241215 0.241215 0.241215
0.368994 0.368994 0.368994
0.551171 0.551171 0.551171
0.173526 0.173526 0.173526
0.209293 0.209293 0.209293
0.291081 0.291081 0.291081
0.397528 0.397528 0.397528
0.588800 0.588800 0.588800
0.353338 0.353338 0.353338
0.371069 0.371069 0.371069
0.406195 0.406195 0.406195
0.498299 0.498299 0.498299
0.705776 0.705776 0.705776
0.567987 0.567987 0.567987
0.582696 0.582696 0.582696
0.616388 0.616388 0.616388
0.681636 0.681636 0.681636
0.840726 0.840726 0.840726
0.861051 0.861051 0.861051
0.864836 0.864836 0.864836
0.879271 0.879271 0.879271
0.901762 0.901762 0.901762
0.927794 0.927794 0.927794
0.165713 0.165713 0.165713
0.182437 0.182437 0.182437
0.241672 0.241672 0.241672
0.381933 0.381933 0.381933
0.562707 0.562707 0.562707
0.220676 0.220676 0.220676
0.247898 0.247898 0.247898
0.298466 0.298466 0.298466
0.411170 0.411170 0.411170
0.595575 0.595575 0.595575
0.328618 0.328618 0.328618
0.354162 0.354162 0.354162
0.421546 0.421546 0.421546
0.512078 0.512078 0.512078
0.704768 0.704768 0.704768
0.555871 0.555871 0.555871
0.572107 0.572107 0.572107
0.629938 0.629938 0.629938
0.692256 0.692256 0.692256
0.841398 0.841398 0.841398
0.854612 0.854612 0.854612
0.861967 0.861967 0.861967
0.881743 0.881743 0.881743
0.902464 0.902464 0.902464
0.928161 0.928161 0.928161
0.232456 0.232456 0.232456
0.249729 0.249729 0.249729
0.301640 0.301640 0.301640
0.377478 0.377478 0.377478
0.585962 0.585962 0.585962
0.299351 0.299351 0.299351
0.311254 0.311254 0.311254
0.348272 0.348272 0.348272
0.407691 0.407691 0.407691
0.615351 0.615351 0.615351
0.365789 0.365789 0.365789
0.386481 0.386481 0.386481
0.456825 0.456825 0.456825
0.510124 0.510124 0.510124
0.703700 0.703700 0.703700
0.508965 0.508965 0.508965
0.528740 0.528740 0.528740
0.596429 0.596429 0.596429
0.710506 0.710506 0.710506
0.834501 0.834501 0.834501
0.847715 0.847715 0.847715
0.854429 0.854429 0.854429
0.876555 0.876555 0.876555
0.907591 0.907591 0.907591
0.930999 0.930999 0.930999
0.371374 0.371374 0.371374
0.381842 0.381842 0.381842
0.414466 0.414466 0.414466
0.469551 0.469551 0.469551
0.586389 0.586389 0.586389
0.410895 0.410895 0.410895
0.418982 0.418982 0.418982
0.447395 0.447395 0.447395
0.505333 0.505333 0.505333
0.617487 0.617487 0.617487
0.492561 0.492561 0.492561
0.527337 0.527337 0.527337
0.567712 0.567712 0.567712
0.620752 0.620752 0.620752
0.708858 0.708858 0.708858
0.625666 0.625666 0.625666
0.638819 0.638819 0.638819
0.678279 0.678279 0.678279
0.781460 0.781460 0.781460
0.836637 0.836637 0.836637
0.828702 0.828702 0.828702
0.835599 0.835599 0.835599
0.858610 0.858610 0.858610
0.895750 0.895750 0.895750
0.938170 0.938170 0.938170
