cubelut/BW8.cube
# Created by Adobe Lightroom plugin Export LUT (1.18.0)
# www.johnrellis.com/lightroom/exportlut.htm
# Preset: MoodyBW5
# Color profile: /Library/Application Support/Adobe/Color/Profiles/Recommended/AdobeRGB1998.icc
LUT_3D_SIZE 8
DOMAIN_MIN 0.000000 0.000000 0.000000
DOMAIN_MAX 0.903226 0.903226 0.903226
0.131930 0.131930 0.131930
0.137179 0.137179 0.137179
0.155520 0.155520 0.155520
0.192966 0.192966 0.192966
0.257145 0.257145 0.257145
0.337957 0.337957 0.337957
0.421027 0.421027 0.421027
0.551995 0.551995 0.551995
0.145693 0.145693 0.145693
0.151034 0.151034 0.151034
0.169497 0.169497 0.169497
0.207736 0.207736 0.207736
0.270451 0.270451 0.270451
0.345495 0.345495 0.345495
0.424781 0.424781 0.424781
0.557275 0.557275 0.557275
0.198734 0.198734 0.198734
0.203586 0.203586 0.203586
0.224216 0.224216 0.224216
0.269780 0.269780 0.269780
0.322606 0.322606 0.322606
0.383734 0.383734 0.383734
0.462928 0.462928 0.462928
0.605982 0.605982 0.605982
0.300237 0.300237 0.300237
0.303624 0.303624 0.303624
0.317174 0.317174 0.317144
0.351476 0.351476 0.351476
0.400763 0.400763 0.400763
0.445075 0.445075 0.445075
0.531792 0.531792 0.531792
0.669856 0.669856 0.669856
0.403571 0.403571 0.403571
0.405707 0.405707 0.405707
0.414496 0.414496 0.414496
0.432654 0.432654 0.432654
0.461830 0.461830 0.461830
0.533013 0.533013 0.533013
0.622583 0.622583 0.622583
0.746304 0.746304 0.746304
0.520775 0.520775 0.520775
0.527794 0.527794 0.527794
0.537957 0.537957 0.537957
0.557427 0.557427 0.557427
0.588556 0.588556 0.588556
0.632410 0.632410 0.632410
0.729397 0.729397 0.729397
0.824643 0.824643 0.824643
0.699580 0.699580 0.699580
0.702968 0.702968 0.702968
0.709773 0.709773 0.709773
0.724392 0.724392 0.724392
0.744686 0.744686 0.744686
0.776669 0.776669 0.776669
0.812589 0.812589 0.812589
0.881346 0.881346 0.881346
0.859922 0.859922 0.859922
0.860960 0.860960 0.860960
0.865354 0.865354 0.865354
0.874113 0.874113 0.874113
0.880369 0.880369 0.880369
0.895171 0.895171 0.895171
0.912108 0.912108 0.912108
0.926635 0.926635 0.926635
0.134279 0.134279 0.134279
0.137179 0.137179 0.137179
0.160464 0.160464 0.160464
0.203098 0.203098 0.203098
0.266026 0.266026 0.266026
0.340398 0.340398 0.340398
0.418921 0.418921 0.418921
0.544854 0.544854 0.544854
0.142733 0.142733 0.142733
0.153567 0.153567 0.153567
0.175875 0.175875 0.175875
0.217350 0.217350 0.217350
0.278935 0.278935 0.278935
0.349004 0.349004 0.349004
0.423621 0.423621 0.423621
0.549676 0.549676 0.549676
0.198459 0.198459 0.198459
0.207919 0.207919 0.207919
0.226963 0.226963 0.226963
0.272557 0.272557 0.272557
0.325322 0.325322 0.325322
0.383215 0.383215 0.383215
0.455879 0.455879 0.455879
0.594659 0.594659 0.594659
0.299596 0.299596 0.299596
0.305455 0.305455 0.305455
0.319463 0.319463 0.319463
0.347814 0.347814 0.347814
0.393439 0.393439 0.393439
0.436744 0.436744 0.436744
0.518547 0.518547 0.518547
0.657893 0.657893 0.657893
0.404456 0.404456 0.404456
0.406226 0.406226 0.406226
0.413947 0.413947 0.413947
0.429328 0.429328 0.429328
0.455909 0.455909 0.455909
0.524956 0.524956 0.524956
0.615198 0.615198 0.615198
0.739528 0.739528 0.739528
0.518059 0.518059 0.518059
0.521050 0.521050 0.521050
0.531273 0.531273 0.531273
0.551720 0.551720 0.551720
0.584222 0.584222 0.584222
0.630030 0.630030 0.630030
0.726162 0.726162 0.726162
0.820920 0.820920 0.820920
0.692714 0.692714 0.692714
0.693782 0.693782 0.693782
0.701808 0.701808 0.701808
0.718715 0.718715 0.718715
0.741085 0.741085 0.741085
0.772580 0.772580 0.772580
0.807553 0.807553 0.807553
0.877348 0.877348 0.877348
0.856992 0.856992 0.856992
0.858579 0.858579 0.858579
0.863340 0.863340 0.863340
0.872496 0.872496 0.872496
0.883421 0.883421 0.883421
0.896300 0.896300 0.896300
0.911681 0.911681 0.911681
0.925780 0.925780 0.925780
0.140414 0.140414 0.140414
0.144442 0.144442 0.144442
0.161349 0.161349 0.161349
0.211093 0.211093 0.211093
0.279515 0.279515 0.279515
0.356634 0.356634 0.356634
0.431250 0.431250 0.431250
0.558068 0.558068 0.558068
0.156039 0.156039 0.156039
0.163790 0.163790 0.163790
0.178744 0.178744 0.178744
0.227848 0.227848 0.227848
0.293858 0.293858 0.293858
0.364141 0.364141 0.364141
0.436622 0.436622 0.436622
0.565515 0.565515 0.565515
0.188815 0.188815 0.188815
0.200473 0.200473 0.200473
0.237339 0.237339 0.237339
0.282567 0.282567 0.282567
0.338781 0.338781 0.338781
0.394995 0.394995 0.394995
0.467048 0.467048 0.467048
0.602808 0.602808 0.602808
0.298161 0.298161 0.298161
0.306554 0.306554 0.306554
0.331670 0.331670 0.331670
0.356542 0.356542 0.356542
0.400305 0.400305 0.400305
0.446326 0.446326 0.446326
0.531823 0.531823 0.531823
0.667140 0.667140 0.667140
0.402564 0.402564 0.402564
0.407630 0.407630 0.407630
0.421973 0.421973 0.421973
0.437171 0.437171 0.437171
0.464729 0.464729 0.464729
0.532494 0.532494 0.532494
0.622797 0.622797 0.622797
0.744564 0.744564 0.744564
0.518303 0.518303 0.518303
0.524285 0.524285 0.524285
0.539300 0.539300 0.539300
0.557824 0.557824 0.557824
0.587579 0.587579 0.587579
0.631708 0.631708 0.631708
0.726802 0.726802 0.726802
0.823880 0.823880 0.823880
0.696529 0.696529 0.696529
0.700008 0.700008 0.700008
0.708400 0.708400 0.708400
0.722866 0.722866 0.722866
0.744015 0.744015 0.744015
0.775296 0.775296 0.775296
0.812131 0.812131 0.812131
0.881834 0.881834 0.881834
0.858274 0.858274 0.858274
0.859586 0.859586 0.859586
0.863706 0.863706 0.863706
0.873777 0.873777 0.873777
0.884276 0.884276 0.884276
0.897276 0.897276 0.897276
0.912810 0.912810 0.912810
0.927031 0.927031 0.927031
0.154726 0.154726 0.154726
0.159701 0.159701 0.159701
0.176120 0.176120 0.176120
0.208469 0.208469 0.208469
0.286320 0.286320 0.286320
0.360357 0.360357 0.360357
0.434943 0.434943 0.434943
0.557580 0.557580 0.557580
0.177218 0.177218 0.177218
0.181460 0.181460 0.181460
0.196017 0.196017 0.196017
0.226871 0.226871 0.226871
0.302220 0.302220 0.302220
0.369909 0.369909 0.369909
0.442084 0.442084 0.442084
0.565820 0.565820 0.565820
0.204593 0.204593 0.204593
0.216220 0.216220 0.216220
0.258335 0.258335 0.258335
0.285466 0.285466 0.285466
0.347082 0.347082 0.347082
0.404669 0.404669 0.404669
0.479896 0.479896 0.479896
0.608392 0.608392 0.608392
0.278111 0.278111 0.278111
0.288487 0.288487 0.288487
0.320775 0.320775 0.320775
0.366522 0.366522 0.366522
0.405524 0.405524 0.405524
0.453620 0.453620 0.453620
0.539269 0.539269 0.539269
0.669978 0.669978 0.669978
0.400671 0.400671 0.400671
0.404974 0.404974 0.404974
0.420844 0.420844 0.420844
0.448981 0.448981 0.448981
0.475746 0.475746 0.475746
0.542260 0.542260 0.542260
0.632288 0.632288 0.632288
0.748775 0.748775 0.748775
0.517845 0.517845 0.517845
0.526513 0.526513 0.526513
0.544671 0.544671 0.544671
0.575433 0.575433 0.575433
0.602472 0.602472 0.602472
0.643366 0.643366 0.643366
0.733394 0.733394 0.733394
0.827024 0.827024 0.827024
0.693568 0.693568 0.693568
0.698360 0.698360 0.698360
0.713527 0.713527 0.713527
0.735592 0.735592 0.735592
0.756069 0.756069 0.756069
0.783871 0.783871 0.783871
0.817716 0.817716 0.817716
0.884886 0.884886 0.884886
0.858701 0.858701 0.858701
0.860838 0.860838 0.860838
0.867185 0.867185 0.867185
0.876555 0.876555 0.876555
0.886687 0.886687 0.886687
0.899107 0.899107 0.899107
0.914275 0.914275 0.914275
0.928496 0.928496 0.928496
0.179629 0.179629 0.179629
0.184970 0.184970 0.184970
0.202274 0.202274 0.202274
0.231662 0.231662 0.231662
0.280919 0.280919 0.280919
0.363165 0.363165 0.363165
0.442298 0.442298 0.442298
0.569116 0.569116 0.569116
0.203403 0.203403 0.203403
0.208194 0.208194 0.208194
0.223636 0.223636 0.223636
0.250614 0.250614 0.250614
0.296666 0.296666 0.296666
0.373968 0.373968 0.373968
0.451026 0.451026 0.451026
0.578302 0.578302 0.578302
0.252354 0.252354 0.252354
0.269169 0.269169 0.269169
0.286259 0.286259 0.286259
0.309239 0.309239 0.309239
0.342901 0.342901 0.342901
0.406226 0.406226 0.406226
0.480964 0.480964 0.480964
0.607050 0.607050 0.607050
0.297337 0.297337 0.297337
0.306889 0.306889 0.306889
0.337072 0.337072 0.337072
0.383948 0.383948 0.383948
0.405768 0.405768 0.405768
0.459297 0.459297 0.459297
0.541833 0.541833 0.541833
0.659815 0.659815 0.659815
0.375006 0.375006 0.375006
0.381445 0.381445 0.381445
0.401984 0.401984 0.401984
0.434730 0.434730 0.434730
0.483742 0.483742 0.483742
0.542351 0.542351 0.542351
0.627649 0.627649 0.627649
0.739254 0.739254 0.739254
0.505913 0.505913 0.505913
0.511223 0.511223 0.511223
0.528893 0.528893 0.528893
0.561761 0.561761 0.561761
0.606561 0.606561 0.606561
0.648402 0.648402 0.648402
0.734737 0.734737 0.734737
0.824949 0.824949 0.824949
0.685817 0.685817 0.685817
0.689448 0.689448 0.689448
0.703273 0.703273 0.703273
0.728542 0.728542 0.728542
0.760586 0.760586 0.760586
0.786954 0.786954 0.786954
0.820432 0.820432 0.820432
0.885313 0.885313 0.885313
0.852537 0.852537 0.852537
0.854307 0.854307 0.854307
0.860746 0.860746 0.860746
0.874632 0.874632 0.874632
0.888121 0.888121 0.888121
0.900328 0.900328 0.900328
0.914794 0.914794 0.914794
0.928985 0.928985 0.928985
0.220340 0.220340 0.220340
0.225711 0.225711 0.225711
0.243015 0.243015 0.243015
0.272770 0.272770 0.272770
0.310918 0.310918 0.310918
0.359411 0.359411 0.359411
0.442695 0.442695 0.442695
0.586877 0.586877 0.586877
0.243168 0.243168 0.243168
0.247532 0.247532 0.247532
0.262791 0.262791 0.262791
0.289616 0.289616 0.289616
0.323888 0.323888 0.323888
0.369055 0.369055 0.369055
0.450843 0.450843 0.450843
0.594598 0.594598 0.594598
0.307927 0.307927 0.307927
0.311162 0.311162 0.311162
0.322698 0.322698 0.322698
0.342138 0.342138 0.342138
0.367163 0.367163 0.367163
0.403082 0.403082 0.403082
0.485420 0.485420 0.485420
0.625483 0.625483 0.625483
0.330785 0.330785 0.330785
0.342657 0.342657 0.342657
0.380529 0.380529 0.380529
0.409888 0.409888 0.409888
0.428840 0.428840 0.428840
0.459724 0.459724 0.459724
0.554223 0.554223 0.554223
0.677150 0.677150 0.677150
0.394659 0.394659 0.394659
0.400549 0.400549 0.400549
0.419776 0.419776 0.419776
0.452522 0.452522 0.452522
0.510491 0.510491 0.510491
0.543786 0.543786 0.543786
0.633967 0.633967 0.633967
0.736385 0.736385 0.736385
0.471901 0.471901 0.471901
0.478676 0.478676 0.478676
0.500145 0.500145 0.500145
0.538659 0.538659 0.538659
0.591577 0.591577 0.591577
0.664027 0.664027 0.664027
0.734737 0.734737 0.734737
0.818357 0.818357 0.818357
0.671717 0.671717 0.671717
0.678309 0.678309 0.678309
0.697749 0.697749 0.697749
0.724483 0.724483 0.724483
0.757595 0.757595 0.757595
0.798062 0.798062 0.798062
0.829129 0.829129 0.829129
0.888701 0.888701 0.888701
0.849119 0.849119 0.849119
0.850828 0.850828 0.850828
0.857206 0.857206 0.857206
0.869352 0.869352 0.869352
0.885069 0.885069 0.885069
0.902739 0.902739 0.902739
0.916503 0.916503 0.916503
0.930663 0.930663 0.930663
0.282200 0.282200 0.282200
0.286961 0.286961 0.286961
0.302464 0.302464 0.302464
0.327031 0.327031 0.327031
0.356847 0.356847 0.356847
0.392798 0.392798 0.392798
0.438270 0.438270 0.438270
0.576410 0.576410 0.576410
0.302403 0.302403 0.302403
0.306310 0.306310 0.306310
0.319463 0.319463 0.319463
0.340948 0.340948 0.340948
0.368444 0.368444 0.368444
0.402228 0.402228 0.402228
0.447089 0.447089 0.447089
0.586450 0.586450 0.586450
0.354406 0.354406 0.354406
0.357092 0.357092 0.357092
0.366461 0.366461 0.366461
0.382544 0.382544 0.382544
0.404425 0.404425 0.404425
0.432715 0.432715 0.432715
0.479744 0.479744 0.479744
0.620203 0.620203 0.620203
0.396521 0.396521 0.396521
0.405280 0.405280 0.405280
0.427344 0.427344 0.427344
0.440314 0.440314 0.440314
0.460700 0.460700 0.460700
0.490120 0.490120 0.490120
0.541833 0.541833 0.541833
0.674037 0.674037 0.674037
0.424262 0.424262 0.424262
0.429053 0.429053 0.429053
0.445991 0.445991 0.445991
0.499886 0.499886 0.499886
0.550835 0.550835 0.550835
0.581353 0.581353 0.581353
0.627588 0.627588 0.627588
0.743679 0.743679 0.743679
0.516228 0.516228 0.516228
0.522179 0.522179 0.522179
0.542779 0.542779 0.542779
0.576501 0.576501 0.576501
0.622431 0.622431 0.622431
0.695644 0.695644 0.695644
0.731991 0.731991 0.731991
0.818845 0.818845 0.818845
0.640833 0.640833 0.640833
0.645808 0.645808 0.645808
0.662684 0.662684 0.662684
0.690822 0.690822 0.690822
0.730434 0.730434 0.730434
0.780789 0.780789 0.780789
0.839261 0.839261 0.839261
0.886992 0.886992 0.886992
0.829770 0.829770 0.829770
0.832853 0.832853 0.832853
0.843320 0.843320 0.843320
0.860685 0.860685 0.860685
0.881041 0.881041 0.881041
0.900298 0.900298 0.900298
0.920287 0.920287 0.920287
0.933379 0.933379 0.933379
0.371374 0.371374 0.371374
0.374517 0.374517 0.374517
0.385260 0.385260 0.385260
0.403113 0.403113 0.403113
0.427100 0.427100 0.427100
0.459541 0.459541 0.459541
0.512291 0.512291 0.512291
0.586389 0.586389 0.586389
0.384497 0.384497 0.384497
0.387274 0.387274 0.387274
0.396948 0.396948 0.396948
0.413581 0.413581 0.413581
0.436744 0.436744 0.436744
0.469734 0.469734 0.469734
0.522789 0.522789 0.522789
0.595819 0.595819 0.595819
0.422126 0.422126 0.422126
0.424292 0.424292 0.424292
0.432410 0.432410 0.432410
0.447883 0.447883 0.447883
0.472145 0.472145 0.472145
0.507042 0.507042 0.507042
0.558923 0.558923 0.558923
0.627405 0.627405 0.627405
0.484169 0.484169 0.484169
0.486671 0.486671 0.486671
0.495766 0.495766 0.495766
0.512902 0.512902 0.512902
0.538781 0.538781 0.538781
0.572717 0.572717 0.572717
0.617090 0.617090 0.617090
0.677699 0.677699 0.677699
0.496223 0.496223 0.496223
0.506249 0.506249 0.506249
0.542260 0.542260 0.542260
0.603052 0.603052 0.603052
0.625452 0.625452 0.625452
0.654749 0.654749 0.654749
0.690272 0.690272 0.690272
0.743557 0.743557 0.743557
0.592279 0.592279 0.592279
0.596551 0.596551 0.596551
0.610559 0.610559 0.610559
0.632593 0.632593 0.632593
0.691920 0.691920 0.691920
0.750301 0.750301 0.750301
0.779141 0.779141 0.779141
0.818051 0.818051 0.818051
0.722560 0.722560 0.722560
0.725826 0.725826 0.725826
0.736568 0.736568 0.736568
0.754971 0.754971 0.754971
0.780972 0.780972 0.780972
0.814237 0.814237 0.814237
0.865721 0.865721 0.865721
0.888487 0.888487 0.888487
0.828702 0.828702 0.828702
0.830747 0.830747 0.830747
0.837888 0.837888 0.837888
0.850431 0.850431 0.850431
0.867948 0.867948 0.867948
0.889738 0.889738 0.889738
0.914549 0.914549 0.914549
0.938170 0.938170 0.938170
