cubelut/BW9.cube
# Created by Adobe Lightroom plugin Export LUT (1.18.0)
# www.johnrellis.com/lightroom/exportlut.htm
# Preset: Black-Mamba_Free-LR-Presets.co
# Color profile: /Library/Application Support/Adobe/Color/Profiles/Recommended/AdobeRGB1998.icc
LUT_3D_SIZE 8
DOMAIN_MIN 0.000000 0.000000 0.000000
DOMAIN_MAX 0.903226 0.903226 0.903226
0.149142 0.149142 0.149142
0.150362 0.150362 0.150362
0.164981 0.164981 0.164981
0.220340 0.220340 0.220340
0.370611 0.370611 0.370611
0.613123 0.613123 0.613123
0.772030 0.772030 0.772030
0.831144 0.831144 0.831144
0.152255 0.152255 0.152255
0.154360 0.154360 0.154360
0.171908 0.171908 0.171908
0.230838 0.230838 0.230838
0.381598 0.381598 0.381598
0.609491 0.609491 0.609491
0.768551 0.768551 0.768551
0.830167 0.830167 0.830167
0.188907 0.188907 0.188907
0.192447 0.192447 0.192447
0.212528 0.212528 0.212528
0.301854 0.301854 0.301854
0.468116 0.468116 0.468116
0.664363 0.664363 0.664363
0.789731 0.789731 0.789731
0.837766 0.837766 0.837766
0.336278 0.336278 0.336278
0.347417 0.347417 0.347417
0.348455 0.348455 0.348455
0.460578 0.460578 0.460578
0.634150 0.634150 0.634150
0.738674 0.738674 0.738674
0.806882 0.806882 0.806882
0.845060 0.845060 0.845060
0.604425 0.604425 0.604425
0.612665 0.612665 0.612665
0.625452 0.625452 0.625452
0.630396 0.630396 0.630396
0.714137 0.714137 0.714137
0.786923 0.786923 0.786923
0.822293 0.822293 0.822293
0.855039 0.855039 0.855039
0.771969 0.771969 0.771969
0.777981 0.777981 0.777981
0.784115 0.784115 0.784115
0.784115 0.784115 0.784115
0.789487 0.789487 0.789487
0.813809 0.813809 0.813809
0.842313 0.842313 0.842313
0.872709 0.872709 0.872709
0.832425 0.832425 0.832425
0.833555 0.833555 0.833555
0.835569 0.835569 0.835569
0.836637 0.836637 0.836637
0.836698 0.836698 0.836698
0.843473 0.843473 0.843473
0.859464 0.859464 0.859464
0.887480 0.887480 0.887480
0.878721 0.878721 0.878721
0.879240 0.879240 0.879240
0.881498 0.881498 0.881498
0.884886 0.884886 0.884886
0.883116 0.883116 0.883116
0.886015 0.886015 0.886015
0.897154 0.897154 0.897154
0.910826 0.910826 0.910826
0.149142 0.149142 0.149142
0.150515 0.150515 0.150515
0.169741 0.169741 0.169741
0.234379 0.234379 0.234379
0.385351 0.385351 0.385351
0.604700 0.604700 0.604700
0.764736 0.764736 0.764736
0.828061 0.828061 0.828061
0.151186 0.151186 0.151186
0.157443 0.157443 0.157443
0.180056 0.180056 0.180056
0.247013 0.247013 0.247013
0.400763 0.400763 0.400763
0.610529 0.610529 0.610529
0.763363 0.763363 0.763363
0.826963 0.826963 0.826963
0.191745 0.191745 0.191745
0.200839 0.200839 0.200839
0.220188 0.220188 0.220188
0.309331 0.309331 0.309331
0.473152 0.473152 0.473152
0.656977 0.656977 0.656977
0.781033 0.781033 0.781033
0.833646 0.833646 0.833646
0.335698 0.335698 0.335698
0.349828 0.349828 0.349828
0.366339 0.366339 0.366339
0.448493 0.448493 0.448493
0.606134 0.606134 0.606134
0.719631 0.719631 0.719631
0.799252 0.799252 0.799252
0.840787 0.840787 0.840787
0.605554 0.605554 0.605554
0.612024 0.612024 0.612024
0.629114 0.629114 0.629114
0.626703 0.626703 0.626703
0.702815 0.702815 0.702815
0.780972 0.780972 0.780972
0.819425 0.819425 0.819425
0.852445 0.852445 0.852445
0.768612 0.768612 0.768612
0.771237 0.771237 0.771237
0.779477 0.779477 0.779477
0.781186 0.781186 0.781186
0.787076 0.787076 0.787076
0.812985 0.812985 0.812985
0.841184 0.841184 0.841184
0.870817 0.870817 0.870817
0.829770 0.829770 0.829770
0.830076 0.830076 0.830076
0.832547 0.832547 0.832547
0.834958 0.834958 0.834958
0.835813 0.835813 0.835813
0.841917 0.841917 0.841917
0.857115 0.857115 0.857115
0.885161 0.885161 0.885161
0.876768 0.876768 0.876768
0.877623 0.877623 0.877623
0.880064 0.880064 0.880064
0.884092 0.884092 0.884092
0.885588 0.885588 0.885588
0.887297 0.887297 0.887297
0.896757 0.896757 0.896757
0.909850 0.909850 0.909850
0.150088 0.150088 0.150088
0.153567 0.153567 0.153567
0.169375 0.169375 0.169375
0.239200 0.239200 0.239200
0.430243 0.430243 0.430243
0.653101 0.653101 0.653101
0.780606 0.780606 0.780606
0.832761 0.832761 0.832761
0.155642 0.155642 0.155642
0.162570 0.162570 0.162570
0.183597 0.183597 0.183597
0.263828 0.263828 0.263828
0.460090 0.460090 0.460090
0.656977 0.656977 0.656977
0.780453 0.780453 0.780453
0.832731 0.832731 0.832731
0.178958 0.178958 0.178958
0.192142 0.192142 0.192142
0.247593 0.247593 0.247593
0.354620 0.354620 0.354620
0.532525 0.532525 0.532525
0.694301 0.694301 0.694301
0.791409 0.791409 0.791409
0.836759 0.836759 0.836759
0.362188 0.362188 0.362188
0.377996 0.377996 0.377996
0.432563 0.432563 0.432563
0.494728 0.494728 0.494728
0.636988 0.636988 0.636988
0.742824 0.742824 0.742824
0.807248 0.807248 0.807248
0.844663 0.844663 0.844663
0.618891 0.618891 0.618891
0.629267 0.629267 0.629267
0.660243 0.660243 0.660243
0.674952 0.674952 0.674952
0.725154 0.725154 0.725154
0.788052 0.788052 0.788052
0.822446 0.822446 0.822446
0.855253 0.855253 0.855253
0.772854 0.772854 0.772854
0.775784 0.775784 0.775784
0.783627 0.783627 0.783627
0.790066 0.790066 0.790066
0.791104 0.791104 0.791104
0.814481 0.814481 0.814481
0.841825 0.841825 0.841825
0.872496 0.872496 0.872496
0.831662 0.831662 0.831662
0.832151 0.832151 0.832151
0.834165 0.834165 0.834165
0.837919 0.837919 0.837919
0.838437 0.838437 0.838437
0.843503 0.843503 0.843503
0.859678 0.859678 0.859678
0.889586 0.889586 0.889586
0.877409 0.877409 0.877409
0.877653 0.877653 0.877653
0.879728 0.879728 0.879728
0.885344 0.885344 0.885344
0.887205 0.887205 0.887205
0.889220 0.889220 0.889220
0.897948 0.897948 0.897948
0.911345 0.911345 0.911345
0.154208 0.154208 0.154208
0.159976 0.159976 0.159976
0.194827 0.194827 0.194827
0.237583 0.237583 0.237583
0.402197 0.402197 0.402197
0.640955 0.640955 0.640955
0.783169 0.783169 0.783169
0.834531 0.834531 0.834531
0.164889 0.164889 0.164889
0.172396 0.172396 0.172396
0.212253 0.212253 0.212253
0.262791 0.262791 0.262791
0.436927 0.436927 0.436927
0.658106 0.658106 0.658106
0.786770 0.786770 0.786770
0.835080 0.835080 0.835080
0.173861 0.173861 0.173861
0.189639 0.189639 0.189639
0.269444 0.269444 0.269444
0.362432 0.362432 0.362432
0.547814 0.547814 0.547814
0.720882 0.720882 0.720882
0.803494 0.803494 0.803494
0.841245 0.841245 0.841245
0.280674 0.280674 0.280674
0.304997 0.304997 0.304997
0.396368 0.396368 0.396368
0.548669 0.548669 0.548669
0.670497 0.670497 0.670497
0.760739 0.760739 0.760739
0.813107 0.813107 0.813107
0.848173 0.848173 0.848173
0.647791 0.647791 0.647791
0.654505 0.654505 0.654505
0.680690 0.680690 0.680690
0.721462 0.721462 0.721462
0.748287 0.748287 0.748287
0.796506 0.796506 0.796506
0.827237 0.827237 0.827237
0.859159 0.859159 0.859159
0.782162 0.782162 0.782162
0.786709 0.786709 0.786709
0.792569 0.792569 0.792569
0.802640 0.802640 0.802640
0.806485 0.806485 0.806485
0.820249 0.820249 0.820249
0.844968 0.844968 0.844968
0.874754 0.874754 0.874754
0.833585 0.833585 0.833585
0.834531 0.834531 0.834531
0.837339 0.837339 0.837339
0.842161 0.842161 0.842161
0.845731 0.845731 0.845731
0.847807 0.847807 0.847807
0.862943 0.862943 0.862943
0.891936 0.891936 0.891936
0.879942 0.879942 0.879942
0.880644 0.880644 0.880644
0.882475 0.882475 0.882475
0.886259 0.886259 0.886259
0.890715 0.890715 0.890715
0.892546 0.892546 0.892546
0.899474 0.899474 0.899474
0.913054 0.913054 0.913054
0.165957 0.165957 0.165957
0.174075 0.174075 0.174075
0.215000 0.215000 0.215000
0.315496 0.315496 0.315496
0.411231 0.411231 0.411231
0.616236 0.616236 0.616236
0.775570 0.775570 0.775570
0.833829 0.833829 0.833829
0.179843 0.179843 0.179843
0.189731 0.189731 0.189731
0.236088 0.236088 0.236088
0.349828 0.349828 0.349828
0.442267 0.442267 0.442267
0.636774 0.636774 0.636774
0.781460 0.781460 0.781460
0.835447 0.835447 0.835447
0.223728 0.223728 0.223728
0.241825 0.241825 0.241825
0.305333 0.305333 0.305333
0.454170 0.454170 0.454170
0.537652 0.537652 0.537652
0.693904 0.693904 0.693904
0.796139 0.796139 0.796139
0.840269 0.840269 0.840269
0.250980 0.250980 0.250980
0.270848 0.270848 0.270848
0.361120 0.361120 0.361120
0.576135 0.576135 0.576135
0.669276 0.669276 0.669276
0.762081 0.762081 0.762081
0.815854 0.815854 0.815854
0.850278 0.850278 0.850278
0.503044 0.503044 0.503044
0.526085 0.526085 0.526085
0.596033 0.596033 0.596033
0.690700 0.690700 0.690700
0.763546 0.763546 0.763546
0.801816 0.801816 0.801816
0.829923 0.829923 0.829923
0.860685 0.860685 0.860685
0.773129 0.773129 0.773129
0.778317 0.778317 0.778317
0.792630 0.792630 0.792630
0.802121 0.802121 0.802121
0.813169 0.813169 0.813169
0.823362 0.823362 0.823362
0.846799 0.846799 0.846799
0.876066 0.876066 0.876066
0.835233 0.835233 0.835233
0.835721 0.835721 0.835721
0.837949 0.837949 0.837949
0.842496 0.842496 0.842496
0.849180 0.849180 0.849180
0.852567 0.852567 0.852567
0.864927 0.864927 0.864927
0.892760 0.892760 0.892760
0.879698 0.879698 0.879698
0.880095 0.880095 0.880095
0.881804 0.881804 0.881804
0.886778 0.886778 0.886778
0.891752 0.891752 0.891752
0.895995 0.895995 0.895995
0.899962 0.899962 0.899962
0.913664 0.913664 0.913664
0.191653 0.191653 0.191653
0.203494 0.203494 0.203494
0.257206 0.257206 0.257206
0.403906 0.403906 0.403906
0.539483 0.539483 0.539483
0.633997 0.633997 0.633997
0.771054 0.771054 0.771054
0.831785 0.831785 0.831785
0.208469 0.208469 0.208469
0.221195 0.221195 0.221195
0.278874 0.278874 0.278874
0.426947 0.426947 0.426947
0.561425 0.561425 0.561425
0.648798 0.648798 0.648798
0.775387 0.775387 0.775387
0.833005 0.833005 0.833005
0.272251 0.272251 0.272251
0.290227 0.290227 0.290227
0.366064 0.366064 0.366064
0.512688 0.512688 0.512688
0.645197 0.645197 0.645197
0.704494 0.704494 0.704494
0.792294 0.792294 0.792294
0.838987 0.838987 0.838987
0.298283 0.298283 0.298283
0.337743 0.337743 0.337743
0.499611 0.499611 0.499611
0.626276 0.626276 0.626276
0.738552 0.738552 0.738552
0.766964 0.766964 0.766964
0.813657 0.813657 0.813657
0.850095 0.850095 0.850095
0.454047 0.454047 0.454047
0.477211 0.477211 0.477211
0.551659 0.551659 0.551659
0.656275 0.656275 0.656275
0.774899 0.774899 0.774899
0.802640 0.802640 0.802640
0.830625 0.830625 0.830625
0.863066 0.863066 0.863066
0.709712 0.709712 0.709712
0.720790 0.720790 0.720790
0.748135 0.748135 0.748135
0.780453 0.780453 0.780453
0.807340 0.807340 0.807340
0.830503 0.830503 0.830503
0.851194 0.851194 0.851194
0.879576 0.879576 0.879576
0.827939 0.827939 0.827939
0.829862 0.829862 0.829862
0.835386 0.835386 0.835386
0.845060 0.845060 0.845060
0.852995 0.852995 0.852995
0.861692 0.861692 0.861692
0.870359 0.870359 0.870359
0.896605 0.896605 0.896605
0.882353 0.882353 0.882353
0.882719 0.882719 0.882719
0.884306 0.884306 0.884306
0.887938 0.887938 0.887938
0.892851 0.892851 0.892851
0.899565 0.899565 0.899565
0.903960 0.903960 0.903960
0.915770 0.915770 0.915770
0.245670 0.245670 0.245670
0.263951 0.263951 0.263951
0.342718 0.342718 0.342718
0.504204 0.504204 0.504204
0.682673 0.682673 0.682673
0.732357 0.732357 0.732357
0.776516 0.776516 0.776516
0.830106 0.830106 0.830106
0.267704 0.267704 0.267704
0.287449 0.287449 0.287449
0.368353 0.368353 0.368353
0.523400 0.523400 0.523400
0.692012 0.692012 0.692012
0.741115 0.741115 0.741115
0.780667 0.780667 0.780667
0.831205 0.831205 0.831205
0.344640 0.344640 0.344640
0.367041 0.367041 0.367041
0.449958 0.449958 0.449958
0.587640 0.587640 0.587640
0.723751 0.723751 0.723751
0.769100 0.769100 0.769100
0.795773 0.795773 0.795773
0.836942 0.836942 0.836942
0.466316 0.466316 0.466316
0.487098 0.487098 0.487098
0.557885 0.557885 0.557885
0.667079 0.667079 0.667079
0.759762 0.759762 0.759762
0.799283 0.799283 0.799283
0.813626 0.813626 0.813626
0.846159 0.846159 0.846159
0.402319 0.402319 0.402319
0.425574 0.425574 0.425574
0.537102 0.537102 0.537102
0.727077 0.727077 0.727077
0.786526 0.786526 0.786526
0.821195 0.821195 0.821195
0.830014 0.830014 0.830014
0.859220 0.859220 0.859220
0.685573 0.685573 0.685573
0.695796 0.695796 0.695796
0.726070 0.726070 0.726070
0.762570 0.762570 0.762570
0.794797 0.794797 0.794797
0.834379 0.834379 0.834379
0.850309 0.850309 0.850309
0.878691 0.878691 0.878691
0.808713 0.808713 0.808713
0.810758 0.810758 0.810758
0.816983 0.816983 0.816983
0.826169 0.826169 0.826169
0.838071 0.838071 0.838071
0.854582 0.854582 0.854582
0.877104 0.877104 0.877104
0.900206 0.900206 0.900206
0.867063 0.867063 0.867063
0.868376 0.868376 0.868376
0.873259 0.873259 0.873259
0.881437 0.881437 0.881437
0.893004 0.893004 0.893004
0.902525 0.902525 0.902525
0.910918 0.910918 0.910918
0.919310 0.919310 0.919310
0.397192 0.397192 0.397192
0.425452 0.425452 0.425452
0.521721 0.521721 0.521721
0.662440 0.662440 0.662440
0.769863 0.769863 0.769863
0.815549 0.815549 0.815549
0.822324 0.822324 0.822324
0.837308 0.837308 0.837308
0.419959 0.419959 0.419959
0.447517 0.447517 0.447517
0.539849 0.539849 0.539849
0.673182 0.673182 0.673182
0.773342 0.773342 0.773342
0.817716 0.817716 0.817716
0.824002 0.824002 0.824002
0.838468 0.838468 0.838468
0.483345 0.483345 0.483345
0.508476 0.508476 0.508476
0.590082 0.590082 0.590082
0.704311 0.704311 0.704311
0.784207 0.784207 0.784207
0.823667 0.823667 0.823667
0.830106 0.830106 0.830106
0.843290 0.843290 0.843290
0.556939 0.556939 0.556939
0.579034 0.579034 0.579034
0.648615 0.648615 0.648615
0.736782 0.736782 0.736782
0.796872 0.796872 0.796872
0.829374 0.829374 0.829374
0.839902 0.839902 0.839902
0.851743 0.851743 0.851743
0.554498 0.554498 0.554498
0.593225 0.593225 0.593225
0.708461 0.708461 0.708461
0.757443 0.757443 0.757443
0.806119 0.806119 0.806119
0.835142 0.835142 0.835142
0.853117 0.853117 0.853117
0.864012 0.864012 0.864012
0.610620 0.610620 0.610620
0.620081 0.620081 0.620081
0.650904 0.650904 0.650904
0.691646 0.691646 0.691646
0.814267 0.814267 0.814267
0.842405 0.842405 0.842405
0.871489 0.871489 0.871489
0.880858 0.880858 0.880858
0.808835 0.808835 0.808835
0.810300 0.810300 0.810300
0.814969 0.814969 0.814969
0.822385 0.822385 0.822385
0.832242 0.832242 0.832242
0.845457 0.845457 0.845457
0.883238 0.883238 0.883238
0.901335 0.901335 0.901335
0.858244 0.858244 0.858244
0.859129 0.859129 0.859129
0.862455 0.862455 0.862455
0.868528 0.868528 0.868528
0.877562 0.877562 0.877562
0.889921 0.889921 0.889921
0.906004 0.906004 0.906004
0.925933 0.925933 0.925933
