cubelut/BW9.cube
# Created by Adobe Lightroom plugin Export LUT (1.18.0)
# www.johnrellis.com/lightroom/exportlut.htm
# Preset: Black-Mamba_Free-LR-Presets.co
# Color profile: /Library/Application Support/Adobe/Color/Profiles/Recommended/AdobeRGB1998.icc
LUT_3D_SIZE 5
DOMAIN_MIN 0.000000 0.000000 0.000000
DOMAIN_MAX 0.903226 0.903226 0.903226
0.149142 0.149142 0.149142
0.159091 0.159091 0.159091
0.280858 0.280858 0.280858
0.667231 0.667231 0.667231
0.831144 0.831144 0.831144
0.174075 0.174075 0.174075
0.188602 0.188602 0.188602
0.344854 0.344854 0.344854
0.698695 0.698695 0.698695
0.837095 0.837095 0.837095
0.467414 0.467414 0.467414
0.490150 0.490150 0.490150
0.610346 0.610346 0.610346
0.779355 0.779355 0.779355
0.849332 0.849332 0.849332
0.795163 0.795163 0.795163
0.800992 0.800992 0.800992
0.802884 0.802884 0.802884
0.825925 0.825925 0.825925
0.876738 0.876738 0.876738
0.878721 0.878721 0.878721
0.880674 0.880674 0.880674
0.882170 0.882170 0.882170
0.887022 0.887022 0.887022
0.910826 0.910826 0.910826
0.149691 0.149691 0.149691
0.161349 0.161349 0.161349
0.319829 0.319829 0.319829
0.678767 0.678767 0.678767
0.830137 0.830137 0.830137
0.167727 0.167727 0.167727
0.209659 0.209659 0.209659
0.398077 0.398077 0.398077
0.707973 0.707973 0.707973
0.834531 0.834531 0.834531
0.484993 0.484993 0.484993
0.528527 0.528527 0.528527
0.612299 0.612299 0.612299
0.776516 0.776516 0.776516
0.849638 0.849638 0.849638
0.796841 0.796841 0.796841
0.802670 0.802670 0.802670
0.808103 0.808103 0.808103
0.826993 0.826993 0.826993
0.877012 0.877012 0.877012
0.878904 0.878904 0.878904
0.880797 0.880797 0.880797
0.886564 0.886564 0.886564
0.890074 0.890074 0.890074
0.912230 0.912230 0.912230
0.158968 0.158968 0.158968
0.188602 0.188602 0.188602
0.306767 0.306767 0.306767
0.680568 0.680568 0.680568
0.834928 0.834928 0.834928
0.196017 0.196017 0.196017
0.244755 0.244755 0.244755
0.415808 0.415808 0.415808
0.726070 0.726070 0.726070
0.841032 0.841032 0.841032
0.383307 0.383307 0.383307
0.468513 0.468513 0.468513
0.682948 0.682948 0.682948
0.795102 0.795102 0.795102
0.854307 0.854307 0.854307
0.801450 0.801450 0.801450
0.805142 0.805142 0.805142
0.818845 0.818845 0.818845
0.832242 0.832242 0.832242
0.878538 0.878538 0.878538
0.879026 0.879026 0.879026
0.881407 0.881407 0.881407
0.888609 0.888609 0.888609
0.894224 0.894224 0.894224
0.912688 0.912688 0.912688
0.199985 0.199985 0.199985
0.249790 0.249790 0.249790
0.526848 0.526848 0.526848
0.678279 0.678279 0.678279
0.830014 0.830014 0.830014
0.261967 0.261967 0.261967
0.327459 0.327459 0.327459
0.588739 0.588739 0.588739
0.719203 0.719203 0.719203
0.834653 0.834653 0.834653
0.316442 0.316442 0.316442
0.429511 0.429511 0.429511
0.716579 0.716579 0.716579
0.792905 0.792905 0.792905
0.853300 0.853300 0.853300
0.747189 0.747189 0.747189
0.765438 0.765438 0.765438
0.805264 0.805264 0.805264
0.841001 0.841001 0.841001
0.883391 0.883391 0.883391
0.882902 0.882902 0.882902
0.884733 0.884733 0.884733
0.891417 0.891417 0.891417
0.902647 0.902647 0.902647
0.916228 0.916228 0.916228
0.397192 0.397192 0.397192
0.491554 0.491554 0.491554
0.725216 0.725216 0.725216
0.817227 0.817227 0.817227
0.837308 0.837308 0.837308
0.465492 0.465492 0.465492
0.550256 0.550256 0.550256
0.745357 0.745357 0.745357
0.824063 0.824063 0.824063
0.841855 0.841855 0.841855
0.620783 0.620783 0.620783
0.660487 0.660487 0.660487
0.778988 0.778988 0.778988
0.838437 0.838437 0.838437
0.857298 0.857298 0.857298
0.696681 0.696681 0.696681
0.717128 0.717128 0.717128
0.763851 0.763851 0.763851
0.851774 0.851774 0.851774
0.885557 0.885557 0.885557
0.858244 0.858244 0.858244
0.861357 0.861357 0.861357
0.872679 0.872679 0.872679
0.893584 0.893584 0.893584
0.925933 0.925933 0.925933
