cubelut/BW9.cube
# Created by Adobe Lightroom plugin Export LUT (1.18.0)
# www.johnrellis.com/lightroom/exportlut.htm
# Preset: Black-Mamba_Free-LR-Presets.co
# Color profile: /Library/Application Support/Adobe/Color/Profiles/Recommended/AdobeRGB1998.icc
LUT_3D_SIZE 32
DOMAIN_MIN 0.0 0.0 0.0
DOMAIN_MAX 1.0 1.0 1.0
0.149142 0.149142 0.149142
0.149142 0.149142 0.149142
0.149142 0.149142 0.149142
0.149569 0.149569 0.149569
0.150362 0.150362 0.150362
0.152102 0.152102 0.152102
0.154879 0.154879 0.154879
0.159091 0.159091 0.159091
0.164981 0.164981 0.164981
0.173190 0.173190 0.173190
0.184451 0.184451 0.184451
0.199893 0.199893 0.199893
0.220340 0.220340 0.220340
0.247074 0.247074 0.247074
0.280858 0.280858 0.280858
0.322393 0.322393 0.322393
0.370611 0.370611 0.370611
0.423285 0.423285 0.423285
0.488167 0.488167 0.488167
0.552941 0.552941 0.552941
0.613123 0.613123 0.613123
0.667231 0.667231 0.667231
0.711788 0.711788 0.711788
0.746029 0.746029 0.746029
0.772030 0.772030 0.772030
0.791989 0.791989 0.791989
0.807492 0.807492 0.807492
0.820005 0.820005 0.820005
0.831144 0.831144 0.831144
0.842405 0.842405 0.842405
0.854948 0.854948 0.854948
0.868650 0.868650 0.868650
0.149142 0.149142 0.149142
0.149142 0.149142 0.149142
0.149294 0.149294 0.149294
0.149691 0.149691 0.149691
0.150637 0.150637 0.150637
0.152499 0.152499 0.152499
0.155245 0.155245 0.155245
0.159579 0.159579 0.159579
0.165469 0.165469 0.165469
0.173617 0.173617 0.173617
0.184970 0.184970 0.184970
0.200259 0.200259 0.200259
0.220584 0.220584 0.220584
0.247074 0.247074 0.247074
0.280430 0.280430 0.280430
0.321569 0.321569 0.321569
0.369177 0.369177 0.369177
0.421302 0.421302 0.421302
0.485237 0.485237 0.485237
0.548547 0.548547 0.548547
0.607996 0.607996 0.607996
0.662043 0.662043 0.662043
0.707393 0.707393 0.707393
0.742550 0.742550 0.742550
0.769375 0.769375 0.769375
0.790066 0.790066 0.790066
0.806058 0.806058 0.806058
0.818906 0.818906 0.818906
0.830198 0.830198 0.830198
0.841459 0.841459 0.841459
0.854002 0.854002 0.854002
0.867704 0.867704 0.867704
0.149294 0.149294 0.149294
0.149294 0.149294 0.149294
0.149416 0.149416 0.149416
0.149966 0.149966 0.149966
0.151034 0.151034 0.151034
0.153048 0.153048 0.153048
0.156039 0.156039 0.156039
0.160342 0.160342 0.160342
0.166323 0.166323 0.166323
0.174533 0.174533 0.174533
0.185916 0.185916 0.185916
0.201328 0.201328 0.201328
0.221714 0.221714 0.221714
0.248264 0.248264 0.248264
0.281621 0.281621 0.281621
0.322606 0.322606 0.322606
0.370153 0.370153 0.370153
0.421820 0.421820 0.421820
0.485481 0.485481 0.485481
0.547692 0.547692 0.547692
0.606592 0.606592 0.606592
0.660487 0.660487 0.660487
0.705928 0.705928 0.705928
0.741238 0.741238 0.741238
0.768368 0.768368 0.768368
0.789242 0.789242 0.789242
0.805447 0.805447 0.805447
0.818418 0.818418 0.818418
0.829770 0.829770 0.829770
0.841093 0.841093 0.841093
0.853574 0.853574 0.853574
0.867277 0.867277 0.867277
0.150088 0.150088 0.150088
0.150240 0.150240 0.150240
0.150240 0.150240 0.150240
0.150790 0.150790 0.150790
0.152499 0.152499 0.152499
0.154482 0.154482 0.154482
0.157687 0.157687 0.157687
0.162203 0.162203 0.162203
0.168429 0.168429 0.168429
0.177005 0.177005 0.177005
0.188693 0.188693 0.188693
0.204410 0.204410 0.204410
0.225315 0.225315 0.225315
0.252140 0.252140 0.252140
0.285588 0.285588 0.285588
0.326818 0.326818 0.326818
0.373968 0.373968 0.373968
0.426703 0.426703 0.426703
0.488075 0.488075 0.488075
0.548028 0.548028 0.548028
0.605280 0.605280 0.605280
0.658259 0.658259 0.658259
0.704036 0.704036 0.704036
0.740047 0.740047 0.740047
0.767910 0.767910 0.767910
0.789242 0.789242 0.789242
0.805692 0.805692 0.805692
0.818723 0.818723 0.818723
0.830076 0.830076 0.830076
0.841306 0.841306 0.841306
0.853666 0.853666 0.853666
0.867185 0.867185 0.867185
0.152255 0.152255 0.152255
0.152499 0.152499 0.152499
0.152651 0.152651 0.152651
0.152651 0.152651 0.152651
0.154360 0.154360 0.154360
0.157961 0.157961 0.157961
0.160952 0.160952 0.160952
0.165347 0.165347 0.165347
0.171908 0.171908 0.171908
0.180911 0.180911 0.180911
0.193149 0.193149 0.193149
0.209476 0.209476 0.209476
0.230838 0.230838 0.230838
0.258274 0.258274 0.258274
0.292424 0.292424 0.292424
0.334112 0.334112 0.334112
0.381598 0.381598 0.381598
0.436683 0.436683 0.436683
0.496132 0.496132 0.496132
0.554192 0.554192 0.554192
0.609491 0.609491 0.609491
0.661097 0.661097 0.661097
0.705623 0.705623 0.705623
0.741085 0.741085 0.741085
0.768551 0.768551 0.768551
0.789700 0.789700 0.789700
0.805966 0.805966 0.805966
0.818875 0.818875 0.818875
0.830167 0.830167 0.830167
0.841337 0.841337 0.841337
0.853666 0.853666 0.853666
0.867155 0.867155 0.867155
0.156405 0.156405 0.156405
0.156802 0.156802 0.156802
0.157198 0.157198 0.157198
0.157046 0.157046 0.157046
0.157565 0.157565 0.157565
0.161074 0.161074 0.161074
0.167269 0.167269 0.167269
0.171817 0.171817 0.171817
0.178103 0.178103 0.178103
0.187167 0.187167 0.187167
0.200259 0.200259 0.200259
0.217594 0.217594 0.217594
0.240055 0.240055 0.240055
0.268437 0.268437 0.268437
0.303716 0.303716 0.303716
0.346227 0.346227 0.346227
0.393957 0.393957 0.393957
0.451148 0.451148 0.451148
0.508568 0.508568 0.508568
0.564874 0.564874 0.564874
0.618891 0.618891 0.618891
0.668971 0.668971 0.668971
0.739651 0.739651 0.739651
0.766812 0.766812 0.766812
0.787503 0.787503 0.787503
0.803372 0.803372 0.803372
0.815946 0.815946 0.815946
0.826658 0.826658 0.826658
0.836942 0.836942 0.836942
0.847990 0.847990 0.847990
0.860136 0.860136 0.860136
0.873106 0.873106 0.873106
0.163912 0.163912 0.163912
0.164401 0.164401 0.164401
0.165103 0.165103 0.165103
0.165347 0.165347 0.165347
0.165225 0.165225 0.165225
0.167025 0.167025 0.167025
0.172610 0.172610 0.172610
0.182010 0.182010 0.182010
0.190646 0.190646 0.190646
0.200839 0.200839 0.200839
0.214359 0.214359 0.214359
0.233341 0.233341 0.233341
0.258213 0.258213 0.258213
0.289128 0.289128 0.289128
0.326452 0.326452 0.326452
0.369512 0.369512 0.369512
0.420844 0.420844 0.420844
0.478370 0.478370 0.478370
0.534600 0.534600 0.534600
0.589990 0.589990 0.589990
0.643793 0.643793 0.643793
0.693141 0.693141 0.693141
0.733120 0.733120 0.733120
0.763668 0.763668 0.763668
0.786404 0.786404 0.786404
0.803067 0.803067 0.803067
0.815915 0.815915 0.815915
0.826658 0.826658 0.826658
0.836942 0.836942 0.836942
0.847868 0.847868 0.847868
0.859922 0.859922 0.859922
0.872831 0.872831 0.872831
0.174075 0.174075 0.174075
0.174655 0.174655 0.174655
0.175418 0.175418 0.175418
0.176333 0.176333 0.176333
0.176120 0.176120 0.176120
0.175998 0.175998 0.175998
0.180179 0.180179 0.180179
0.188602 0.188602 0.188602
0.199985 0.199985 0.199985
0.216831 0.216831 0.216831
0.231724 0.231724 0.231724
0.250736 0.250736 0.250736
0.274418 0.274418 0.274418
0.306615 0.306615 0.306615
0.344854 0.344854 0.344854
0.388861 0.388861 0.388861
0.442634 0.442634 0.442634
0.496376 0.496376 0.496376
0.549096 0.549096 0.549096
0.601282 0.601282 0.601282
0.652216 0.652216 0.652216
0.698695 0.698695 0.698695
0.736446 0.736446 0.736446
0.765499 0.765499 0.765499
0.787411 0.787411 0.787411
0.803677 0.803677 0.803677
0.816251 0.816251 0.816251
0.826902 0.826902 0.826902
0.837095 0.837095 0.837095
0.847990 0.847990 0.847990
0.860044 0.860044 0.860044
0.872892 0.872892 0.872892
0.188907 0.188907 0.188907
0.189639 0.189639 0.189639
0.190646 0.190646 0.190646
0.192660 0.192660 0.192660
0.192447 0.192447 0.192447
0.192142 0.192142 0.192142
0.191836 0.191836 0.191836
0.200381 0.200381 0.200381
0.212528 0.212528 0.212528
0.226291 0.226291 0.226291
0.255436 0.255436 0.255436
0.276158 0.276158 0.276158
0.301854 0.301854 0.301854
0.332433 0.332433 0.332433
0.368811 0.368811 0.368811
0.417700 0.417700 0.417700
0.468116 0.468116 0.468116
0.518425 0.518425 0.518425
0.567559 0.567559 0.567559
0.616602 0.616602 0.616602
0.664363 0.664363 0.664363
0.707210 0.707210 0.707210
0.742061 0.742061 0.742061
0.769131 0.769131 0.769131
0.789731 0.789731 0.789731
0.805173 0.805173 0.805173
0.817319 0.817319 0.817319
0.827726 0.827726 0.827726
0.837766 0.837766 0.837766
0.848600 0.848600 0.848600
0.860502 0.860502 0.860502
0.873259 0.873259 0.873259
0.210269 0.210269 0.210269
0.211002 0.211002 0.211002
0.212070 0.212070 0.212070
0.214542 0.214542 0.214542
0.215610 0.215610 0.215610
0.215244 0.215244 0.215244
0.214817 0.214817 0.214817
0.216312 0.216312 0.216312
0.229465 0.229465 0.229465
0.246555 0.246555 0.246555
0.266209 0.266209 0.266209
0.307866 0.307866 0.307866
0.335149 0.335149 0.335149
0.368353 0.368353 0.368353
0.408911 0.408911 0.408911
0.451514 0.451514 0.451514
0.497627 0.497627 0.497627
0.544915 0.544915 0.544915
0.590875 0.590875 0.590875
0.636072 0.636072 0.636072
0.679408 0.679408 0.679408
0.717250 0.717250 0.717250
0.748165 0.748165 0.748165
0.772610 0.772610 0.772610
0.791714 0.791714 0.791714
0.806363 0.806363 0.806363
0.818173 0.818173 0.818173
0.828489 0.828489 0.828489
0.838560 0.838560 0.838560
0.849454 0.849454 0.849454
0.861479 0.861479 0.861479
0.874266 0.874266 0.874266
0.238743 0.238743 0.238743
0.239658 0.239658 0.239658
0.241062 0.241062 0.241062
0.243870 0.243870 0.243870
0.247135 0.247135 0.247135
0.246860 0.246860 0.246860
0.246464 0.246464 0.246464
0.246098 0.246098 0.246098
0.252201 0.252201 0.252201
0.270848 0.270848 0.270848
0.293980 0.293980 0.293980
0.320714 0.320714 0.320714
0.379187 0.379187 0.379187
0.414618 0.414618 0.414618
0.452461 0.452461 0.452461
0.491676 0.491676 0.491676
0.531304 0.531304 0.531304
0.570428 0.570428 0.570428
0.612024 0.612024 0.612024
0.653742 0.653742 0.653742
0.693202 0.693202 0.693202
0.727169 0.727169 0.727169
0.755245 0.755245 0.755245
0.777615 0.777615 0.777615
0.795102 0.795102 0.795102
0.808713 0.808713 0.808713
0.819852 0.819852 0.819852
0.829770 0.829770 0.829770
0.839658 0.839658 0.839658
0.850462 0.850462 0.850462
0.862394 0.862394 0.862394
0.875059 0.875059 0.875059
0.277653 0.277653 0.277653
0.278813 0.278813 0.278813
0.280430 0.280430 0.280430
0.283757 0.283757 0.283757
0.289250 0.289250 0.289250
0.289738 0.289738 0.289738
0.289433 0.289433 0.289433
0.289006 0.289006 0.289006
0.288792 0.288792 0.288792
0.302403 0.302403 0.302403
0.328832 0.328832 0.328832
0.362646 0.362646 0.362646
0.426551 0.426551 0.426551
0.496956 0.496956 0.496956
0.532280 0.532280 0.532280
0.567254 0.567254 0.567254
0.601587 0.601587 0.601587
0.634516 0.634516 0.634516
0.666163 0.666163 0.666163
0.697169 0.697169 0.697169
0.727138 0.727138 0.727138
0.752621 0.752621 0.752621
0.773556 0.773556 0.773556
0.790677 0.790677 0.790677
0.804410 0.804410 0.804410
0.815579 0.815579 0.815579
0.825254 0.825254 0.825254
0.834379 0.834379 0.834379
0.843961 0.843961 0.843961
0.854612 0.854612 0.854612
0.866178 0.866178 0.866178
0.878477 0.878477 0.878477
0.336278 0.336278 0.336278
0.337438 0.337438 0.337438
0.338781 0.338781 0.338781
0.342107 0.342107 0.342107
0.347417 0.347417 0.347417
0.350072 0.350072 0.350072
0.349035 0.349035 0.349035
0.348302 0.348302 0.348302
0.348455 0.348455 0.348455
0.353094 0.353094 0.353094
0.382483 0.382483 0.382483
0.419745 0.419745 0.419745
0.460578 0.460578 0.460578
0.502617 0.502617 0.502617
0.563012 0.563012 0.563012
0.604059 0.604059 0.604059
0.634150 0.634150 0.634150
0.662593 0.662593 0.662593
0.689723 0.689723 0.689723
0.715297 0.715297 0.715297
0.738674 0.738674 0.738674
0.760006 0.760006 0.760006
0.778805 0.778805 0.778805
0.794278 0.794278 0.794278
0.806882 0.806882 0.806882
0.817350 0.817350 0.817350
0.826627 0.826627 0.826627
0.835569 0.835569 0.835569
0.845060 0.845060 0.845060
0.855680 0.855680 0.855680
0.867185 0.867185 0.867185
0.879454 0.879454 0.879454
0.395972 0.395972 0.395972
0.397192 0.397192 0.397192
0.398657 0.398657 0.398657
0.401953 0.401953 0.401953
0.406958 0.406958 0.406958
0.413397 0.413397 0.413397
0.414984 0.414984 0.414984
0.416815 0.416815 0.416815
0.419257 0.419257 0.419257
0.422675 0.422675 0.422675
0.430243 0.430243 0.430243
0.465003 0.465003 0.465003
0.502129 0.502129 0.502129
0.539727 0.539727 0.539727
0.576440 0.576440 0.576440
0.622309 0.622309 0.622309
0.665064 0.665064 0.665064
0.688960 0.688960 0.688960
0.711360 0.711360 0.711360
0.732479 0.732479 0.732479
0.752132 0.752132 0.752132
0.769711 0.769711 0.769711
0.784878 0.784878 0.784878
0.798459 0.798459 0.798459
0.809934 0.809934 0.809934
0.819699 0.819699 0.819699
0.828550 0.828550 0.828550
0.837308 0.837308 0.837308
0.846769 0.846769 0.846769
0.857328 0.857328 0.857328
0.868772 0.868772 0.868772
0.880919 0.880919 0.880919
0.467414 0.467414 0.467414
0.469001 0.469001 0.469001
0.470405 0.470405 0.470405
0.474128 0.474128 0.474128
0.479683 0.479683 0.479683
0.487465 0.487465 0.487465
0.489815 0.489815 0.489815
0.490150 0.490150 0.490150
0.491554 0.491554 0.491554
0.493935 0.493935 0.493935
0.497322 0.497322 0.497322
0.511406 0.511406 0.511406
0.544701 0.544701 0.544701
0.577935 0.577935 0.577935
0.610346 0.610346 0.610346
0.640528 0.640528 0.640528
0.673030 0.673030 0.673030
0.713405 0.713405 0.713405
0.731350 0.731350 0.731350
0.748562 0.748562 0.748562
0.764675 0.764675 0.764675
0.779355 0.779355 0.779355
0.792203 0.792203 0.792203
0.803403 0.803403 0.803403
0.813077 0.813077 0.813077
0.822232 0.822232 0.822232
0.830869 0.830869 0.830869
0.839689 0.839689 0.839689
0.849332 0.849332 0.849332
0.860075 0.860075 0.860075
0.871641 0.871641 0.871641
0.883787 0.883787 0.883787
0.540795 0.540795 0.540795
0.542229 0.542229 0.542229
0.543633 0.543633 0.543633
0.546746 0.546746 0.546746
0.551537 0.551537 0.551537
0.558404 0.558404 0.558404
0.563622 0.563622 0.563622
0.564141 0.564141 0.564141
0.564965 0.564965 0.564965
0.566430 0.566430 0.566430
0.567956 0.567956 0.567956
0.570001 0.570001 0.570001
0.587335 0.587335 0.587335
0.615045 0.615045 0.615045
0.642206 0.642206 0.642206
0.668086 0.668086 0.668086
0.691890 0.691890 0.691890
0.712764 0.712764 0.712764
0.749172 0.749172 0.749172
0.763455 0.763455 0.763455
0.776913 0.776913 0.776913
0.789212 0.789212 0.789212
0.800046 0.800046 0.800046
0.809598 0.809598 0.809598
0.818112 0.818112 0.818112
0.826047 0.826047 0.826047
0.833982 0.833982 0.833982
0.842710 0.842710 0.842710
0.852384 0.852384 0.852384
0.862943 0.862943 0.862943
0.874235 0.874235 0.874235
0.886076 0.886076 0.886076
0.604425 0.604425 0.604425
0.605371 0.605371 0.605371
0.606317 0.606317 0.606317
0.608759 0.608759 0.608759
0.612665 0.612665 0.612665
0.618067 0.618067 0.618067
0.625086 0.625086 0.625086
0.625086 0.625086 0.625086
0.625452 0.625452 0.625452
0.626276 0.626276 0.626276
0.627497 0.627497 0.627497
0.628901 0.628901 0.628901
0.630396 0.630396 0.630396
0.650568 0.650568 0.650568
0.673701 0.673701 0.673701
0.694881 0.694881 0.694881
0.714137 0.714137 0.714137
0.731594 0.731594 0.731594
0.745480 0.745480 0.745480
0.775906 0.775906 0.775906
0.786923 0.786923 0.786923
0.797086 0.797086 0.797086
0.806241 0.806241 0.806241
0.814572 0.814572 0.814572
0.822293 0.822293 0.822293
0.829709 0.829709 0.829709
0.837308 0.837308 0.837308
0.845579 0.845579 0.845579
0.855039 0.855039 0.855039
0.865599 0.865599 0.865599
0.876799 0.876799 0.876799
0.888518 0.888518 0.888518
0.661341 0.661341 0.661341
0.662501 0.662501 0.662501
0.683253 0.683253 0.683253
0.684901 0.684901 0.684901
0.687434 0.687434 0.687434
0.690822 0.690822 0.690822
0.695216 0.695216 0.695216
0.696620 0.696620 0.696620
0.696162 0.696162 0.696162
0.696101 0.696101 0.696101
0.696315 0.696315 0.696315
0.696498 0.696498 0.696498
0.696437 0.696437 0.696437
0.697627 0.697627 0.697627
0.714321 0.714321 0.714321
0.729549 0.729549 0.729549
0.743496 0.743496 0.743496
0.756161 0.756161 0.756161
0.767636 0.767636 0.767636
0.777493 0.777493 0.777493
0.798215 0.798215 0.798215
0.806790 0.806790 0.806790
0.814115 0.814115 0.814115
0.821012 0.821012 0.821012
0.827634 0.827634 0.827634
0.834348 0.834348 0.834348
0.841459 0.841459 0.841459
0.849454 0.849454 0.849454
0.858488 0.858488 0.858488
0.868376 0.868376 0.868376
0.879332 0.879332 0.879332
0.890806 0.890806 0.890806
0.712520 0.712520 0.712520
0.715114 0.715114 0.715114
0.717830 0.717830 0.717830
0.720974 0.720974 0.720974
0.724269 0.724269 0.724269
0.727382 0.727382 0.727382
0.730800 0.730800 0.730800
0.733547 0.733547 0.733547
0.733272 0.733272 0.733272
0.733089 0.733089 0.733089
0.733181 0.733181 0.733181
0.733303 0.733303 0.733303
0.733272 0.733272 0.733272
0.732998 0.732998 0.732998
0.736690 0.736690 0.736690
0.748714 0.748714 0.748714
0.759792 0.759792 0.759792
0.770016 0.770016 0.770016
0.779446 0.779446 0.779446
0.788144 0.788144 0.788144
0.795956 0.795956 0.795956
0.810605 0.810605 0.810605
0.819211 0.819211 0.819211
0.825498 0.825498 0.825498
0.831724 0.831724 0.831724
0.838224 0.838224 0.838224
0.845365 0.845365 0.845365
0.853391 0.853391 0.853391
0.862333 0.862333 0.862333
0.872068 0.872068 0.872068
0.882444 0.882444 0.882444
0.893339 0.893339 0.893339
0.746059 0.746059 0.746059
0.747921 0.747921 0.747921
0.749905 0.749905 0.749905
0.752071 0.752071 0.752071
0.754452 0.754452 0.754452
0.756710 0.756710 0.756710
0.759060 0.759060 0.759060
0.761837 0.761837 0.761837
0.762081 0.762081 0.762081
0.762020 0.762020 0.762020
0.762112 0.762112 0.762112
0.762264 0.762264 0.762264
0.762173 0.762173 0.762173
0.762081 0.762081 0.762081
0.761685 0.761685 0.761685
0.766598 0.766598 0.766598
0.775265 0.775265 0.775265
0.783322 0.783322 0.783322
0.790860 0.790860 0.790860
0.797879 0.797879 0.797879
0.804349 0.804349 0.804349
0.810513 0.810513 0.810513
0.821225 0.821225 0.821225
0.829984 0.829984 0.829984
0.835904 0.835904 0.835904
0.842313 0.842313 0.842313
0.849424 0.849424 0.849424
0.857359 0.857359 0.857359
0.866117 0.866117 0.866117
0.875639 0.875639 0.875639
0.885740 0.885740 0.885740
0.896300 0.896300 0.896300
0.771969 0.771969 0.771969
0.773312 0.773312 0.773312
0.774746 0.774746 0.774746
0.776333 0.776333 0.776333
0.777981 0.777981 0.777981
0.779568 0.779568 0.779568
0.781186 0.781186 0.781186
0.783078 0.783078 0.783078
0.784115 0.784115 0.784115
0.784054 0.784054 0.784054
0.784085 0.784085 0.784085
0.784115 0.784115 0.784115
0.784115 0.784115 0.784115
0.784085 0.784085 0.784085
0.783993 0.783993 0.783993
0.783902 0.783902 0.783902
0.789487 0.789487 0.789487
0.796139 0.796139 0.796139
0.802396 0.802396 0.802396
0.808286 0.808286 0.808286
0.813809 0.813809 0.813809
0.818997 0.818997 0.818997
0.824063 0.824063 0.824063
0.832609 0.832609 0.832609
0.842313 0.842313 0.842313
0.848905 0.848905 0.848905
0.856138 0.856138 0.856138
0.864073 0.864073 0.864073
0.872709 0.872709 0.872709
0.881956 0.881956 0.881956
0.891661 0.891661 0.891661
0.901823 0.901823 0.901823
0.795163 0.795163 0.795163
0.795712 0.795712 0.795712
0.796170 0.796170 0.796170
0.796872 0.796872 0.796872
0.797665 0.797665 0.797665
0.798550 0.798550 0.798550
0.799649 0.799649 0.799649
0.800992 0.800992 0.800992
0.802457 0.802457 0.802457
0.802548 0.802548 0.802548
0.802731 0.802731 0.802731
0.802884 0.802884 0.802884
0.802945 0.802945 0.802945
0.802945 0.802945 0.802945
0.802884 0.802884 0.802884
0.802853 0.802853 0.802853
0.803006 0.803006 0.803006
0.807950 0.807950 0.807950
0.812680 0.812680 0.812680
0.817227 0.817227 0.817227
0.821622 0.821622 0.821622
0.825925 0.825925 0.825925
0.830106 0.830106 0.830106
0.834501 0.834501 0.834501
0.842008 0.842008 0.842008
0.853330 0.853330 0.853330
0.860472 0.860472 0.860472
0.868315 0.868284 0.868284
0.876738 0.876738 0.876738
0.885710 0.885710 0.885710
0.895109 0.895109 0.895109
0.904997 0.904997 0.904997
0.809506 0.809506 0.809506
0.809934 0.809934 0.809934
0.810300 0.810300 0.810300
0.810788 0.810788 0.810788
0.811398 0.811398 0.811398
0.811978 0.811978 0.811978
0.812711 0.812711 0.812711
0.813657 0.813657 0.813657
0.814817 0.814817 0.814817
0.815183 0.815183 0.815183
0.815305 0.815305 0.815305
0.815427 0.815427 0.815427
0.815518 0.815518 0.815518
0.815579 0.815579 0.815579
0.815640 0.815640 0.815640
0.815732 0.815732 0.815732
0.815824 0.815824 0.815824
0.817044 0.817044 0.817044
0.821012 0.821012 0.821012
0.824918 0.824918 0.824918
0.828885 0.828885 0.828885
0.832853 0.832853 0.832853
0.836912 0.836912 0.836912
0.841093 0.841093 0.841093
0.844236 0.844236 0.844236
0.851438 0.851438 0.851438
0.864317 0.864317 0.864317
0.871977 0.871977 0.871977
0.880186 0.880186 0.880186
0.888945 0.888945 0.888945
0.898161 0.898161 0.898161
0.907836 0.907836 0.907836
0.822751 0.822751 0.822751
0.823087 0.823087 0.823087
0.823362 0.823362 0.823362
0.823636 0.823636 0.823636
0.823972 0.823972 0.823972
0.824338 0.824338 0.824338
0.824796 0.824796 0.824796
0.825376 0.825376 0.825376
0.826108 0.826108 0.826108
0.826596 0.826596 0.826596
0.826505 0.826505 0.826505
0.826474 0.826474 0.826474
0.826413 0.826413 0.826413
0.826352 0.826352 0.826352
0.826230 0.826230 0.826230
0.826108 0.826108 0.826108
0.826047 0.826047 0.826047
0.826108 0.826108 0.826108
0.827970 0.827970 0.827970
0.831540 0.831540 0.831540
0.835294 0.835294 0.835294
0.839139 0.839139 0.839139
0.843076 0.843076 0.843076
0.847105 0.847105 0.847105
0.851225 0.851225 0.851225
0.855467 0.855467 0.855467
0.862303 0.862303 0.862303
0.875517 0.875517 0.875517
0.884215 0.884215 0.884215
0.892607 0.892607 0.892607
0.901579 0.901579 0.901579
0.910948 0.910948 0.910948
0.832425 0.832425 0.832425
0.832761 0.832761 0.832761
0.833005 0.833005 0.833005
0.833249 0.833249 0.833249
0.833555 0.833555 0.833555
0.833890 0.833890 0.833890
0.834318 0.834318 0.834318
0.834867 0.834867 0.834867
0.835569 0.835569 0.835569
0.836454 0.836454 0.836454
0.836484 0.836484 0.836484
0.836545 0.836545 0.836545
0.836637 0.836637 0.836637
0.836667 0.836667 0.836667
0.836667 0.836667 0.836667
0.836667 0.836667 0.836667
0.836698 0.836698 0.836698
0.836851 0.836851 0.836851
0.837125 0.837125 0.837125
0.839841 0.839841 0.839841
0.843473 0.843473 0.843473
0.847318 0.847318 0.847318
0.851316 0.851316 0.851286
0.855375 0.855375 0.855375
0.859464 0.859464 0.859464
0.863584 0.863584 0.863584
0.867765 0.867765 0.867765
0.874632 0.874632 0.874632
0.887480 0.887480 0.887480
0.897307 0.897307 0.897307
0.905974 0.905974 0.905974
0.914946 0.914946 0.914946
0.842741 0.842741 0.842741
0.842985 0.842985 0.842985
0.843137 0.843137 0.843137
0.843290 0.843290 0.843290
0.843503 0.843503 0.843503
0.843748 0.843748 0.843748
0.844114 0.844114 0.844114
0.844633 0.844633 0.844633
0.845304 0.845304 0.845304
0.846189 0.846189 0.846189
0.846586 0.846586 0.846586
0.846738 0.846738 0.846738
0.846891 0.846891 0.846891
0.847013 0.847013 0.847013
0.847074 0.847074 0.847074
0.847135 0.847135 0.847135
0.847227 0.847227 0.847227
0.847379 0.847379 0.847379
0.847715 0.847715 0.847715
0.848203 0.848203 0.848203
0.851835 0.851835 0.851835
0.855650 0.855650 0.855650
0.859586 0.859586 0.859586
0.863615 0.863615 0.863615
0.867613 0.867613 0.867613
0.871641 0.871641 0.871641
0.875700 0.875700 0.875700
0.879759 0.879759 0.879759
0.886717 0.886717 0.886717
0.898802 0.898802 0.898802
0.909392 0.909392 0.909392
0.917998 0.917998 0.917998
0.853239 0.853239 0.853239
0.853422 0.853422 0.853422
0.853574 0.853574 0.853574
0.853788 0.853788 0.853788
0.854063 0.854063 0.854063
0.854490 0.854490 0.854490
0.855161 0.855161 0.855161
0.856016 0.856016 0.856016
0.857115 0.857115 0.857115
0.858396 0.858396 0.858396
0.859586 0.859586 0.859586
0.860136 0.860136 0.860136
0.860655 0.860655 0.860655
0.861082 0.861082 0.861082
0.861418 0.861418 0.861418
0.861631 0.861631 0.861631
0.861845 0.861845 0.861845
0.862119 0.862119 0.862119
0.862516 0.862516 0.862516
0.863066 0.863066 0.863066
0.864439 0.864439 0.864439
0.868132 0.868132 0.868132
0.871885 0.871885 0.871885
0.875669 0.875669 0.875669
0.879484 0.879484 0.879484
0.883268 0.883268 0.883268
0.887083 0.887083 0.887083
0.890929 0.890929 0.890929
0.894865 0.894865 0.894865
0.901701 0.901701 0.901701
0.912627 0.912627 0.912627
0.923217 0.923217 0.923217
0.867063 0.867063 0.867063
0.867185 0.867185 0.867185
0.867277 0.867277 0.867277
0.867399 0.867399 0.867399
0.867582 0.867582 0.867582
0.867857 0.867857 0.867857
0.868345 0.868345 0.868345
0.868956 0.868956 0.868956
0.869749 0.869749 0.869749
0.870756 0.870756 0.870756
0.871855 0.871855 0.871855
0.872313 0.872313 0.872313
0.872618 0.872618 0.872618
