cubelut/CCD-F40i_FUJIFILM_FINEPIX_40i_V2_LUT.cube
TITLE "Photo Curves LUT"
LUT_3D_SIZE 5
0.0 0.0 0.0
0.3411764705882353 0.07450980392156863 0.0
0.6470588235294118 0.1568627450980392 0.023529411764705882
0.7647058823529411 0.34509803921568627 0.058823529411764705
0.9450980392156862 0.34901960784313724 0.0784313725490196
0.0 0.29411764705882354 0.0784313725490196
0.3254901960784314 0.3137254901960784 0.00784313725490196
0.6392156862745098 0.403921568627451 0.00392156862745098
0.7607843137254902 0.5294117647058824 0.043137254901960784
0.9333333333333333 0.5372549019607843 0.06666666666666667
0.0 0.5490196078431373 0.10588235294117647
0.23137254901960785 0.5607843137254902 0.0
0.611764705882353 0.5372549019607843 0.0
0.7647058823529411 0.6627450980392157 0.03529411764705882
0.9294117647058824 0.6745098039215687 0.06274509803921569
0.0 0.7568627450980392 0.2901960784313726
0.00784313725490196 0.7764705882352941 0.0
0.5137254901960784 0.7725490196078432 0.00784313725490196
0.6745098039215687 0.7686274509803922 0.027450980392156862
0.9254901960784314 0.8352941176470589 0.06666666666666667
0.0 0.9411764705882353 0.3137254901960784
0.0 0.9450980392156862 0.0
0.5137254901960784 0.9333333333333333 0.011764705882352941
0.7137254901960784 0.9333333333333333 0.050980392156862744
0.9372549019607843 0.9176470588235294 0.07450980392156863
0.08627450980392157 0.09803921568627451 0.28627450980392155
0.3411764705882353 0.19215686274509805 0.28627450980392155
0.6431372549019608 0.17647058823529413 0.34901960784313724
0.7647058823529411 0.17647058823529413 0.23137254901960785
0.9568627450980393 0.1803921568627451 0.2549019607843137
0.00392156862745098 0.25098039215686274 0.28627450980392155
0.3333333333333333 0.2901960784313726 0.28627450980392155
0.6313725490196078 0.396078431372549 0.3411764705882353
0.7450980392156863 0.5019607843137255 0.4
0.9372549019607843 0.5333333333333333 0.4588235294117647
0.0 0.5372549019607843 0.43137254901960786
0.3137254901960784 0.5333333333333333 0.3843137254901961
0.611764705882353 0.5294117647058824 0.3411764705882353
0.7450980392156863 0.6274509803921569 0.4
0.9254901960784314 0.6823529411764706 0.45098039215686275
0.0 0.7411764705882353 0.611764705882353
0.3215686274509804 0.7411764705882353 0.5254901960784314
0.5254901960784314 0.7529411764705882 0.36470588235294116
0.7058823529411765 0.7529411764705882 0.4
0.9254901960784314 0.8235294117647058 0.4666666666666667
0.0 0.9411764705882353 0.6274509803921569
0.3254901960784314 0.9333333333333333 0.6
0.49411764705882355 0.9333333333333333 0.36470588235294116
0.7019607843137254 0.9372549019607843 0.4470588235294118
0.9450980392156862 0.9333333333333333 0.47843137254901963
0.17647058823529413 0.2196078431372549 0.6549019607843137
0.5137254901960784 0.3607843137254902 0.6392156862745098
0.615686274509804 0.38823529411764707 0.6235294117647059
0.7490196078431373 0.44313725490196076 0.6941176470588235
0.9372549019607843 0.403921568627451 0.7215686274509804
0.10588235294117647 0.403921568627451 0.6470588235294118
0.43137254901960786 0.41568627450980394 0.6313725490196078
0.6235294117647059 0.47058823529411764 0.6235294117647059
0.7411764705882353 0.4823529411764706 0.6431372549019608
0.9333333333333333 0.49019607843137253 0.6549019607843137
0.0 0.5254901960784314 0.6313725490196078
0.33725490196078434 0.5254901960784314 0.6235294117647059
0.6039215686274509 0.5254901960784314 0.6078431372549019
0.7333333333333333 0.6078431372549019 0.6549019607843137
0.9254901960784314 0.6901960784313725 0.7215686274509804
0.0 0.7137254901960784 0.796078431372549
0.2823529411764706 0.7176470588235294 0.7490196078431373
0.5882352941176471 0.7176470588235294 0.6980392156862745
0.7215686274509804 0.7294117647058823 0.6666666666666666
0.9294117647058824 0.8156862745098039 0.7176470588235294
0.0 0.9411764705882353 0.807843137254902
0.28627450980392155 0.9333333333333333 0.788235294117647
0.5725490196078431 0.9372549019607843 0.7686274509803922
0.6784313725490196 0.9411764705882353 0.7058823529411765
0.9490196078431372 0.9490196078431372 0.7333333333333333
0.30196078431372547 0.32941176470588235 0.8862745098039215
0.5803921568627451 0.45098039215686275 0.8627450980392157
0.6705882352941176 0.5411764705882353 0.8588235294117647
0.7294117647058823 0.5411764705882353 0.8509803921568627
0.9294117647058824 0.592156862745098 0.9254901960784314
0.18823529411764706 0.4627450980392157 0.8784313725490196
0.5333333333333333 0.4980392156862745 0.8588235294117647
0.6549019607843137 0.5843137254901961 0.8549019607843137
0.7254901960784313 0.6078431372549019 0.8470588235294118
0.9254901960784314 0.6470588235294118 0.9098039215686274
0.1411764705882353 0.5686274509803921 0.8666666666666667
0.4745098039215686 0.5843137254901961 0.8549019607843137
0.6274509803921569 0.615686274509804 0.8470588235294118
0.7176470588235294 0.6705882352941176 0.8470588235294118
0.9254901960784314 0.6901960784313725 0.8823529411764706
0.0 0.6627450980392157 0.8627450980392157
0.37254901960784315 0.6745098039215687 0.8509803921568627
0.5843137254901961 0.7019607843137254 0.8470588235294118
0.7058823529411765 0.7215686274509804 0.8392156862745098
0.9294117647058824 0.8117647058823529 0.8901960784313725
0.0 0.9647058823529412 0.9254901960784314
0.2980392156862745 0.9411764705882353 0.9176470588235294
0.5647058823529412 0.9372549019607843 0.9098039215686274
0.7058823529411765 0.9411764705882353 0.9019607843137255
0.9450980392156862 0.9529411764705882 0.9019607843137255
0.396078431372549 0.44313725490196076 0.9882352941176471
0.5647058823529412 0.5176470588235295 0.9764705882352941
0.6823529411764706 0.6352941176470588 0.9686274509803922
0.807843137254902 0.6862745098039216 0.9647058823529412
0.8980392156862745 0.6862745098039216 0.9647058823529412
0.3137254901960784 0.592156862745098 0.984313725490196
0.5333333333333333 0.5764705882352941 0.9725490196078431
0.6588235294117647 0.6666666666666666 0.9647058823529412
0.803921568627451 0.7411764705882353 0.9686274509803922
0.8980392156862745 0.7490196078431373 0.9686274509803922
0.27450980392156865 0.7098039215686275 0.9764705882352941
0.5294117647058824 0.6980392156862745 0.9686274509803922
0.6313725490196078 0.7098039215686275 0.9686274509803922
0.788235294117647 0.792156862745098 0.9686274509803922
0.9098039215686274 0.8117647058823529 0.9686274509803922
0.17254901960784313 0.807843137254902 0.9725490196078431
0.5058823529411764 0.8 0.9647058823529412
0.6235294117647059 0.8156862745098039 0.9686274509803922
0.7529411764705882 0.8313725490196079 0.9647058823529412
0.9176470588235294 0.8823529411764706 0.9764705882352941
0.0196078431372549 0.9098039215686274 0.9725490196078431
0.41568627450980394 0.8980392156862745 0.9647058823529412
0.592156862745098 0.9098039215686274 0.9647058823529412
0.7137254901960784 0.9333333333333333 0.9725490196078431
0.9450980392156862 0.9647058823529412 0.9882352941176471
