cubelut/CCD-F40i_FUJIFILM_FINEPIX_40i_V2_LUT.cube
TITLE "Photo Curves LUT"
LUT_3D_SIZE 33
0.0 0.0 0.0
0.027450980392156862 0.0 0.0
0.06666666666666667 0.01568627450980392 0.0
0.10980392156862745 0.03137254901960784 0.00392156862745098
0.14901960784313725 0.0392156862745098 0.00392156862745098
0.19215686274509805 0.050980392156862744 0.00392156862745098
0.23529411764705882 0.06274509803921569 0.00784313725490196
0.2823529411764706 0.07058823529411765 0.0
0.3411764705882353 0.07450980392156863 0.0
0.396078431372549 0.07450980392156863 0.00784313725490196
0.45098039215686275 0.06274509803921569 0.0
0.5058823529411764 0.06274509803921569 0.00392156862745098
0.5450980392156862 0.07450980392156863 0.00392156862745098
0.5803921568627451 0.09019607843137255 0.00392156862745098
0.6039215686274509 0.10980392156862745 0.00784313725490196
0.6274509803921569 0.12941176470588237 0.011764705882352941
0.6470588235294118 0.1568627450980392 0.023529411764705882
0.6588235294117647 0.1803921568627451 0.023529411764705882
0.6745098039215687 0.20392156862745098 0.03137254901960784
0.6901960784313725 0.22745098039215686 0.03529411764705882
0.7058823529411765 0.25882352941176473 0.043137254901960784
0.7215686274509804 0.2823529411764706 0.054901960784313725
0.7333333333333333 0.30196078431372547 0.050980392156862744
0.7490196078431373 0.3215686274509804 0.050980392156862744
0.7647058823529411 0.34509803921568627 0.058823529411764705
0.7803921568627451 0.3686274509803922 0.054901960784313725
0.8 0.3843137254901961 0.06666666666666667
0.8235294117647058 0.396078431372549 0.06666666666666667
0.8509803921568627 0.40784313725490196 0.06274509803921569
0.8745098039215686 0.4 0.0784313725490196
0.9058823529411765 0.3764705882352941 0.07058823529411765
0.9333333333333333 0.3568627450980392 0.0784313725490196
0.9450980392156862 0.34901960784313724 0.0784313725490196
0.0 0.023529411764705882 0.0
0.023529411764705882 0.027450980392156862 0.0
0.07058823529411765 0.0392156862745098 0.0
0.10588235294117647 0.058823529411764705 0.00392156862745098
0.14901960784313725 0.0784313725490196 0.00392156862745098
0.19215686274509805 0.08627450980392157 0.00392156862745098
0.23921568627450981 0.09803921568627451 0.00392156862745098
0.28627450980392155 0.10196078431372549 0.0
0.3411764705882353 0.10980392156862745 0.0
0.396078431372549 0.10980392156862745 0.0
0.4549019607843137 0.09803921568627451 0.0
0.5058823529411764 0.10196078431372549 0.00392156862745098
0.5490196078431373 0.10196078431372549 0.0
0.5803921568627451 0.12156862745098039 0.00392156862745098
0.6039215686274509 0.1411764705882353 0.011764705882352941
0.6274509803921569 0.16470588235294117 0.01568627450980392
0.6431372549019608 0.1843137254901961 0.0196078431372549
0.6627450980392157 0.21176470588235294 0.01568627450980392
0.6745098039215687 0.23137254901960785 0.03137254901960784
0.6862745098039216 0.2627450980392157 0.03137254901960784
0.7058823529411765 0.29411764705882354 0.0392156862745098
0.7176470588235294 0.3137254901960784 0.043137254901960784
0.7372549019607844 0.3411764705882353 0.050980392156862744
0.7490196078431373 0.3568627450980392 0.050980392156862744
0.7607843137254902 0.3803921568627451 0.054901960784313725
0.7803921568627451 0.4 0.054901960784313725
0.796078431372549 0.4196078431372549 0.058823529411764705
0.8235294117647058 0.43137254901960786 0.06274509803921569
0.8509803921568627 0.43529411764705883 0.07058823529411765
0.8745098039215686 0.42745098039215684 0.07058823529411765
0.9019607843137255 0.403921568627451 0.06666666666666667
0.9294117647058824 0.3803921568627451 0.07450980392156863
0.9411764705882353 0.3803921568627451 0.0784313725490196
0.0 0.058823529411764705 0.011764705882352941
0.01568627450980392 0.06666666666666667 0.0
0.06666666666666667 0.06666666666666667 0.0
0.11372549019607843 0.08235294117647059 0.0
0.15294117647058825 0.09411764705882353 0.00392156862745098
0.19607843137254902 0.11372549019607843 0.00392156862745098
0.24313725490196078 0.12941176470588237 0.00392156862745098
0.2901960784313726 0.13333333333333333 0.0
0.3411764705882353 0.1411764705882353 0.0
0.4 0.1411764705882353 0.00392156862745098
0.4549019607843137 0.13333333333333333 0.0
0.5019607843137255 0.13333333333333333 0.00392156862745098
0.5490196078431373 0.1450980392156863 0.00392156862745098
0.5803921568627451 0.1568627450980392 0.00392156862745098
0.6078431372549019 0.1803921568627451 0.00784313725490196
0.6235294117647059 0.19607843137254902 0.00392156862745098
0.6431372549019608 0.2196078431372549 0.01568627450980392
0.6627450980392157 0.24705882352941178 0.023529411764705882
0.6745098039215687 0.27450980392156865 0.027450980392156862
0.6901960784313725 0.3058823529411765 0.03137254901960784
0.7019607843137254 0.32941176470588235 0.0392156862745098
0.7176470588235294 0.34901960784313724 0.043137254901960784
0.7333333333333333 0.3803921568627451 0.047058823529411764
0.7490196078431373 0.396078431372549 0.050980392156862744
0.7607843137254902 0.40784313725490196 0.047058823529411764
0.7764705882352941 0.42745098039215684 0.050980392156862744
0.796078431372549 0.4470588235294118 0.058823529411764705
0.8235294117647058 0.4588235294117647 0.06274509803921569
0.8470588235294118 0.4666666666666667 0.06274509803921569
0.8784313725490196 0.45098039215686275 0.07058823529411765
0.9019607843137255 0.42745098039215684 0.06666666666666667
0.9294117647058824 0.403921568627451 0.07450980392156863
0.9411764705882353 0.403921568627451 0.07058823529411765
0.0 0.09803921568627451 0.027450980392156862
0.0 0.10196078431372549 0.0
0.058823529411764705 0.10588235294117647 0.0
0.10588235294117647 0.10588235294117647 0.00784313725490196
0.1607843137254902 0.12549019607843137 0.00784313725490196
0.2 0.1411764705882353 0.00784313725490196
0.24313725490196078 0.15294117647058825 0.011764705882352941
0.29411764705882354 0.16470588235294117 0.00392156862745098
0.3411764705882353 0.16862745098039217 0.0
0.403921568627451 0.16470588235294117 0.00392156862745098
0.4627450980392157 0.1607843137254902 0.0
0.5058823529411764 0.16470588235294117 0.00392156862745098
0.5490196078431373 0.17647058823529413 0.00392156862745098
0.5803921568627451 0.19215686274509805 0.0
0.6039215686274509 0.20784313725490197 0.00392156862745098
0.6235294117647059 0.23921568627450981 0.011764705882352941
0.6392156862745098 0.25882352941176473 0.01568627450980392
0.6588235294117647 0.28627450980392155 0.0196078431372549
0.6745098039215687 0.3137254901960784 0.027450980392156862
0.6901960784313725 0.34509803921568627 0.03137254901960784
0.6980392156862745 0.3607843137254902 0.03529411764705882
0.7137254901960784 0.3803921568627451 0.0392156862745098
0.7294117647058823 0.403921568627451 0.047058823529411764
0.7450980392156863 0.4235294117647059 0.050980392156862744
0.7607843137254902 0.43529411764705883 0.047058823529411764
0.7764705882352941 0.4588235294117647 0.050980392156862744
0.8 0.4666666666666667 0.058823529411764705
0.8196078431372549 0.4823529411764706 0.06274509803921569
0.8470588235294118 0.4823529411764706 0.06274509803921569
0.8745098039215686 0.4745098039215686 0.06666666666666667
0.9019607843137255 0.45098039215686275 0.06666666666666667
0.9294117647058824 0.42745098039215684 0.06666666666666667
0.9372549019607843 0.43529411764705883 0.0784313725490196
0.0 0.13725490196078433 0.03529411764705882
0.0 0.1411764705882353 0.0
0.043137254901960784 0.1411764705882353 0.0
0.09803921568627451 0.1411764705882353 0.0
0.14901960784313725 0.15294117647058825 0.00784313725490196
0.20392156862745098 0.17254901960784313 0.011764705882352941
0.24705882352941178 0.1803921568627451 0.00784313725490196
0.30196078431372547 0.18823529411764706 0.00392156862745098
0.34901960784313724 0.19607843137254902 0.00784313725490196
0.40784313725490196 0.18823529411764706 0.00392156862745098
0.4627450980392157 0.19607843137254902 0.0
0.5137254901960784 0.19607843137254902 0.00392156862745098
0.5529411764705883 0.21176470588235294 0.00392156862745098
0.5803921568627451 0.2196078431372549 0.0
0.6039215686274509 0.24705882352941178 0.00392156862745098
0.6235294117647059 0.26666666666666666 0.011764705882352941
0.6392156862745098 0.2901960784313726 0.01568627450980392
0.6588235294117647 0.3254901960784314 0.023529411764705882
0.6745098039215687 0.34509803921568627 0.0196078431372549
0.6901960784313725 0.37254901960784315 0.03137254901960784
0.6980392156862745 0.38823529411764707 0.03137254901960784
0.7137254901960784 0.40784313725490196 0.0392156862745098
0.7294117647058823 0.43137254901960786 0.043137254901960784
0.7411764705882353 0.44313725490196076 0.0392156862745098
0.7607843137254902 0.4627450980392157 0.047058823529411764
0.7803921568627451 0.47843137254901963 0.050980392156862744
0.796078431372549 0.49411764705882355 0.054901960784313725
0.8196078431372549 0.5019607843137255 0.058823529411764705
0.8470588235294118 0.5058823529411764 0.058823529411764705
0.8745098039215686 0.4980392156862745 0.06666666666666667
0.9019607843137255 0.47843137254901963 0.06666666666666667
0.9294117647058824 0.45098039215686275 0.06666666666666667
0.9372549019607843 0.4549019607843137 0.07450980392156863
0.0 0.17647058823529413 0.043137254901960784
0.0 0.17647058823529413 0.00784313725490196
0.027450980392156862 0.1843137254901961 0.0
0.08627450980392157 0.1843137254901961 0.0
0.1411764705882353 0.18823529411764706 0.00784313725490196
0.19215686274509805 0.18823529411764706 0.01568627450980392
0.2549019607843137 0.21176470588235294 0.00784313725490196
0.30196078431372547 0.2196078431372549 0.00392156862745098
0.35294117647058826 0.23137254901960785 0.00392156862745098
0.4117647058823529 0.2235294117647059 0.0
0.4627450980392157 0.2196078431372549 0.0
0.5098039215686274 0.22745098039215686 0.0
0.5490196078431373 0.23529411764705882 0.0
0.5803921568627451 0.2549019607843137 0.0
0.6039215686274509 0.2784313725490196 0.00392156862745098
0.6235294117647059 0.30196078431372547 0.011764705882352941
0.6431372549019608 0.3215686274509804 0.01568627450980392
0.6588235294117647 0.35294117647058826 0.0196078431372549
0.6705882352941176 0.37254901960784315 0.023529411764705882
0.6862745098039216 0.4 0.027450980392156862
0.6980392156862745 0.41568627450980394 0.03137254901960784
0.7137254901960784 0.43529411764705883 0.03137254901960784
0.7254901960784313 0.4470588235294118 0.043137254901960784
0.7411764705882353 0.4666666666666667 0.0392156862745098
0.7568627450980392 0.47843137254901963 0.047058823529411764
0.7803921568627451 0.49411764705882355 0.043137254901960784
0.8 0.5137254901960784 0.054901960784313725
0.8156862745098039 0.5137254901960784 0.058823529411764705
0.8431372549019608 0.5254901960784314 0.058823529411764705
0.8705882352941177 0.5176470588235295 0.06274509803921569
0.8980392156862745 0.4980392156862745 0.06274509803921569
0.9294117647058824 0.47058823529411764 0.06666666666666667
0.9372549019607843 0.47058823529411764 0.07450980392156863
0.0 0.21176470588235294 0.058823529411764705
0.0 0.21568627450980393 0.023529411764705882
0.00784313725490196 0.2196078431372549 0.0
0.07058823529411765 0.2196078431372549 0.0
0.12549019607843137 0.22745098039215686 0.00784313725490196
0.1803921568627451 0.2235294117647059 0.01568627450980392
0.23137254901960785 0.22745098039215686 0.011764705882352941
0.3058823529411765 0.2549019607843137 0.0
0.3607843137254902 0.2627450980392157 0.0
0.4196078431372549 0.2627450980392157 0.0
0.4666666666666667 0.2549019607843137 0.0
0.5176470588235295 0.2627450980392157 0.0
0.5529411764705883 0.27450980392156865 0.0
0.5803921568627451 0.2901960784313726 0.0
0.6039215686274509 0.3058823529411765 0.00392156862745098
0.6235294117647059 0.3254901960784314 0.011764705882352941
0.6392156862745098 0.35294117647058826 0.01568627450980392
0.6549019607843137 0.37254901960784315 0.0196078431372549
0.6705882352941176 0.4 0.023529411764705882
0.6823529411764706 0.4117647058823529 0.0196078431372549
0.6980392156862745 0.4392156862745098 0.03137254901960784
0.7098039215686275 0.4549019607843137 0.03137254901960784
0.7254901960784313 0.4666666666666667 0.03529411764705882
0.7372549019607844 0.48627450980392156 0.0392156862745098
0.7568627450980392 0.5019607843137255 0.047058823529411764
0.7764705882352941 0.5137254901960784 0.047058823529411764
0.796078431372549 0.5254901960784314 0.054901960784313725
0.8156862745098039 0.5372549019607843 0.058823529411764705
0.8431372549019608 0.5411764705882353 0.050980392156862744
0.8705882352941177 0.5333333333333333 0.06274509803921569
0.8980392156862745 0.5176470588235295 0.06274509803921569
0.9294117647058824 0.49019607843137253 0.06666666666666667
0.9372549019607843 0.49411764705882355 0.07450980392156863
0.0 0.25098039215686274 0.06666666666666667
0.0 0.2549019607843137 0.03137254901960784
0.0 0.25882352941176473 0.0
0.058823529411764705 0.2627450980392157 0.0
0.10980392156862745 0.26666666666666666 0.0
0.16470588235294117 0.2627450980392157 0.00392156862745098
0.2235294117647059 0.26666666666666666 0.01568627450980392
0.27450980392156865 0.26666666666666666 0.00784313725490196
0.3607843137254902 0.2901960784313726 0.0
0.4235294117647059 0.29411764705882354 0.0
0.47058823529411764 0.29411764705882354 0.0
0.5176470588235295 0.2980392156862745 0.0
0.5529411764705883 0.30980392156862746 0.0
0.5803921568627451 0.3254901960784314 0.0
0.6078431372549019 0.3411764705882353 0.0
0.6235294117647059 0.3607843137254902 0.00392156862745098
0.6392156862745098 0.3803921568627451 0.011764705882352941
0.6549019607843137 0.4 0.0196078431372549
0.6705882352941176 0.4196078431372549 0.01568627450980392
0.6823529411764706 0.43529411764705883 0.01568627450980392
0.6980392156862745 0.4588235294117647 0.023529411764705882
0.7098039215686275 0.47058823529411764 0.03137254901960784
0.7294117647058823 0.49019607843137253 0.03529411764705882
0.7411764705882353 0.5019607843137255 0.047058823529411764
0.7607843137254902 0.5176470588235295 0.047058823529411764
0.7725490196078432 0.5254901960784314 0.047058823529411764
0.796078431372549 0.5372549019607843 0.050980392156862744
0.8196078431372549 0.5529411764705883 0.050980392156862744
0.8431372549019608 0.5568627450980392 0.050980392156862744
0.8705882352941177 0.5529411764705883 0.06274509803921569
0.8980392156862745 0.5333333333333333 0.06274509803921569
0.9294117647058824 0.5019607843137255 0.06666666666666667
0.9372549019607843 0.5176470588235295 0.07450980392156863
0.0 0.29411764705882354 0.0784313725490196
0.0 0.29411764705882354 0.043137254901960784
0.0 0.30196078431372547 0.0
0.0392156862745098 0.30196078431372547 0.0
0.09803921568627451 0.3058823529411765 0.0
0.15294117647058825 0.3137254901960784 0.0
0.20784313725490197 0.3137254901960784 0.011764705882352941
0.26666666666666666 0.3137254901960784 0.01568627450980392
0.3254901960784314 0.3137254901960784 0.00784313725490196
0.4235294117647059 0.32941176470588235 0.0
0.47058823529411764 0.3333333333333333 0.0
0.5215686274509804 0.3333333333333333 0.0
0.5568627450980392 0.34509803921568627 0.0
0.5882352941176471 0.35294117647058826 0.0
0.6078431372549019 0.37254901960784315 0.0
0.6235294117647059 0.3843137254901961 0.00392156862745098
0.6392156862745098 0.403921568627451 0.00392156862745098
0.6588235294117647 0.4235294117647059 0.011764705882352941
0.6705882352941176 0.44313725490196076 0.023529411764705882
0.6862745098039216 0.4549019607843137 0.0196078431372549
0.6980392156862745 0.4745098039215686 0.023529411764705882
0.7098039215686275 0.4823529411764706 0.027450980392156862
0.7294117647058823 0.5058823529411764 0.03529411764705882
0.7411764705882353 0.5137254901960784 0.0392156862745098
0.7607843137254902 0.5294117647058824 0.043137254901960784
0.7764705882352941 0.5450980392156862 0.050980392156862744
0.8 0.5568627450980392 0.054901960784313725
0.8196078431372549 0.5647058823529412 0.050980392156862744
0.8470588235294118 0.5725490196078431 0.054901960784313725
0.8705882352941177 0.5686274509803921 0.054901960784313725
0.9019607843137255 0.5411764705882353 0.06274509803921569
0.9294117647058824 0.5294117647058824 0.06274509803921569
0.9333333333333333 0.5372549019607843 0.06666666666666667
0.0 0.3333333333333333 0.07450980392156863
0.0 0.3411764705882353 0.043137254901960784
0.0 0.33725490196078434 0.0
0.023529411764705882 0.34901960784313724 0.0
0.08235294117647059 0.34901960784313724 0.0
0.1411764705882353 0.3568627450980392 0.0
0.19215686274509805 0.3568627450980392 0.00392156862745098
0.25098039215686274 0.35294117647058826 0.00392156862745098
0.3215686274509804 0.3568627450980392 0.00784313725490196
0.3803921568627451 0.34509803921568627 0.00392156862745098
0.4745098039215686 0.3686274509803922 0.0
0.5176470588235295 0.36470588235294116 0.0
0.5568627450980392 0.3803921568627451 0.0
0.5843137254901961 0.3843137254901961 0.0
0.6039215686274509 0.4 0.0
0.6235294117647059 0.41568627450980394 0.00392156862745098
0.6392156862745098 0.4235294117647059 0.00392156862745098
0.6549019607843137 0.4392156862745098 0.011764705882352941
0.6705882352941176 0.4588235294117647 0.01568627450980392
0.6823529411764706 0.47058823529411764 0.027450980392156862
0.6980392156862745 0.48627450980392156 0.0196078431372549
0.7137254901960784 0.5058823529411764 0.027450980392156862
0.7294117647058823 0.5176470588235295 0.03137254901960784
0.7411764705882353 0.5333333333333333 0.0392156862745098
0.7529411764705882 0.5450980392156862 0.0392156862745098
0.7725490196078432 0.5529411764705883 0.047058823529411764
0.796078431372549 0.5647058823529412 0.050980392156862744
0.8196078431372549 0.5803921568627451 0.050980392156862744
0.8431372549019608 0.5803921568627451 0.050980392156862744
0.8745098039215686 0.5803921568627451 0.058823529411764705
0.9019607843137255 0.5607843137254902 0.06274509803921569
0.9333333333333333 0.5411764705882353 0.06274509803921569
0.9333333333333333 0.5529411764705883 0.07450980392156863
0.0 0.3803921568627451 0.08627450980392157
0.0 0.3803921568627451 0.047058823529411764
0.0 0.3803921568627451 0.0
0.00392156862745098 0.38823529411764707 0.0
0.0784313725490196 0.39215686274509803 0.0
0.13333333333333333 0.39215686274509803 0.0
0.18823529411764706 0.396078431372549 0.00784313725490196
0.24705882352941178 0.396078431372549 0.00784313725490196
0.30980392156862746 0.39215686274509803 0.0
0.3843137254901961 0.39215686274509803 0.00784313725490196
0.42745098039215684 0.3764705882352941 0.0
0.5215686274509804 0.4 0.0
0.5568627450980392 0.40784313725490196 0.0
0.5843137254901961 0.41568627450980394 0.0
0.6039215686274509 0.4235294117647059 0.0
0.6235294117647059 0.4392156862745098 0.0
0.6431372549019608 0.4470588235294118 0.00392156862745098
0.6549019607843137 0.4627450980392157 0.00784313725490196
0.6705882352941176 0.47843137254901963 0.01568627450980392
0.6823529411764706 0.49019607843137253 0.01568627450980392
0.6980392156862745 0.5058823529411764 0.023529411764705882
0.7137254901960784 0.5215686274509804 0.027450980392156862
0.7254901960784313 0.5372549019607843 0.03137254901960784
0.7411764705882353 0.5490196078431373 0.03529411764705882
0.7607843137254902 0.5529411764705883 0.043137254901960784
0.7764705882352941 0.5686274509803921 0.047058823529411764
0.796078431372549 0.5843137254901961 0.050980392156862744
0.8196078431372549 0.596078431372549 0.050980392156862744
0.8431372549019608 0.6 0.047058823529411764
0.8745098039215686 0.592156862745098 0.054901960784313725
0.9058823529411765 0.5725490196078431 0.054901960784313725
0.9333333333333333 0.5647058823529412 0.06274509803921569
0.9333333333333333 0.5725490196078431 0.06666666666666667
0.0 0.41568627450980394 0.0784313725490196
0.0 0.41568627450980394 0.043137254901960784
0.0 0.4196078431372549 0.00392156862745098
0.0 0.4235294117647059 0.0
0.07058823529411765 0.42745098039215684 0.0
0.12549019607843137 0.42745098039215684 0.0
0.17647058823529413 0.43137254901960786 0.0
0.23137254901960785 0.43137254901960786 0.0
0.2980392156862745 0.42745098039215684 0.0
0.3803921568627451 0.43137254901960786 0.00392156862745098
0.42745098039215684 0.4117647058823529 0.00784313725490196
0.47843137254901963 0.40784313725490196 0.0
0.5529411764705883 0.43137254901960786 0.0
0.5803921568627451 0.4392156862745098 0.0
0.6078431372549019 0.4470588235294118 0.0
0.6235294117647059 0.4588235294117647 0.0
0.6392156862745098 0.47058823529411764 0.00392156862745098
0.6509803921568628 0.47843137254901963 0.00784313725490196
0.6745098039215687 0.4980392156862745 0.01568627450980392
0.6862745098039216 0.5098039215686274 0.0196078431372549
0.6980392156862745 0.5254901960784314 0.0196078431372549
0.7137254901960784 0.5372549019607843 0.027450980392156862
0.7254901960784313 0.5450980392156862 0.03137254901960784
0.7411764705882353 0.5607843137254902 0.03529411764705882
0.7568627450980392 0.5764705882352941 0.0392156862745098
0.7764705882352941 0.5843137254901961 0.043137254901960784
0.8 0.596078431372549 0.047058823529411764
0.8235294117647058 0.611764705882353 0.047058823529411764
0.8470588235294118 0.611764705882353 0.054901960784313725
0.8784313725490196 0.6078431372549019 0.054901960784313725
0.9019607843137255 0.592156862745098 0.054901960784313725
0.9333333333333333 0.5725490196078431 0.058823529411764705
0.9333333333333333 0.592156862745098 0.07450980392156863
0.0 0.45098039215686275 0.0784313725490196
0.0 0.4549019607843137 0.043137254901960784
0.0 0.45098039215686275 0.0
0.0 0.4588235294117647 0.0
0.058823529411764705 0.4588235294117647 0.0
0.11372549019607843 0.4627450980392157 0.0
0.16862745098039217 0.4627450980392157 0.0
0.2235294117647059 0.4588235294117647 0.0
0.28627450980392155 0.4627450980392157 0.00392156862745098
0.36470588235294116 0.4588235294117647 0.00392156862745098
0.4470588235294118 0.4588235294117647 0.011764705882352941
0.47843137254901963 0.43137254901960786 0.00392156862745098
0.5215686274509804 0.42745098039215684 0.0
0.5803921568627451 0.4588235294117647 0.0
0.6039215686274509 0.47058823529411764 0.0
0.6196078431372549 0.47058823529411764 0.0
0.6352941176470588 0.48627450980392156 0.0
0.6549019607843137 0.4980392156862745 0.00392156862745098
0.6745098039215687 0.5176470588235295 0.011764705882352941
0.6823529411764706 0.5294117647058824 0.01568627450980392
0.6980392156862745 0.5372549019607843 0.0196078431372549
0.7098039215686275 0.5529411764705883 0.027450980392156862
0.7254901960784313 0.5647058823529412 0.03137254901960784
0.7411764705882353 0.5764705882352941 0.0392156862745098
0.7568627450980392 0.5882352941176471 0.0392156862745098
0.7764705882352941 0.6 0.043137254901960784
0.796078431372549 0.615686274509804 0.043137254901960784
0.8196078431372549 0.6235294117647059 0.047058823529411764
0.8509803921568627 0.6274509803921569 0.047058823529411764
0.8784313725490196 0.6274509803921569 0.058823529411764705
0.9098039215686274 0.6078431372549019 0.054901960784313725
0.9294117647058824 0.6 0.058823529411764705
0.9294117647058824 0.6039215686274509 0.06274509803921569
0.0 0.4745098039215686 0.08235294117647059
0.0 0.47843137254901963 0.050980392156862744
0.0 0.47843137254901963 0.00784313725490196
0.0 0.4823529411764706 0.0
0.03529411764705882 0.4823529411764706 0.0
0.09803921568627451 0.48627450980392156 0.0
0.1568627450980392 0.48627450980392156 0.0
0.21568627450980393 0.49019607843137253 0.0
0.27450980392156865 0.48627450980392156 0.0
0.34509803921568627 0.49019607843137253 0.00784313725490196
0.4196078431372549 0.48627450980392156 0.00784313725490196
0.4823529411764706 0.47058823529411764 0.0
0.5176470588235295 0.45098039215686275 0.0
0.5490196078431373 0.4549019607843137 0.0
0.6 0.48627450980392156 0.0
0.6235294117647059 0.5019607843137255 0.0
0.6392156862745098 0.5098039215686274 0.0
0.6549019607843137 0.5215686274509804 0.00392156862745098
0.6705882352941176 0.5333333333333333 0.00392156862745098
0.6823529411764706 0.5450980392156862 0.01568627450980392
0.6980392156862745 0.5529411764705883 0.0196078431372549
0.7098039215686275 0.5686274509803921 0.023529411764705882
0.7294117647058823 0.5803921568627451 0.023529411764705882
0.7411764705882353 0.592156862745098 0.027450980392156862
0.7607843137254902 0.6039215686274509 0.03529411764705882
