cubelut/Cinematic-8.cube
# Created by Adobe Lightroom plugin Export LUT (1.18.0)
# www.johnrellis.com/lightroom/exportlut.htm
# Preset: Cinematic4
# Color profile: /Library/Application Support/Adobe/Color/Profiles/Recommended/AdobeRGB1998.icc
LUT_3D_SIZE 5
DOMAIN_MIN 0.000000 0.000000 0.000000
DOMAIN_MAX 0.903226 0.903226 0.903226
0.085725 0.106386 0.119387
0.259373 0.072938 0.124666
0.621698 0.101534 0.117647
0.965698 0.044892 0.139101
1.000000 0.134035 0.189822
0.059052 0.281926 0.119020
0.257237 0.284672 0.125917
0.624994 0.320745 0.129061
0.959777 0.305455 0.141207
1.000000 0.280095 0.196139
0.123964 0.615351 0.135409
0.312047 0.615686 0.136446
0.682979 0.628473 0.126070
0.954894 0.579675 0.145052
1.000000 0.494514 0.213077
0.174044 0.885405 0.124697
0.331792 0.883116 0.127749
0.652583 0.867124 0.134340
0.936339 0.841886 0.156283
1.000000 0.719509 0.264714
0.279149 0.972961 0.274479
0.367803 0.969543 0.278752
0.589624 0.954803 0.288945
0.805142 0.934295 0.329747
1.000000 0.906554 0.390845
0.000000 0.104646 0.266331
0.245304 0.108064 0.270634
0.610407 0.000000 0.275578
0.950500 0.000000 0.263096
1.000000 0.121553 0.282383
0.074800 0.274846 0.271550
0.251713 0.280735 0.271672
0.624720 0.292088 0.266636
0.948058 0.270603 0.261173
1.000000 0.274205 0.286687
0.000000 0.607507 0.270085
0.282414 0.609155 0.255344
0.664515 0.608331 0.250370
0.944335 0.564233 0.264256
1.000000 0.495766 0.311376
0.089815 0.883970 0.255406
0.311864 0.881285 0.264805
0.648127 0.864775 0.271885
0.935943 0.839170 0.289372
1.000000 0.722530 0.365179
0.321813 0.970092 0.373297
0.404730 0.966369 0.376501
0.615595 0.952270 0.391943
0.815579 0.932280 0.421088
1.000000 0.906493 0.468147
0.000000 0.092958 0.522545
0.260777 0.103304 0.524712
0.626246 0.000000 0.544396
0.943023 0.000000 0.516655
1.000000 0.282628 0.507195
0.000000 0.280522 0.529595
0.248753 0.268376 0.530388
0.644373 0.216922 0.541711
0.940154 0.211704 0.511070
1.000000 0.422797 0.537499
0.000000 0.596979 0.535576
0.208927 0.603540 0.534905
0.673426 0.594171 0.528161
0.931212 0.578058 0.532464
1.000000 0.579095 0.548302
0.000000 0.876066 0.509148
0.312108 0.870756 0.510887
0.675776 0.852445 0.533715
0.933379 0.832517 0.543603
1.000000 0.759182 0.580102
0.474983 0.957916 0.543359
0.588067 0.948974 0.575372
0.708949 0.938720 0.591516
0.857328 0.922637 0.607416
0.992828 0.905394 0.637995
0.073884 0.094514 0.773831
0.291295 0.082338 0.773404
0.636103 0.000000 0.771542
0.931487 0.000000 0.742672
1.000000 0.287541 0.659327
0.000000 0.260472 0.773159
0.257939 0.254948 0.772396
0.629603 0.202518 0.769528
0.929107 0.188449 0.737301
1.000000 0.412665 0.670954
0.000000 0.567163 0.765530
0.223087 0.563378 0.764675
0.653498 0.568170 0.759213
0.915160 0.586816 0.731838
1.000000 0.668910 0.720394
0.153994 0.867613 0.755032
0.389166 0.860288 0.751308
0.714961 0.839078 0.746914
0.914702 0.824460 0.751553
0.984833 0.822812 0.759091
0.553246 0.948547 0.694759
0.634150 0.941405 0.707790
0.796506 0.923857 0.747127
0.914488 0.910063 0.767697
0.977386 0.905211 0.778012
0.108980 0.126162 0.875578
0.263828 0.122347 0.874815
0.543725 0.000000 0.872435
0.808560 0.000000 0.868193
1.000000 0.252506 0.823819
0.000000 0.249088 0.873594
0.241947 0.247868 0.872862
0.537377 0.229587 0.870451
0.807492 0.234348 0.865476
1.000000 0.379889 0.823117
0.000000 0.498878 0.866758
0.291783 0.513024 0.865141
0.590814 0.527642 0.861051
0.824949 0.555169 0.855680
0.992706 0.644831 0.826535
0.335668 0.746334 0.855955
0.463813 0.749935 0.854185
0.706996 0.773892 0.849088
0.890349 0.807370 0.844785
0.973816 0.836362 0.837491
0.607050 0.940368 0.847807
0.663630 0.935851 0.847349
0.807553 0.921538 0.846586
0.930144 0.905791 0.846372
0.966552 0.904967 0.852995
