cubelut/Cinematic-6.cube
# Created by Adobe Lightroom plugin Export LUT (1.18.0)
# www.johnrellis.com/lightroom/exportlut.htm
# Preset: Cinematic2
# Color profile: /Library/Application Support/Adobe/Color/Profiles/Recommended/AdobeRGB1998.icc
LUT_3D_SIZE 32
DOMAIN_MIN 0.0 0.0 0.0
DOMAIN_MAX 1.0 1.0 1.0
0.135348 0.135348 0.135348
0.139010 0.135286 0.135256
0.144289 0.135286 0.135286
0.156344 0.135225 0.135103
0.173922 0.135012 0.135042
0.192203 0.134920 0.134859
0.211551 0.134524 0.134585
0.232029 0.134463 0.134279
0.254246 0.134218 0.133974
0.278660 0.133944 0.133577
0.305852 0.133455 0.132998
0.336400 0.132845 0.132143
0.370825 0.132113 0.130983
0.410071 0.130678 0.129244
0.454536 0.128786 0.126558
0.505211 0.125490 0.122560
0.562799 0.120760 0.116670
0.626154 0.114382 0.108400
0.690333 0.105776 0.097383
0.750332 0.095888 0.084443
0.803525 0.085176 0.068757
0.848905 0.073579 0.044160
0.884459 0.063233 0.010895
0.912383 0.052369 0.000000
0.934966 0.037934 0.000000
0.953643 0.024598 0.000000
0.969390 0.018769 0.000000
0.982879 0.014313 0.000000
0.994537 0.011017 0.000000
1.000000 0.010346 0.000000
1.000000 0.010559 0.000000
1.000000 0.012634 0.000000
0.135439 0.138949 0.135225
0.139040 0.139071 0.135286
0.144503 0.139193 0.135286
0.156497 0.139345 0.135073
0.173922 0.139376 0.134829
0.192355 0.139040 0.134676
0.211551 0.138705 0.134585
0.232029 0.138460 0.134310
0.254368 0.138003 0.134005
0.278752 0.137911 0.133577
0.306035 0.137423 0.132815
0.336553 0.136995 0.132113
0.371008 0.136446 0.130953
0.410254 0.135592 0.129152
0.454749 0.133944 0.126436
0.505455 0.131350 0.122408
0.563012 0.127657 0.116426
0.626398 0.122072 0.108095
0.690517 0.115297 0.097169
0.750484 0.107057 0.083528
0.803555 0.098817 0.067536
0.848905 0.089448 0.040711
0.884459 0.081209 0.007568
0.912352 0.074189 0.000000
0.934936 0.067903 0.000000
0.953582 0.063416 0.000000
0.969360 0.059236 0.000000
0.982849 0.054597 0.000000
0.994476 0.050324 0.000000
1.000000 0.049104 0.000000
1.000000 0.048341 0.000000
1.000000 0.049012 0.000000
0.135164 0.144381 0.135256
0.139437 0.144381 0.135134
0.144686 0.144381 0.135164
0.156649 0.144839 0.134951
0.174044 0.144869 0.134707
0.192325 0.144411 0.134554
0.211551 0.143923 0.134463
0.232029 0.143526 0.134188
0.254368 0.143252 0.133883
0.278752 0.143008 0.133486
0.306035 0.142702 0.132876
0.336675 0.142580 0.131960
0.371221 0.142184 0.130800
0.410498 0.141695 0.129122
0.454994 0.140810 0.126345
0.505821 0.138949 0.122042
0.563317 0.136446 0.116152
0.626642 0.132479 0.107454
0.690822 0.126894 0.096376
0.750607 0.120821 0.082429
0.803769 0.113680 0.066133
0.848997 0.106050 0.036866
0.884459 0.099672 0.003754
0.912322 0.093538 0.000000
0.934905 0.088594 0.000000
0.953521 0.084169 0.000000
0.969268 0.080598 0.000000
0.982757 0.077882 0.000000
0.994415 0.075013 0.000000
1.000000 0.073304 0.000000
1.000000 0.071443 0.000000
1.000000 0.070954 0.000000
0.135195 0.156497 0.134798
0.139467 0.156497 0.134859
0.145266 0.156558 0.134859
0.157198 0.156680 0.134676
0.174258 0.156588 0.134432
0.192416 0.155734 0.134340
0.211551 0.154849 0.134310
0.232181 0.154116 0.134066
0.254520 0.153719 0.133761
0.278996 0.153445 0.133364
0.306371 0.153445 0.132723
0.337011 0.153628 0.131777
0.371557 0.154025 0.130678
0.410864 0.154330 0.128756
0.455543 0.154360 0.125673
0.506432 0.154025 0.121553
0.564019 0.153109 0.115267
0.627375 0.151705 0.106203
0.691371 0.149203 0.094636
0.751003 0.145083 0.080293
0.804013 0.140444 0.063111
0.849088 0.134981 0.028962
0.884459 0.130068 0.000000
0.912261 0.124971 0.000000
0.934783 0.120180 0.000000
0.953399 0.115877 0.000000
0.969116 0.112123 0.000000
0.982605 0.109194 0.000000
0.994263 0.106081 0.000000
1.000000 0.103212 0.000000
1.000000 0.100923 0.000000
1.000000 0.099275 0.000000
0.134951 0.173159 0.134432
0.139437 0.173159 0.134310
0.145449 0.173190 0.134310
0.157198 0.173037 0.134310
0.173800 0.172763 0.134127
0.192508 0.171786 0.133883
0.211704 0.170260 0.133913
0.232303 0.169345 0.133883
0.254765 0.168673 0.133425
0.279362 0.168673 0.133150
0.306737 0.168917 0.132479
0.337530 0.169711 0.131624
0.372290 0.170657 0.130282
0.411688 0.171969 0.128206
0.456367 0.173312 0.124941
0.507256 0.174990 0.120516
0.565057 0.176455 0.113771
0.628260 0.177249 0.104494
0.692226 0.177127 0.091768
0.751705 0.176028 0.076295
0.804410 0.173068 0.057008
0.849302 0.169741 0.014160
0.884459 0.165438 0.000000
0.912169 0.160739 0.000000
0.934600 0.155947 0.000000
0.953185 0.151431 0.000000
0.968902 0.147311 0.000000
0.982361 0.143191 0.000000
0.994018 0.139742 0.000000
1.000000 0.136233 0.000000
1.000000 0.132967 0.000000
1.000000 0.130220 0.000000
0.134829 0.191043 0.134035
0.139345 0.190921 0.133944
0.144808 0.190890 0.133944
0.156313 0.190677 0.133822
0.172366 0.190402 0.133822
0.191531 0.190219 0.133639
0.211917 0.189151 0.133394
0.232578 0.187716 0.133455
0.254978 0.187106 0.133364
0.279698 0.187076 0.133089
0.307286 0.187716 0.132174
0.338323 0.188937 0.131197
0.373053 0.190860 0.129702
0.412634 0.193088 0.127260
0.457527 0.195987 0.123873
0.508629 0.199374 0.119081
0.566461 0.203006 0.111788
0.629664 0.206485 0.101472
0.693263 0.208988 0.087984
0.752499 0.209720 0.070741
0.804898 0.208713 0.042298
0.849546 0.206058 0.000000
0.884459 0.202182 0.000000
0.912016 0.197757 0.000000
0.934356 0.192813 0.000000
0.952880 0.187808 0.000000
0.968597 0.183139 0.000000
0.982025 0.178164 0.000000
0.993652 0.173800 0.000000
1.000000 0.169436 0.000000
1.000000 0.165499 0.000000
1.000000 0.161959 0.000000
0.135042 0.209903 0.133577
0.139101 0.209934 0.133486
0.144594 0.209812 0.133516
0.155520 0.209812 0.133516
0.171237 0.209628 0.133364
0.189975 0.209293 0.133394
0.210910 0.209079 0.133242
0.232914 0.208438 0.132967
0.255497 0.207645 0.132876
0.280430 0.207767 0.132570
0.308019 0.208865 0.131899
0.339117 0.210666 0.130648
0.374121 0.213382 0.128969
0.413855 0.217014 0.126375
0.458991 0.221256 0.122621
0.510124 0.226383 0.117159
0.568109 0.232059 0.109133
0.631373 0.237919 0.097749
0.694759 0.242496 0.082216
0.753567 0.244877 0.062806
0.805631 0.245212 0.018799
0.849821 0.243412 0.000000
0.884398 0.239933 0.000000
0.911833 0.234958 0.000000
0.934051 0.229831 0.000000
0.952483 0.224277 0.000000
0.968170 0.218784 0.000000
0.981598 0.213321 0.000000
0.993256 0.207858 0.000000
1.000000 0.202914 0.000000
1.000000 0.198032 0.000000
1.000000 0.193484 0.000000
0.135439 0.230442 0.133272
0.139284 0.230381 0.133364
0.144594 0.230381 0.133211
0.155367 0.230381 0.133059
0.170748 0.230259 0.133089
0.189242 0.230228 0.132906
0.209873 0.229953 0.132937
0.232242 0.230045 0.132723
0.256168 0.230076 0.132265
0.281285 0.230320 0.131563
0.309117 0.231693 0.130983
0.340215 0.234318 0.129915
0.375280 0.237888 0.128145
0.415259 0.242588 0.125246
0.460639 0.248417 0.121004
0.511986 0.255161 0.114687
0.570214 0.262974 0.105653
0.633387 0.270878 0.092348
0.696437 0.277531 0.074769
0.754788 0.281315 0.045258
0.806363 0.282658 0.000000
0.850156 0.281376 0.000000
0.884398 0.277989 0.000000
0.911589 0.272709 0.000000
0.933684 0.266911 0.000000
0.952056 0.260685 0.000000
0.967681 0.254459 0.000000
0.981079 0.248264 0.000000
0.992706 0.242191 0.000000
1.000000 0.236240 0.000000
1.000000 0.230716 0.000000
1.000000 0.225254 0.000000
0.135622 0.253117 0.132601
0.139651 0.253117 0.132662
0.144747 0.253147 0.132509
0.155489 0.253147 0.132509
0.170840 0.253208 0.132357
0.189181 0.253178 0.132174
0.209934 0.253208 0.131960
0.232364 0.253361 0.131716
0.256260 0.253483 0.131441
0.282200 0.254582 0.130678
0.310521 0.256443 0.129244
0.341802 0.259525 0.128145
0.377050 0.264012 0.126436
0.417029 0.269902 0.123690
0.462501 0.277104 0.118868
0.514183 0.285588 0.111452
0.572564 0.295262 0.100923
0.635767 0.305394 0.085451
0.698390 0.313481 0.064057
0.756222 0.318700 0.011017
0.807279 0.320928 0.000000
0.850523 0.320012 0.000000
0.884337 0.316197 0.000000
0.911254 0.310796 0.000000
0.933196 0.304356 0.000000
0.951507 0.297307 0.000000
0.967071 0.290318 0.000000
0.980468 0.283330 0.000000
0.992065 0.276402 0.000000
1.000000 0.269657 0.000000
1.000000 0.263127 0.000000
1.000000 0.256962 0.000000
0.135836 0.278416 0.131289
0.139681 0.278447 0.131350
0.144900 0.278538 0.131167
0.155825 0.278508 0.131197
0.171267 0.278630 0.130983
0.189944 0.278874 0.130739
0.211032 0.278996 0.130678
0.233860 0.279362 0.130190
0.258122 0.279789 0.129824
0.283421 0.280156 0.129366
0.311620 0.282200 0.128206
0.343572 0.286076 0.125856
0.379217 0.291478 0.123537
0.419226 0.298344 0.120455
0.464881 0.306950 0.115267
0.516686 0.317205 0.107332
0.575372 0.328893 0.094484
0.638422 0.340703 0.076020
0.700557 0.350500 0.038361
0.757626 0.356664 0.000000
0.808286 0.359533 0.000000
0.850858 0.358801 0.000000
0.884245 0.354772 0.000000
0.910857 0.348821 0.000000
0.932647 0.341680 0.000000
0.950866 0.334020 0.000000
0.966369 0.326268 0.000000
0.979767 0.318395 0.000000
0.991363 0.310643 0.000000
1.000000 0.303075 0.000000
1.000000 0.295781 0.000000
1.000000 0.288731 0.000000
0.135348 0.306889 0.129213
0.139590 0.306981 0.129274
0.145022 0.307042 0.129091
0.156222 0.307195 0.129061
0.172091 0.307347 0.128817
0.191287 0.307713 0.128695
0.212894 0.308171 0.128328
0.236301 0.308659 0.127932
0.261295 0.309239 0.127260
0.287572 0.309972 0.126619
0.314702 0.310887 0.125673
0.345281 0.313787 0.123873
0.381445 0.320195 0.120089
0.422217 0.328252 0.115419
0.468086 0.338262 0.109529
0.520043 0.350103 0.100496
0.578576 0.363531 0.085847
0.641199 0.377173 0.062531
0.702907 0.388220 0.000000
0.759365 0.395270 0.000000
0.809323 0.398505 0.000000
0.851194 0.397864 0.000000
0.884092 0.393469 0.000000
0.910399 0.386969 0.000000
0.932036 0.379126 0.000000
0.950103 0.370642 0.000000
0.965576 0.362097 0.000000
0.978912 0.353399 0.000000
0.990509 0.344762 0.000000
1.000000 0.336370 0.000000
1.000000 0.328222 0.000000
1.000000 0.320470 0.000000
0.134218 0.339330 0.126070
0.138491 0.339422 0.125917
0.144350 0.339513 0.125917
0.156130 0.339696 0.125673
0.172854 0.340032 0.125521
0.192905 0.340490 0.124941
0.215579 0.341131 0.124453
0.239994 0.341802 0.123873
0.265995 0.342657 0.123171
0.293187 0.343664 0.121920
0.321477 0.344762 0.120912
0.350744 0.346166 0.119234
0.383612 0.349981 0.116548
0.425025 0.359472 0.109987
0.471687 0.370916 0.101167
0.523980 0.384253 0.089998
0.582574 0.399542 0.071656
0.644831 0.414588 0.022400
0.705440 0.426642 0.000000
0.761135 0.434485 0.000000
0.810422 0.437995 0.000000
0.851499 0.437140 0.000000
0.883818 0.432227 0.000000
0.909850 0.425116 0.000000
0.931243 0.416602 0.000000
0.949279 0.407385 0.000000
0.964691 0.397864 0.000000
0.977996 0.388373 0.000000
0.989563 0.378973 0.000000
0.999725 0.369696 0.000000
1.000000 0.360754 0.000000
1.000000 0.352148 0.000000
0.131899 0.376196 0.120638
0.136385 0.376349 0.120638
0.142947 0.376471 0.120394
0.155520 0.376745 0.120089
0.173495 0.377203 0.119631
0.194797 0.377691 0.119142
0.218692 0.378515 0.118441
0.244419 0.379370 0.117433
0.271733 0.380499 0.116243
0.300237 0.381811 0.114778
0.329870 0.383337 0.113100
0.360510 0.384955 0.111116
0.392248 0.386969 0.108492
0.427741 0.391547 0.104067
0.475013 0.404578 0.092683
0.528283 0.419898 0.074983
0.587121 0.436774 0.037018
0.648890 0.453132 0.000000
0.708553 0.465949 0.000000
0.763180 0.474189 0.000000
0.811551 0.477852 0.000000
0.851774 0.476539 0.000000
0.883513 0.471229 0.000000
0.909209 0.463264 0.000000
0.930419 0.453956 0.000000
0.948302 0.443977 0.000000
0.963653 0.433692 0.000000
0.976928 0.423285 0.000000
0.988525 0.412940 0.000000
0.998657 0.402960 0.000000
1.000000 0.393194 0.000000
1.000000 0.383764 0.000000
0.127291 0.418524 0.111757
0.132876 0.418647 0.111513
0.139773 0.418769 0.111452
0.153841 0.419196 0.110994
0.173281 0.419562 0.110445
0.196475 0.420325 0.109682
0.222293 0.421302 0.108431
0.249668 0.422522 0.106996
0.278599 0.423743 0.105318
0.308782 0.425452 0.103243
0.340215 0.427192 0.100832
0.372564 0.429328 0.097627
0.405921 0.431617 0.093843
0.440406 0.434272 0.089235
0.477790 0.438819 0.081880
0.532433 0.456519 0.053681
0.591943 0.475257 0.000000
0.653376 0.492866 0.000000
0.712032 0.506126 0.000000
0.765560 0.514488 0.000000
0.812894 0.517937 0.000000
0.851987 0.516228 0.000000
0.883146 0.510094 0.000000
0.908476 0.501488 0.000000
0.929473 0.491341 0.000000
0.947234 0.480476 0.000000
0.962524 0.469306 0.000000
0.975769 0.458106 0.000000
0.987335 0.446967 0.000000
0.997498 0.436133 0.000000
1.000000 0.425605 0.000000
1.000000 0.415290 0.000000
0.119875 0.466926 0.096742
0.126040 0.467079 0.096712
0.134401 0.467231 0.096315
0.150484 0.467659 0.095644
0.172457 0.468330 0.094697
0.197940 0.469215 0.093233
0.225895 0.470375 0.091646
0.255589 0.471687 0.089479
0.286625 0.473274 0.086793
0.318975 0.475166 0.083162
0.352178 0.477272 0.078828
0.386603 0.479744 0.073701
0.422004 0.482551 0.066438
0.458503 0.485664 0.056397
0.496162 0.489021 0.032563
0.535363 0.493111 0.000793
0.596460 0.514672 0.000000
0.657710 0.533379 0.000000
0.715663 0.547173 0.000000
0.768063 0.555352 0.000000
0.814359 0.558465 0.000000
0.852323 0.555962 0.000000
0.882719 0.549157 0.000000
0.907622 0.539635 0.000000
0.928405 0.528618 0.000000
0.946044 0.516930 0.000000
0.961273 0.504875 0.000000
0.974487 0.492866 0.000000
0.986053 0.480934 0.000000
0.996216 0.469306 0.000000
1.000000 0.457923 0.000000
1.000000 0.446845 0.000000
0.107027 0.522332 0.068208
0.114931 0.522576 0.067994
0.124910 0.522698 0.067384
0.144167 0.523186 0.066133
0.169589 0.523888 0.064393
0.198795 0.524956 0.061707
0.229343 0.526238 0.057649
0.261814 0.527794 0.049409
0.295567 0.529686 0.036164
0.330175 0.531792 0.021180
0.365911 0.534203 0.002533
0.402655 0.536950 0.000000
0.440101 0.539910 0.000000
0.478706 0.543267 0.000000
0.518212 0.546807 0.000000
0.558862 0.550652 0.000000
0.600275 0.554559 0.000000
0.661738 0.574731 0.000000
0.718929 0.588678 0.000000
0.770748 0.596857 0.000000
0.815763 0.599390 0.000000
0.852628 0.595911 0.000000
0.882292 0.588128 0.000000
0.906767 0.577783 0.000000
0.927214 0.565942 0.000000
0.944732 0.553368 0.000000
0.959899 0.540429 0.000000
0.973083 0.527550 0.000000
0.984649 0.514763 0.000000
0.994812 0.502312 0.000000
1.000000 0.490089 0.000000
1.000000 0.478279 0.000000
0.084962 0.584375 0.000000
0.096498 0.584527 0.000000
0.110018 0.584771 0.000000
0.134524 0.585290 0.000000
0.164706 0.585962 0.000000
0.197879 0.587091 0.000000
0.232212 0.588403 0.000000
0.267826 0.589929 0.000000
0.304387 0.591699 0.000000
0.341650 0.593774 0.000000
0.379706 0.596185 0.000000
0.418494 0.598688 0.000000
0.457984 0.601465 0.000000
0.498116 0.604303 0.000000
0.539086 0.607446 0.000000
0.580682 0.610620 0.000000
0.623041 0.613794 0.000000
0.666102 0.617151 0.000000
0.721950 0.630823 0.000000
0.772732 0.638666 0.000000
0.817044 0.640589 0.000000
0.852811 0.636011 0.000000
0.881773 0.627222 0.000000
0.905821 0.615839 0.000000
0.926024 0.603113 0.000000
0.943328 0.589593 0.000000
0.958373 0.575891 0.000000
0.971557 0.562188 0.000000
0.983093 0.548547 0.000000
0.993286 0.535180 0.000000
1.000000 0.522210 0.000000
1.000000 0.509545 0.000000
0.024750 0.648524 0.000000
0.065644 0.648554 0.000000
0.086671 0.648768 0.000000
0.120241 0.649134 0.000000
0.157198 0.649805 0.000000
0.194736 0.650629 0.000000
0.233158 0.651698 0.000000
0.271855 0.652949 0.000000
0.311162 0.654383 0.000000
0.350835 0.656001 0.000000
0.390661 0.657801 0.000000
0.431159 0.659693 0.000000
0.471931 0.661707 0.000000
0.513268 0.663783 0.000000
0.554986 0.666041 0.000000
0.597040 0.668116 0.000000
0.639704 0.670283 0.000000
0.682551 0.672328 0.000000
0.725612 0.674250 0.000000
0.774624 0.680873 0.000000
0.817777 0.681941 0.000000
0.852750 0.676265 0.000000
0.881193 0.666316 0.000000
0.904753 0.653986 0.000000
0.924681 0.640192 0.000000
0.941863 0.625849 0.000000
0.956817 0.611170 0.000000
0.969909 0.596551 0.000000
0.981445 0.582208 0.000000
0.991638 0.568017 0.000000
1.000000 0.554192 0.000000
1.000000 0.540764 0.000000
0.000000 0.708888 0.000000
0.000000 0.708949 0.000000
0.037049 0.709010 0.000000
0.099916 0.709285 0.000000
0.145724 0.709712 0.000000
0.188968 0.710231 0.000000
0.231418 0.710933 0.000000
0.272892 0.711696 0.000000
0.314458 0.712642 0.000000
0.355627 0.713588 0.000000
0.397101 0.714656 0.000000
0.438666 0.715755 0.000000
0.480446 0.716976 0.000000
0.522332 0.718105 0.000000
0.564385 0.719265 0.000000
0.606592 0.720363 0.000000
0.649042 0.721431 0.000000
0.691493 0.722347 0.000000
0.734096 0.723171 0.000000
0.776730 0.723781 0.000000
0.818387 0.723323 0.000000
0.852384 0.716579 0.000000
0.880278 0.705501 0.000000
0.903563 0.692012 0.000000
0.923217 0.677211 0.000000
0.940276 0.661860 0.000000
0.955138 0.646296 0.000000
0.968170 0.630823 0.000000
0.979675 0.615595 0.000000
0.989899 0.600641 0.000000
0.998932 0.586084 0.000000
1.000000 0.571893 0.000000
0.000000 0.762264 0.000000
0.000000 0.762295 0.000000
0.000000 0.762387 0.000000
0.071382 0.762539 0.000000
0.131777 0.762692 0.000000
0.180911 0.762997 0.000000
0.226749 0.763210 0.000000
0.270695 0.763577 0.000000
0.313634 0.763973 0.000000
0.356329 0.764370 0.000000
0.398810 0.764767 0.000000
0.441199 0.765164 0.000000
0.483345 0.765530 0.000000
0.525505 0.765927 0.000000
0.567559 0.766079 0.000000
0.609552 0.766110 0.000000
0.651392 0.766079 0.000000
0.693111 0.765743 0.000000
0.734646 0.765225 0.000000
0.775998 0.764431 0.000000
0.817014 0.763363 0.000000
0.851774 0.756832 0.000000
0.879088 0.744656 0.000000
0.902037 0.730068 0.000000
0.921630 0.714199 0.000000
0.938537 0.697841 0.000000
0.953307 0.681331 0.000000
0.966339 0.664973 0.000000
0.977844 0.648859 0.000000
0.988037 0.633112 0.000000
0.997101 0.617792 0.000000
1.000000 0.602899 0.000000
0.000000 0.807462 0.000000
0.000000 0.807431 0.000000
0.000000 0.807431 0.000000
0.000000 0.807462 0.000000
0.115633 0.807370 0.000000
0.170779 0.807309 0.000000
0.219303 0.807248 0.000000
0.265110 0.807156 0.000000
0.309545 0.806973 0.000000
0.353094 0.806729 0.000000
0.395911 0.806424 0.000000
0.438422 0.806058 0.000000
0.480446 0.805509 0.000000
0.522362 0.804868 0.000000
0.563928 0.804135 0.000000
0.605249 0.803189 0.000000
0.646326 0.802060 0.000000
0.687068 0.800778 0.000000
0.727596 0.799252 0.000000
0.767727 0.797513 0.000000
0.807492 0.795560 0.000000
0.846891 0.793332 0.000000
0.877714 0.783627 0.000000
0.900328 0.768002 0.000000
0.919738 0.751125 0.000000
0.936614 0.733730 0.000000
0.951354 0.716243 0.000000
0.964324 0.698970 0.000000
0.975860 0.681971 0.000000
0.986084 0.665431 0.000000
0.995148 0.649317 0.000000
1.000000 0.634089 0.000000
0.000000 0.842405 0.000000
0.000000 0.842405 0.000000
0.000000 0.842313 0.000000
0.000000 0.842222 0.000000
0.096773 0.842008 0.000000
0.159609 0.841703 0.000000
0.210544 0.841337 0.000000
0.257542 0.840879 0.000000
0.302495 0.840330 0.000000
0.346227 0.839628 0.000000
0.388983 0.838865 0.000000
0.431373 0.837949 0.000000
0.473091 0.836912 0.000000
0.514427 0.835721 0.000000
0.555352 0.834318 0.000000
0.596002 0.832822 0.000000
0.636225 0.831113 0.000000
0.676173 0.829221 0.000000
0.715724 0.827176 0.000000
0.754879 0.824887 0.000000
0.793637 0.822416 0.000000
0.831937 0.819730 0.000000
0.869871 0.816831 0.000000
0.898436 0.805844 0.000000
0.917693 0.787900 0.000000
0.934478 0.769558 0.000000
0.949248 0.751064 0.000000
0.962249 0.732876 0.000000
0.973754 0.714992 0.000000
0.984009 0.697627 0.000000
0.993072 0.680995 0.000000
1.000000 0.665522 0.000000
0.000000 0.869657 0.000000
0.000000 0.869566 0.000000
0.000000 0.869474 0.000000
0.000000 0.869291 0.000000
0.076631 0.868986 0.000000
0.148013 0.868589 0.000000
0.200839 0.868070 0.000000
0.248447 0.867430 0.000000
0.293767 0.866667 0.000000
0.337346 0.865721 0.000000
0.379919 0.864683 0.000000
0.421729 0.863493 0.000000
0.462928 0.862119 0.000000
0.503716 0.860624 0.000000
0.543938 0.858946 0.000000
0.583856 0.857115 0.000000
0.623255 0.855100 0.000000
0.662379 0.852873 0.000000
0.700984 0.850523 0.000000
0.739284 0.847929 0.000000
0.777157 0.845182 0.000000
0.814603 0.842191 0.000000
0.851530 0.839078 0.000000
0.888029 0.835721 0.000000
0.915435 0.824582 0.000000
0.932158 0.805173 0.000000
0.946899 0.785824 0.000000
0.959960 0.766659 0.000000
0.971527 0.747921 0.000000
0.981781 0.729915 0.000000
0.990875 0.712795 0.000000
0.998871 0.697108 0.000000
0.000000 0.891447 0.000000
0.000000 0.891356 0.000000
0.000000 0.891234 0.000000
0.000000 0.891020 0.000000
0.048646 0.890684 0.000000
0.135988 0.890196 0.000000
0.190738 0.889616 0.000000
0.239017 0.888853 0.000000
0.284337 0.887938 0.000000
0.327611 0.886931 0.000000
0.369635 0.885771 0.000000
0.410834 0.884398 0.000000
0.451484 0.882902 0.000000
0.491432 0.881254 0.000000
0.530938 0.879393 0.000000
0.570062 0.877379 0.000000
0.608728 0.875212 0.000000
0.646998 0.872862 0.000000
0.684840 0.870329 0.000000
0.722255 0.867613 0.000000
0.759243 0.864744 0.000000
0.795804 0.861692 0.000000
0.831968 0.858427 0.000000
0.867613 0.855039 0.000000
0.902800 0.851438 0.000000
0.929686 0.840665 0.000000
0.944396 0.820310 0.000000
0.957458 0.800320 0.000000
0.969085 0.780880 0.000000
0.979400 0.762173 0.000000
0.988495 0.744625 0.000000
0.996490 0.728603 0.000000
0.000000 0.909331 0.000000
0.000000 0.909270 0.000000
0.000000 0.909178 0.000000
0.000000 0.908934 0.000000
0.000000 0.908537 0.000000
0.124208 0.908049 0.000000
0.181003 0.907408 0.000000
0.229618 0.906615 0.000000
0.274418 0.905669 0.000000
0.317357 0.904570 0.000000
0.358801 0.903349 0.000000
0.399512 0.901946 0.000000
0.439368 0.900359 0.000000
0.478614 0.898650 0.000000
0.517327 0.896757 0.000000
0.555566 0.894682 0.000000
0.593469 0.892454 0.000000
0.630915 0.890043 0.000000
0.667933 0.887480 0.000000
0.704555 0.884733 0.000000
0.740658 0.881804 0.000000
0.776455 0.878691 0.000000
0.811765 0.875425 0.000000
0.846647 0.872007 0.000000
0.881071 0.868406 0.000000
0.915068 0.864652 0.000000
0.941802 0.854734 0.000000
0.954833 0.833860 0.000000
0.966461 0.813657 0.000000
0.976837 0.794339 0.000000
0.985992 0.776242 0.000000
0.994018 0.759884 0.000000
0.000000 0.924437 0.000000
0.000000 0.924346 0.000000
0.000000 0.924224 0.000000
0.000000 0.923980 0.000000
0.000000 0.923583 0.000000
0.113039 0.923095 0.000000
0.171511 0.922423 0.000000
0.220310 0.921630 0.000000
0.264958 0.920653 0.000000
0.307073 0.919585 0.000000
0.348058 0.918303 0.000000
0.387823 0.916899 0.000000
0.427008 0.915312 0.000000
0.465553 0.913573 0.000000
0.503471 0.911681 0.000000
0.540917 0.909606 0.000000
0.577966 0.907347 0.000000
0.614588 0.904936 0.000000
0.650782 0.902373 0.000000
0.686580 0.899657 0.000000
0.721950 0.896757 0.000000
0.756924 0.893675 0.000000
0.791440 0.890440 0.000000
0.825589 0.887053 0.000000
0.859220 0.883513 0.000000
0.892515 0.879789 0.000000
0.925322 0.875914 0.000000
0.952331 0.867247 0.000000
0.963745 0.846067 0.000000
0.974151 0.826108 0.000000
0.983337 0.807492 0.000000
0.991394 0.790768 0.000000
0.000000 0.937224 0.000000
0.000000 0.937133 0.000000
0.000000 0.937041 0.000000
0.000000 0.936797 0.000000
0.000000 0.936400 0.000000
0.102541 0.935912 0.000000
0.162936 0.935241 0.000000
0.211490 0.934447 0.000000
0.255619 0.933501 0.000000
0.297337 0.932433 0.000000
0.337377 0.931182 0.000000
0.376532 0.929778 0.000000
0.414832 0.928222 0.000000
0.452552 0.926482 0.000000
0.489693 0.924590 0.000000
0.526329 0.922545 0.000000
0.562585 0.920348 0.000000
0.598352 0.917967 0.000000
0.633722 0.915435 0.000000
0.668757 0.912749 0.000000
0.703273 0.909911 0.000000
0.737484 0.906889 0.000000
0.771267 0.903716 0.000000
0.804654 0.900420 0.000000
0.837644 0.896910 0.000000
0.870298 0.893278 0.000000
0.902525 0.889494 0.000000
0.934203 0.885557 0.000000
0.961395 0.878294 0.000000
0.971374 0.857206 0.000000
0.980621 0.838010 0.000000
0.988678 0.820859 0.000000
0.000000 0.948211 0.000000
0.000000 0.948150 0.000000
0.000000 0.948028 0.000000
0.000000 0.947814 0.000000
0.000000 0.947448 0.000000
0.093324 0.946929 0.000000
0.154879 0.946288 0.000000
0.203281 0.945525 0.000000
0.246738 0.944610 0.000000
0.287846 0.943511 0.000000
0.327153 0.942290 0.000000
0.365576 0.940917 0.000000
0.402991 0.939391 0.000000
0.439857 0.937713 0.000000
