cubelut/Cinematic-8.cube
# Created by Adobe Lightroom plugin Export LUT (1.18.0)
# www.johnrellis.com/lightroom/exportlut.htm
# Preset: Cinematic4
# Color profile: /Library/Application Support/Adobe/Color/Profiles/Recommended/AdobeRGB1998.icc
LUT_3D_SIZE 32
DOMAIN_MIN 0.0 0.0 0.0
DOMAIN_MAX 1.0 1.0 1.0
0.085725 0.106386 0.119387
0.085725 0.106386 0.119387
0.085725 0.106386 0.119387
0.112520 0.102968 0.119844
0.155184 0.094606 0.121065
0.193362 0.082826 0.121920
0.227604 0.068605 0.123323
0.259373 0.072938 0.124666
0.291875 0.079225 0.125704
0.327428 0.086610 0.126864
0.367620 0.094301 0.127138
0.414557 0.102388 0.126833
0.471565 0.109865 0.124575
0.542016 0.113710 0.119509
0.621698 0.101534 0.117647
0.697566 0.076967 0.116396
0.760647 0.057527 0.116304
0.816464 0.045258 0.118074
0.862089 0.055177 0.122194
0.900755 0.061280 0.127535
0.935088 0.059815 0.132967
0.965698 0.044892 0.139101
0.991333 0.032197 0.145876
1.000000 0.039979 0.152804
1.000000 0.062013 0.159365
1.000000 0.078462 0.166720
1.000000 0.097475 0.174044
1.000000 0.116243 0.181704
1.000000 0.134035 0.189822
1.000000 0.151888 0.198550
1.000000 0.169284 0.207462
1.000000 0.186007 0.217014
0.085725 0.106386 0.119387
0.085725 0.106386 0.119387
0.085725 0.106386 0.119387
0.114290 0.102876 0.119997
0.155947 0.094392 0.120851
0.193484 0.084413 0.122408
0.227115 0.085176 0.123537
0.258549 0.089418 0.124666
0.291051 0.093935 0.125551
0.326452 0.099733 0.126558
0.366217 0.106661 0.127230
0.412757 0.113954 0.126619
0.468940 0.122316 0.124361
0.538506 0.126711 0.119570
0.617609 0.116243 0.118318
0.693782 0.098329 0.117220
0.757259 0.083772 0.117006
0.813291 0.079072 0.118379
0.858579 0.082582 0.122072
0.897124 0.086580 0.126894
0.931548 0.083864 0.132448
0.962463 0.076997 0.138308
0.988586 0.071077 0.145052
1.000000 0.071412 0.151553
1.000000 0.079194 0.158419
1.000000 0.091554 0.165469
1.000000 0.105562 0.173037
1.000000 0.122560 0.180697
1.000000 0.139010 0.188968
1.000000 0.155978 0.197513
1.000000 0.172183 0.206424
1.000000 0.188388 0.216007
0.085725 0.106386 0.119387
0.085725 0.106386 0.119387
0.085725 0.106386 0.119387
0.116243 0.103548 0.119905
0.156619 0.103792 0.121187
0.193484 0.103700 0.122011
0.226596 0.104524 0.122957
0.258061 0.106966 0.124178
0.290410 0.110475 0.125490
0.325475 0.114839 0.126345
0.365240 0.121065 0.127016
0.411566 0.128450 0.126162
0.467384 0.136507 0.124086
0.536706 0.141634 0.120027
0.615320 0.134279 0.118776
0.691585 0.119265 0.117342
0.755337 0.109010 0.117250
0.811551 0.104829 0.118868
0.856718 0.106355 0.122683
0.895109 0.108980 0.126864
0.929595 0.106722 0.132418
0.960693 0.100587 0.138308
0.987091 0.095491 0.144411
1.000000 0.093812 0.151278
1.000000 0.098054 0.158022
1.000000 0.106233 0.165164
1.000000 0.118318 0.172427
1.000000 0.131960 0.180545
1.000000 0.146700 0.188479
1.000000 0.162264 0.197177
1.000000 0.177462 0.205997
1.000000 0.192630 0.215549
0.081056 0.134859 0.119661
0.080873 0.137057 0.119448
0.080201 0.139437 0.119417
0.117342 0.141512 0.120394
0.157382 0.140841 0.121370
0.193729 0.139101 0.122194
0.226627 0.137423 0.123171
0.257847 0.137118 0.124392
0.290105 0.138369 0.125460
0.325231 0.141756 0.126345
0.364630 0.147005 0.126619
0.410742 0.154482 0.125460
0.466224 0.163363 0.122957
0.534844 0.168917 0.121187
0.613306 0.164096 0.119905
0.689387 0.153994 0.118837
0.753231 0.146304 0.118196
0.809781 0.143221 0.119600
0.854124 0.143893 0.122713
0.892058 0.144320 0.127352
0.926360 0.142733 0.132113
0.957549 0.136416 0.138033
0.984497 0.131350 0.144320
1.000000 0.129335 0.150912
1.000000 0.129946 0.157839
1.000000 0.135042 0.164767
1.000000 0.142672 0.172488
1.000000 0.153109 0.180392
1.000000 0.164706 0.188602
1.000000 0.177188 0.197269
1.000000 0.190402 0.206058
1.000000 0.203403 0.215488
0.071748 0.175723 0.119539
0.071199 0.176974 0.119570
0.077394 0.178347 0.119509
0.114473 0.179355 0.120577
0.155947 0.180575 0.121492
0.193729 0.178683 0.122530
0.226078 0.174624 0.123507
0.257206 0.172274 0.124819
0.289220 0.171969 0.125887
0.324132 0.174441 0.126253
0.363409 0.179202 0.126284
0.409033 0.187076 0.124575
0.464271 0.196323 0.123140
0.532616 0.202304 0.122957
0.610895 0.200504 0.121859
0.687282 0.193515 0.119905
0.753231 0.187961 0.119600
0.809018 0.186160 0.120699
0.852873 0.186069 0.123812
0.890562 0.185611 0.127687
0.924590 0.182834 0.132570
0.955718 0.177829 0.137850
0.982757 0.172213 0.144198
1.000000 0.168490 0.150515
1.000000 0.167178 0.157687
1.000000 0.168704 0.165042
1.000000 0.173190 0.172457
1.000000 0.179629 0.180484
1.000000 0.187961 0.188693
1.000000 0.197635 0.197330
1.000000 0.208042 0.206088
1.000000 0.219028 0.215640
0.057252 0.213260 0.119509
0.057313 0.214206 0.119173
0.077668 0.214542 0.119814
0.112856 0.215061 0.120211
0.152102 0.215518 0.121309
0.191196 0.216464 0.123262
0.226474 0.213870 0.124025
0.257450 0.209781 0.124910
0.289433 0.208255 0.125612
0.324407 0.210178 0.125612
0.363622 0.215396 0.125063
0.409400 0.223209 0.124971
0.464515 0.232090 0.126497
0.533013 0.238895 0.125734
0.611078 0.238895 0.124086
0.687282 0.233982 0.122072
0.754788 0.230900 0.120974
0.809079 0.229648 0.122011
0.852476 0.229587 0.124849
0.890043 0.228580 0.128267
0.924102 0.225376 0.133272
0.955352 0.219791 0.138766
0.997681 0.217716 0.150607
1.000000 0.213901 0.157595
1.000000 0.212100 0.164858
1.000000 0.212222 0.172122
1.000000 0.214359 0.179965
1.000000 0.217960 0.187839
1.000000 0.223484 0.195895
1.000000 0.230137 0.204532
1.000000 0.237552 0.213352
1.000000 0.245853 0.222446
0.030640 0.250126 0.119081
0.062593 0.250126 0.119478
0.082887 0.250340 0.119539
0.115175 0.250675 0.120546
0.151278 0.251102 0.121157
0.188540 0.251499 0.122316
0.225925 0.251987 0.123598
0.260990 0.250797 0.124025
0.293584 0.248814 0.124636
0.329381 0.250858 0.125154
0.369726 0.256138 0.127932
0.416938 0.264164 0.129610
0.474434 0.273533 0.130068
0.544671 0.280064 0.128878
0.622797 0.280095 0.126375
0.699214 0.277714 0.123873
0.764767 0.276646 0.122835
0.816678 0.276310 0.123751
0.858701 0.275914 0.126284
0.896147 0.273930 0.130220
0.930846 0.270085 0.135134
0.962829 0.263676 0.141238
0.990112 0.257389 0.148226
1.000000 0.252049 0.155886
1.000000 0.248631 0.163912
1.000000 0.246769 0.171633
1.000000 0.246769 0.179385
1.000000 0.248051 0.187747
1.000000 0.250980 0.195987
1.000000 0.255070 0.204562
1.000000 0.260380 0.213199
1.000000 0.266545 0.222690
0.059052 0.281926 0.119020
0.074372 0.282017 0.118990
0.090578 0.282170 0.119478
0.118532 0.282414 0.119570
0.151736 0.282719 0.120455
0.186313 0.283207 0.120943
0.221683 0.283696 0.122927
0.257237 0.284672 0.125917
0.293767 0.286412 0.128786
0.329442 0.287999 0.131106
0.369848 0.293400 0.133883
0.417304 0.301549 0.134829
0.475135 0.311192 0.134707
0.545312 0.318395 0.132509
0.624994 0.320745 0.129061
0.701961 0.320684 0.126162
0.764431 0.320775 0.124605
0.814878 0.320745 0.124697
0.856229 0.319829 0.126802
0.893309 0.317296 0.130526
0.927855 0.312291 0.135744
0.959777 0.305455 0.141207
0.987213 0.297887 0.148287
1.000000 0.291264 0.155856
1.000000 0.286076 0.163394
1.000000 0.282383 0.171633
1.000000 0.280095 0.179385
1.000000 0.279332 0.187625
1.000000 0.280095 0.196139
1.000000 0.282048 0.204593
1.000000 0.285405 0.213657
1.000000 0.289311 0.223117
0.074678 0.315312 0.121981
0.086366 0.315404 0.122530
0.099947 0.315618 0.123171
0.124453 0.315770 0.124086
0.154391 0.316411 0.125460
0.186618 0.316808 0.127810
0.220645 0.317571 0.130220
0.255467 0.318669 0.132998
0.290867 0.319951 0.136172
0.330571 0.325566 0.138277
0.371435 0.331029 0.139345
0.419440 0.339452 0.140017
0.478035 0.349981 0.139254
0.551080 0.359106 0.136080
0.632441 0.363836 0.131960
0.705409 0.365362 0.128237
0.765316 0.366125 0.125734
0.814328 0.365728 0.125673
0.854948 0.363958 0.127382
0.891691 0.360174 0.131106
0.925994 0.354345 0.135744
0.957733 0.346105 0.141695
0.985138 0.337682 0.148440
1.000000 0.329961 0.155703
1.000000 0.323278 0.163760
1.000000 0.317754 0.171847
1.000000 0.313787 0.179995
1.000000 0.311101 0.188235
1.000000 0.310002 0.196719
1.000000 0.310124 0.205539
1.000000 0.311284 0.214603
1.000000 0.313542 0.224247
0.084413 0.351537 0.130892
0.094667 0.351690 0.131228
0.106783 0.351873 0.131655
0.129580 0.352026 0.132479
0.158236 0.352605 0.133577
0.189670 0.353155 0.135561
0.223148 0.353918 0.137606
0.257755 0.354986 0.140017
0.292943 0.356573 0.142397
0.328527 0.358587 0.145235
0.372961 0.367834 0.145998
0.421973 0.377478 0.144533
0.484474 0.390997 0.142824
0.559136 0.402075 0.138827
0.638453 0.407874 0.133730
0.709316 0.410468 0.129580
0.767758 0.411414 0.126528
0.815640 0.410407 0.126223
0.855528 0.407630 0.127749
0.891661 0.402319 0.131533
0.925200 0.395026 0.136355
0.956115 0.385809 0.142061
0.982940 0.376165 0.148623
1.000000 0.366979 0.156222
1.000000 0.359014 0.163729
1.000000 0.352117 0.172061
1.000000 0.346715 0.180240
1.000000 0.342596 0.188693
1.000000 0.339757 0.197726
1.000000 0.338415 0.206882
1.000000 0.338170 0.216220
1.000000 0.338903 0.226139
0.092256 0.390936 0.138460
0.101961 0.391028 0.138613
0.113893 0.391333 0.138796
0.135775 0.391638 0.139681
0.164004 0.392248 0.140322
0.195438 0.393164 0.141695
0.229007 0.394385 0.143435
0.263737 0.395880 0.145235
0.299321 0.397711 0.147005
0.335668 0.400183 0.149294
0.374548 0.404578 0.151827
0.429236 0.420081 0.149508
0.492500 0.434638 0.144991
0.566796 0.445655 0.139437
0.643915 0.451514 0.134127
0.711818 0.454017 0.129854
0.768460 0.454170 0.127260
0.815122 0.452186 0.126894
0.854368 0.448066 0.128634
0.890166 0.441810 0.131991
0.923491 0.433448 0.136965
0.954345 0.423468 0.142580
0.981109 0.413092 0.149477
1.000000 0.403174 0.156893
1.000000 0.393957 0.165133
1.000000 0.386023 0.173251
1.000000 0.379248 0.181735
1.000000 0.373846 0.190188
1.000000 0.369635 0.199222
1.000000 0.366705 0.208347
1.000000 0.365118 0.218082
1.000000 0.364538 0.228336
0.100465 0.436744 0.143099
0.109560 0.437049 0.143618
0.121431 0.437140 0.143832
0.143038 0.437751 0.144076
0.171420 0.438544 0.144869
0.203342 0.439765 0.145693
0.237461 0.441444 0.146670
0.272892 0.443519 0.147738
0.310063 0.447181 0.149294
0.349248 0.452094 0.150546
0.390417 0.457252 0.151888
0.434791 0.462470 0.152468
0.531548 0.498482 0.144259
0.610437 0.506432 0.136629
0.683162 0.509392 0.130892
0.743740 0.509483 0.127871
0.793790 0.507225 0.126833
0.835019 0.502434 0.128511
0.870878 0.495430 0.131350
0.904173 0.486488 0.135683
0.935332 0.475654 0.141421
0.963531 0.463905 0.147860
0.987549 0.452125 0.154513
1.000000 0.441047 0.162631
1.000000 0.430823 0.170474
1.000000 0.421881 0.178714
1.000000 0.413855 0.187503
1.000000 0.407202 0.196017
1.000000 0.401709 0.204929
1.000000 0.397498 0.214176
1.000000 0.394507 0.223911
1.000000 0.392523 0.234257
0.106294 0.498024 0.143618
0.115724 0.498238 0.143862
0.128450 0.498146 0.143618
0.151308 0.498268 0.144106
0.181216 0.498665 0.144106
0.214664 0.500755 0.144747
0.250889 0.503624 0.144991
0.288548 0.506889 0.145754
0.328191 0.511192 0.146304
0.370245 0.516197 0.146731
0.416114 0.521965 0.146822
0.467384 0.527367 0.146792
0.525841 0.531640 0.146242
0.609430 0.543145 0.137758
0.682979 0.547875 0.130373
0.743221 0.549035 0.125795
0.792416 0.547082 0.124880
0.832883 0.542016 0.126589
0.868284 0.534569 0.130251
0.901274 0.525017 0.135500
0.932280 0.513664 0.141238
0.960479 0.501091 0.147616
0.984527 0.488594 0.155184
1.000000 0.476417 0.163027
1.000000 0.465156 0.171359
1.000000 0.454994 0.179904
1.000000 0.445899 0.188510
1.000000 0.438056 0.197543
1.000000 0.431403 0.206668
1.000000 0.426001 0.216281
1.000000 0.421820 0.226383
1.000000 0.418799 0.237156
0.112764 0.559411 0.139986
0.123964 0.559655 0.139803
0.136477 0.559655 0.139834
0.160586 0.559930 0.140169
0.191257 0.560174 0.140475
0.225895 0.560784 0.140871
0.262760 0.561944 0.141238
0.301213 0.563714 0.141390
0.341619 0.566278 0.141634
0.385016 0.569482 0.142031
0.432319 0.573083 0.141817
0.485756 0.576684 0.141054
0.545953 0.579095 0.139803
0.609796 0.580072 0.137819
0.683772 0.587640 0.129641
0.743038 0.590265 0.123079
0.790951 0.588647 0.120455
0.830655 0.583551 0.122347
0.865812 0.575433 0.126711
0.898558 0.565240 0.132540
0.929473 0.553124 0.139559
0.957641 0.539849 0.147219
0.981811 0.526268 0.155276
1.000000 0.513176 0.163607
1.000000 0.500786 0.172274
1.000000 0.489357 0.181308
1.000000 0.479042 0.190311
1.000000 0.469947 0.199649
1.000000 0.462135 0.209415
1.000000 0.455573 0.219272
1.000000 0.450263 0.229831
1.000000 0.446204 0.241032
0.123964 0.615351 0.135409
0.134493 0.615564 0.135225
0.146700 0.615290 0.135348
0.171084 0.615045 0.135378
0.201785 0.614649 0.135775
0.236210 0.614527 0.135897
0.273198 0.614801 0.136080
0.312047 0.615686 0.136446
0.353185 0.617456 0.136294
0.397620 0.619867 0.136019
0.446357 0.622766 0.134981
0.501122 0.625513 0.133883
0.561975 0.627375 0.131807
0.624414 0.628290 0.129030
0.682979 0.628473 0.126070
0.742458 0.633509 0.118654
0.790188 0.632532 0.114626
0.829160 0.626703 0.115297
0.863767 0.617914 0.120729
0.896269 0.606867 0.127901
0.926940 0.593774 0.136446
0.954894 0.579675 0.145052
0.978973 0.565240 0.154482
0.999145 0.551080 0.163638
1.000000 0.537499 0.173220
1.000000 0.524956 0.182864
1.000000 0.513573 0.192477
1.000000 0.503380 0.202762
1.000000 0.494514 0.213077
1.000000 0.486854 0.224033
1.000000 0.480629 0.235538
1.000000 0.475502 0.247410
0.131838 0.669123 0.128023
0.141665 0.669459 0.128267
0.153628 0.669398 0.128115
0.178073 0.669368 0.127993
0.208957 0.669184 0.128023
0.243931 0.669306 0.128145
0.281224 0.669886 0.128023
0.320836 0.670954 0.127932
0.363317 0.672297 0.127138
0.408515 0.674006 0.126741
0.458564 0.675441 0.125277
0.514031 0.676448 0.123568
0.573175 0.676478 0.121370
0.632532 0.675685 0.118746
0.687678 0.674647 0.116030
0.738186 0.673518 0.113436
0.787411 0.674403 0.109041
0.827237 0.669154 0.109682
0.862150 0.659815 0.114351
0.894743 0.648188 0.122621
0.925444 0.634730 0.132326
0.953399 0.619898 0.142611
0.977356 0.604761 0.153353
0.997345 0.589807 0.164309
1.000000 0.575433 0.175143
1.000000 0.561975 0.185519
1.000000 0.549371 0.196139
1.000000 0.538170 0.206668
1.000000 0.528130 0.217868
1.000000 0.519280 0.229099
1.000000 0.511772 0.241123
1.000000 0.505547 0.253696
0.135897 0.719051 0.119356
0.145510 0.719112 0.119234
0.157931 0.718929 0.119326
0.181338 0.718776 0.119265
0.212192 0.718532 0.119356
0.247166 0.718471 0.118959
0.284520 0.718654 0.119020
0.324865 0.719051 0.118257
0.367285 0.719661 0.118379
0.413336 0.720363 0.117189
0.463966 0.720943 0.116365
0.519707 0.720760 0.114351
0.578149 0.719875 0.112184
0.635309 0.718135 0.110262
0.688411 0.716121 0.108064
0.736904 0.713802 0.106813
0.782132 0.711452 0.105653
0.824582 0.708492 0.104738
0.860349 0.699580 0.109590
0.892729 0.687312 0.117098
0.923247 0.673243 0.127779
0.950866 0.658076 0.139467
0.974731 0.642451 0.151675
0.994720 0.627070 0.163668
1.000000 0.612177 0.175631
1.000000 0.597986 0.187564
1.000000 0.584833 0.199008
1.000000 0.572656 0.210727
1.000000 0.561669 0.222232
1.000000 0.551995 0.234592
1.000000 0.543542 0.247166
1.000000 0.536339 0.260807
0.141238 0.762936 0.112062
0.151125 0.763210 0.111910
0.166201 0.776486 0.111208
0.189761 0.776089 0.111116
0.220523 0.775479 0.111208
0.255436 0.774624 0.111360
0.293523 0.773800 0.111269
0.334112 0.772885 0.111116
0.377722 0.772122 0.111238
0.425147 0.771145 0.110750
0.476844 0.769833 0.110170
0.532403 0.767819 0.109346
0.589075 0.765011 0.107942
0.643488 0.761990 0.106569
0.693721 0.758785 0.105318
0.740047 0.755581 0.104707
0.783505 0.752377 0.104921
0.825498 0.749020 0.104341
0.864256 0.741909 0.107698
0.896513 0.728420 0.116701
0.925933 0.712703 0.127718
0.952483 0.696376 0.139773
0.975311 0.680018 0.153079
0.994324 0.663996 0.166537
1.000000 0.648371 0.179110
1.000000 0.633631 0.191440
1.000000 0.619684 0.203525
1.000000 0.606775 0.215946
1.000000 0.594995 0.228061
1.000000 0.584466 0.240757
1.000000 0.575189 0.254215
1.000000 0.567132 0.268223
0.150393 0.801846 0.109346
0.159670 0.803311 0.109194
0.171939 0.804623 0.109010
0.193790 0.805722 0.109407
0.223239 0.806149 0.109957
0.257267 0.805905 0.110292
0.294621 0.805264 0.110109
0.334447 0.804257 0.110567
0.377447 0.803311 0.110292
0.423743 0.802060 0.110689
0.474678 0.800381 0.109957
0.528618 0.798154 0.109499
0.583581 0.795224 0.108553
0.636286 0.791928 0.107576
0.685054 0.788632 0.107088
0.730343 0.785245 0.107027
0.772885 0.781888 0.106783
0.813596 0.778561 0.107393
0.855375 0.774960 0.108248
0.893492 0.765591 0.114107
0.923491 0.749081 0.126986
0.950072 0.731960 0.139681
0.972992 0.714748 0.152346
0.991974 0.698054 0.167422
1.000000 0.682002 0.181094
1.000000 0.666835 0.194400
1.000000 0.652583 0.207492
1.000000 0.639338 0.221012
1.000000 0.627283 0.234409
1.000000 0.616236 0.248325
1.000000 0.606439 0.262577
1.000000 0.597620 0.277134
0.158480 0.831296 0.110201
0.166781 0.832425 0.110506
0.178042 0.833494 0.110750
0.198215 0.834318 0.111360
0.226413 0.834684 0.111574
0.258854 0.834348 0.112276
0.295354 0.833585 0.112276
0.334081 0.832609 0.112428
0.376074 0.831510 0.112428
0.421332 0.830137 0.112886
0.470893 0.828367 0.112795
0.523369 0.826047 0.112642
0.576196 0.823056 0.112581
0.627344 0.819883 0.112154
0.675013 0.816495 0.111879
0.719265 0.813077 0.112398
0.760800 0.809720 0.112947
0.800473 0.806455 0.114473
0.840574 0.803006 0.115999
0.883452 0.799100 0.117159
0.921508 0.787778 0.125368
0.947936 0.768856 0.140566
0.970733 0.750271 0.155032
0.989746 0.732326 0.169223
1.000000 0.715236 0.184146
1.000000 0.699153 0.198642
1.000000 0.684169 0.212741
1.000000 0.670436 0.226810
1.000000 0.657801 0.241123
1.000000 0.646479 0.255955
1.000000 0.636316 0.271397
1.000000 0.627070 0.286442
0.165469 0.857816 0.114321
0.173342 0.858762 0.114961
0.183505 0.859678 0.115328
0.202487 0.860349 0.116274
0.228977 0.860502 0.116487
0.260227 0.860136 0.117037
0.295018 0.859342 0.117403
0.332433 0.858396 0.117891
0.373327 0.857115 0.118227
0.417456 0.855650 0.118593
0.465217 0.853788 0.118959
0.515740 0.851377 0.119539
0.566979 0.848478 0.119295
0.616510 0.845335 0.119844
0.663172 0.842130 0.120119
0.706661 0.838987 0.121431
0.747799 0.835935 0.122805
0.786954 0.833127 0.125368
0.825956 0.830259 0.127901
0.867094 0.826963 0.131441
0.912322 0.822782 0.134493
0.949126 0.810788 0.144717
0.970916 0.789883 0.161868
0.989563 0.770016 0.178164
1.000000 0.751125 0.193271
1.000000 0.733639 0.208865
1.000000 0.717494 0.224613
1.000000 0.702785 0.239963
1.000000 0.689509 0.255406
1.000000 0.677607 0.271183
1.000000 0.666926 0.287602
1.000000 0.657710 0.303624
0.174044 0.885405 0.124697
0.180941 0.885710 0.125093
0.190066 0.885893 0.125277
0.207675 0.885924 0.125765
0.232547 0.885588 0.126253
0.262364 0.884977 0.126497
0.295415 0.884154 0.127169
0.331792 0.883116 0.127749
0.371435 0.881987 0.128634
0.414466 0.880552 0.129488
0.461006 0.878752 0.130343
0.509911 0.876432 0.131319
0.559350 0.873564 0.132082
0.607385 0.870390 0.133364
0.652583 0.867124 0.134340
0.695094 0.863859 0.136294
0.735195 0.860655 0.138216
0.773312 0.857603 0.141024
0.810727 0.854520 0.144442
0.849454 0.851072 0.148379
0.891478 0.846891 0.152346
0.936339 0.841886 0.156283
0.969696 0.829648 0.166964
0.986755 0.807645 0.183780
1.000000 0.787137 0.200107
1.000000 0.767788 0.215396
1.000000 0.749935 0.231205
1.000000 0.733944 0.248264
1.000000 0.719509 0.264714
1.000000 0.706722 0.281559
1.000000 0.695338 0.298039
1.000000 0.686000 0.314977
0.182101 0.905608 0.136721
0.188266 0.905882 0.137270
0.196384 0.906096 0.137789
0.212985 0.906004 0.138155
0.236271 0.905638 0.138674
0.264042 0.904997 0.139345
0.295811 0.904112 0.139559
0.330541 0.903014 0.140139
0.368658 0.901701 0.141054
0.409827 0.900206 0.142580
0.454566 0.898283 0.143557
0.501488 0.895933 0.145113
0.548974 0.893126 0.146304
0.595636 0.890043 0.147799
0.639734 0.886839 0.149538
0.681422 0.883635 0.151888
0.720760 0.880461 0.154910
0.758206 0.877409 0.158114
0.794491 0.874357 0.162448
0.831418 0.871061 0.166720
0.870634 0.867247 0.171908
0.913359 0.862577 0.177340
0.956176 0.857542 0.183230
0.986023 0.846220 0.193759
0.998230 0.823026 0.206424
1.000000 0.802792 0.222599
1.000000 0.783658 0.238865
1.000000 0.765866 0.254887
1.000000 0.750027 0.272831
1.000000 0.736019 0.290471
1.000000 0.724025 0.307958
1.000000 0.714351 0.325628
0.193881 0.924712 0.155673
0.199924 0.924926 0.156313
0.207248 0.924956 0.156893
0.222263 0.924743 0.157046
0.243320 0.924224 0.157351
0.269047 0.923461 0.157809
0.298772 0.922423 0.158175
0.331701 0.921141 0.158785
0.368200 0.919615 0.159304
0.407599 0.917815 0.160433
0.450019 0.915618 0.161440
0.494606 0.913115 0.162692
0.540002 0.910216 0.164126
0.584771 0.906981 0.165347
0.627436 0.903593 0.167361
0.667750 0.900206 0.169345
0.706050 0.896788 0.172091
0.742519 0.893523 0.175479
0.777768 0.890410 0.179782
0.812985 0.887266 0.184878
0.849851 0.883726 0.190585
0.889586 0.879484 0.196780
0.931487 0.874479 0.203037
0.970977 0.869444 0.209537
0.997131 0.859251 0.219425
1.000000 0.837705 0.234165
1.000000 0.818235 0.250309
1.000000 0.799649 0.266484
1.000000 0.782467 0.283055
1.000000 0.767117 0.300969
1.000000 0.754116 0.319249
1.000000 0.743801 0.337743
0.205386 0.938231 0.173129
0.210391 0.938354 0.174014
0.216953 0.938384 0.174655
0.230564 0.938140 0.174960
0.250187 0.937652 0.175235
0.274052 0.936919 0.175784
0.301946 0.935973 0.176394
0.333196 0.934783 0.177188
0.367864 0.933379 0.178195
0.405554 0.931670 0.179385
0.445960 0.929656 0.180941
0.488838 0.927245 0.182559
0.532433 0.924529 0.184451
0.575402 0.921508 0.186831
0.616724 0.918303 0.189181
0.656031 0.915038 0.191623
0.693355 0.911772 0.194919
0.729061 0.908537 0.198611
0.763302 0.905394 0.203311
0.797177 0.902251 0.208652
0.831846 0.898833 0.214878
0.868925 0.894835 0.221622
0.908843 0.890043 0.228092
0.948516 0.884947 0.234989
0.983825 0.880217 0.242771
1.000000 0.871550 0.252720
1.000000 0.851316 0.266270
1.000000 0.833158 0.282780
1.000000 0.815793 0.299077
1.000000 0.799893 0.315862
1.000000 0.786252 0.334264
1.000000 0.775418 0.353613
0.219577 0.949828 0.194858
0.224369 0.949889 0.195468
0.229984 0.949798 0.195987
0.241855 0.949493 0.196292
0.259251 0.948974 0.196628
0.281254 0.948211 0.196841
0.307012 0.947265 0.197452
0.336522 0.946105 0.197971
0.369146 0.944701 0.198917
0.404883 0.943053 0.200168
0.443488 0.941070 0.202090
0.484138 0.938811 0.204135
0.525658 0.936217 0.206363
0.567132 0.933318 0.209018
0.606867 0.930236 0.211551
0.644892 0.927062 0.214237
0.681117 0.923857 0.217624
0.715938 0.920653 0.221775
0.749264 0.917510 0.226596
0.781857 0.914397 0.231937
0.814939 0.911070 0.238315
0.849454 0.907347 0.245121
0.886717 0.902953 0.252323
0.925566 0.897948 0.259617
0.962310 0.892943 0.267521
0.993347 0.888701 0.276127
1.000000 0.881682 0.286259
1.000000 0.863127 0.298283
1.000000 0.846464 0.313848
1.000000 0.830961 0.330663
1.000000 0.817166 0.347997
1.000000 0.806210 0.366613
0.234623 0.958923 0.217044
0.238437 0.958923 0.217716
0.243961 0.958801 0.217777
0.254429 0.958556 0.218173
0.270542 0.958068 0.218631
0.291020 0.957458 0.219730
0.315404 0.956695 0.220859
0.343420 0.955779 0.222812
0.374975 0.954650 0.225040
0.409491 0.953246 0.227665
0.446632 0.951507 0.231083
0.485542 0.949462 0.234073
0.525170 0.947082 0.237644
0.564569 0.944427 0.241306
0.602716 0.941527 0.244999
0.638972 0.938506 0.248478
0.673915 0.935393 0.252079
0.707210 0.932280 0.256596
0.739437 0.929168 0.261784
0.770779 0.926055 0.267765
0.802182 0.922789 0.274296
0.834806 0.919158 0.281804
0.869566 0.915007 0.289189
0.906554 0.910216 0.296788
0.942931 0.905119 0.304753
0.975555 0.900420 0.312840
1.000000 0.896757 0.321416
1.000000 0.891417 0.331334
1.000000 0.875334 0.342229
1.000000 0.860838 0.357366
1.000000 0.847959 0.374792
1.000000 0.837461 0.392676
0.258305 0.967376 0.248356
0.261875 0.967285 0.248692
0.266178 0.967163 0.248966
0.275425 0.966857 0.249241
0.289525 0.966339 0.249241
0.307622 0.965698 0.250004
0.329808 0.964843 0.251102
0.355291 0.963806 0.252079
0.384253 0.962554 0.253727
0.416297 0.960998 0.256077
0.450782 0.959197 0.258488
0.487037 0.957061 0.261265
0.524010 0.954681 0.264195
0.561059 0.952026 0.267491
