cubelut/Cinematic-7.cube
# Created by Adobe Lightroom plugin Export LUT (1.18.0)
# www.johnrellis.com/lightroom/exportlut.htm
# Preset: Cinematic3
# Color profile: /Library/Application Support/Adobe/Color/Profiles/Recommended/AdobeRGB1998.icc
LUT_3D_SIZE 8
DOMAIN_MIN 0.000000 0.000000 0.000000
DOMAIN_MAX 0.903226 0.903226 0.903226
0.085725 0.106386 0.119387
0.096864 0.108583 0.123049
0.168856 0.114290 0.132479
0.311162 0.137453 0.145235
0.493141 0.182864 0.172610
0.717647 0.221256 0.220829
0.846952 0.294652 0.291569
0.934264 0.391485 0.395727
0.086946 0.118898 0.123049
0.098817 0.121645 0.123751
0.176150 0.137087 0.129549
0.314305 0.167514 0.141115
0.494118 0.213413 0.170565
0.708736 0.245518 0.215915
0.841642 0.308202 0.285283
0.931548 0.397803 0.390692
0.095155 0.200259 0.130404
0.117617 0.204746 0.130404
0.191867 0.217136 0.132540
0.347204 0.266423 0.136995
0.532555 0.308415 0.166232
0.729335 0.329503 0.214786
0.853971 0.377905 0.293065
0.939422 0.440314 0.400153
0.128725 0.365911 0.155489
0.157900 0.368292 0.155123
0.245060 0.384253 0.156680
0.380896 0.412665 0.164981
0.595789 0.454688 0.177615
0.763607 0.451972 0.212802
0.863462 0.464637 0.295720
0.944060 0.497261 0.401984
0.201480 0.559136 0.200259
0.227970 0.560143 0.200076
0.304784 0.566522 0.200412
0.429816 0.577630 0.206912
0.604395 0.579828 0.217777
0.766934 0.577844 0.249943
0.868193 0.566247 0.305791
0.950164 0.575433 0.403723
0.290593 0.704677 0.277714
0.312840 0.709682 0.282017
0.373907 0.711604 0.283482
0.475624 0.714473 0.287022
0.630701 0.710719 0.301183
0.769863 0.708888 0.324529
0.868620 0.694179 0.380713
0.953246 0.680018 0.441840
0.417151 0.806699 0.399634
0.432349 0.807126 0.401068
0.478279 0.805600 0.401556
0.556756 0.803799 0.404578
0.655756 0.800320 0.411536
0.762112 0.797604 0.428931
0.866758 0.796658 0.451362
0.950317 0.778622 0.497871
0.590600 0.874846 0.506126
0.597528 0.874632 0.506310
0.622827 0.874418 0.508263
0.666102 0.874968 0.513664
0.712245 0.872343 0.512932
0.782437 0.872404 0.527703
0.867124 0.871275 0.549859
0.954986 0.868223 0.574517
0.083101 0.109804 0.131075
0.094331 0.108980 0.132845
0.168643 0.117159 0.148928
0.311955 0.145693 0.173526
0.490181 0.189548 0.204685
0.700496 0.226596 0.245640
0.835996 0.298680 0.311559
0.926055 0.397314 0.409674
0.084016 0.118288 0.130465
0.101869 0.124849 0.137392
0.180697 0.142550 0.150546
0.319188 0.172732 0.172549
0.495705 0.218540 0.203128
0.699519 0.250614 0.242741
0.832792 0.312566 0.306462
0.923278 0.402441 0.404273
0.088167 0.203403 0.146120
0.121645 0.211490 0.155581
0.198764 0.224155 0.158907
0.350713 0.266606 0.168215
0.524437 0.306035 0.198154
0.717067 0.328130 0.240360
0.841337 0.375494 0.309880
0.930083 0.441627 0.410651
0.128481 0.366552 0.182223
0.161685 0.371527 0.184970
0.246159 0.385626 0.186160
0.372839 0.403906 0.192416
0.570703 0.440223 0.202884
0.744076 0.442115 0.234714
0.850523 0.459510 0.310277
0.935271 0.496681 0.411566
0.205844 0.559411 0.228183
0.230930 0.559686 0.227573
0.305394 0.564050 0.227054
0.424140 0.571160 0.231144
0.592889 0.572107 0.240269
0.758816 0.571496 0.270542
0.862242 0.562951 0.323461
0.944671 0.576043 0.416663
0.294011 0.700740 0.301213
0.312352 0.701625 0.301823
0.372229 0.704128 0.303227
0.473487 0.708644 0.307836
0.628290 0.707210 0.322667
0.768460 0.707485 0.346685
0.866056 0.693233 0.396826
0.950103 0.679652 0.451514
0.419593 0.801938 0.410864
0.431495 0.801144 0.410132
0.477821 0.800381 0.411261
0.557610 0.799893 0.415900
0.656184 0.797757 0.423682
0.760891 0.795041 0.439399
0.863371 0.793393 0.458900
0.946624 0.775845 0.502190
0.594141 0.872160 0.512871
0.602075 0.872313 0.513878
0.627039 0.872343 0.515984
0.669642 0.873198 0.521630
0.721126 0.873899 0.528008
0.786526 0.873045 0.539696
0.868040 0.870756 0.558190
0.953948 0.867399 0.580407
0.041016 0.124880 0.196841
0.072938 0.112062 0.197147
0.160128 0.122621 0.214389
0.306188 0.156802 0.265934
0.505180 0.191745 0.291234
0.711421 0.261173 0.337316
0.835843 0.348913 0.402686
0.923919 0.444190 0.474708
0.058930 0.144564 0.206302
0.078218 0.133944 0.210422
0.177432 0.150393 0.227634
0.321538 0.184390 0.264408
0.513359 0.233799 0.289189
0.710475 0.279728 0.333867
0.834195 0.358831 0.398444
0.923064 0.449134 0.472145
0.081544 0.207919 0.209079
0.117922 0.219944 0.219974
0.223209 0.247868 0.243534
0.366827 0.281254 0.263554
0.547509 0.318486 0.292393
0.726558 0.349340 0.334508
0.839719 0.407721 0.398932
0.926329 0.476661 0.471992
0.112093 0.375494 0.245731
0.153811 0.388342 0.253208
0.265415 0.410590 0.272923
0.402289 0.430304 0.280125
0.599847 0.448066 0.293797
0.751492 0.454932 0.335546
0.850553 0.481453 0.402075
0.933318 0.527031 0.473732
0.175998 0.566125 0.281346
0.232609 0.571405 0.303380
0.323980 0.578424 0.318761
0.444038 0.586145 0.323949
0.620966 0.585657 0.335515
0.766629 0.579248 0.361639
0.862638 0.573419 0.403113
0.941772 0.597498 0.474891
0.314305 0.706172 0.379492
0.336095 0.707179 0.383001
0.399237 0.709010 0.388434
0.497108 0.711147 0.390356
0.639612 0.709346 0.399664
0.771359 0.709590 0.417029
0.865263 0.696864 0.451575
0.949828 0.689265 0.496437
0.467445 0.802090 0.466041
0.480140 0.801511 0.466407
0.520439 0.800015 0.466438
0.587915 0.798795 0.468116
0.671168 0.797513 0.471992
0.768582 0.796323 0.485451
0.868589 0.796963 0.504143
0.948974 0.783536 0.543389
0.628046 0.870054 0.550317
0.631556 0.869841 0.548974
0.651942 0.869810 0.550256
0.690944 0.871702 0.557122
0.736172 0.872709 0.562493
0.796170 0.872953 0.573205
0.875120 0.871244 0.590570
0.955474 0.869139 0.611231
0.000000 0.142458 0.307652
0.000000 0.123507 0.311955
0.145693 0.126528 0.319554
0.296635 0.158633 0.349889
0.472297 0.233494 0.427466
0.690669 0.278599 0.457160
0.823362 0.386450 0.488563
0.912963 0.504265 0.544854
0.000000 0.177920 0.324590
0.000000 0.160006 0.327306
0.157046 0.155062 0.332250
0.312810 0.190768 0.363622
0.487282 0.260014 0.430152
0.696651 0.303502 0.455177
0.824338 0.404089 0.487617
0.913451 0.507439 0.543084
0.000000 0.272007 0.340978
0.040345 0.273167 0.349371
0.193027 0.257328 0.366155
0.355596 0.302251 0.397345
0.542840 0.344030 0.434821
0.727016 0.394263 0.457404
0.835752 0.470649 0.502403
0.920684 0.534356 0.546715
0.098726 0.379828 0.343572
0.148409 0.389624 0.353429
0.274144 0.421820 0.389044
0.435492 0.456550 0.423499
0.610224 0.466102 0.438392
0.747799 0.485054 0.463508
0.843442 0.520073 0.499489
0.926879 0.573693 0.546197
0.192844 0.566217 0.395758
0.228214 0.571160 0.402441
0.335119 0.589044 0.428656
0.484321 0.602991 0.455726
0.655024 0.604273 0.463874
0.774533 0.594537 0.473091
0.859098 0.602472 0.502525
0.936980 0.632319 0.548302
0.308415 0.708888 0.442206
0.343175 0.714382 0.452125
0.450599 0.719081 0.480964
0.559930 0.719783 0.493202
0.670924 0.719417 0.496712
0.783413 0.719234 0.506279
0.868437 0.707424 0.526299
0.949248 0.704158 0.558709
0.476753 0.802243 0.503899
0.502159 0.802335 0.510765
0.592798 0.799771 0.541802
0.641260 0.800412 0.542351
0.703609 0.801144 0.544640
0.783932 0.801236 0.554009
0.875486 0.801663 0.568505
0.949432 0.792020 0.598291
0.658534 0.869657 0.594202
0.673274 0.869261 0.602380
0.700099 0.868925 0.613245
0.721096 0.870481 0.610590
0.758846 0.872007 0.614496
0.810513 0.873228 0.621759
0.885008 0.872099 0.635889
0.957092 0.871550 0.653101
0.000000 0.183413 0.463508
0.000000 0.160494 0.466468
0.003418 0.148501 0.471046
0.278691 0.159701 0.475349
0.469612 0.220340 0.508293
0.665583 0.329412 0.553796
0.806699 0.423285 0.576776
0.902586 0.525078 0.611261
0.000000 0.219699 0.473732
0.000000 0.201297 0.476722
0.036316 0.177798 0.480476
0.289494 0.191012 0.483558
0.483558 0.251225 0.514031
0.673915 0.352850 0.555108
0.809415 0.440528 0.577630
0.903746 0.536522 0.612390
0.000000 0.330022 0.491341
0.000000 0.328985 0.496223
0.109743 0.279454 0.501915
0.324987 0.292729 0.504784
0.532982 0.345220 0.531304
0.696437 0.423102 0.556695
0.816861 0.490303 0.579004
0.906737 0.571832 0.614771
0.000000 0.451759 0.499702
0.000000 0.453681 0.503685
0.238285 0.460029 0.518334
0.407874 0.457862 0.533989
0.598199 0.497871 0.550225
0.737514 0.523064 0.564263
0.832975 0.569574 0.586053
0.915312 0.628595 0.623621
0.176669 0.560479 0.491218
0.220127 0.566278 0.496742
0.343053 0.582940 0.514946
0.528893 0.605493 0.547204
0.677638 0.616083 0.563256
0.770962 0.615900 0.568963
0.848966 0.635126 0.588800
0.927489 0.665888 0.622278
0.336431 0.697810 0.514763
0.364599 0.700343 0.519554
0.456245 0.706630 0.535424
0.593530 0.716060 0.564996
0.690852 0.721096 0.579583
0.790280 0.725368 0.591882
0.869413 0.717617 0.602686
0.943603 0.723568 0.630915
0.506920 0.796048 0.556909
0.527764 0.795682 0.561639
0.592523 0.795590 0.578943
0.679194 0.797879 0.611109
0.731868 0.800839 0.618463
0.795956 0.803708 0.624170
0.880339 0.805173 0.634791
0.948516 0.799161 0.652918
0.660945 0.865873 0.622400
0.670985 0.865782 0.626551
0.702449 0.866087 0.640558
0.758206 0.868467 0.671260
0.781399 0.870909 0.667384
0.825498 0.872984 0.671260
0.893584 0.872587 0.681361
0.957488 0.873289 0.694545
0.000000 0.240085 0.594720
0.000000 0.220127 0.595880
0.000000 0.187716 0.596887
0.254337 0.196963 0.599908
0.443549 0.229770 0.597192
0.667445 0.299840 0.620294
0.792203 0.459419 0.659052
0.889555 0.560937 0.684779
0.000000 0.272648 0.595575
0.000000 0.255283 0.596368
0.000000 0.214023 0.598627
0.259007 0.224674 0.600488
0.449744 0.256535 0.597955
0.672877 0.325200 0.621546
0.792630 0.474891 0.659327
0.890227 0.569909 0.684688
0.000000 0.381140 0.607874
0.000000 0.369543 0.608392
0.000000 0.324529 0.610925
0.288273 0.319097 0.612573
0.487831 0.345647 0.609644
0.699123 0.413733 0.632197
0.800381 0.525841 0.663386
0.895537 0.604334 0.687190
0.000000 0.493965 0.613703
0.000000 0.492988 0.615259
0.261143 0.497871 0.622797
0.366278 0.466560 0.631708
0.571405 0.486061 0.631250
0.736507 0.532891 0.650080
0.818936 0.601312 0.670771
0.906645 0.655970 0.693019
0.140261 0.613062 0.615076
0.194369 0.614252 0.617487
0.325231 0.617884 0.625452
0.504326 0.621637 0.639307
0.656886 0.616999 0.651514
0.760281 0.651545 0.662715
0.839200 0.674678 0.675410
0.919677 0.705013 0.696254
0.332158 0.700771 0.596765
0.365789 0.703914 0.601038
0.469886 0.709499 0.612970
0.611749 0.716548 0.634028
0.726284 0.729244 0.663355
0.802823 0.737789 0.677607
0.868925 0.736355 0.682795
0.937652 0.749081 0.700435
0.551934 0.791104 0.621668
0.571283 0.791623 0.626123
0.624720 0.792508 0.639063
0.694575 0.796109 0.660304
0.761898 0.804471 0.685542
0.815549 0.811246 0.695552
0.891051 0.814023 0.703212
0.951171 0.811887 0.711238
0.680568 0.862943 0.666285
0.688899 0.862974 0.669184
0.716213 0.863706 0.679500
0.757778 0.866545 0.696590
0.807462 0.870573 0.716670
0.848600 0.873228 0.722713
0.904906 0.874876 0.729091
0.959045 0.877073 0.739315
0.000000 0.301488 0.704555
0.000000 0.287877 0.706111
0.000000 0.243778 0.707057
0.192935 0.256901 0.706661
0.413703 0.277348 0.705196
0.621241 0.319188 0.697353
0.782895 0.425147 0.711025
0.881559 0.570947 0.739925
0.000000 0.327642 0.701656
0.000000 0.315435 0.703029
0.000000 0.264836 0.704707
0.197482 0.277165 0.703761
0.415442 0.296086 0.702083
0.620691 0.334813 0.693874
0.780667 0.433783 0.707698
0.877379 0.573053 0.736599
0.000000 0.418097 0.706813
0.000000 0.408911 0.707149
0.000000 0.374334 0.707973
0.234775 0.355657 0.708186
0.445930 0.372625 0.705653
0.645289 0.411109 0.698360
0.793790 0.493294 0.713710
0.883848 0.617426 0.741085
0.102754 0.532952 0.710323
0.169650 0.533043 0.710323
0.277775 0.527062 0.711360
0.339879 0.488869 0.714137
0.517601 0.492042 0.712612
0.688441 0.517235 0.708309
0.814664 0.581872 0.723445
0.892271 0.673365 0.747036
0.189456 0.625574 0.707149
0.227329 0.624598 0.707210
0.334325 0.622797 0.709133
0.503899 0.626184 0.713680
0.599420 0.602014 0.718013
0.728115 0.621851 0.716152
0.831144 0.668879 0.729122
0.906920 0.719570 0.750637
0.336767 0.736538 0.706325
0.366064 0.736233 0.707118
0.458198 0.734859 0.710231
0.582910 0.733028 0.716152
0.695857 0.733059 0.724941
0.781857 0.733211 0.735195
0.860197 0.755154 0.744259
0.929503 0.774166 0.758602
0.529320 0.795010 0.689265
0.550134 0.795010 0.691463
0.608820 0.794949 0.698146
0.685389 0.796841 0.709957
0.759976 0.802426 0.725673
0.837003 0.814420 0.746883
0.901946 0.822934 0.758877
0.949401 0.824918 0.763699
0.696773 0.858152 0.708919
0.704524 0.858579 0.711208
0.731472 0.861112 0.720211
0.769345 0.864347 0.732631
0.817227 0.868559 0.748165
0.874235 0.873899 0.766629
0.918364 0.878508 0.776150
0.960479 0.882322 0.784512
0.000000 0.366033 0.783597
0.000000 0.357610 0.784176
0.000000 0.322789 0.784329
0.136202 0.327977 0.783566
0.384649 0.349248 0.781552
0.586419 0.374365 0.778439
0.742885 0.446448 0.770382
0.866789 0.540398 0.777462
0.000000 0.387060 0.781979
0.000000 0.379492 0.782589
0.000000 0.348211 0.783047
0.150240 0.344518 0.782284
0.390509 0.365057 0.780270
0.589929 0.389593 0.777218
0.743587 0.456245 0.769070
0.866667 0.547326 0.776486
0.000000 0.459968 0.780423
0.000000 0.453773 0.780758
0.000000 0.428779 0.780728
0.210269 0.407141 0.782559
0.424201 0.426307 0.780056
0.610315 0.446723 0.776547
0.753780 0.499519 0.769467
0.873289 0.583948 0.777523
0.240452 0.567468 0.778866
0.255100 0.564294 0.779294
0.287633 0.548547 0.779477
0.345708 0.521538 0.781033
0.488624 0.514977 0.780392
0.648798 0.528801 0.777920
0.773526 0.570794 0.772519
0.887083 0.642695 0.781277
0.259800 0.636500 0.777249
0.294438 0.637720 0.777707
0.391394 0.639612 0.777646
0.528008 0.644129 0.778073
0.576196 0.611109 0.779965
0.689723 0.619532 0.778805
0.797360 0.654414 0.776181
0.906249 0.705806 0.787930
0.384955 0.734737 0.774319
0.404608 0.733730 0.774289
0.469551 0.730770 0.774502
0.564477 0.726741 0.776028
0.673487 0.728176 0.778866
0.740017 0.718227 0.784360
0.837156 0.739010 0.787533
0.928435 0.771420 0.798581
0.545281 0.822019 0.776669
0.558495 0.821347 0.776883
0.600977 0.819425 0.777920
0.665064 0.818051 0.780758
0.735225 0.818265 0.785611
0.809812 0.820096 0.793057
0.880888 0.816556 0.800534
0.943297 0.837491 0.808408
0.678370 0.873411 0.764950
0.685664 0.872984 0.765591
0.710994 0.872160 0.768429
0.752773 0.871794 0.774228
0.806699 0.872801 0.783352
0.870573 0.874632 0.795590
0.930022 0.880095 0.812711
0.960784 0.888426 0.828122
