cubelut/Cinematic-5.cube
# Created by Adobe Lightroom plugin Export LUT (1.18.0)
# www.johnrellis.com/lightroom/exportlut.htm
# Preset: Cinematic1
# Color profile: /Library/Application Support/Adobe/Color/Profiles/Recommended/AdobeRGB1998.icc
LUT_3D_SIZE 8
DOMAIN_MIN 0.000000 0.000000 0.000000
DOMAIN_MAX 0.903226 0.903226 0.903226
0.078279 0.078279 0.078279
0.169375 0.081849 0.073671
0.377325 0.109377 0.012665
0.657862 0.174807 0.000000
0.830014 0.220951 0.000000
0.917906 0.244877 0.000000
0.970886 0.256870 0.000000
1.000000 0.254185 0.000000
0.062501 0.157473 0.067048
0.149844 0.143160 0.070771
0.347387 0.188785 0.000000
0.634119 0.255222 0.000000
0.819638 0.282933 0.000000
0.912840 0.289982 0.000000
0.968322 0.290379 0.000000
1.000000 0.280705 0.000000
0.000000 0.299748 0.000000
0.144503 0.298253 0.000000
0.253880 0.239017 0.039185
0.520470 0.341924 0.000000
0.780423 0.413825 0.000000
0.894133 0.402014 0.000000
0.958923 0.382055 0.000000
0.995483 0.356786 0.000000
0.000000 0.490822 0.000000
0.119356 0.490028 0.000000
0.312383 0.487251 0.000000
0.370703 0.348028 0.000000
0.608789 0.427955 0.000000
0.857023 0.527245 0.000000
0.940795 0.496895 0.000000
0.986633 0.458076 0.000000
0.000000 0.666590 0.000000
0.000000 0.665400 0.000000
0.294011 0.660883 0.000000
0.465949 0.623987 0.000000
0.496468 0.465309 0.000000
0.651575 0.478401 0.000000
0.896147 0.583124 0.000000
0.972625 0.568139 0.000000
0.000000 0.781247 0.000000
0.000000 0.780148 0.000000
0.241855 0.776364 0.000000
0.429419 0.769619 0.000000
0.582330 0.718227 0.000000
0.631891 0.591638 0.000000
0.713436 0.538384 0.000000
0.935790 0.631159 0.000000
0.000000 0.864378 0.000000
0.000000 0.863523 0.000000
0.165866 0.860441 0.000000
0.372076 0.854887 0.000000
0.533806 0.846769 0.000000
0.680873 0.798245 0.000000
0.766873 0.717525 0.000000
0.815061 0.628412 0.000000
0.000000 0.925872 0.000000
0.000000 0.925170 0.000000
0.000000 0.922637 0.000000
0.302983 0.918059 0.000000
0.465126 0.911437 0.000000
0.614954 0.898528 0.000000
0.762264 0.870085 0.000000
0.882719 0.829313 0.000000
0.093355 0.072724 0.153994
0.149599 0.072480 0.149630
0.349462 0.000000 0.143557
0.655451 0.111025 0.139254
0.829953 0.195560 0.108553
0.917723 0.241520 0.081239
0.970306 0.261540 0.000000
1.000000 0.258427 0.000000
0.053590 0.149081 0.154665
0.151827 0.151827 0.151827
0.346441 0.173739 0.148531
0.633967 0.223636 0.123690
0.820127 0.263737 0.090455
0.912902 0.285863 0.061402
0.967895 0.293217 0.000000
0.999573 0.283574 0.000000
0.000000 0.299474 0.140291
0.123323 0.297185 0.123720
0.263828 0.251316 0.124697
0.547692 0.358221 0.070405
0.782620 0.403845 0.000000
0.894926 0.397436 0.000000
0.958862 0.381811 0.000000
0.995056 0.357031 0.000000
0.000000 0.490913 0.078614
0.000000 0.489876 0.000000
0.299931 0.486793 0.000000
0.380407 0.358312 0.076143
0.633021 0.443915 0.000000
0.858762 0.523674 0.000000
0.941375 0.494820 0.000000
0.986542 0.456672 0.000000
0.000000 0.667323 0.000000
0.000000 0.666011 0.000000
0.274693 0.661372 0.000000
0.462623 0.630854 0.000000
0.503258 0.472297 0.000000
0.668910 0.490700 0.000000
0.899962 0.585718 0.000000
0.972900 0.566400 0.000000
0.000000 0.781979 0.000000
0.000000 0.780911 0.000000
0.220218 0.777035 0.000000
0.421515 0.770169 0.000000
0.580529 0.721706 0.000000
0.634516 0.594415 0.000000
0.723232 0.545556 0.000000
0.937133 0.631586 0.000000
0.000000 0.865049 0.000000
0.000000 0.864195 0.000000
0.135195 0.861082 0.000000
0.363012 0.855436 0.000000
0.529503 0.847196 0.000000
0.679225 0.799802 0.000000
0.767300 0.718288 0.000000
0.817807 0.629938 0.000000
0.000000 0.926482 0.000000
0.000000 0.925780 0.000000
0.000000 0.923217 0.000000
0.291447 0.918578 0.000000
0.462470 0.911681 0.000000
0.616205 0.898375 0.000000
0.763394 0.869871 0.000000
0.883482 0.829007 0.000000
0.122866 0.058106 0.251957
0.155642 0.056428 0.250340
0.249546 0.066987 0.249485
0.442542 0.000000 0.285740
0.787625 0.000000 0.307256
0.906096 0.359594 0.419806
0.955505 0.407233 0.420600
0.986419 0.391974 0.374914
0.111116 0.114992 0.261631
0.159701 0.125154 0.261875
0.258061 0.131075 0.258152
0.491005 0.090211 0.300450
0.801297 0.129122 0.323217
0.902647 0.387427 0.417304
0.954101 0.417700 0.411841
0.985901 0.400946 0.367346
0.000000 0.270390 0.282078
0.102998 0.272679 0.282658
0.281254 0.281254 0.281254
0.573480 0.344366 0.316472
0.785794 0.404822 0.351049
0.889158 0.442634 0.376989
0.948486 0.455451 0.380041
0.983795 0.433448 0.340032
0.000000 0.491188 0.302556
0.000000 0.489906 0.290837
0.243778 0.482948 0.243595
0.408606 0.390753 0.221439
0.695247 0.494392 0.246769
0.859281 0.531640 0.300542
0.936004 0.523125 0.319402
0.978912 0.492256 0.287266
0.000000 0.667292 0.268467
0.000000 0.666316 0.251286
0.196811 0.661311 0.197360
0.447395 0.651972 0.183505
0.524620 0.495552 0.157626
0.722347 0.531609 0.152438
0.908812 0.606775 0.211673
0.969360 0.575097 0.194736
0.000000 0.782376 0.201816
0.000000 0.781643 0.183474
0.144350 0.777981 0.144533
0.399176 0.770718 0.124910
0.575036 0.734066 0.021729
0.643091 0.604456 0.000000
0.756222 0.570764 0.038331
0.942199 0.638666 0.000000
0.000000 0.865721 0.086763
0.000000 0.865141 0.042512
0.000000 0.862181 0.000000
0.341619 0.856443 0.000000
0.519036 0.847990 0.000000
0.674006 0.805325 0.000000
0.768612 0.720790 0.000000
0.832853 0.641260 0.000000
0.000000 0.927428 0.000000
0.000000 0.926909 0.000000
0.000000 0.924346 0.000000
0.260685 0.919677 0.000000
0.446937 0.912718 0.000000
0.604028 0.901396 0.000000
0.759548 0.871489 0.000000
0.884703 0.828824 0.000000
0.156527 0.002167 0.346868
0.178958 0.000000 0.346075
0.239811 0.000000 0.342107
0.350896 0.000000 0.350866
0.475807 0.000000 0.355718
0.814817 0.000000 0.453773
0.930999 0.348425 0.506188
0.955444 0.560510 0.609461
0.154757 0.096407 0.360937
0.179507 0.094759 0.359442
0.245365 0.088136 0.354070
0.359960 0.085023 0.359960
0.486885 0.093629 0.361761
0.826596 0.132296 0.463844
0.928985 0.422889 0.536248
0.949767 0.605097 0.638941
0.000000 0.172641 0.384527
0.080720 0.170535 0.385168
0.256291 0.213840 0.392920
0.391791 0.222171 0.391760
0.620020 0.255100 0.438972
0.849424 0.441688 0.538384
0.916747 0.624384 0.650752
0.944579 0.645045 0.653590
0.000000 0.422339 0.442512
0.000000 0.424689 0.443793
0.204349 0.433173 0.447730
0.452247 0.452247 0.452247
0.717220 0.556695 0.541070
0.843290 0.622187 0.599817
0.909148 0.652949 0.626368
0.944945 0.648981 0.617090
0.000000 0.667231 0.471901
0.000000 0.665919 0.465888
0.150484 0.659602 0.446571
0.425452 0.642603 0.425605
0.559106 0.538384 0.356695
0.781094 0.618402 0.452399
0.895781 0.672877 0.544518
0.944274 0.663416 0.550835
0.000000 0.782010 0.417090
0.000000 0.781125 0.411780
0.110597 0.776699 0.399695
0.401831 0.766110 0.402045
0.579797 0.754604 0.388434
0.657282 0.623621 0.268193
0.805936 0.620264 0.299413
0.937652 0.684657 0.413611
0.000000 0.865171 0.355383
0.000000 0.864469 0.352239
0.000000 0.860960 0.350500
0.365301 0.853391 0.365637
0.527489 0.845609 0.350561
0.670466 0.814725 0.277958
0.769863 0.725490 0.169192
0.857450 0.663233 0.203799
0.000000 0.926818 0.275547
0.000000 0.926207 0.272648
0.000000 0.923339 0.275242
0.286473 0.917693 0.286961
0.454017 0.911254 0.262638
0.601495 0.902464 0.224338
0.750790 0.874968 0.000000
0.883207 0.829953 0.000000
0.193912 0.000000 0.448402
0.210117 0.000000 0.447059
0.258305 0.000000 0.441932
0.323064 0.000000 0.431647
0.452705 0.000000 0.452644
0.591638 0.000000 0.467201
0.830900 0.000000 0.540520
0.948547 0.343999 0.575250
0.189517 0.028779 0.458412
0.207248 0.018311 0.456794
0.258701 0.000000 0.451026
0.327550 0.000000 0.440131
0.459571 0.000000 0.459480
0.596368 0.000000 0.469368
0.838834 0.153384 0.548150
0.946715 0.400946 0.591638
0.132540 0.144656 0.483223
0.177096 0.159121 0.486763
0.254582 0.158846 0.482734
0.342779 0.147860 0.471473
0.485054 0.152712 0.485054
0.612879 0.172335 0.478370
0.861021 0.375525 0.587945
0.937652 0.556451 0.653040
0.000000 0.297124 0.525109
0.000000 0.291905 0.525109
0.126497 0.270146 0.524712
0.374731 0.330022 0.532219
0.533715 0.351080 0.533654
0.712551 0.429694 0.566400
0.881621 0.624231 0.684749
0.922454 0.723293 0.745998
0.000000 0.564965 0.592370
0.000000 0.566369 0.593103
0.000000 0.572015 0.595392
0.384497 0.585016 0.599512
0.606989 0.606989 0.606989
0.799954 0.705531 0.697108
0.881651 0.751247 0.739406
0.917235 0.760830 0.746304
0.000000 0.781033 0.601282
0.000000 0.779843 0.599390
0.103304 0.774563 0.593957
0.414588 0.762112 0.593042
0.594690 0.745235 0.594751
0.675441 0.655818 0.495399
0.843229 0.721828 0.609125
0.915679 0.763760 0.681117
0.000000 0.864012 0.535302
0.000000 0.863096 0.534539
0.061128 0.858976 0.535760
0.397925 0.849393 0.552270
0.574823 0.837339 0.574914
0.693080 0.826688 0.557336
0.769039 0.733486 0.386358
0.882170 0.708278 0.434546
0.000000 0.925628 0.463233
0.000000 0.924865 0.463020
0.000000 0.921416 0.467933
0.344793 0.913237 0.495491
0.530571 0.902678 0.530785
0.640497 0.895750 0.513237
0.750759 0.877501 0.425879
0.878447 0.831449 0.312047
0.239994 0.000000 0.573877
0.253361 0.000000 0.572503
0.294530 0.000000 0.567285
0.354253 0.000000 0.557336
0.426978 0.000000 0.544945
0.569116 0.000000 0.569024
0.718990 0.000000 0.590173
0.869780 0.089052 0.619562
0.233127 0.000000 0.578088
0.247074 0.000000 0.576654
0.290715 0.000000 0.571496
0.353216 0.000000 0.561517
0.426490 0.000000 0.547753
0.572290 0.000000 0.572198
0.720485 0.000000 0.590356
0.873747 0.162081 0.623041
0.199466 0.109682 0.593347
0.218204 0.106081 0.592004
0.273838 0.091402 0.586847
0.348913 0.049195 0.577203
0.430701 0.000000 0.562066
0.584283 0.000000 0.584192
0.725795 0.000000 0.591211
0.885771 0.319127 0.639979
0.000000 0.173159 0.607904
0.000000 0.183017 0.608911
0.205661 0.220584 0.612879
0.339818 0.237156 0.609094
0.445930 0.221012 0.594568
0.608331 0.248631 0.608209
0.734707 0.288518 0.596246
0.899351 0.522210 0.686275
0.000000 0.422980 0.658259
0.000000 0.419348 0.657557
0.000000 0.406897 0.654810
0.246860 0.386206 0.648707
0.491279 0.450355 0.646723
0.646937 0.479164 0.646937
0.790646 0.562615 0.671504
0.905943 0.723995 0.767880
0.000000 0.673487 0.706111
0.000000 0.674220 0.706203
0.000000 0.677363 0.706508
0.327825 0.684382 0.706996
0.547570 0.696895 0.708858
0.717494 0.717464 0.717464
0.859220 0.801541 0.796658
0.899626 0.824063 0.817533
0.000000 0.857389 0.700801
0.000000 0.856962 0.700221
0.120851 0.854704 0.700099
0.415076 0.846342 0.703426
0.587488 0.834073 0.708858
0.713313 0.821195 0.713313
0.768368 0.750729 0.613001
0.889036 0.796506 0.714046
0.000000 0.923522 0.625086
0.000000 0.922545 0.625513
0.000000 0.918517 0.629419
0.371435 0.909972 0.643915
0.562585 0.897917 0.670222
0.694453 0.886564 0.694545
0.777066 0.878538 0.676844
0.866697 0.833402 0.537133
0.295842 0.000000 0.722316
0.307408 0.000000 0.721462
0.345159 0.000000 0.718349
0.403449 0.000000 0.712612
0.474739 0.000000 0.703578
0.568719 0.000000 0.697444
0.707851 0.000000 0.707729
0.847410 0.000000 0.718685
0.287480 0.000000 0.723171
0.299626 0.000000 0.722286
0.338964 0.000000 0.719265
0.399268 0.000000 0.713497
0.472389 0.000000 0.704524
0.566949 0.000000 0.697810
0.708461 0.000000 0.708309
0.847623 0.000000 0.718227
0.253300 0.000000 0.726772
0.268132 0.000000 0.725917
0.314733 0.000000 0.722957
0.383429 0.000000 0.717311
0.464118 0.000000 0.708248
0.560235 0.000000 0.699153
0.710628 0.000000 0.710536
0.848234 0.000000 0.716732
0.120760 0.152804 0.733822
0.165316 0.161349 0.733333
0.259953 0.177890 0.731289
0.350347 0.156741 0.725551
0.447913 0.114412 0.716487
0.547478 0.000000 0.702968
0.715175 0.086671 0.715084
0.848600 0.266941 0.715114
0.000000 0.273014 0.749630
0.000000 0.262821 0.748409
0.000000 0.245090 0.742947
0.255955 0.295048 0.738674
0.427863 0.319921 0.731472
0.548272 0.291691 0.717586
0.723323 0.346777 0.723232
0.846555 0.450233 0.717525
0.000000 0.539086 0.775326
0.000000 0.536980 0.774746
0.000000 0.529656 0.772396
0.109316 0.516411 0.767147
0.365911 0.497475 0.756161
0.596460 0.559350 0.744198
0.741756 0.589349 0.741726
0.861479 0.674556 0.763394
0.000000 0.760983 0.797543
0.000000 0.761379 0.797421
0.000000 0.763272 0.796780
0.267247 0.767178 0.795529
0.498451 0.773861 0.793668
0.669245 0.783566 0.793118
0.800565 0.800534 0.800565
0.888212 0.859739 0.857359
0.000000 0.916472 0.778073
0.000000 0.915679 0.777554
0.000000 0.912322 0.776547
0.385260 0.905119 0.778134
0.578241 0.894652 0.784665
0.706203 0.883665 0.792020
0.799130 0.874357 0.799161
0.853361 0.837888 0.720455
0.347845 0.000000 0.858061
0.357946 0.000000 0.857786
0.391852 0.000000 0.856840
0.446967 0.000000 0.855070
0.517662 0.000000 0.852354
0.599451 0.000000 0.848539
0.710994 0.000000 0.845853
0.844572 0.000000 0.844480
0.340185 0.000000 0.858213
0.350744 0.000000 0.857939
0.385657 0.000000 0.857023
0.442206 0.000000 0.855253
0.514305 0.000000 0.852537
0.597436 0.000000 0.848722
0.709529 0.000000 0.845884
0.844663 0.000000 0.844511
0.310674 0.000000 0.858976
0.322637 0.000000 0.858701
0.362127 0.000000 0.857786
0.424262 0.000000 0.856046
0.501823 0.000000 0.853330
0.589837 0.000000 0.849454
0.703975 0.000000 0.846128
0.844663 0.000000 0.844572
0.244144 0.129580 0.860594
0.260868 0.124941 0.860349
0.312535 0.105898 0.859403
0.388067 0.041108 0.857633
0.477302 0.000000 0.854856
0.575128 0.000000 0.850889
0.692531 0.000000 0.846586
0.844602 0.000000 0.844480
0.000000 0.196048 0.863890
0.000000 0.203067 0.863584
0.134463 0.228794 0.862425
0.328985 0.277562 0.859953
0.439704 0.254276 0.857023
0.553307 0.214908 0.852750
0.672328 0.141909 0.846738
0.843381 0.291417 0.843290
0.000000 0.410620 0.869139
0.000000 0.405829 0.868894
0.000000 0.387610 0.867979
0.000000 0.348180 0.865934
0.359533 0.406806 0.859648
0.549004 0.453742 0.852781
0.671168 0.425116 0.845731
0.839902 0.507073 0.839872
0.000000 0.639582 0.871214
0.000000 0.638758 0.871031
0.000000 0.635981 0.870268
0.000000 0.632624 0.868437
0.341314 0.632929 0.864439
0.524681 0.630610 0.856718
0.709407 0.677028 0.843931
0.837430 0.699489 0.837369
0.000000 0.830869 0.870848
0.000000 0.831174 0.870695
0.000000 0.832609 0.870054
0.201846 0.835813 0.868528
0.464363 0.840787 0.866056
0.635981 0.846647 0.863035
0.765499 0.852689 0.860258
0.862455 0.862455 0.862455
