cubelut/Cinematic-4.cube
# Created by Adobe Lightroom plugin Export LUT (1.18.0)
# www.johnrellis.com/lightroom/exportlut.htm
# Preset: Cinematic 9
# Color profile: /Library/Application Support/Adobe/Color/Profiles/Recommended/AdobeRGB1998.icc
LUT_3D_SIZE 32
DOMAIN_MIN 0.0 0.0 0.0
DOMAIN_MAX 1.0 1.0 1.0
0.135348 0.135348 0.135348
0.138613 0.135348 0.135256
0.143526 0.135225 0.135286
0.154574 0.135195 0.135317
0.170779 0.135164 0.135286
0.187747 0.134890 0.135378
0.205570 0.134707 0.135348
0.224399 0.134401 0.135531
0.244999 0.134035 0.135683
0.267399 0.133608 0.135653
0.292241 0.132570 0.135714
0.319890 0.131594 0.135714
0.350866 0.129915 0.135134
0.385809 0.127291 0.134676
0.425147 0.123903 0.133974
0.469795 0.118807 0.132265
0.520287 0.110750 0.129854
0.577081 0.098939 0.125887
0.638392 0.080476 0.120211
0.701534 0.041199 0.112276
0.760311 0.000000 0.103609
0.812345 0.000000 0.094392
0.856260 0.000000 0.085512
0.890501 0.000000 0.079072
0.917540 0.000000 0.074159
0.939513 0.000000 0.071321
0.957702 0.000000 0.070283
0.973144 0.000000 0.070436
0.986358 0.000000 0.071931
0.997711 0.000000 0.074495
1.000000 0.000000 0.077913
1.000000 0.000000 0.081697
0.135256 0.138796 0.135225
0.138674 0.138766 0.135317
0.143557 0.139010 0.135317
0.154757 0.139132 0.135317
0.170809 0.139132 0.135134
0.187778 0.138888 0.135225
0.205600 0.138308 0.135378
0.224430 0.138033 0.135561
0.245029 0.137697 0.135561
0.267430 0.137087 0.135714
0.292241 0.136446 0.135714
0.319921 0.135500 0.135561
0.350927 0.133852 0.135317
0.385901 0.131685 0.134829
0.425360 0.128542 0.133761
0.469947 0.124086 0.132387
0.520409 0.117159 0.129915
0.577203 0.107179 0.125704
0.638605 0.091463 0.119966
0.701717 0.068025 0.111940
0.760433 0.003052 0.103182
0.812436 0.000000 0.093935
0.856321 0.000000 0.084993
0.890501 0.000000 0.078187
0.917479 0.000000 0.073640
0.939452 0.000000 0.070771
0.957671 0.000000 0.069398
0.973083 0.000000 0.069978
0.986267 0.000000 0.071534
0.997681 0.000000 0.074159
1.000000 0.000000 0.077333
1.000000 0.000000 0.081147
0.135225 0.143832 0.135317
0.138857 0.143954 0.135378
0.143740 0.144015 0.135409
0.154757 0.144350 0.135225
0.170779 0.144350 0.135195
0.187778 0.143923 0.135286
0.205509 0.143221 0.135286
0.224369 0.142794 0.135500
0.244968 0.142458 0.135500
0.267460 0.141848 0.135805
0.292363 0.141207 0.135653
0.319982 0.140627 0.135653
0.351080 0.139040 0.135225
0.386053 0.137301 0.134859
0.425483 0.134890 0.133913
0.470192 0.130983 0.132357
0.520684 0.125673 0.129763
0.577447 0.117250 0.125521
0.638941 0.104463 0.119661
0.701869 0.086702 0.111543
0.760586 0.060639 0.102449
0.812528 0.000000 0.093050
0.856352 0.000000 0.084016
0.890471 0.000000 0.077150
0.917479 0.000000 0.072541
0.939391 0.000000 0.069795
0.957610 0.000000 0.068788
0.973022 0.000000 0.069490
0.986206 0.000000 0.070771
0.997589 0.000000 0.073457
1.000000 0.000000 0.076783
1.000000 0.000000 0.081025
0.134737 0.155306 0.135103
0.138796 0.155337 0.135164
0.144076 0.155489 0.135012
0.155215 0.155612 0.135164
0.170748 0.155520 0.135012
0.187503 0.154574 0.135164
0.205417 0.153597 0.135378
0.224430 0.152834 0.135592
0.244968 0.152224 0.135622
0.267552 0.151614 0.135775
0.292515 0.151186 0.135775
0.320287 0.150607 0.135592
0.351293 0.149935 0.135439
0.386358 0.148989 0.134829
0.425910 0.147341 0.133822
0.470680 0.145144 0.132296
0.521233 0.141421 0.129610
0.577996 0.136141 0.125154
0.639460 0.127657 0.118715
0.702327 0.116274 0.110567
0.760891 0.102052 0.101198
0.812711 0.084901 0.091585
0.856413 0.066194 0.082277
0.890440 0.031495 0.075380
0.917388 0.000000 0.070405
0.939300 0.000000 0.067628
0.957458 0.000000 0.066438
0.972869 0.000000 0.067292
0.986053 0.000000 0.069215
0.997436 0.000000 0.071839
1.000000 0.000000 0.075380
1.000000 0.006653 0.079500
0.134188 0.171328 0.134829
0.138308 0.171237 0.134920
0.143801 0.171206 0.134920
0.154635 0.171206 0.134951
0.170230 0.170993 0.134981
0.187411 0.169650 0.134981
0.205264 0.168215 0.135256
0.224308 0.167117 0.135683
0.245090 0.166201 0.135744
0.267643 0.165835 0.136049
0.292668 0.165530 0.135866
0.320623 0.165377 0.135805
0.351812 0.165438 0.135561
0.386908 0.165408 0.134890
0.426459 0.165103 0.133913
0.471229 0.164584 0.132021
0.521965 0.163027 0.129152
0.578851 0.160403 0.124239
0.640314 0.156100 0.117617
0.703059 0.150149 0.108827
0.761379 0.142184 0.099062
0.813107 0.133120 0.088716
0.856504 0.123049 0.079103
0.890410 0.113985 0.071839
0.917235 0.105501 0.066835
0.939086 0.098573 0.064210
0.957244 0.093446 0.063203
0.972625 0.089540 0.064118
0.985809 0.087831 0.066377
0.997162 0.087922 0.069825
1.000000 0.089693 0.073304
1.000000 0.093355 0.077790
0.133486 0.188113 0.134798
0.137575 0.188144 0.134829
0.142733 0.188052 0.134890
0.153323 0.187961 0.134920
0.168460 0.187625 0.134981
0.186374 0.187442 0.135042
0.205112 0.186038 0.135286
0.224247 0.184543 0.135622
0.245029 0.183474 0.136019
0.267765 0.183078 0.136324
0.293004 0.183017 0.136263
0.321050 0.183352 0.135958
0.352270 0.184146 0.135653
0.387579 0.185153 0.135134
0.427253 0.186313 0.133822
0.472267 0.187320 0.131716
0.523003 0.188052 0.128359
0.579889 0.188388 0.123262
0.641260 0.187442 0.115999
0.704005 0.185183 0.106416
0.762051 0.181369 0.096010
0.813504 0.175692 0.085084
0.856657 0.169497 0.074495
0.890349 0.162875 0.066865
0.917052 0.156710 0.061646
0.938842 0.150668 0.058808
0.956939 0.146029 0.058656
0.972320 0.141787 0.060029
0.985473 0.139071 0.062440
0.996826 0.136965 0.066163
1.000000 0.136233 0.070649
1.000000 0.136690 0.075624
0.132815 0.206271 0.134829
0.136751 0.206088 0.134920
0.141726 0.206149 0.134951
0.152010 0.205997 0.135195
0.166629 0.205875 0.135256
0.184329 0.205570 0.135500
0.204044 0.205325 0.135409
0.224277 0.204227 0.135653
0.245304 0.203037 0.135927
0.268101 0.202670 0.136385
0.293309 0.203037 0.136782
0.321477 0.203983 0.136568
0.352941 0.205478 0.136110
0.388403 0.207492 0.135256
0.428290 0.209812 0.133730
0.473335 0.212558 0.131319
0.524224 0.215366 0.127413
0.581323 0.218082 0.121614
0.642725 0.220188 0.113466
0.705074 0.220951 0.103365
0.762875 0.220035 0.091798
0.813993 0.216983 0.079927
0.856779 0.212558 0.068391
0.890227 0.207034 0.059785
0.916808 0.201328 0.050629
0.938476 0.195621 0.047089
0.956542 0.190524 0.047089
0.971893 0.185733 0.050721
0.985046 0.181643 0.056458
0.996368 0.178683 0.061769
1.000000 0.176150 0.066712
1.000000 0.174716 0.072053
0.131807 0.225711 0.135286
0.135592 0.225681 0.135195
0.140627 0.225711 0.135225
0.150637 0.225620 0.135286
0.165225 0.225559 0.135348
0.182620 0.225437 0.135592
0.202365 0.225315 0.135836
0.223575 0.225223 0.135927
0.245426 0.224521 0.136263
0.268711 0.224186 0.136019
0.294072 0.224796 0.136721
0.322118 0.226291 0.137057
0.353674 0.228550 0.136599
0.389227 0.231540 0.135409
0.429358 0.235264 0.133730
0.474678 0.239475 0.130648
0.525811 0.244327 0.126009
0.582971 0.249393 0.119356
0.644282 0.254185 0.110323
0.706477 0.257389 0.098909
0.763882 0.258396 0.086213
0.814572 0.257298 0.072847
0.856992 0.254063 0.059358
0.890135 0.249119 0.042786
0.916472 0.243412 0.030884
0.938048 0.237583 0.027710
0.956054 0.231907 0.028412
0.971374 0.226383 0.033906
0.984497 0.221592 0.043091
0.995850 0.217227 0.053559
1.000000 0.213748 0.061646
1.000000 0.210697 0.068086
0.130159 0.247349 0.135592
0.134005 0.247318 0.135500
0.138888 0.247349 0.135531
0.149081 0.247288 0.135622
0.163790 0.247379 0.135653
0.181186 0.247288 0.135897
0.201083 0.247379 0.135927
0.222629 0.247440 0.136141
0.245457 0.247562 0.136507
0.269047 0.247471 0.136690
0.294987 0.248325 0.136110
0.323278 0.250126 0.136355
0.354894 0.253208 0.136202
0.390387 0.257176 0.135439
0.430640 0.262089 0.133089
0.476143 0.267979 0.129519
0.527489 0.274510 0.124331
0.584924 0.281895 0.116579
0.646235 0.288792 0.106447
0.708095 0.294377 0.093629
0.764950 0.297337 0.078920
0.815244 0.297368 0.062470
0.857145 0.294774 0.037110
0.889921 0.290318 0.015564
0.916106 0.284337 0.005493
0.937560 0.277836 0.003601
0.955505 0.271580 0.006256
0.970733 0.265568 0.012573
0.983856 0.259709 0.023987
0.995209 0.254490 0.038483
1.000000 0.249790 0.052796
1.000000 0.245640 0.063050
0.127810 0.271305 0.135622
0.131685 0.271336 0.135683
0.136904 0.271366 0.135531
0.147372 0.271458 0.135592
0.162234 0.271550 0.135775
0.180423 0.271641 0.135805
0.200504 0.271794 0.135988
0.222538 0.272038 0.136141
0.245853 0.272374 0.136263
0.270268 0.272740 0.136324
0.295506 0.273045 0.136385
0.324529 0.275517 0.135225
0.356603 0.279210 0.134493
0.392126 0.284001 0.133791
0.432349 0.290227 0.131685
0.477913 0.297520 0.128115
0.529595 0.306065 0.121920
0.587121 0.315312 0.112917
0.648280 0.324437 0.101320
0.709712 0.331792 0.086366
0.766171 0.336065 0.068574
0.815946 0.337316 0.040101
0.857267 0.335241 0.003571
0.889677 0.330541 0.000000
0.915618 0.324407 0.000000
0.936950 0.317540 0.000000
0.954803 0.310552 0.000000
0.970031 0.303655 0.000000
0.983124 0.296910 0.001862
0.994476 0.290745 0.017609
1.000000 0.285069 0.035981
1.000000 0.279789 0.053651
0.124147 0.298192 0.135256
0.128359 0.298222 0.135317
0.133700 0.298314 0.135317
0.144808 0.298436 0.135348
0.160494 0.298558 0.135348
0.179232 0.298894 0.135317
0.200351 0.299229 0.135256
0.222934 0.299657 0.135348
0.247105 0.300145 0.135195
0.272313 0.300725 0.135164
0.298528 0.301457 0.134859
0.325505 0.302159 0.134646
0.358129 0.306615 0.132570
0.394476 0.312383 0.130190
0.434882 0.319677 0.128267
0.480446 0.328405 0.124727
0.531823 0.338567 0.118349
0.589349 0.349767 0.108644
0.650568 0.360815 0.094636
0.711574 0.369909 0.076478
0.767453 0.375311 0.050507
0.816648 0.377173 0.000458
0.857389 0.375463 0.000000
0.889372 0.370550 0.000000
0.915099 0.364080 0.000000
0.936248 0.356542 0.000000
0.954009 0.348821 0.000000
0.969207 0.341100 0.000000
0.982300 0.333532 0.000000
0.993591 0.326421 0.000000
1.000000 0.319677 0.015015
1.000000 0.313634 0.037049
0.118379 0.328649 0.133791
0.122805 0.328740 0.133852
0.128878 0.328740 0.133883
0.140841 0.328893 0.133852
0.157809 0.329198 0.133639
0.177646 0.329564 0.133547
0.199924 0.330144 0.133394
0.223911 0.330724 0.133181
0.249119 0.331456 0.132906
0.275486 0.332280 0.132540
0.302739 0.333227 0.132204
0.330938 0.334325 0.131563
0.359564 0.335180 0.131075
0.396368 0.342016 0.127596
0.437751 0.350591 0.122896
0.483528 0.360510 0.118807
0.535241 0.372381 0.111818
0.592493 0.385351 0.101106
0.652979 0.397925 0.085786
0.713558 0.408453 0.062806
0.768795 0.414923 0.008667
0.817380 0.417243 0.000000
0.857420 0.415503 0.000000
0.888975 0.410315 0.000000
0.914458 0.403265 0.000000
0.935424 0.395239 0.000000
0.953124 0.386633 0.000000
0.968261 0.378119 0.000000
0.981292 0.369848 0.000000
0.992645 0.361700 0.000000
1.000000 0.354101 0.000000
1.000000 0.346960 0.016144
0.109255 0.363043 0.130831
0.114382 0.363195 0.130861
0.121370 0.363287 0.130861
0.134981 0.363409 0.130831
0.153536 0.363867 0.130495
0.175448 0.364324 0.130343
0.199252 0.365026 0.130068
0.224704 0.365850 0.129702
0.251560 0.366705 0.129244
0.279332 0.367803 0.128634
0.308080 0.369055 0.127871
0.337621 0.370397 0.126925
0.368109 0.372076 0.125704
0.399481 0.373846 0.124269
0.439918 0.382422 0.118990
0.486915 0.394202 0.110964
0.539178 0.407568 0.101534
0.596277 0.422095 0.088594
0.656489 0.436164 0.069337
0.715938 0.447669 0.022065
0.770199 0.454749 0.000000
0.818082 0.457496 0.000000
0.857389 0.455604 0.000000
0.888518 0.450019 0.000000
0.913664 0.442329 0.000000
0.934508 0.433478 0.000000
0.952117 0.424292 0.000000
0.967193 0.414893 0.000000
0.980224 0.405646 0.000000
0.991547 0.396674 0.000000
1.000000 0.388190 0.000000
1.000000 0.380163 0.000000
0.094301 0.402258 0.125765
0.101228 0.402319 0.125765
0.109529 0.402502 0.125551
0.125948 0.402777 0.125429
0.147158 0.403204 0.125216
0.171695 0.403815 0.124910
0.198123 0.404669 0.124269
0.225681 0.405707 0.123659
0.254398 0.406744 0.122957
0.283970 0.408209 0.121798
0.314549 0.409705 0.120638
0.345861 0.411505 0.119020
0.377966 0.413428 0.117281
0.411048 0.415625 0.115145
0.444984 0.418006 0.112581
0.489662 0.428717 0.104005
0.542870 0.444038 0.089296
0.600671 0.460334 0.068696
0.660487 0.475502 0.021729
0.718837 0.487678 0.000000
0.772000 0.495064 0.000000
0.818845 0.497902 0.000000
0.857328 0.495644 0.000000
0.887938 0.489601 0.000000
0.912779 0.481270 0.000000
0.933471 0.471687 0.000000
0.950988 0.461616 0.000000
0.966033 0.451362 0.000000
0.979034 0.441260 0.000000
0.990356 0.431434 0.000000
1.000000 0.422034 0.000000
1.000000 0.413062 0.000000
0.066896 0.446998 0.116884
0.077302 0.447089 0.116915
0.089754 0.447181 0.116854
0.111330 0.447547 0.116426
0.137453 0.448157 0.116060
0.165896 0.448981 0.115297
0.195560 0.449928 0.114595
0.226169 0.451026 0.113497
0.257298 0.452399 0.112337
0.289281 0.454108 0.110628
0.321935 0.456001 0.108827
0.355383 0.458076 0.106416
0.389502 0.460395 0.103761
0.424628 0.463050 0.100221
0.460548 0.465827 0.096254
0.497505 0.469001 0.091310
0.546227 0.481361 0.075654
0.604547 0.499336 0.024262
0.664790 0.516075 0.000000
0.721981 0.528557 0.000000
0.774105 0.536004 0.000000
0.819944 0.538659 0.000000
0.857267 0.535882 0.000000
0.887205 0.529076 0.000000
0.911803 0.519982 0.000000
0.932280 0.509606 0.000000
0.949706 0.498665 0.000000
0.964691 0.487648 0.000000
0.977691 0.476692 0.000000
0.989014 0.466011 0.000000
0.998932 0.455756 0.000000
1.000000 0.445808 0.000000
0.000000 0.497993 0.102266
0.000000 0.498207 0.102174
0.032959 0.498360 0.101839
0.084871 0.498726 0.101472
0.121553 0.499275 0.100679
0.156741 0.500237 0.099489
0.190921 0.501366 0.098299
0.225284 0.502770 0.096529
0.259983 0.504356 0.094331
0.294743 0.506310 0.091859
0.330205 0.508354 0.088624
0.366155 0.510857 0.084535
0.402594 0.513512 0.079896
0.439979 0.516533 0.073610
0.478126 0.519738 0.065644
0.517174 0.523247 0.053010
0.557092 0.526848 0.026825
0.607996 0.539300 0.000000
0.668116 0.557183 0.000000
0.725246 0.570306 0.000000
0.776303 0.577630 0.000000
0.821012 0.579706 0.000000
0.857359 0.576104 0.000000
0.886595 0.568536 0.000000
0.910704 0.558709 0.000000
0.930999 0.547509 0.000000
0.948333 0.535698 0.000000
0.963256 0.523796 0.000000
0.976226 0.511925 0.000000
0.987579 0.500389 0.000000
0.997498 0.489143 0.000000
1.000000 0.478431 0.000000
0.000000 0.555749 0.074983
0.000000 0.555901 0.074525
0.000000 0.556085 0.074586
0.000000 0.556603 0.073396
0.093446 0.557275 0.072236
0.141482 0.558343 0.070039
0.183261 0.559564 0.067628
0.223056 0.560906 0.063752
0.261662 0.562737 0.059083
0.300023 0.564660 0.049378
0.338476 0.566979 0.035187
0.377111 0.569451 0.015930
0.416144 0.572290 0.000000
0.455695 0.575219 0.000000
0.495918 0.578363 0.000000
0.536706 0.581750 0.000000
0.578210 0.585138 0.000000
0.620630 0.588830 0.000000
0.671260 0.599054 0.000000
0.727504 0.612421 0.000000
0.778256 0.619776 0.000000
0.822049 0.621149 0.000000
0.857267 0.616510 0.000000
0.885924 0.607996 0.000000
0.909636 0.597192 0.000000
0.929656 0.585107 0.000000
0.946807 0.572534 0.000000
0.961669 0.559777 0.000000
0.974640 0.547021 0.000000
0.985992 0.534539 0.000000
0.995941 0.522515 0.000000
1.000000 0.510857 0.000000
0.000000 0.618219 0.000000
0.000000 0.618311 0.000000
0.000000 0.618555 0.000000
0.000000 0.618921 0.000000
0.000000 0.619623 0.000000
0.116762 0.620478 0.000000
0.170932 0.621637 0.000000
0.217441 0.622980 0.000000
0.261204 0.624567 0.000000
0.303410 0.626429 0.000000
0.345006 0.628534 0.000000
0.386389 0.630732 0.000000
0.427771 0.633173 0.000000
0.469368 0.635767 0.000000
0.511192 0.638453 0.000000
0.553307 0.641138 0.000000
0.596002 0.643977 0.000000
0.638911 0.646632 0.000000
0.682185 0.649287 0.000000
0.729702 0.655116 0.000000
0.779568 0.662135 0.000000
0.822568 0.662837 0.000000
0.857145 0.657160 0.000000
0.885130 0.647578 0.000000
0.908446 0.635645 0.000000
0.928191 0.622644 0.000000
0.945220 0.609125 0.000000
0.960021 0.595483 0.000000
0.972900 0.581964 0.000000
0.984283 0.568597 0.000000
0.994232 0.555627 0.000000
1.000000 0.543114 0.000000
0.000000 0.680873 0.000000
0.000000 0.680995 0.000000
0.000000 0.681086 0.000000
0.000000 0.681544 0.000000
0.000000 0.682002 0.000000
0.073243 0.682734 0.000000
0.152255 0.683558 0.000000
0.208103 0.684565 0.000000
0.257450 0.685786 0.000000
0.303410 0.687068 0.000000
0.348119 0.688533 0.000000
0.391791 0.690028 0.000000
0.435096 0.691707 0.000000
0.478157 0.693385 0.000000
0.520958 0.695155 0.000000
0.563897 0.696803 0.000000
0.606897 0.698482 0.000000
0.649928 0.700038 0.000000
0.693172 0.701534 0.000000
0.736385 0.702846 0.000000
0.780789 0.704952 0.000000
0.822660 0.704707 0.000000
0.856504 0.697902 0.000000
0.884215 0.687190 0.000000
0.907134 0.674189 0.000000
0.926665 0.660121 0.000000
0.943572 0.645563 0.000000
0.958251 0.631006 0.000000
0.971130 0.616541 0.000000
0.982452 0.602380 0.000000
0.992462 0.588617 0.000000
1.000000 0.575311 0.000000
0.000000 0.738186 0.000000
0.000000 0.738247 0.000000
0.000000 0.738369 0.000000
0.000000 0.738552 0.000000
0.000000 0.738888 0.000000
0.000000 0.739284 0.000000
0.126741 0.739773 0.000000
0.194553 0.740352 0.000000
0.249546 0.741085 0.000000
0.299474 0.741787 0.000000
0.346654 0.742550 0.000000
0.392370 0.743374 0.000000
0.437018 0.744228 0.000000
0.481056 0.745113 0.000000
0.524681 0.745846 0.000000
0.567956 0.746548 0.000000
0.611078 0.747219 0.000000
0.653986 0.747799 0.000000
0.696773 0.748104 0.000000
0.739254 0.748226 0.000000
0.781491 0.748013 0.000000
0.822446 0.746700 0.000000
0.855528 0.738766 0.000000
0.882750 0.726864 0.000000
0.905638 0.712764 0.000000
0.924987 0.697536 0.000000
0.941741 0.681971 0.000000
0.956390 0.666407 0.000000
0.969238 0.651026 0.000000
0.980560 0.635950 0.000000
0.990539 0.621363 0.000000
0.999390 0.607263 0.000000
0.000000 0.788083 0.000000
0.000000 0.788083 0.000000
0.000000 0.788113 0.000000
0.000000 0.788266 0.000000
0.000000 0.788327 0.000000
0.000000 0.788479 0.000000
0.090822 0.788602 0.000000
0.177310 0.788846 0.000000
0.238743 0.788968 0.000000
0.291844 0.789151 0.000000
0.341161 0.789303 0.000000
0.388312 0.789364 0.000000
0.433875 0.789425 0.000000
0.478553 0.789303 0.000000
0.522332 0.789120 0.000000
0.565576 0.788785 0.000000
0.608301 0.788235 0.000000
0.650568 0.787564 0.000000
0.692409 0.786679 0.000000
0.733852 0.785550 0.000000
0.774807 0.784176 0.000000
0.815427 0.782589 0.000000
0.854337 0.779568 0.000000
0.881132 0.766445 0.000000
0.903716 0.751247 0.000000
0.923064 0.734951 0.000000
0.939788 0.718318 0.000000
0.954376 0.701686 0.000000
0.967224 0.685328 0.000000
0.978546 0.669398 0.000000
0.988556 0.653895 0.000000
0.997406 0.638941 0.000000
0.000000 0.828458 0.000000
0.000000 0.828458 0.000000
0.000000 0.828397 0.000000
0.000000 0.828367 0.000000
0.000000 0.828244 0.000000
0.000000 0.828122 0.000000
0.000000 0.827878 0.000000
0.157198 0.827634 0.000000
0.225010 0.827329 0.000000
0.281193 0.826902 0.000000
0.332006 0.826444 0.000000
0.380133 0.825834 0.000000
0.426123 0.825162 0.000000
0.470710 0.824338 0.000000
0.514336 0.823362 0.000000
0.557305 0.822232 0.000000
0.599390 0.820920 0.000000
0.640986 0.819486 0.000000
0.682002 0.817868 0.000000
0.722560 0.815976 0.000000
0.762600 0.813931 0.000000
0.802090 0.811643 0.000000
0.841123 0.809201 0.000000
0.879240 0.806119 0.000000
0.901579 0.789731 0.000000
0.920806 0.772396 0.000000
0.937591 0.754635 0.000000
0.952239 0.736934 0.000000
0.965057 0.719570 0.000000
0.976379 0.702663 0.000000
0.986419 0.686305 0.000000
0.995331 0.670466 0.000000
0.000000 0.859434 0.000000
0.000000 0.859403 0.000000
0.000000 0.859342 0.000000
0.000000 0.859159 0.000000
0.000000 0.858915 0.000000
0.000000 0.858640 0.000000
0.000000 0.858213 0.000000
0.135744 0.857725 0.000000
0.210208 0.857115 0.000000
0.268681 0.856382 0.000000
0.320623 0.855558 0.000000
0.369085 0.854582 0.000000
0.415198 0.853483 0.000000
0.459846 0.852201 0.000000
0.502983 0.850828 0.000000
0.545403 0.849271 0.000000
0.586969 0.847532 0.000000
0.627893 0.845640 0.000000
0.668177 0.843565 0.000000
0.707851 0.841306 0.000000
0.747005 0.838865 0.000000
0.785641 0.836179 0.000000
0.823697 0.833371 0.000000
0.861173 0.830350 0.000000
0.898558 0.827420 0.000000
0.918425 0.809628 0.000000
0.935119 0.790860 0.000000
0.949798 0.772152 0.000000
0.962737 0.753719 0.000000
0.974121 0.735805 0.000000
0.984192 0.718532 0.000000
0.993103 0.701900 0.000000
0.000000 0.883879 0.000000
0.000000 0.883818 0.000000
0.000000 0.883726 0.000000
0.000000 0.883513 0.000000
0.000000 0.883238 0.000000
0.000000 0.882841 0.000000
0.000000 0.882292 0.000000
0.112947 0.881651 0.000000
0.195651 0.880888 0.000000
0.255955 0.879973 0.000000
0.308537 0.878965 0.000000
0.357031 0.877775 0.000000
0.403021 0.876432 0.000000
0.447181 0.874968 0.000000
0.489998 0.873320 0.000000
0.531731 0.871550 0.000000
0.572717 0.869566 0.000000
0.612848 0.867460 0.000000
0.652399 0.865171 0.000000
0.691310 0.862669 0.000000
0.729580 0.860014 0.000000
0.767300 0.857206 0.000000
0.804532 0.854185 0.000000
0.841245 0.850980 0.000000
0.877348 0.847623 0.000000
0.913054 0.844266 0.000000
0.932494 0.826871 0.000000
0.947173 0.807187 0.000000
0.960143 0.787839 0.000000
0.971649 0.768917 0.000000
0.981811 0.750698 0.000000
0.990814 0.733120 0.000000
0.000000 0.903655 0.000000
0.000000 0.903593 0.000000
0.000000 0.903471 0.000000
0.000000 0.903288 0.000000
0.000000 0.902922 0.000000
0.000000 0.902464 0.000000
0.000000 0.901884 0.000000
0.088716 0.901183 0.000000
0.181064 0.900328 0.000000
0.243351 0.899321 0.000000
0.296178 0.898222 0.000000
0.344793 0.896941 0.000000
0.390448 0.895506 0.000000
0.434028 0.893919 0.000000
0.476265 0.892180 0.000000
0.517327 0.890288 0.000000
0.557610 0.888212 0.000000
0.597040 0.885985 0.000000
0.635737 0.883574 0.000000
0.673854 0.881041 0.000000
0.711360 0.878294 0.000000
0.748257 0.875395 0.000000
0.784726 0.872313 0.000000
0.820523 0.869108 0.000000
0.855894 0.865660 0.000000
0.890654 0.862119 0.000000
0.924895 0.858396 0.000000
0.944396 0.842069 0.000000
0.957397 0.821714 0.000000
0.968963 0.801938 0.000000
0.979248 0.782712 0.000000
0.988373 0.764218 0.000000
0.000000 0.920104 0.000000
0.000000 0.920012 0.000000
0.000000 0.919890 0.000000
0.000000 0.919677 0.000000
0.000000 0.919310 0.000000
0.000000 0.918853 0.000000
0.000000 0.918273 0.000000
0.062104 0.917510 0.000000
0.168368 0.916625 0.000000
0.231388 0.915618 0.000000
0.284611 0.914427 0.000000
0.332769 0.913115 0.000000
0.377935 0.911650 0.000000
0.421027 0.910002 0.000000
0.462470 0.908232 0.000000
0.502892 0.906310 0.000000
0.542382 0.904173 0.000000
0.580957 0.901946 0.000000
0.618952 0.899504 0.000000
0.656184 0.896941 0.000000
0.692927 0.894163 0.000000
0.729061 0.891264 0.000000
0.764645 0.888182 0.000000
0.799680 0.884977 0.000000
0.834195 0.881590 0.000000
0.868223 0.878050 0.000000
0.901701 0.874357 0.000000
0.934691 0.870512 0.000000
0.954498 0.855467 0.000000
0.966155 0.834745 0.000000
0.976501 0.814664 0.000000
0.985718 0.795285 0.000000
0.000000 0.933928 0.000000
0.000000 0.933837 0.000000
0.000000 0.933745 0.000000
0.000000 0.933532 0.000000
0.000000 0.933165 0.000000
0.000000 0.932677 0.000000
0.000000 0.932067 0.000000
0.010925 0.931304 0.000000
0.156649 0.930419 0.000000
0.220951 0.929412 0.000000
0.273930 0.928222 0.000000
0.321569 0.926909 0.000000
0.366003 0.925444 0.000000
0.408331 0.923796 0.000000
0.449104 0.922026 0.000000
0.488685 0.920073 0.000000
0.527337 0.917998 0.000000
0.565179 0.915740 0.000000
0.602319 0.913329 0.000000
0.638788 0.910765 0.000000
0.674647 0.908049 0.000000
0.709987 0.905180 0.000000
0.744778 0.902159 0.000000
0.779049 0.898955 0.000000
0.812802 0.895659 0.000000
0.846036 0.892180 0.000000
0.878752 0.888579 0.000000
0.911040 0.884825 0.000000
0.942809 0.880919 0.000000
0.963165 0.867338 0.000000
0.973632 0.846372 0.000000
0.982910 0.826200 0.000000
0.000000 0.945678 0.000000
0.000000 0.945617 0.000000
0.000000 0.945525 0.000000
0.000000 0.945281 0.000000
0.000000 0.944945 0.000000
0.000000 0.944457 0.000000
0.000000 0.943847 0.000000
0.000000 0.943114 0.000000
0.147311 0.942229 0.000000
0.212009 0.941222 0.000000
0.264408 0.940063 0.000000
0.311254 0.938750 0.000000
0.354925 0.937285 0.000000
0.396460 0.935698 0.000000
