cubelut/Cinematic-6.cube
# Created by Adobe Lightroom plugin Export LUT (1.18.0)
# www.johnrellis.com/lightroom/exportlut.htm
# Preset: Cinematic2
# Color profile: /Library/Application Support/Adobe/Color/Profiles/Recommended/AdobeRGB1998.icc
LUT_3D_SIZE 5
DOMAIN_MIN 0.000000 0.000000 0.000000
DOMAIN_MAX 0.903226 0.903226 0.903226
0.135348 0.135348 0.135348
0.232029 0.134463 0.134279
0.454536 0.128786 0.126558
0.848905 0.073579 0.044160
0.994537 0.011017 0.000000
0.135439 0.230442 0.133272
0.232242 0.230045 0.132723
0.460639 0.248417 0.121004
0.850156 0.281376 0.000000
0.992706 0.242191 0.000000
0.119875 0.466926 0.096742
0.255589 0.471687 0.089479
0.496162 0.489021 0.032563
0.852323 0.555962 0.000000
0.986053 0.480934 0.000000
0.000000 0.842405 0.000000
0.257542 0.840879 0.000000
0.555352 0.834318 0.000000
0.831937 0.819730 0.000000
0.973754 0.714992 0.000000
0.000000 0.957733 0.000000
0.195895 0.955077 0.000000
0.463111 0.945739 0.000000
0.699733 0.928985 0.000000
0.920439 0.904631 0.000000
0.134981 0.134646 0.224247
0.232181 0.133700 0.225772
0.466804 0.058167 0.225559
0.858701 0.000000 0.184604
0.995941 0.000000 0.164004
0.135897 0.230594 0.225559
0.232578 0.228855 0.221836
0.472358 0.223941 0.212253
0.858854 0.198978 0.172763
0.993957 0.176028 0.156252
0.000000 0.473548 0.219181
0.213779 0.481941 0.183627
0.504631 0.495796 0.167514
0.858030 0.538018 0.117433
0.986755 0.461524 0.125765
0.000000 0.848081 0.000000
0.140261 0.846738 0.000000
0.535912 0.838315 0.000000
0.834134 0.820859 0.000000
0.973846 0.707790 0.000000
0.000000 0.959594 0.000000
0.100710 0.956817 0.000000
0.444221 0.947021 0.000000
0.693874 0.929564 0.000000
0.920439 0.904479 0.000000
0.128023 0.125063 0.449256
0.251560 0.110414 0.453040
0.485451 0.000000 0.465461
0.860746 0.000000 0.509117
0.991363 0.000000 0.419196
0.000000 0.227085 0.460548
0.213687 0.205295 0.463325
0.496895 0.151400 0.471504
0.865019 0.000000 0.484199
0.989319 0.000000 0.416175
0.000000 0.485664 0.469276
0.116701 0.489998 0.470375
0.504234 0.485603 0.449287
0.862699 0.472358 0.442023
0.979736 0.437110 0.421332
0.000000 0.850248 0.493599
0.000000 0.852384 0.465034
0.449531 0.847410 0.386847
0.837278 0.821256 0.380682
0.964416 0.699886 0.419257
0.000000 0.959319 0.398230
0.000000 0.957488 0.386481
0.414832 0.947631 0.381201
0.686458 0.928954 0.383520
0.918059 0.903105 0.388800
0.062165 0.003906 0.815366
0.275029 0.000000 0.816068
0.552361 0.000000 0.817899
0.850034 0.000000 0.813870
0.972839 0.000000 0.681300
0.000000 0.186007 0.819547
0.181155 0.161715 0.819913
0.532830 0.000000 0.820615
0.852110 0.000000 0.812802
0.970947 0.000000 0.678920
0.000000 0.511315 0.819120
0.000000 0.487282 0.820920
0.446174 0.426337 0.822416
0.847532 0.427375 0.803098
0.948028 0.542138 0.719539
0.000000 0.839170 0.810422
0.000000 0.840818 0.810544
0.454505 0.838804 0.808255
0.820401 0.812497 0.797971
0.914092 0.802121 0.796994
0.000000 0.956756 0.670192
0.000000 0.954009 0.668513
0.519554 0.935546 0.702663
0.791073 0.908782 0.781338
0.904387 0.898192 0.781277
0.031830 0.000000 0.926574
0.233219 0.000000 0.926390
0.465553 0.000000 0.925658
0.706294 0.000000 0.924010
0.948180 0.000000 0.913176
0.000000 0.168582 0.926635
0.168490 0.154055 0.926390
0.446509 0.081025 0.925505
0.700374 0.000000 0.923552
0.946319 0.000000 0.911498
0.000000 0.407172 0.924163
0.000000 0.397436 0.924193
0.408118 0.398749 0.922454
0.695949 0.415839 0.918700
0.932006 0.492744 0.903502
0.000000 0.679988 0.914946
0.000000 0.679500 0.914580
0.516747 0.714504 0.909636
0.793210 0.790127 0.900664
0.905699 0.806149 0.894133
0.000000 0.925292 0.901152
0.130953 0.923613 0.900572
0.593439 0.913695 0.897795
0.815793 0.902312 0.895171
0.897642 0.896330 0.893919
