cubelut/Cinematic-3.cube
# Created by Adobe Lightroom plugin Export LUT (1.18.0)
# www.johnrellis.com/lightroom/exportlut.htm
# Preset: Cinematic 8
# Color profile: /Library/Application Support/Adobe/Color/Profiles/Recommended/AdobeRGB1998.icc
LUT_3D_SIZE 5
DOMAIN_MIN 0.000000 0.000000 0.000000
DOMAIN_MAX 0.903226 0.903226 0.903226
0.113252 0.088167 0.257298
0.230564 0.010498 0.256229
0.456580 0.000000 0.256382
0.735622 0.000000 0.257908
0.939849 0.000000 0.259129
0.084077 0.211978 0.253483
0.224887 0.208164 0.254734
0.447730 0.192386 0.257328
0.730098 0.179599 0.255924
0.942046 0.209873 0.257053
0.000000 0.484657 0.254154
0.178378 0.487068 0.246921
0.468544 0.513451 0.242283
0.721096 0.506920 0.240726
0.926665 0.504417 0.241703
0.000000 0.780209 0.228763
0.000000 0.782773 0.217014
0.413153 0.782345 0.214786
0.681147 0.779019 0.213840
0.911040 0.776761 0.215030
0.000000 0.983581 0.183078
0.000000 0.981903 0.193027
0.374670 0.973297 0.192905
0.631189 0.971984 0.200046
0.851102 0.968933 0.212436
0.102541 0.080110 0.324224
0.247410 0.019440 0.325505
0.452003 0.000000 0.329351
0.718349 0.000000 0.339147
0.927581 0.000000 0.335149
0.110964 0.213626 0.324681
0.228519 0.203708 0.325505
0.454200 0.184573 0.330480
0.716915 0.135897 0.332158
0.926024 0.217655 0.334081
0.000000 0.475471 0.327276
0.193576 0.477882 0.329473
0.450080 0.488777 0.322576
0.707576 0.488014 0.324010
0.920104 0.508324 0.329107
0.000000 0.775174 0.321050
0.000000 0.777310 0.319646
0.419776 0.777066 0.315282
0.681239 0.773739 0.317327
0.907225 0.775235 0.321752
0.000000 0.981842 0.272068
0.000000 0.980041 0.278965
0.425391 0.975341 0.314763
0.652491 0.971771 0.320928
0.858244 0.968872 0.333745
0.147097 0.000000 0.552056
0.267460 0.000000 0.553155
0.495521 0.000000 0.563317
0.720760 0.000000 0.558618
0.923308 0.000000 0.535851
0.067140 0.194125 0.555200
0.238163 0.191409 0.555718
0.484230 0.171664 0.565759
0.715816 0.164401 0.560388
0.921996 0.225620 0.534844
0.000000 0.487068 0.562554
0.190402 0.482490 0.562188
0.459022 0.481636 0.563989
0.704982 0.498116 0.562646
0.907317 0.559503 0.554742
0.000000 0.763790 0.547906
0.089662 0.760922 0.547845
0.439490 0.762387 0.551049
0.693599 0.763577 0.564752
0.893828 0.780087 0.560357
0.000000 0.973022 0.499641
0.000000 0.973419 0.497047
0.437018 0.969726 0.499336
0.701747 0.959655 0.555932
0.868162 0.960327 0.559075
0.134737 0.000000 0.776333
0.247776 0.000000 0.778988
0.452125 0.000000 0.781979
0.663447 0.000000 0.781430
0.904173 0.000000 0.816159
0.124605 0.182986 0.777859
0.242496 0.181064 0.778012
0.448859 0.178012 0.778836
0.659571 0.193362 0.777462
0.901152 0.205051 0.810575
0.109377 0.433570 0.774350
0.252964 0.442237 0.774014
0.471107 0.470558 0.773220
0.669184 0.495125 0.774624
0.897551 0.507042 0.791653
0.000000 0.695705 0.774350
0.226261 0.697047 0.772244
0.472602 0.712947 0.770260
0.693874 0.745541 0.768063
0.888731 0.766323 0.758389
0.000000 0.964477 0.793515
0.077729 0.963561 0.789151
0.440040 0.961669 0.771389
0.687404 0.957458 0.738247
0.878355 0.953368 0.762997
0.122927 0.000000 0.955322
0.228336 0.000000 0.955261
0.413031 0.000000 0.954589
0.605158 0.086427 0.953552
0.789700 0.216739 0.951781
0.176822 0.192233 0.955413
0.259434 0.196048 0.955291
0.430152 0.213199 0.954467
0.616358 0.258915 0.953399
0.795834 0.335393 0.951171
0.375830 0.500481 0.949859
0.397131 0.491005 0.950500
0.509880 0.501732 0.950072
0.662409 0.531609 0.948821
0.817288 0.568109 0.946227
0.386389 0.685725 0.945525
0.445350 0.698177 0.944945
0.585321 0.732204 0.942443
0.728237 0.766232 0.939452
0.852354 0.783108 0.937743
0.379644 0.875059 0.940459
0.436072 0.880186 0.940063
0.574121 0.895415 0.937438
0.738888 0.922454 0.933745
0.901030 0.963226 0.929168
