cubelut/Cinematic-3.cube
# Created by Adobe Lightroom plugin Export LUT (1.18.0)
# www.johnrellis.com/lightroom/exportlut.htm
# Preset: Cinematic 8
# Color profile: /Library/Application Support/Adobe/Color/Profiles/Recommended/AdobeRGB1998.icc
LUT_3D_SIZE 32
DOMAIN_MIN 0.0 0.0 0.0
DOMAIN_MAX 1.0 1.0 1.0
0.113252 0.088167 0.257298
0.113252 0.088167 0.257298
0.113252 0.088167 0.257298
0.122988 0.085878 0.257237
0.153597 0.076295 0.257053
0.179110 0.064546 0.256870
0.204532 0.036591 0.256626
0.230564 0.010498 0.256229
0.257816 0.000000 0.255680
0.286778 0.000000 0.254948
0.317754 0.000000 0.254093
0.350439 0.000000 0.254276
0.384649 0.000000 0.254887
0.420233 0.000000 0.255680
0.456580 0.000000 0.256382
0.493690 0.000000 0.256718
0.531212 0.000000 0.257023
0.568841 0.000000 0.257206
0.607233 0.000000 0.257420
0.654749 0.000000 0.257572
0.697230 0.000000 0.257694
0.735622 0.000000 0.257908
0.770230 0.000000 0.258122
0.801938 0.000000 0.258274
0.831418 0.000000 0.258427
0.859525 0.000000 0.258549
0.886839 0.000000 0.258701
0.913573 0.000000 0.258793
0.939849 0.000000 0.259129
0.965545 0.000000 0.259617
0.990509 0.000000 0.260380
1.000000 0.000000 0.261509
0.113252 0.088167 0.257298
0.113252 0.088167 0.257298
0.113252 0.088167 0.257298
0.123232 0.085817 0.257237
0.153597 0.076295 0.257053
0.178805 0.064729 0.256870
0.203799 0.052461 0.256535
0.229374 0.037537 0.256107
0.256504 0.019898 0.255528
0.285344 0.001770 0.254826
0.315923 0.000000 0.254063
0.348363 0.000000 0.254368
0.382300 0.000000 0.254948
0.417578 0.000000 0.255772
0.453681 0.000000 0.256352
0.490517 0.000000 0.256840
0.527672 0.000000 0.257084
0.565270 0.000000 0.257298
0.604425 0.000000 0.257389
0.650660 0.000000 0.257481
0.692470 0.000000 0.257603
0.730617 0.000000 0.257694
0.765194 0.000000 0.257877
0.797116 0.000000 0.258061
0.826841 0.000000 0.258122
0.855314 0.000000 0.258274
0.883024 0.000000 0.258244
0.910124 0.000000 0.258427
0.936767 0.000000 0.258640
0.962829 0.000000 0.259037
0.988067 0.000000 0.259648
1.000000 0.000000 0.260685
0.113252 0.088167 0.257298
0.113252 0.088167 0.257298
0.113252 0.088167 0.257298
0.123934 0.085634 0.257237
0.153536 0.079896 0.256992
0.178195 0.075166 0.256687
0.202792 0.069612 0.256352
0.228275 0.063142 0.255924
0.255253 0.055238 0.255344
0.284001 0.039338 0.254643
0.314488 0.018402 0.254063
0.346777 0.000000 0.254429
0.380621 0.000000 0.255100
0.415869 0.000000 0.255924
0.451850 0.000000 0.256504
0.488563 0.000000 0.256840
0.525628 0.000000 0.257084
0.563134 0.000000 0.257328
0.603174 0.000000 0.257450
0.648554 0.000000 0.257481
0.690028 0.000000 0.257572
0.728023 0.000000 0.257603
0.762600 0.000000 0.257816
0.794583 0.000000 0.257847
0.824430 0.000000 0.257908
0.852995 0.000000 0.257969
0.880888 0.000000 0.258000
0.908232 0.000000 0.258122
0.935088 0.000000 0.258335
0.961334 0.000000 0.258640
0.986725 0.000000 0.259251
1.000000 0.000000 0.260227
0.111391 0.104311 0.256901
0.111208 0.105837 0.256870
0.110994 0.107362 0.256809
0.124147 0.108339 0.256657
0.152621 0.104097 0.256413
0.177401 0.098573 0.256199
0.201785 0.093690 0.255863
0.227329 0.088746 0.255436
0.254154 0.084047 0.254887
0.282872 0.078431 0.254215
0.313115 0.071290 0.254185
0.345251 0.060700 0.254704
0.378790 0.037690 0.255467
0.413794 0.000000 0.256199
0.449683 0.000000 0.256657
0.486275 0.000000 0.256992
0.523247 0.000000 0.257237
0.560479 0.000000 0.257389
0.601923 0.000000 0.257420
0.645533 0.000000 0.257389
0.685908 0.000000 0.257450
0.723445 0.000000 0.257542
0.758267 0.000000 0.257572
0.790829 0.000000 0.257633
0.821653 0.000000 0.257633
0.851194 0.000000 0.257664
0.879789 0.000000 0.257725
0.907561 0.000000 0.257816
0.934569 0.000000 0.258000
0.960754 0.000000 0.258335
0.985962 0.000000 0.258824
1.000000 0.005463 0.259709
0.107362 0.131197 0.256077
0.107271 0.131777 0.256046
0.107088 0.132753 0.256016
0.120119 0.132845 0.255894
0.149172 0.130983 0.255619
0.175235 0.125887 0.255406
0.199924 0.120607 0.255131
0.225315 0.116274 0.254734
0.252110 0.112581 0.254215
0.280369 0.108797 0.254093
0.310460 0.104067 0.254490
0.342290 0.098695 0.255161
0.375830 0.091829 0.255924
0.410803 0.081666 0.256504
0.446754 0.067323 0.256901
0.483589 0.029816 0.257145
0.521019 0.000000 0.257389
0.558556 0.000000 0.257389
0.602472 0.000000 0.257359
0.644739 0.000000 0.257389
0.684138 0.000000 0.257328
0.721065 0.000000 0.257267
0.755612 0.000000 0.257237
0.788266 0.000000 0.257298
0.819242 0.000000 0.257267
0.849058 0.000000 0.257298
0.877836 0.000000 0.257237
0.905760 0.000000 0.257267
0.932860 0.000000 0.257450
0.959106 0.000000 0.257694
0.984466 0.033417 0.258091
1.000000 0.099275 0.258915
0.102419 0.155764 0.255131
0.102235 0.156558 0.255070
0.102113 0.157168 0.255070
0.116365 0.157046 0.254917
0.144167 0.155673 0.254673
0.173159 0.154055 0.254307
0.198520 0.148867 0.254093
0.223941 0.144717 0.253727
0.250492 0.141299 0.253941
0.278874 0.138247 0.254459
0.308812 0.135409 0.255161
0.340734 0.132174 0.255833
0.374090 0.127871 0.256413
0.409125 0.121798 0.256840
0.445106 0.114504 0.257053
0.482124 0.104829 0.257267
0.519615 0.092439 0.257450
0.559686 0.077119 0.257328
0.603815 0.054108 0.257359
0.645289 0.003967 0.257176
0.684382 0.000000 0.257084
0.721279 0.000000 0.256992
0.785428 0.000000 0.257725
0.816342 0.000000 0.258061
0.845212 0.000000 0.258305
0.872587 0.017426 0.258518
0.898833 0.061280 0.258793
0.924193 0.084352 0.259190
0.948943 0.106691 0.259556
0.973022 0.128817 0.260197
0.996155 0.150790 0.260990
1.000000 0.172854 0.262089
0.094697 0.184878 0.253696
0.094575 0.185275 0.253696
0.095033 0.185855 0.253666
0.115908 0.185245 0.253483
0.142794 0.184390 0.253239
0.171328 0.183139 0.253208
0.200443 0.181704 0.253300
0.226139 0.176822 0.253819
0.252964 0.173434 0.254551
0.282109 0.171145 0.255344
0.312871 0.169100 0.255985
0.345464 0.166934 0.256352
0.379400 0.163943 0.256809
0.414649 0.160006 0.257084
0.450599 0.155367 0.257206
0.487037 0.149691 0.257359
0.524193 0.143252 0.257328
0.569543 0.137850 0.257115
0.613184 0.132235 0.256962
0.654963 0.126314 0.256779
0.695369 0.121828 0.256718
0.734310 0.118837 0.256718
0.771298 0.118898 0.256718
0.805844 0.121279 0.256931
0.837888 0.126375 0.257176
0.867185 0.132753 0.257481
0.894499 0.141115 0.257786
0.920439 0.151003 0.258061
0.945586 0.162570 0.258427
0.969848 0.176394 0.258915
0.993164 0.191440 0.259525
1.000000 0.207797 0.260472
0.084077 0.211978 0.253483
0.083864 0.212314 0.253544
0.091981 0.212284 0.253330
0.112886 0.211887 0.253330
0.139254 0.211154 0.253574
0.167086 0.210269 0.253849
0.195743 0.209201 0.254307
0.224887 0.208164 0.254734
0.251804 0.204379 0.255406
0.279423 0.201328 0.256046
0.310338 0.200168 0.256565
0.342901 0.198978 0.256748
0.376776 0.197269 0.257115
0.411872 0.195254 0.257176
0.447730 0.192386 0.257328
0.484169 0.189151 0.257206
0.526818 0.187625 0.257053
0.569970 0.185763 0.256809
0.611719 0.183597 0.256474
0.652216 0.181216 0.256291
0.691737 0.179904 0.256077
0.730098 0.179599 0.255924
0.766659 0.180484 0.255863
0.801083 0.182437 0.256016
0.833097 0.185733 0.256168
0.862638 0.189914 0.256413
0.890257 0.195102 0.256565
0.916564 0.201572 0.256748
0.942046 0.209873 0.257053
0.966613 0.219638 0.257389
0.990265 0.231174 0.258030
1.000000 0.243870 0.258885
0.073304 0.240970 0.255070
0.080842 0.240940 0.254887
0.090578 0.240940 0.254734
0.110475 0.240726 0.254643
0.136355 0.240269 0.254795
0.163821 0.239597 0.254948
0.192081 0.239017 0.255222
0.221073 0.238407 0.255467
0.251102 0.237675 0.255741
0.279911 0.235386 0.256229
0.308324 0.232425 0.256748
0.340978 0.232029 0.256992
0.374975 0.231693 0.257115
0.410163 0.230869 0.257115
0.445869 0.229618 0.257145
0.487404 0.230686 0.256870
0.529320 0.230930 0.256565
0.570733 0.230808 0.256168
0.611109 0.230259 0.255833
0.650690 0.229679 0.255497
0.689479 0.229801 0.255192
0.727352 0.230259 0.254887
0.763546 0.231815 0.254826
0.797696 0.233951 0.254826
0.829618 0.236576 0.254917
0.859190 0.239536 0.255070
0.886992 0.243259 0.255161
0.913451 0.247990 0.255283
0.939086 0.254215 0.255436
0.963806 0.261662 0.255894
0.987640 0.270420 0.256382
1.000000 0.280491 0.257084
0.071046 0.272099 0.256321
0.078981 0.272129 0.256260
0.088808 0.271977 0.256046
0.105409 0.272068 0.255436
0.131258 0.271763 0.255344
0.159182 0.271427 0.255497
0.187747 0.270970 0.255619
0.217166 0.270726 0.255833
0.247379 0.270573 0.255955
0.278599 0.270603 0.256107
0.309270 0.269139 0.256413
0.338262 0.265721 0.256962
0.372290 0.266300 0.256992
0.409400 0.268009 0.256901
0.449897 0.271000 0.256565
0.490761 0.273167 0.256199
0.531792 0.274662 0.255650
0.572656 0.275578 0.255161
0.612329 0.276158 0.254734
0.650965 0.276493 0.254307
0.688624 0.276890 0.253910
0.725032 0.277684 0.253605
0.759945 0.278752 0.253391
0.793088 0.280095 0.253300
0.824491 0.281895 0.253330
0.854124 0.284245 0.253361
0.882353 0.287144 0.253361
0.909483 0.291081 0.253513
0.935760 0.296056 0.253696
0.961089 0.302342 0.254002
0.985412 0.309880 0.254643
1.000000 0.318364 0.255344
0.065400 0.305058 0.257481
0.073335 0.305180 0.257206
0.082734 0.305241 0.256901
0.099092 0.305455 0.256138
0.122499 0.305638 0.255344
0.152041 0.305699 0.255436
0.182284 0.305760 0.255497
0.212497 0.305974 0.255619
0.243656 0.306218 0.255680
0.275425 0.306615 0.255741
0.308110 0.307073 0.255711
0.342260 0.308324 0.255802
0.374090 0.306432 0.256321
0.412390 0.309789 0.255955
0.451667 0.312749 0.255558
0.491371 0.315251 0.255100
0.531487 0.317082 0.254459
0.571374 0.318761 0.253941
0.610346 0.319707 0.253330
0.648493 0.320531 0.252750
0.685725 0.321569 0.252415
0.722011 0.322545 0.252018
0.756863 0.323857 0.251774
0.789975 0.325261 0.251591
0.821347 0.326879 0.251469
0.850950 0.328466 0.251469
0.879118 0.330510 0.251469
0.906249 0.333410 0.251530
0.932555 0.337316 0.251591
0.958007 0.342229 0.251957
0.982544 0.348272 0.252415
1.000000 0.355291 0.253147
0.045319 0.341650 0.257847
0.059815 0.341802 0.257572
0.070527 0.341863 0.257267
0.088106 0.342229 0.256413
0.110445 0.342809 0.254948
0.142580 0.343084 0.254795
0.174655 0.343511 0.254765
0.206729 0.344060 0.254826
0.239139 0.344671 0.254734
0.272679 0.346441 0.254673
0.308721 0.350622 0.254490
0.345708 0.354467 0.254154
0.400122 0.376654 0.252811
0.434333 0.373571 0.253513
0.474830 0.376593 0.252964
0.515709 0.379217 0.252232
0.556237 0.381231 0.251438
0.595483 0.382177 0.250858
0.632624 0.381903 0.250492
0.668910 0.381598 0.250217
0.704067 0.381140 0.249943
0.738003 0.380957 0.249882
0.770321 0.380529 0.249851
0.801358 0.380499 0.249973
0.830961 0.380591 0.250095
0.859159 0.381048 0.250340
0.886076 0.381842 0.250462
0.911986 0.383215 0.250614
0.937133 0.385595 0.250889
0.961608 0.388800 0.251225
0.985107 0.393133 0.251865
1.000000 0.398291 0.252659
0.000000 0.387823 0.257420
0.000000 0.387915 0.257145
0.022065 0.387701 0.256626
0.066682 0.387610 0.255680
0.095430 0.387518 0.254154
0.128664 0.387335 0.253117
0.165164 0.387640 0.253147
0.200778 0.390906 0.252934
0.236851 0.394751 0.252750
0.273960 0.399420 0.252384
0.312413 0.404822 0.251926
0.352453 0.410590 0.251377
0.393774 0.416388 0.250797
0.435676 0.421424 0.250065
0.471382 0.419196 0.250523
0.511009 0.421302 0.250065
0.551385 0.423743 0.249180
0.590326 0.424811 0.248447
0.627344 0.424659 0.248020
0.663325 0.424201 0.247654
0.698329 0.423743 0.247440
0.732204 0.423255 0.247318
0.764492 0.422736 0.247257
0.795560 0.422217 0.247318
0.825254 0.421881 0.247349
0.853635 0.421729 0.247440
0.880797 0.421973 0.247562
0.907012 0.422766 0.247776
0.932555 0.424292 0.247929
0.957427 0.426825 0.248295
0.981415 0.430274 0.248722
1.000000 0.434424 0.249638
0.000000 0.432624 0.256352
0.000000 0.433021 0.255924
0.000000 0.433173 0.255467
0.000000 0.433845 0.254368
0.069337 0.434699 0.252689
0.107515 0.435981 0.250675
0.151980 0.437385 0.250584
0.191653 0.439460 0.250309
0.230106 0.442206 0.250004
0.268681 0.445960 0.249607
0.308080 0.450477 0.249119
0.348547 0.455695 0.248539
0.389837 0.460853 0.247807
0.431586 0.465431 0.246983
0.472938 0.469032 0.246159
0.508324 0.465644 0.246708
0.545617 0.465248 0.246433
0.584375 0.466651 0.245670
0.621454 0.466651 0.245121
0.657496 0.466285 0.244724
0.692683 0.465858 0.244419
0.726680 0.465431 0.244297
0.759243 0.464607 0.244205
0.790494 0.463996 0.244236
0.820432 0.463325 0.244236
0.849058 0.462806 0.244388
0.876493 0.462470 0.244450
0.903014 0.462684 0.244633
0.928832 0.463691 0.244846
0.954009 0.465492 0.245121
0.978332 0.468177 0.245762
1.000000 0.471595 0.246616
0.000000 0.484657 0.254154
0.000000 0.484993 0.253819
0.000000 0.484840 0.253330
0.000000 0.484932 0.252140
0.000000 0.484901 0.250401
0.078492 0.485328 0.248020
0.132113 0.485939 0.247074
0.178378 0.487068 0.246921
0.220157 0.489235 0.246647
0.260990 0.492439 0.246189
0.301732 0.496529 0.245548
0.343145 0.501274 0.244877
0.384924 0.506035 0.244114
0.426886 0.510338 0.243168
0.468544 0.513451 0.242283
0.508843 0.515129 0.241611
0.543786 0.511223 0.242100
0.578882 0.508598 0.242191
0.615900 0.508659 0.241703
0.651942 0.508263 0.241215
0.687068 0.507622 0.241032
0.721096 0.506920 0.240726
0.753719 0.505974 0.240696
0.785214 0.504967 0.240726
0.815457 0.504051 0.240787
0.844572 0.503410 0.240879
0.872740 0.503105 0.241123
0.900084 0.503410 0.241459
0.926665 0.504417 0.241703
0.952544 0.506126 0.242313
0.977417 0.508568 0.243290
1.000000 0.511467 0.244572
0.000000 0.534661 0.251347
0.000000 0.535088 0.250980
0.000000 0.535180 0.250340
0.000000 0.535393 0.249210
0.000000 0.535698 0.247318
0.000000 0.536309 0.244724
0.102144 0.537316 0.242618
0.160159 0.538720 0.242374
0.208103 0.540581 0.242069
0.252110 0.543023 0.241550
0.294987 0.545769 0.241001
0.337163 0.548791 0.240360
0.378943 0.551507 0.239689
0.420508 0.553796 0.238956
0.461402 0.555383 0.238346
0.501396 0.556237 0.237613
0.540520 0.556634 0.236973
0.575494 0.553094 0.237461
0.610285 0.550378 0.237766
0.647089 0.550622 0.237369
0.682826 0.550439 0.236851
0.717403 0.549859 0.236790
0.750484 0.548943 0.236759
0.782284 0.547845 0.236790
0.812833 0.546746 0.237064
0.842344 0.545861 0.237278
0.870787 0.545159 0.237583
0.898314 0.545037 0.238010
0.925017 0.545403 0.238560
0.950835 0.546227 0.239170
0.975525 0.547570 0.240238
0.999023 0.549371 0.241520
0.000000 0.580529 0.248295
0.000000 0.580621 0.247837
0.000000 0.580560 0.247288
0.000000 0.580652 0.246006
0.000000 0.580774 0.244114
0.000000 0.581262 0.241520
0.036683 0.582116 0.238254
0.136263 0.582940 0.238010
0.191623 0.584283 0.237613
0.239261 0.586023 0.237186
0.284092 0.588251 0.236820
0.327611 0.590661 0.236149
0.370245 0.592920 0.235538
0.412085 0.594720 0.234897
0.453193 0.595758 0.234348
0.493019 0.595941 0.233799
0.531914 0.595727 0.233249
0.570153 0.595544 0.232609
0.605768 0.593194 0.232670
0.640925 0.591302 0.232792
0.676783 0.590997 0.232456
0.711482 0.590295 0.232242
0.744808 0.589227 0.232273
0.776974 0.588067 0.232456
0.807919 0.586786 0.232700
0.837827 0.585687 0.233127
0.866758 0.584894 0.233524
0.894743 0.584466 0.233982
0.921874 0.584436 0.234684
0.948028 0.584955 0.235599
0.973114 0.585840 0.236728
0.996918 0.586999 0.238254
0.000000 0.624079 0.245060
0.000000 0.624720 0.244511
0.000000 0.645319 0.242710
0.000000 0.645228 0.241337
0.000000 0.644984 0.239292
0.000000 0.644648 0.236545
0.000000 0.644465 0.233249
0.105501 0.644282 0.231754
0.175998 0.644373 0.231601
0.230076 0.644953 0.231388
0.278569 0.645777 0.230991
0.324254 0.646601 0.230625
0.368200 0.647089 0.230320
0.410834 0.647333 0.229831
0.452277 0.647120 0.229404
0.492531 0.646326 0.228916
0.531640 0.645197 0.228519
0.569635 0.643946 0.228092
0.606928 0.642725 0.227481
0.642725 0.640742 0.227451
0.678218 0.639429 0.227207
0.712551 0.637720 0.227268
0.745510 0.635523 0.227481
0.777066 0.633204 0.227878
0.807156 0.630457 0.228397
0.836210 0.627955 0.228916
0.864317 0.625666 0.229404
0.891783 0.624048 0.229831
0.918730 0.623133 0.230472
0.945006 0.622980 0.231510
0.970306 0.623194 0.232700
0.994232 0.623560 0.234379
0.000000 0.669703 0.241276
0.000000 0.672328 0.240696
0.000000 0.674983 0.239902
0.000000 0.677302 0.238529
0.000000 0.678950 0.236423
0.000000 0.679652 0.233799
0.000000 0.679896 0.230350
0.055787 0.679866 0.227787
0.153841 0.679988 0.227543
0.213321 0.680262 0.227359
0.264347 0.680812 0.227054
0.311376 0.681392 0.226780
0.356115 0.681605 0.226474
0.399176 0.681514 0.226078
0.440711 0.680964 0.225711
0.480934 0.680079 0.225345
0.520012 0.678859 0.224887
0.558129 0.677546 0.224460
0.595514 0.676448 0.223972
0.632410 0.675685 0.223484
0.668605 0.674952 0.223178
0.705135 0.675471 0.222416
0.739590 0.674495 0.222354
0.771664 0.672145 0.222904
0.802304 0.669459 0.223423
0.831907 0.666865 0.224002
0.860502 0.664393 0.224552
0.888273 0.662501 0.225376
0.915557 0.661219 0.226139
0.942046 0.660487 0.227237
0.967529 0.660121 0.228702
0.991669 0.659876 0.230472
0.000000 0.705318 0.237583
0.000000 0.707668 0.237095
0.000000 0.709987 0.236332
0.000000 0.712032 0.235050
0.000000 0.713497 0.232944
0.000000 0.714168 0.230350
0.000000 0.714321 0.227237
0.000000 0.714412 0.223728
0.128878 0.714443 0.223514
0.196414 0.714595 0.223301
0.250462 0.714992 0.223148
0.299168 0.715419 0.222843
0.344671 0.715389 0.222599
0.388128 0.715236 0.222232
0.429999 0.714565 0.221958
0.470375 0.713558 0.221622
0.509606 0.712306 0.221164
0.547723 0.710994 0.220829
0.585168 0.709834 0.220340
0.622095 0.709133 0.219883
0.658503 0.708675 0.219547
0.694881 0.709041 0.218967
0.731930 0.710780 0.217899
0.766659 0.710750 0.217533
0.797726 0.707881 0.218204
0.827543 0.704921 0.218845
0.856352 0.702113 0.219608
0.884367 0.699763 0.220432
0.911833 0.698024 0.221378
0.938506 0.696803 0.222568
0.964202 0.695857 0.224063
0.988586 0.695033 0.225956
0.000000 0.739620 0.233555
0.000000 0.741665 0.233097
0.000000 0.743801 0.232334
0.000000 0.745602 0.231083
0.000000 0.746883 0.229221
0.000000 0.747402 0.226810
0.000000 0.747524 0.223697
0.000000 0.747555 0.220279
0.099397 0.747402 0.219455
0.179202 0.747341 0.219303
0.236576 0.747463 0.219089
0.286961 0.747555 0.218936
0.333318 0.747433 0.218662
0.377325 0.747158 0.218509
0.419562 0.746670 0.218204
0.460487 0.746120 0.217838
0.500389 0.745571 0.217533
0.539361 0.745266 0.217136
0.577630 0.745174 0.216953
0.615473 0.745388 0.216800
0.652827 0.745968 0.216526
0.689693 0.746731 0.216464
0.726406 0.748043 0.216129
0.764218 0.751095 0.214817
0.799985 0.752712 0.213993
0.830228 0.749569 0.215335
0.859220 0.746365 0.216648
0.887327 0.743465 0.218112
0.914611 0.741024 0.219730
0.940978 0.738979 0.221469
0.966247 0.737148 0.223728
0.990143 0.735317 0.226230
0.000000 0.780209 0.228763
0.000000 0.781125 0.228397
0.000000 0.781827 0.227878
0.000000 0.782406 0.226688
0.000000 0.782742 0.225040
0.000000 0.782742 0.222812
0.000000 0.782712 0.220066
0.000000 0.782773 0.217014
0.065034 0.782925 0.215518
0.164797 0.783078 0.215366
0.226444 0.783413 0.215366
0.278660 0.783597 0.215183
0.326116 0.783444 0.215122
0.370520 0.783017 0.214969
0.413153 0.782345 0.214786
0.454261 0.781613 0.214511
0.494026 0.780789 0.214389
0.532860 0.780148 0.214084
0.570886 0.779629 0.213993
0.608270 0.779294 0.213779
0.645014 0.779080 0.213779
0.681147 0.779019 0.213840
0.716609 0.778988 0.213931
0.751827 0.779568 0.213870
0.789120 0.782834 0.211978
0.825650 0.785977 0.210147
0.855039 0.782589 0.211612
0.883482 0.779507 0.213230
0.911040 0.776761 0.215030
0.937591 0.774258 0.216953
0.963012 0.771878 0.219303
0.987121 0.769528 0.221958
0.000000 0.811154 0.224094
0.000000 0.812009 0.223697
0.000000 0.812802 0.223148
0.000000 0.813321 0.222110
0.000000 0.813596 0.220615
0.000000 0.813504 0.218540
0.000000 0.813291 0.216098
0.000000 0.813077 0.213352
0.000000 0.812955 0.211856
0.148714 0.812924 0.211856
0.214542 0.813016 0.211765
0.268315 0.813046 0.211673
0.316411 0.812863 0.211582
0.361578 0.812497 0.211551
0.404303 0.812009 0.211337
0.445563 0.811429 0.211185
0.485481 0.810849 0.211093
0.524407 0.810391 0.210971
0.562493 0.810025 0.211093
0.599908 0.809903 0.211124
0.636713 0.809934 0.211307
0.672969 0.810056 0.211521
0.708522 0.810330 0.212039
0.743404 0.810605 0.212467
0.774136 0.807126 0.211368
0.811185 0.811063 0.208988
0.848966 0.816220 0.205966
0.878019 0.813260 0.207370
0.905913 0.810300 0.209201
0.932860 0.807523 0.211185
0.958770 0.805020 0.213565
0.983337 0.802518 0.216464
0.000000 0.846677 0.218967
0.000000 0.847562 0.218723
0.000000 0.848112 0.218235
0.000000 0.848264 0.217380
0.000000 0.848051 0.215915
0.000000 0.847623 0.214328
0.000000 0.846952 0.212284
0.000000 0.846189 0.210086
0.000000 0.845396 0.208682
0.137453 0.844633 0.208591
0.206332 0.843870 0.208499
0.260594 0.843259 0.208438
0.309117 0.842527 0.208316
0.353857 0.841642 0.208194
0.396185 0.840421 0.207980
0.436866 0.839109 0.207828
0.476112 0.837858 0.207645
0.514427 0.836881 0.207553
0.552178 0.836393 0.207553
0.589532 0.836332 0.207736
0.626246 0.836576 0.208103
0.662348 0.836820 0.208591
0.697566 0.836881 0.209079
0.731899 0.836698 0.209567
0.765194 0.836271 0.210147
0.797940 0.835935 0.210361
0.834775 0.840513 0.207248
0.872251 0.846189 0.203403
0.902068 0.844694 0.203983
0.929076 0.841489 0.205905
0.955169 0.838621 0.208438
0.979980 0.835691 0.211337
0.000000 0.874022 0.213077
0.000000 0.874846 0.212955
0.000000 0.875364 0.212528
0.000000 0.875517 0.211856
0.000000 0.875303 0.210636
0.000000 0.874937 0.209354
0.000000 0.874388 0.207889
0.000000 0.873777 0.206363
0.000000 0.873228 0.205417
0.126406 0.872679 0.205478
0.198459 0.872221 0.205386
0.254368 0.871824 0.205478
0.303288 0.871397 0.205478
0.348302 0.870726 0.205356
0.390814 0.869810 0.205386
0.431373 0.868803 0.205142
0.470680 0.867735 0.205173
0.508904 0.866941 0.205173
0.546441 0.866453 0.205325
0.583520 0.866270 0.205722
0.619898 0.866331 0.206241
0.655695 0.866423 0.206973
0.690700 0.866453 0.207553
0.724788 0.866300 0.208316
0.758083 0.865934 0.209110
0.790463 0.865415 0.209903
0.822232 0.864927 0.210636
0.858946 0.870329 0.207340
0.896452 0.877043 0.203128
0.927581 0.877684 0.202884
0.953704 0.874296 0.205905
0.978454 0.870756 0.209079
0.000000 0.902373 0.206729
0.000000 0.902892 0.206607
0.000000 0.903075 0.206302
0.000000 0.902953 0.205753
0.000000 0.902556 0.204898
0.000000 0.901946 0.203952
0.000000 0.901244 0.203037
0.000000 0.900511 0.202365
0.000000 0.899840 0.202274
0.117250 0.899351 0.202213
0.192416 0.898894 0.202274
0.248844 0.898650 0.202335
0.297978 0.898314 0.202304
0.343053 0.897765 0.202518
0.385260 0.896941 0.202457
0.425666 0.895964 0.202396
0.464546 0.894926 0.202365
0.502464 0.894011 0.202396
0.539696 0.893462 0.202548
0.576318 0.893187 0.203006
0.612390 0.893187 0.203555
0.647883 0.893187 0.204410
0.682521 0.893126 0.205356
0.716396 0.892973 0.206271
0.749447 0.892638 0.207065
0.781674 0.892149 0.208042
0.813230 0.891691 0.209171
0.844083 0.891234 0.210178
0.880247 0.897002 0.206729
0.917754 0.904631 0.202090
0.950225 0.907469 0.200381
0.975036 0.903471 0.203586
0.000000 0.928099 0.199252
0.000000 0.928435 0.199222
0.000000 0.928557 0.199039
0.000000 0.928527 0.198703
0.000000 0.928374 0.198306
0.000000 0.928252 0.197940
0.000000 0.928374 0.198032
0.000000 0.928618 0.198764
0.000000 0.929015 0.200504
0.123995 0.929656 0.201114
0.197543 0.930327 0.201724
0.253574 0.930938 0.202457
0.302434 0.931395 0.203067
0.347387 0.931456 0.203677
0.389502 0.931151 0.204074
0.429297 0.930419 0.204318
0.467811 0.929534 0.204562
0.505150 0.928679 0.204776
0.541924 0.928038 0.205447
0.577996 0.927611 0.206210
0.613489 0.927337 0.207187
0.648402 0.927123 0.208408
0.682490 0.926787 0.209628
0.715846 0.926421 0.210910
0.748409 0.925902 0.212222
0.780209 0.925292 0.213687
0.811368 0.924712 0.215000
0.841917 0.924163 0.216678
0.871885 0.923766 0.218631
0.906828 0.929381 0.215885
0.943420 0.937224 0.211460
0.976410 0.941711 0.208713
0.000000 0.959686 0.192477
0.000000 0.959869 0.192508
0.000000 0.959808 0.192538
0.000000 0.959533 0.192630
0.000000 0.959106 0.192752
0.000000 0.958648 0.193423
0.000000 0.958221 0.194614
0.000000 0.957824 0.196750
0.000000 0.957458 0.199588
0.133547 0.957366 0.200076
0.201175 0.957244 0.200412
0.254643 0.957122 0.200748
0.301762 0.956909 0.201236
0.345312 0.956512 0.201663
