cubelut/Cinematic-7.cube
# Created by Adobe Lightroom plugin Export LUT (1.18.0)
# www.johnrellis.com/lightroom/exportlut.htm
# Preset: Cinematic3
# Color profile: /Library/Application Support/Adobe/Color/Profiles/Recommended/AdobeRGB1998.icc
LUT_3D_SIZE 5
DOMAIN_MIN 0.000000 0.000000 0.000000
DOMAIN_MAX 0.903226 0.903226 0.903226
0.085725 0.106386 0.119387
0.143191 0.112001 0.130129
0.397192 0.158968 0.156008
0.758694 0.235721 0.236027
0.934264 0.391485 0.395727
0.090517 0.171847 0.128359
0.159579 0.184024 0.128573
0.423316 0.259281 0.150454
0.765591 0.316014 0.232578
0.939605 0.430610 0.401465
0.161746 0.466682 0.175814
0.248997 0.474495 0.174807
0.489723 0.510185 0.187259
0.795682 0.510918 0.235630
0.946380 0.533104 0.401953
0.318761 0.738827 0.308934
0.376806 0.740932 0.311986
0.563775 0.740780 0.322850
0.796750 0.733516 0.359045
0.952300 0.704982 0.455299
0.590600 0.874846 0.506126
0.614588 0.874418 0.507469
0.683772 0.871885 0.509178
0.802182 0.872374 0.532891
0.954986 0.868223 0.574517
0.065980 0.120729 0.173465
0.134829 0.117098 0.186130
0.401495 0.163790 0.247257
0.743923 0.262486 0.319768
0.922728 0.426886 0.453773
0.082002 0.176211 0.182712
0.181460 0.206058 0.210208
0.435859 0.268650 0.248692
0.754482 0.330694 0.318547
0.926452 0.456428 0.454627
0.133761 0.473701 0.238132
0.261357 0.487953 0.262760
0.493416 0.509514 0.272099
0.788632 0.507897 0.317998
0.939483 0.553643 0.459236
0.346380 0.740383 0.387701
0.407019 0.742123 0.393774
0.581048 0.741421 0.399573
0.798947 0.735164 0.424537
0.950469 0.711543 0.496223
0.622370 0.872282 0.541863
0.642603 0.872099 0.542992
0.708400 0.873106 0.550134
0.812924 0.873442 0.568902
0.956420 0.869902 0.605646
0.000000 0.160800 0.383825
0.017060 0.134585 0.392432
0.376654 0.186496 0.436042
0.721218 0.323217 0.515587
0.908782 0.510948 0.574578
0.000000 0.274723 0.417884
0.076509 0.232364 0.428229
0.426764 0.291569 0.467506
0.739010 0.399908 0.515587
0.913054 0.554467 0.582177
0.121675 0.473030 0.424689
0.260716 0.500114 0.449592
0.567468 0.543053 0.500572
0.782406 0.554833 0.523095
0.926787 0.622583 0.584436
0.360906 0.735042 0.491341
0.450660 0.738155 0.509026
0.647303 0.742672 0.546899
0.811704 0.744900 0.560784
0.947326 0.730709 0.597620
0.653651 0.867674 0.603265
0.692439 0.867826 0.622644
0.750698 0.870268 0.638727
0.832761 0.872587 0.647730
0.956634 0.871672 0.671870
0.000000 0.253696 0.621424
0.000000 0.198062 0.624414
0.341009 0.218082 0.627436
0.701625 0.326848 0.644617
0.884428 0.567407 0.700099
0.000000 0.357061 0.629511
0.000000 0.312902 0.631983
0.364569 0.307897 0.634180
0.719295 0.407416 0.650813
0.887877 0.597009 0.700252
0.000000 0.556725 0.636072
0.232273 0.555779 0.642023
0.495277 0.536950 0.655482
0.760250 0.586938 0.667536
0.906523 0.680049 0.706447
0.383429 0.731838 0.623713
0.477668 0.733486 0.632532
0.685695 0.742061 0.666072
0.827512 0.759884 0.700160
0.939513 0.766751 0.715846
0.685145 0.861997 0.677272
0.712581 0.863035 0.687129
0.785153 0.868467 0.715480
0.868254 0.874662 0.737179
0.959289 0.878019 0.750088
0.000000 0.366033 0.783597
0.000000 0.334417 0.784176
0.277745 0.338262 0.782742
0.632685 0.390631 0.776516
0.866789 0.540398 0.777462
0.000000 0.438025 0.781491
0.000000 0.414008 0.782101
0.310765 0.397559 0.781704
0.646479 0.441932 0.775357
0.872038 0.574273 0.777676
0.245670 0.598871 0.778042
0.347417 0.601160 0.777981
0.463325 0.563226 0.779568
0.695460 0.573175 0.776486
0.895384 0.673304 0.783749
0.432319 0.758968 0.775540
0.491890 0.756191 0.775814
0.640620 0.750790 0.779110
0.775113 0.743374 0.787350
0.932036 0.787381 0.800381
0.678370 0.873411 0.764950
0.702907 0.872343 0.767453
0.778378 0.872221 0.778470
0.886625 0.875517 0.799283
0.960784 0.888426 0.828122
