cubelut/Cinematic-7.cube
# Created by Adobe Lightroom plugin Export LUT (1.18.0)
# www.johnrellis.com/lightroom/exportlut.htm
# Preset: Cinematic3
# Color profile: /Library/Application Support/Adobe/Color/Profiles/Recommended/AdobeRGB1998.icc
LUT_3D_SIZE 32
DOMAIN_MIN 0.0 0.0 0.0
DOMAIN_MAX 1.0 1.0 1.0
0.085725 0.106386 0.119387
0.085725 0.106386 0.119387
0.085725 0.106386 0.119387
0.089113 0.107118 0.120424
0.096864 0.108583 0.123049
0.107637 0.109682 0.125399
0.122774 0.110231 0.127932
0.143191 0.112001 0.130129
0.168856 0.114290 0.132479
0.198734 0.118166 0.135195
0.232914 0.122927 0.138155
0.270756 0.129427 0.141543
0.311162 0.137453 0.145235
0.353216 0.147921 0.149447
0.397192 0.158968 0.156008
0.443854 0.171054 0.163821
0.493141 0.182864 0.172610
0.550866 0.193912 0.182986
0.611963 0.202121 0.194614
0.668727 0.210239 0.207156
0.717647 0.221256 0.220829
0.758694 0.235721 0.236027
0.792966 0.253025 0.253025
0.821866 0.273075 0.271366
0.846952 0.294652 0.291569
0.869810 0.317601 0.314549
0.891600 0.341558 0.339757
0.912963 0.366369 0.367193
0.934264 0.391485 0.395727
0.954894 0.417304 0.424079
0.973846 0.444068 0.451179
0.990265 0.472816 0.477180
0.085725 0.106386 0.119387
0.085725 0.106386 0.119387
0.085725 0.106386 0.119387
0.089357 0.107301 0.120607
0.097139 0.108766 0.123049
0.107576 0.109926 0.125551
0.123354 0.111543 0.127657
0.143648 0.113741 0.129824
0.169131 0.116457 0.132326
0.198978 0.120455 0.134829
0.232761 0.125826 0.137789
0.270268 0.132113 0.141024
0.310246 0.140536 0.144747
0.351965 0.150973 0.148836
0.395666 0.161685 0.155612
0.442084 0.173739 0.163333
0.490913 0.185733 0.172061
0.547906 0.196689 0.182315
0.607752 0.204868 0.193484
0.664118 0.212680 0.205600
0.713313 0.222904 0.219181
0.754818 0.236667 0.234195
0.789609 0.253452 0.250828
0.819028 0.272770 0.268925
0.844450 0.294133 0.289006
0.867613 0.316777 0.311589
0.889647 0.340520 0.337072
0.911162 0.365240 0.364508
0.932647 0.390387 0.393225
0.953521 0.416083 0.421759
0.972747 0.442664 0.449073
0.989410 0.471351 0.475319
0.085725 0.106386 0.119387
0.085725 0.106386 0.119387
0.085725 0.106386 0.119387
0.089693 0.107271 0.120607
0.097658 0.109407 0.122988
0.108492 0.111421 0.125246
0.124086 0.113466 0.127321
0.144594 0.115999 0.129458
0.169894 0.119326 0.131746
0.199405 0.123873 0.134218
0.233158 0.129641 0.137331
0.270481 0.136477 0.140536
0.310277 0.144656 0.144106
0.352026 0.155062 0.148501
0.395392 0.166049 0.155245
0.441566 0.177890 0.162875
0.490272 0.189792 0.171603
0.547051 0.200900 0.181796
0.606165 0.208927 0.192966
0.662074 0.216434 0.204868
0.711360 0.226108 0.218357
0.753109 0.239414 0.233280
0.788083 0.255772 0.249607
0.817655 0.274510 0.267796
0.843290 0.295476 0.287755
0.866545 0.317815 0.310399
0.888701 0.341375 0.335546
0.910277 0.365759 0.363195
0.931884 0.390661 0.391943
0.952850 0.416205 0.420630
0.972168 0.442603 0.448035
0.988952 0.471107 0.474342
0.085908 0.110597 0.120638
0.086183 0.111025 0.120577
0.086030 0.111513 0.120760
0.090272 0.112123 0.121218
0.099367 0.113802 0.122621
0.110811 0.116060 0.124666
0.126589 0.118776 0.126864
0.147189 0.122103 0.128725
0.172366 0.126345 0.131106
0.201938 0.131472 0.133364
0.235325 0.137728 0.136233
0.272404 0.145266 0.139193
0.311925 0.153994 0.142733
0.353246 0.164187 0.147890
0.396338 0.175204 0.154635
0.442329 0.187411 0.162478
0.490669 0.198978 0.170962
0.547356 0.209995 0.181247
0.604852 0.217594 0.191958
0.659754 0.224338 0.203799
0.708553 0.233585 0.216770
0.750240 0.245670 0.231632
0.785733 0.261173 0.247990
0.815946 0.279484 0.266117
0.842191 0.300084 0.286442
0.865995 0.322148 0.309270
0.888487 0.345342 0.334997
0.910338 0.369360 0.362768
0.931975 0.393652 0.391669
0.952850 0.418616 0.420386
0.972045 0.444526 0.447608
0.988739 0.472419 0.473671
0.086946 0.118898 0.123049
0.087160 0.119295 0.123201
0.087739 0.119631 0.123354
0.091310 0.120485 0.123232
0.098817 0.121645 0.123751
0.112703 0.124849 0.124697
0.130495 0.128145 0.125643
0.151247 0.132204 0.127626
0.176150 0.137087 0.129549
0.205295 0.143221 0.131868
0.238437 0.150118 0.134646
0.275120 0.158328 0.137362
0.314305 0.167514 0.141115
0.355413 0.177768 0.147005
0.398352 0.189151 0.153780
0.444282 0.201511 0.161532
0.494118 0.213413 0.170565
0.550195 0.223880 0.180636
0.606867 0.230900 0.191348
0.660792 0.237278 0.202884
0.708736 0.245518 0.215915
0.749966 0.257053 0.230350
0.785153 0.271427 0.246738
0.815366 0.288670 0.264836
0.841642 0.308202 0.285283
0.865537 0.329320 0.308385
0.888060 0.351537 0.333989
0.909911 0.374456 0.361822
0.931548 0.397803 0.390692
0.952483 0.421942 0.419379
0.971710 0.447120 0.446601
0.988434 0.474647 0.472816
0.087709 0.130648 0.125277
0.087617 0.131044 0.125216
0.089235 0.131624 0.125154
0.093599 0.132692 0.125154
0.101198 0.134066 0.125277
0.112276 0.135592 0.125826
0.131685 0.141756 0.126253
0.155520 0.147311 0.126619
0.182193 0.152895 0.127474
0.211337 0.159457 0.129671
0.244327 0.167239 0.132082
0.280735 0.175753 0.135195
0.319524 0.185000 0.140169
0.360204 0.195743 0.145907
0.402930 0.207584 0.152804
0.448707 0.219791 0.160586
0.500237 0.232273 0.169802
0.555444 0.241642 0.179812
0.611383 0.248081 0.190585
0.664485 0.253880 0.202213
0.711666 0.261753 0.215457
0.752316 0.272587 0.230289
0.807523 0.299718 0.259312
0.834073 0.316991 0.279057
0.857633 0.335454 0.300725
0.879454 0.354833 0.324651
0.900359 0.374914 0.350713
0.920897 0.395544 0.377996
0.941253 0.416907 0.405524
0.960601 0.439368 0.432227
0.978058 0.463508 0.457710
0.993011 0.489906 0.482002
0.088075 0.149233 0.127047
0.089357 0.149599 0.126986
0.091829 0.150179 0.127047
0.096986 0.151492 0.126833
0.105287 0.153353 0.126833
0.118349 0.155184 0.126925
0.133761 0.157656 0.127169
0.159487 0.166720 0.127565
0.188418 0.174472 0.127382
0.221927 0.182650 0.127565
0.257176 0.190829 0.129946
0.293828 0.200015 0.134096
0.332372 0.210056 0.139254
0.372778 0.221164 0.145296
0.415290 0.232944 0.152346
0.462867 0.245579 0.160555
0.515648 0.256901 0.170077
0.571313 0.264866 0.180362
0.626551 0.270268 0.191501
0.678676 0.276005 0.203891
0.725093 0.284520 0.218143
0.765469 0.296056 0.234470
0.800046 0.310826 0.252995
0.829374 0.327703 0.273838
0.854826 0.346014 0.296788
0.877653 0.364660 0.321691
0.899077 0.383581 0.348089
0.919860 0.402869 0.375708
0.940368 0.422919 0.403510
0.959747 0.444312 0.430335
0.977325 0.467475 0.455726
0.992370 0.493294 0.480262
0.090517 0.171847 0.128359
0.092714 0.172366 0.128267
0.095399 0.172824 0.128359
0.101381 0.174105 0.128267
0.110597 0.176089 0.128023
0.123812 0.178225 0.127810
0.140597 0.180728 0.128115
0.159579 0.184024 0.128573
0.190372 0.195743 0.129641
0.224155 0.205600 0.129946
0.261723 0.215702 0.131014
0.302007 0.225711 0.132113
0.339971 0.236027 0.137209
0.379736 0.247105 0.143282
0.423316 0.259281 0.150454
0.471748 0.271641 0.158846
0.522789 0.281346 0.168460
0.576959 0.287816 0.178561
0.630426 0.292485 0.189639
0.680995 0.297826 0.202182
0.726162 0.305455 0.216526
0.765591 0.316014 0.232578
0.799527 0.329168 0.251041
0.828519 0.344213 0.271702
0.853880 0.360388 0.294285
0.876677 0.377264 0.319463
0.898131 0.394385 0.345892
0.919005 0.411872 0.373449
0.939605 0.430610 0.401465
0.959106 0.450660 0.428260
0.976745 0.473091 0.454078
0.991913 0.498207 0.478737
0.095155 0.200259 0.130404
0.097475 0.200656 0.130495
0.100832 0.201328 0.130526
0.107454 0.202548 0.130556
0.117617 0.204746 0.130404
0.130800 0.207340 0.130587
0.148745 0.209964 0.131106
0.169009 0.213352 0.131716
0.191867 0.217136 0.132540
0.227634 0.231449 0.133913
0.265232 0.243442 0.134554
0.305333 0.254948 0.135439
0.347204 0.266423 0.136995
0.390845 0.278202 0.140688
0.435767 0.290471 0.148196
0.482643 0.300603 0.156863
0.532555 0.308415 0.166232
0.585595 0.313695 0.176699
0.637293 0.317754 0.187686
0.685908 0.322423 0.200565
0.729335 0.329503 0.214786
0.767514 0.338933 0.231205
0.800595 0.350530 0.249607
0.828977 0.363714 0.270054
0.853971 0.377905 0.293065
0.876616 0.392401 0.318029
0.898009 0.407538 0.344610
0.918853 0.423194 0.372259
0.939422 0.440314 0.400153
0.958862 0.459205 0.427192
0.976471 0.480385 0.452796
0.991608 0.504601 0.477485
0.100740 0.234409 0.134646
0.103456 0.234806 0.134676
0.106844 0.235447 0.134676
0.114290 0.236545 0.134707
0.125246 0.238651 0.134798
0.139284 0.241276 0.134676
0.157259 0.244358 0.135012
0.178927 0.247654 0.135744
0.202945 0.251713 0.136629
0.229038 0.256413 0.137667
0.268620 0.272618 0.139773
0.308904 0.285679 0.140169
0.352636 0.299626 0.141817
0.398596 0.312413 0.143954
0.447395 0.323430 0.146395
0.495308 0.331914 0.154025
0.545464 0.338231 0.163912
0.597711 0.342596 0.174441
0.647639 0.346075 0.185916
0.693660 0.350256 0.198917
0.734554 0.356420 0.213352
0.770535 0.364294 0.229587
0.801907 0.373663 0.247807
0.829160 0.384436 0.268254
0.853513 0.396124 0.290745
0.876005 0.408392 0.315679
0.897429 0.421424 0.342412
0.918486 0.435462 0.370336
0.939208 0.451209 0.398840
0.958862 0.469154 0.426123
0.976562 0.489601 0.452125
0.991791 0.513115 0.476936
0.107240 0.272953 0.140078
0.110018 0.273411 0.139925
0.114137 0.273960 0.140078
0.121920 0.275151 0.140017
0.133700 0.277256 0.139986
0.148684 0.279942 0.139925
0.166445 0.283574 0.139986
0.189364 0.286961 0.140810
0.214633 0.290806 0.141634
0.241886 0.295445 0.142824
0.272068 0.301976 0.144503
0.316197 0.320500 0.147341
0.359167 0.334295 0.148409
0.404608 0.346899 0.149935
0.452918 0.357702 0.152285
0.503746 0.365393 0.155520
0.557671 0.369879 0.160159
0.608331 0.373175 0.171237
0.656092 0.375860 0.183078
0.699855 0.379370 0.196353
0.738979 0.384466 0.211307
0.773678 0.390845 0.227695
0.804044 0.398535 0.246403
0.830625 0.407263 0.266972
0.854582 0.416663 0.290013
0.876738 0.426673 0.314946
0.897978 0.437537 0.341650
0.918822 0.449622 0.369390
0.939422 0.463752 0.397742
0.958892 0.480232 0.424964
0.976532 0.499641 0.451057
0.991669 0.522393 0.475959
0.115969 0.315770 0.146609
0.118898 0.316289 0.146609
0.123140 0.316716 0.146731
0.131502 0.317906 0.146609
0.144015 0.319860 0.146670
0.159579 0.322454 0.146609
0.178225 0.325872 0.146548
0.200443 0.329473 0.146822
0.227756 0.334112 0.148226
0.257267 0.339849 0.149508
0.288304 0.345769 0.151308
0.320653 0.352056 0.153140
0.385290 0.387030 0.160372
0.433661 0.400305 0.161166
0.484077 0.410071 0.163180
0.537621 0.416266 0.166232
0.593072 0.418952 0.170077
0.645106 0.418830 0.175174
0.688808 0.418738 0.185214
0.726467 0.420386 0.199802
0.760250 0.423072 0.216129
0.790341 0.426856 0.233799
0.816922 0.431586 0.252903
0.840879 0.437293 0.274357
0.863066 0.443824 0.297673
0.884062 0.451392 0.322911
0.904387 0.460029 0.349584
0.924498 0.470344 0.376745
0.944152 0.482856 0.403906
0.962646 0.497993 0.430030
0.979309 0.516197 0.455055
0.993561 0.537652 0.479316
0.128725 0.365911 0.155489
0.131746 0.366186 0.155642
0.135897 0.366400 0.155367
0.144839 0.367071 0.155428
0.157900 0.368292 0.155123
0.174594 0.371160 0.155398
0.194461 0.374914 0.155459
0.216983 0.379400 0.155581
0.245060 0.384253 0.156680
0.276036 0.389929 0.158358
0.308965 0.396857 0.160311
0.343816 0.404456 0.162509
0.380896 0.412665 0.164981
0.434394 0.433295 0.169955
0.486366 0.445075 0.171206
0.540764 0.451942 0.173678
0.595789 0.454688 0.177615
0.646601 0.454292 0.182284
0.691432 0.452827 0.188540
0.731258 0.451179 0.196262
0.763607 0.451972 0.212802
0.792569 0.453651 0.230869
0.818265 0.456428 0.250584
0.841672 0.460029 0.272160
0.863462 0.464637 0.295720
0.884215 0.470283 0.321050
0.904417 0.477363 0.347570
0.924437 0.486152 0.374884
0.944060 0.497261 0.401984
0.962554 0.511284 0.428382
0.979187 0.528466 0.453559
0.993469 0.548791 0.478065
0.144137 0.415015 0.165438
0.147524 0.415473 0.165255
0.151736 0.415747 0.165347
0.160922 0.416571 0.165194
0.173922 0.417853 0.165194
0.190890 0.419745 0.165164
0.210819 0.422492 0.165133
0.233219 0.426184 0.164950
0.258518 0.430854 0.165225
0.289616 0.436133 0.166751
0.322332 0.442420 0.168460
0.357275 0.449744 0.170535
0.394293 0.457130 0.172854
0.433722 0.464088 0.175113
0.489693 0.480171 0.181155
0.544945 0.487129 0.183139
0.598962 0.489265 0.186191
0.648585 0.488533 0.190951
0.692317 0.486397 0.197177
0.731136 0.484169 0.204868
0.765835 0.482002 0.214389
0.795560 0.480903 0.228458
0.820462 0.481819 0.248692
0.843351 0.483772 0.270634
0.864744 0.486793 0.294438
0.885252 0.490913 0.319890
0.905333 0.496468 0.346563
0.925261 0.503838 0.373907
0.944701 0.513878 0.401282
0.963043 0.526818 0.427558
0.979522 0.542840 0.452918
0.993744 0.561883 0.477516
0.161746 0.466682 0.175814
0.165194 0.467079 0.175631
0.169345 0.467109 0.175631
0.178317 0.467597 0.175387
0.191135 0.468208 0.175235
0.207584 0.469520 0.175143
0.227085 0.471534 0.174807
0.248997 0.474495 0.174807
0.273228 0.478614 0.174777
0.302007 0.483467 0.175692
0.334722 0.488808 0.177401
0.369665 0.494789 0.179751
0.406714 0.500816 0.182132
0.446662 0.506157 0.184726
0.489723 0.510185 0.187259
0.549187 0.520195 0.193973
0.603967 0.522576 0.197452
0.652003 0.521172 0.201266
0.694270 0.518700 0.207370
0.731991 0.516075 0.215274
0.765713 0.513420 0.224704
0.795682 0.510918 0.235630
0.822385 0.508415 0.248234
0.845212 0.508415 0.269017
0.866270 0.509972 0.293400
0.886656 0.512840 0.319280
0.906798 0.517296 0.346349
0.926879 0.523857 0.374334
0.946380 0.533104 0.401953
0.964691 0.545251 0.428748
0.981048 0.560388 0.454475
0.995026 0.578241 0.479316
0.180972 0.516075 0.187015
0.184146 0.516533 0.187259
0.187991 0.516777 0.187106
0.196872 0.517235 0.186954
0.209506 0.517906 0.186740
0.225681 0.519188 0.186679
0.244694 0.521050 0.186648
0.266178 0.523735 0.186709
0.289982 0.526970 0.186862
0.315862 0.530938 0.187167
0.348028 0.534417 0.188846
0.382544 0.538170 0.191104
0.418982 0.541558 0.193606
0.458503 0.544457 0.196201
0.501244 0.546441 0.198642
0.547662 0.547234 0.201144
0.606226 0.552880 0.208927
0.655451 0.553063 0.214420
0.696895 0.550713 0.219608
0.733822 0.548180 0.227420
0.766812 0.545586 0.237003
0.796231 0.542840 0.248386
0.822507 0.540124 0.261326
0.846799 0.537591 0.276127
0.869383 0.535790 0.293950
0.889555 0.537530 0.320439
0.909545 0.540764 0.348028
0.929381 0.546197 0.375830
0.948577 0.554192 0.403510
0.966400 0.564752 0.429847
0.982269 0.578149 0.455360
0.995758 0.594202 0.480079
0.201480 0.559136 0.200259
0.204318 0.559319 0.200229
0.208164 0.559350 0.200229
0.216098 0.559655 0.200137
0.227970 0.560143 0.200076
0.243198 0.561028 0.199985
0.261234 0.562432 0.200015
0.281895 0.564172 0.200015
0.304784 0.566522 0.200412
0.329808 0.569360 0.200687
0.358831 0.572442 0.202060
0.393042 0.575036 0.204227
0.429816 0.577630 0.206912
0.469368 0.579492 0.209659
0.512169 0.580560 0.212345
0.557733 0.580529 0.215122
0.604395 0.579828 0.217777
0.656825 0.583581 0.226017
0.699153 0.583276 0.234073
0.734920 0.580621 0.240574
0.766934 0.577844 0.249943
0.795438 0.574884 0.261326
0.821195 0.571801 0.274693
0.845243 0.568933 0.289494
0.868193 0.566247 0.305791
0.890562 0.564050 0.323400
0.911345 0.564874 0.347814
0.931151 0.568933 0.376165
0.950164 0.575433 0.403723
0.967773 0.584649 0.430365
0.983368 0.596460 0.456001
0.996612 0.610895 0.481086
0.223880 0.598016 0.216190
0.226688 0.598413 0.216281
0.238346 0.611566 0.222751
0.245579 0.611597 0.222629
0.256504 0.611780 0.222538
0.270542 0.612024 0.222293
0.287388 0.612482 0.222171
0.306889 0.613245 0.222049
0.328923 0.614588 0.222385
0.353277 0.616266 0.222721
0.379950 0.618372 0.223117
0.412634 0.619989 0.225132
0.449531 0.621027 0.227512
0.489509 0.621668 0.230076
0.532494 0.621637 0.232700
0.577050 0.620996 0.235386
0.621454 0.619959 0.238346
0.664027 0.618891 0.241123
0.707332 0.621363 0.251011
0.742245 0.619776 0.261570
0.771969 0.615839 0.269902
0.798856 0.611780 0.280644
0.823484 0.607813 0.293767
0.846586 0.603937 0.308537
0.868681 0.600061 0.324102
0.890349 0.596887 0.340673
0.912016 0.594263 0.358282
0.933440 0.593103 0.377234
0.951934 0.597772 0.404486
0.969177 0.605066 0.430915
0.984466 0.615106 0.456641
0.997345 0.627680 0.481727
0.248295 0.637629 0.235904
0.251621 0.639429 0.236881
0.255802 0.641169 0.237675
0.263371 0.642847 0.238621
0.274144 0.644251 0.239292
0.287510 0.645136 0.239567
0.303410 0.645838 0.239536
0.321935 0.646601 0.239780
0.342840 0.647791 0.240024
0.366125 0.649226 0.240452
0.391974 0.651026 0.240909
0.420600 0.652796 0.241917
0.457099 0.653559 0.244388
0.496559 0.653773 0.247013
0.538537 0.653498 0.249912
0.581476 0.652583 0.252750
0.623987 0.651453 0.255619
0.664576 0.650446 0.259129
0.703151 0.649744 0.263249
0.741054 0.651423 0.274388
0.771389 0.648981 0.288090
0.797787 0.644739 0.298192
0.822202 0.640223 0.309972
0.845121 0.635920 0.324651
0.867155 0.631678 0.339940
0.888884 0.627893 0.356176
0.910582 0.624842 0.373205
0.932097 0.622889 0.391180
0.952728 0.622614 0.409583
0.970794 0.626154 0.431891
0.985718 0.634363 0.457679
0.998138 0.644800 0.482734
0.269047 0.671901 0.255222
0.272068 0.673518 0.256291
0.276097 0.675044 0.257206
0.282902 0.676570 0.258305
0.292760 0.677852 0.258946
0.305211 0.678614 0.259434
0.320256 0.679164 0.259495
0.337682 0.679805 0.259739
0.357641 0.680720 0.260014
0.380072 0.681910 0.260655
0.405035 0.683345 0.261448
0.432685 0.684749 0.262211
0.465522 0.685420 0.264286
0.504479 0.685298 0.267124
0.545220 0.684565 0.270054
0.586450 0.683406 0.273228
0.627039 0.682094 0.276677
0.665614 0.680873 0.280613
0.702358 0.679957 0.284977
0.737362 0.679591 0.290043
0.770871 0.680140 0.302312
0.797208 0.676753 0.318273
0.821225 0.671931 0.329625
0.843992 0.667048 0.342535
0.865934 0.662226 0.357000
0.887572 0.657832 0.372381
0.909209 0.654108 0.388434
0.930694 0.651453 0.405188
0.951202 0.650294 0.422553
0.970031 0.651026 0.440620
0.986664 0.653803 0.459297
0.998871 0.661799 0.483406
0.290593 0.704677 0.277714
0.293553 0.705989 0.278965
0.297185 0.707393 0.280064
0.303685 0.708675 0.281315
0.312840 0.709682 0.282017
0.324437 0.710231 0.282506
0.338415 0.710658 0.282658
0.354833 0.711086 0.283116
0.373907 0.711604 0.283482
0.395422 0.712306 0.284123
0.419532 0.713130 0.285039
0.446296 0.713924 0.286168
0.475624 0.714473 0.287022
0.512657 0.714015 0.290135
0.552117 0.713069 0.293339
0.591760 0.711879 0.297185
0.630701 0.710719 0.301183
0.667964 0.709804 0.306096
0.703426 0.709163 0.311437
0.737392 0.708858 0.317784
0.769863 0.708888 0.324529
0.800351 0.708949 0.337957
0.823880 0.704585 0.355596
0.846525 0.699397 0.367834
0.868620 0.694179 0.380713
0.890379 0.689296 0.394873
0.912078 0.684993 0.409888
0.933227 0.681758 0.425452
0.953246 0.680018 0.441840
0.971374 0.679988 0.458869
0.987091 0.681849 0.476448
0.999939 0.685725 0.494209
0.318761 0.738827 0.308934
0.321080 0.739345 0.309636
0.323796 0.739803 0.310033
0.329351 0.740230 0.310521
0.337407 0.740505 0.310979
0.348119 0.740597 0.311131
0.361181 0.740780 0.311589
0.376806 0.740932 0.311986
0.395209 0.741360 0.312810
0.416175 0.741787 0.313695
0.439918 0.742275 0.315038
0.466163 0.742611 0.316411
0.494728 0.742641 0.317601
0.526482 0.742153 0.319524
0.563775 0.740780 0.322850
0.601007 0.739223 0.326635
0.637171 0.737728 0.330694
0.671809 0.736385 0.335332
0.704921 0.735348 0.340581
0.736660 0.734524 0.346258
0.767208 0.733913 0.352575
0.796750 0.733516 0.359045
0.824887 0.732540 0.371221
0.846098 0.726772 0.387945
0.867918 0.721096 0.399268
0.889677 0.715755 0.411414
0.911406 0.710903 0.424872
0.932464 0.707271 0.439796
0.952300 0.704982 0.455299
0.970184 0.704463 0.471717
0.985504 0.705592 0.488411
0.998047 0.709163 0.505913
0.345861 0.763699 0.337743
0.348119 0.764187 0.338537
0.350805 0.764553 0.339239
0.355962 0.764828 0.339666
0.363561 0.764981 0.340093
0.373419 0.764920 0.340307
0.385534 0.764858 0.340429
0.400122 0.764767 0.340764
0.417517 0.764736 0.341375
0.437537 0.764828 0.342473
0.460182 0.764858 0.343572
0.485267 0.764797 0.344945
0.511925 0.764523 0.346227
0.540215 0.764065 0.347631
0.573083 0.762966 0.350317
0.607904 0.761501 0.354040
0.641688 0.760067 0.358312
0.674189 0.758816 0.362829
0.705501 0.757809 0.368048
0.735622 0.757015 0.373480
0.764584 0.756527 0.379553
0.792844 0.756222 0.385901
0.821225 0.755978 0.392584
0.848875 0.754696 0.403357
0.866667 0.746334 0.416114
0.888334 0.740597 0.427131
0.910094 0.735500 0.439338
0.931151 0.731289 0.452583
0.950774 0.728695 0.467628
0.968444 0.727657 0.483314
0.983581 0.728664 0.499825
0.995911 0.732082 0.517327
0.382116 0.788052 0.372045
0.384436 0.788449 0.372747
0.386969 0.788693 0.373297
0.391485 0.788754 0.373510
0.398169 0.788602 0.373571
0.407019 0.788327 0.373602
0.418006 0.787961 0.373449
0.431403 0.787503 0.373388
0.447303 0.786984 0.373449
0.465766 0.786496 0.373877
0.486275 0.785977 0.374426
0.508904 0.785489 0.375189
0.533104 0.784848 0.376043
0.558434 0.784085 0.376806
0.584344 0.783169 0.377752
0.615747 0.781460 0.380560
0.646387 0.779812 0.383795
0.676265 0.778439 0.387610
0.705440 0.777462 0.392126
0.733883 0.776791 0.397284
0.761471 0.776455 0.402991
0.788388 0.776272 0.408972
0.815274 0.776059 0.415015
0.842863 0.775540 0.420935
0.870146 0.773831 0.430030
0.888792 0.766293 0.444862
0.910155 0.760739 0.455848
0.930816 0.756130 0.467903
0.950072 0.752956 0.481300
0.967193 0.751492 0.496101
0.981933 0.752255 0.512291
0.993896 0.755642 0.529900
0.417151 0.806699 0.399634
0.419471 0.807065 0.400336
0.421942 0.807248 0.400855
0.426154 0.807279 0.401038
0.432349 0.807126 0.401068
0.440620 0.806851 0.401160
0.450965 0.806455 0.401190
0.463478 0.806027 0.401343
0.478279 0.805600 0.401556
0.495277 0.805173 0.402045
0.514061 0.804746 0.402747
0.534813 0.804288 0.403510
0.556756 0.803799 0.404578
0.579522 0.803250 0.405676
0.602686 0.802579 0.406714
0.627802 0.801633 0.408331
0.655756 0.800320 0.411536
0.683162 0.799161 0.414984
0.710048 0.798367 0.419135
0.736416 0.797879 0.423865
0.762112 0.797604 0.428931
0.787533 0.797513 0.434485
0.813016 0.797452 0.440009
0.839200 0.797208 0.445563
0.866758 0.796658 0.451362
0.894438 0.794949 0.459510
0.911528 0.786893 0.473884
0.931731 0.782132 0.485359
0.950317 0.778622 0.497871
0.966918 0.776883 0.511772
0.981018 0.777523 0.527703
0.992309 0.780850 0.545434
0.458412 0.824826 0.427192
0.460304 0.825040 0.427680
0.462379 0.825071 0.427955
0.465888 0.824979 0.427955
0.471168 0.824704 0.427955
0.478279 0.824369 0.427802
0.487221 0.823941 0.427680
0.498360 0.823453 0.427649
0.511406 0.823026 0.427832
0.526452 0.822599 0.428260
0.543206 0.822232 0.429023
0.561608 0.821897 0.429938
0.580957 0.821592 0.430976
0.601007 0.821195 0.432105
0.621180 0.820737 0.433051
0.641688 0.820279 0.434089
0.665614 0.819364 0.436439
0.690547 0.818418 0.439765
0.715175 0.817807 0.443519
0.739406 0.817472 0.447730
0.763424 0.817380 0.452461
0.787289 0.817411 0.457557
0.811460 0.817472 0.462837
0.836423 0.817380 0.468299
0.862608 0.817014 0.473823
0.890227 0.816312 0.479530
0.917174 0.814878 0.487251
0.932006 0.806790 0.500755
0.949584 0.802731 0.512932
0.965698 0.800809 0.526604
0.979370 0.801022 0.541955
0.990204 0.803922 0.559258
0.499702 0.841337 0.452125
0.501305 0.841459 0.452491
0.503014 0.841489 0.452552
0.506188 0.841428 0.452766
0.511101 0.841306 0.452796
0.517967 0.841184 0.453162
0.526696 0.841123 0.453651
0.537530 0.841184 0.454566
0.550195 0.841276 0.455665
0.564355 0.841428 0.457069
0.579889 0.841642 0.458686
0.596277 0.841886 0.460304
0.613306 0.842100 0.462043
0.630732 0.842222 0.463722
0.648463 0.842191 0.465278
0.666072 0.842100 0.466560
0.684413 0.841917 0.468025
0.706416 0.841306 0.471168
0.728359 0.840848 0.474739
0.750240 0.840635 0.478798
0.772091 0.840574 0.483314
0.794278 0.840604 0.488258
0.817044 0.840574 0.493385
0.840696 0.840391 0.498634
0.865507 0.839811 0.503990
0.891478 0.838987 0.509422
0.917540 0.838102 0.515068
0.941527 0.837034 0.522484
0.953277 0.829648 0.535607
0.967163 0.826810 0.549126
0.979553 0.826627 0.564202
0.989227 0.828885 0.580621
0.550713 0.859983 0.481758
0.551843 0.860044 0.481880
0.553124 0.860014 0.481971
0.555505 0.859861 0.481971
0.559319 0.859678 0.481880
0.564477 0.859464 0.481941
0.571283 0.859281 0.482216
0.579431 0.859159 0.482551
0.589105 0.859068 0.483101
0.600214 0.859007 0.484047
0.612360 0.859007 0.485054
0.625544 0.859007 0.486183
0.639399 0.859037 0.487404
0.653956 0.859037 0.488716
