cubelut/Cinematic-10.cube
# Created by Adobe Lightroom plugin Export LUT (1.18.0)
# www.johnrellis.com/lightroom/exportlut.htm
# Preset: Cinematic 10
# Color profile: /Library/Application Support/Adobe/Color/Profiles/Recommended/AdobeRGB1998.icc
LUT_3D_SIZE 32
DOMAIN_MIN 0.0 0.0 0.0
DOMAIN_MAX 1.0 1.0 1.0
0.111452 0.111452 0.111452
0.112245 0.112245 0.112245
0.113375 0.113375 0.113375
0.116182 0.116182 0.116182
0.119936 0.119936 0.119936
0.124086 0.124086 0.124086
0.129061 0.129061 0.129061
0.134737 0.134737 0.134737
0.141451 0.141451 0.141451
0.149691 0.149691 0.149691
0.159579 0.159579 0.159579
0.171908 0.171908 0.171908
0.186954 0.186954 0.186954
0.205539 0.205539 0.205539
0.227359 0.227359 0.227359
0.251926 0.251926 0.251926
0.279149 0.279149 0.279149
0.308721 0.308721 0.308721
0.339971 0.339971 0.339971
0.373602 0.373602 0.373602
0.409552 0.409552 0.409552
0.447486 0.447486 0.447486
0.487007 0.487007 0.487007
0.528038 0.528038 0.528038
0.570459 0.570459 0.570459
0.614557 0.614557 0.614557
0.660151 0.660151 0.660151
0.706691 0.706691 0.706691
0.750820 0.750820 0.750820
0.790311 0.790311 0.790311
0.825315 0.825315 0.825315
0.854734 0.854734 0.854734
0.113191 0.113191 0.113191
0.113741 0.113741 0.113741
0.115053 0.115053 0.115053
0.117983 0.117983 0.117983
0.121523 0.121523 0.121523
0.125765 0.125765 0.125765
0.130678 0.130678 0.130678
0.136416 0.136416 0.136416
0.143160 0.143160 0.143160
0.151308 0.151308 0.151308
0.161349 0.161349 0.161349
0.173861 0.173861 0.173861
0.189120 0.189120 0.189120
0.207919 0.207919 0.207919
0.229709 0.229709 0.229709
0.254520 0.254520 0.254520
0.281682 0.281682 0.281682
0.311101 0.311101 0.311101
0.342412 0.342412 0.342412
0.375891 0.375891 0.375891
0.411780 0.411780 0.411780
0.449500 0.449500 0.449500
0.488930 0.488930 0.488930
0.529839 0.529839 0.529839
0.572229 0.572229 0.572229
0.616205 0.616205 0.616205
0.661585 0.661585 0.661585
0.707973 0.707973 0.707973
0.751888 0.751888 0.751888
0.791196 0.791196 0.791196
0.825986 0.825986 0.825986
0.855222 0.855222 0.855222
0.115785 0.115785 0.115785
0.116365 0.116365 0.116365
0.117250 0.117250 0.117250
0.120302 0.120302 0.120302
0.123934 0.123934 0.123934
0.128237 0.128237 0.128237
0.133028 0.133028 0.133028
0.138491 0.138491 0.138491
0.145296 0.145296 0.145296
0.153689 0.153689 0.153689
0.163912 0.163912 0.163912
0.176547 0.176547 0.176547
0.192050 0.192050 0.192050
0.211093 0.211093 0.211093
0.233097 0.233097 0.233097
0.257786 0.257786 0.257786
0.285222 0.285222 0.285222
0.314519 0.314519 0.314519
0.345647 0.345647 0.345647
0.378973 0.378973 0.378973
0.414832 0.414832 0.414832
0.452338 0.452338 0.452338
0.491585 0.491585 0.491585
0.532250 0.532250 0.532250
0.574578 0.574578 0.574578
0.618280 0.618280 0.618280
0.663600 0.663600 0.663600
0.709773 0.709773 0.709773
0.753353 0.753353 0.753353
0.792386 0.792386 0.792386
0.826871 0.826871 0.826871
0.855894 0.855894 0.855894
0.121706 0.121706 0.121706
0.122225 0.122225 0.122225
0.123079 0.123079 0.123079
0.125277 0.125277 0.125277
0.129885 0.129885 0.129885
0.133639 0.133639 0.133639
0.138216 0.138216 0.138216
0.143587 0.143587 0.143587
0.150515 0.150515 0.150515
0.158968 0.158968 0.158968
0.169497 0.169497 0.169497
0.182650 0.182650 0.182650
0.198825 0.198825 0.198825
0.218204 0.218204 0.218204
0.240269 0.240269 0.240269
0.265324 0.265324 0.265324
0.292546 0.292546 0.292546
0.321782 0.321782 0.321782
0.352758 0.352758 0.352758
0.385840 0.385840 0.385840
0.421271 0.421271 0.421271
0.458503 0.458503 0.458503
0.497414 0.497414 0.497414
0.537621 0.537621 0.537621
0.579614 0.579614 0.579614
0.623072 0.623072 0.623072
0.667964 0.667964 0.667964
0.713649 0.713649 0.713649
0.756497 0.756497 0.756497
0.794858 0.794858 0.794858
0.828733 0.828733 0.828733
0.857359 0.857359 0.857359
0.130831 0.130831 0.130831
0.131289 0.131289 0.131289
0.132082 0.132082 0.132082
0.133791 0.133791 0.133791
0.137026 0.137026 0.137026
0.142733 0.142733 0.142733
0.146822 0.146822 0.146822
0.152255 0.152255 0.152255
0.159091 0.159091 0.159091
0.167971 0.167971 0.167971
0.179080 0.179080 0.179080
0.192966 0.192966 0.192966
0.209751 0.209751 0.209751
0.229465 0.229465 0.229465
0.251926 0.251926 0.251926
0.276951 0.276951 0.276951
0.304082 0.304082 0.304082
0.333135 0.333135 0.333135
0.363836 0.363836 0.363836
0.396582 0.396582 0.396582
0.431373 0.431373 0.431373
0.468086 0.468086 0.468086
0.506310 0.506310 0.506310
0.546197 0.546197 0.546197
0.587488 0.587488 0.587488
0.630426 0.630426 0.630426
0.674800 0.674800 0.674800
0.719600 0.719600 0.719600
0.761227 0.761227 0.761227
0.798703 0.798703 0.798703
0.831693 0.831693 0.831693
0.859586 0.859586 0.859586
0.141726 0.141726 0.141726
0.142153 0.142153 0.142153
0.142885 0.142885 0.142885
0.144594 0.144594 0.144594
0.147524 0.147524 0.147524
0.151980 0.151980 0.151980
0.160220 0.160220 0.160220
0.165347 0.165347 0.165347
0.172274 0.172274 0.172274
0.181460 0.181460 0.181460
0.193362 0.193362 0.193362
0.207919 0.207919 0.207919
0.225315 0.225315 0.225315
0.245426 0.245426 0.245426
0.267918 0.267918 0.267918
0.292882 0.292882 0.292882
0.319890 0.319890 0.319890
0.348547 0.348547 0.348547
0.378668 0.378668 0.378668
0.410773 0.410773 0.410773
0.444953 0.444953 0.444953
0.480720 0.480720 0.480720
0.518151 0.518151 0.518151
0.557305 0.557305 0.557305
0.597955 0.597955 0.597955
0.640131 0.640131 0.640131
0.683925 0.683925 0.683925
0.727352 0.727352 0.727352
0.767544 0.767544 0.767544
0.803769 0.803769 0.803769
0.835508 0.835508 0.835508
0.862547 0.862547 0.862547
0.155398 0.155398 0.155398
0.155917 0.155917 0.155917
0.156802 0.156802 0.156802
0.158450 0.158450 0.158450
0.161227 0.161227 0.161227
0.165713 0.165713 0.165713
0.171695 0.171695 0.171695
0.184115 0.184115 0.184115
0.191043 0.191043 0.191043
0.200748 0.200748 0.200748
0.213046 0.213046 0.213046
0.228183 0.228183 0.228183
0.245792 0.245792 0.245792
0.266026 0.266026 0.266026
0.288426 0.288426 0.288426
0.313176 0.313176 0.313176
0.339788 0.339788 0.339788
0.367773 0.367773 0.367773
0.397162 0.397162 0.397162
0.428504 0.428504 0.428504
0.461616 0.461616 0.461616
0.496407 0.496407 0.496407
0.532921 0.532921 0.532921
0.571191 0.571191 0.571191
0.611048 0.611048 0.611048
0.652277 0.652277 0.652277
0.695033 0.695033 0.695033
0.736843 0.736843 0.736843
0.775174 0.775174 0.775174
0.809934 0.809934 0.809934
0.840146 0.840146 0.840146
0.866148 0.866148 0.866148
0.173190 0.173190 0.173190
0.173861 0.173861 0.173861
0.174746 0.174746 0.174746
0.176547 0.176547 0.176547
0.179507 0.179507 0.179507
0.183810 0.183810 0.183810
0.190341 0.190341 0.190341
0.198642 0.198642 0.198642
0.216312 0.216312 0.216312
0.226383 0.226383 0.226383
0.238743 0.238743 0.238743
0.253849 0.253849 0.253849
0.271366 0.271366 0.271366
0.291386 0.291386 0.291386
0.313573 0.313573 0.313573
0.337804 0.337804 0.337804
0.363684 0.363684 0.363684
0.390875 0.390875 0.390875
0.419257 0.419257 0.419257
0.449317 0.449317 0.449317
0.481300 0.481300 0.481300
0.514916 0.514916 0.514916
0.550439 0.550439 0.550439
0.587640 0.587640 0.587640
0.626337 0.626337 0.626337
0.666773 0.666773 0.666773
0.707912 0.707912 0.707912
0.747616 0.747616 0.747616
0.783902 0.783902 0.783902
0.816953 0.816953 0.816953
0.845579 0.845579 0.845579
0.870329 0.870329 0.870329
0.197086 0.197086 0.197086
0.197665 0.197665 0.197665
0.198734 0.198734 0.198734
0.200748 0.200748 0.200748
0.204044 0.204044 0.204044
0.208560 0.208560 0.208560
0.215091 0.215091 0.215091
0.223636 0.223636 0.223636
0.234195 0.234195 0.234195
0.253361 0.253361 0.253361
0.270573 0.270573 0.270573
0.285100 0.285100 0.285100
0.302342 0.302342 0.302342
0.321843 0.321843 0.321843
0.343359 0.343359 0.343359
0.366705 0.366705 0.366705
0.391516 0.391516 0.391516
0.417639 0.417639 0.417639
0.444556 0.444556 0.444556
0.473152 0.473152 0.473152
0.503777 0.503777 0.503777
0.536187 0.536187 0.536187
0.570397 0.570397 0.570397
0.606439 0.606439 0.606439
0.644099 0.644099 0.644099
0.683101 0.683101 0.683101
0.722469 0.722469 0.722469
0.759548 0.759548 0.759548
0.793668 0.793668 0.793668
0.824735 0.824735 0.824735
0.851530 0.851530 0.851530
0.875029 0.875029 0.875029
0.227756 0.227756 0.227756
0.228519 0.228519 0.228519
0.229465 0.229465 0.229465
0.231724 0.231724 0.231724
0.235233 0.235233 0.235233
0.239963 0.239963 0.239963
0.246098 0.246098 0.246098
0.254520 0.254520 0.254520
0.265324 0.265324 0.265324
0.277714 0.277714 0.277714
0.296788 0.296788 0.296788
0.321691 0.321691 0.321691
0.338018 0.338018 0.338018
0.356603 0.356603 0.356603
0.377020 0.377020 0.377020
0.399329 0.399329 0.399329
0.422797 0.422797 0.422797
0.447089 0.447089 0.447089
0.472419 0.472419 0.472419
0.499489 0.499489 0.499489
0.528710 0.528710 0.528710
0.559808 0.559808 0.559808
0.592706 0.592706 0.592706
0.627436 0.627436 0.627436
0.663722 0.663722 0.663722
0.701106 0.701106 0.701106
0.737972 0.737972 0.737972
0.772366 0.772366 0.772366
0.804257 0.804257 0.804257
0.832944 0.832944 0.832944
0.857939 0.857939 0.857939
0.880156 0.880156 0.880156
0.264866 0.264866 0.264866
0.265599 0.265599 0.265599
0.266606 0.266606 0.266606
0.268772 0.268772 0.268772
0.272374 0.272374 0.272374
0.277256 0.277256 0.277256
0.283391 0.283391 0.283391
0.290898 0.290898 0.290898
0.301396 0.301396 0.301396
0.313787 0.313787 0.313787
0.327672 0.327672 0.327672
0.345434 0.345434 0.345434
0.377874 0.377874 0.377874
0.395209 0.395209 0.395209
0.414313 0.414313 0.414313
0.435004 0.435004 0.435004
0.456580 0.456580 0.456580
0.479042 0.479042 0.479042
0.502617 0.502617 0.502617
0.528130 0.528130 0.528130
0.555840 0.555840 0.555840
0.585443 0.585443 0.585443
0.616999 0.616999 0.616999
0.650263 0.650263 0.650263
0.685084 0.685084 0.685084
0.720272 0.720272 0.720272
0.753994 0.753994 0.753994
0.785733 0.785733 0.785733
0.815274 0.815274 0.815274
0.841520 0.841520 0.841520
0.864744 0.864744 0.864744
0.885649 0.885649 0.885649
0.307225 0.307225 0.307225
0.308080 0.308080 0.308080
0.309117 0.309117 0.309117
0.311192 0.311192 0.311192
0.314733 0.314733 0.314733
0.319524 0.319524 0.319524
0.325597 0.325597 0.325597
0.332921 0.332921 0.332921
0.342107 0.342107 0.342107
0.353948 0.353948 0.353948
0.367346 0.367346 0.367346
0.382300 0.382300 0.382300
0.397986 0.397986 0.397986
0.436683 0.436683 0.436683
0.453864 0.453864 0.453864
0.472511 0.472511 0.472511
0.492317 0.492317 0.492317
0.512871 0.512871 0.512871
0.534661 0.534661 0.534661
0.558618 0.558618 0.558618
0.584741 0.584741 0.584741
0.612909 0.612909 0.612909
0.642908 0.642908 0.642908
0.674678 0.674678 0.674678
0.707393 0.707393 0.707393
0.739742 0.739742 0.739742
0.770413 0.770413 0.770413
0.799405 0.799405 0.799405
0.826352 0.826352 0.826352
0.850309 0.850309 0.850309
0.871794 0.871794 0.871794
0.891417 0.891417 0.891417
0.353765 0.353765 0.353765
0.354589 0.354589 0.354589
0.355535 0.355535 0.355535
0.357641 0.357641 0.357641
0.361120 0.361120 0.361120
0.365606 0.365606 0.365606
0.371435 0.371435 0.371435
0.378363 0.378363 0.378363
0.386450 0.386450 0.386450
0.397162 0.397162 0.397162
0.409857 0.409857 0.409857
0.423804 0.423804 0.423804
0.438972 0.438972 0.438972
0.455329 0.455329 0.455329
0.494667 0.494667 0.494667
0.511498 0.511498 0.511498
0.529320 0.529320 0.529320
0.548089 0.548089 0.548089
0.568200 0.568200 0.568200
0.590539 0.590539 0.590539
0.615137 0.615137 0.615137
0.641627 0.641627 0.641627
0.670100 0.670100 0.670100
0.699886 0.699886 0.699886
0.730007 0.730007 0.730007
0.758968 0.758968 0.758968
0.786740 0.786740 0.786740
0.813169 0.813169 0.813169
0.837339 0.837339 0.837339
0.859129 0.859129 0.859129
0.878996 0.878996 0.878996
0.897307 0.897307 0.897307
0.403113 0.403113 0.403113
0.403723 0.403723 0.403723
0.404669 0.404669 0.404669
0.406683 0.406683 0.406683
0.409766 0.409766 0.409766
0.414038 0.414038 0.414038
0.419471 0.419471 0.419471
0.426001 0.426001 0.426001
0.433448 0.433448 0.433448
0.442115 0.442115 0.442115
0.453590 0.453590 0.453590
0.466468 0.466468 0.466468
0.480171 0.480171 0.480171
0.495125 0.495125 0.495125
0.510857 0.510857 0.510857
0.551171 0.551171 0.551171
0.567315 0.567315 0.567315
0.584375 0.584375 0.584375
0.602777 0.602777 0.602777
0.623499 0.623499 0.623499
0.646418 0.646418 0.646418
0.671382 0.671382 0.671382
0.697902 0.697902 0.697902
0.725185 0.725185 0.725185
0.751949 0.751949 0.751949
0.777768 0.777768 0.777768
0.802762 0.802762 0.802762
0.826474 0.826474 0.826474
0.848051 0.848051 0.848051
0.867857 0.867857 0.867857
0.886229 0.886229 0.886229
0.903349 0.903349 0.903349
0.452888 0.452888 0.452888
0.453498 0.453498 0.453498
0.454383 0.454383 0.454383
0.456184 0.456184 0.456184
0.459052 0.459052 0.459052
0.462959 0.462959 0.462959
0.467811 0.467811 0.467811
0.473548 0.473548 0.473548
0.480446 0.480446 0.480446
0.488380 0.488380 0.488380
0.497597 0.497597 0.497597
0.509148 0.509148 0.509148
0.521782 0.521782 0.521782
0.535424 0.535424 0.535424
0.549828 0.549828 0.549828
0.565026 0.565026 0.565026
0.604608 0.604608 0.604608
0.620996 0.620996 0.620996
0.637812 0.637812 0.637812
0.657008 0.657008 0.657008
0.678340 0.678340 0.678340
0.701289 0.701289 0.701289
0.725277 0.725277 0.725277
0.749294 0.749294 0.749294
0.772824 0.772824 0.772824
0.795865 0.795865 0.795865
0.818265 0.818265 0.818265
0.839139 0.839139 0.839139
0.858457 0.858457 0.858457
0.876524 0.876524 0.876524
0.893462 0.893462 0.893462
0.909392 0.909392 0.909392
0.501976 0.501976 0.501976
0.502617 0.502617 0.502617
0.503349 0.503349 0.503349
0.504967 0.504967 0.504967
0.507469 0.507469 0.507469
0.511009 0.511009 0.511009
0.515373 0.515373 0.515373
0.520714 0.520714 0.520714
0.526879 0.526879 0.526879
0.533959 0.533959 0.533959
0.541863 0.541863 0.541863
0.551781 0.551781 0.551781
0.563165 0.563165 0.563165
0.575525 0.575525 0.575525
0.588678 0.588678 0.588678
0.602625 0.602625 0.602625
0.617090 0.617090 0.617090
0.651728 0.651728 0.651728
0.672969 0.672969 0.672969
0.690517 0.690517 0.690517
0.709712 0.709712 0.709712
0.730159 0.730159 0.730159
0.751034 0.751034 0.751034
0.771969 0.771969 0.771969
0.792660 0.792660 0.792660
0.813169 0.813169 0.813169
0.832700 0.832700 0.832700
0.851102 0.851102 0.851102
0.868498 0.868498 0.868498
0.884947 0.884947 0.884947
0.900603 0.900603 0.900603
0.915465 0.915465 0.915465
0.549920 0.549920 0.549920
0.550439 0.550439 0.550439
0.551080 0.551080 0.551080
0.552605 0.552605 0.552605
0.554925 0.554925 0.554925
0.558068 0.558068 0.558068
0.562005 0.562005 0.562005
0.566644 0.566644 0.566644
0.572320 0.572320 0.572320
0.578637 0.578637 0.578637
0.585840 0.585840 0.585840
0.593774 0.593774 0.593774
0.603998 0.603998 0.603998
0.615229 0.615229 0.615229
0.627070 0.627070 0.627070
0.639796 0.639796 0.639796
0.653040 0.653040 0.653040
0.666896 0.666896 0.666896
0.697414 0.697414 0.697414
0.722683 0.722683 0.722683
0.739284 0.739284 0.739284
0.756771 0.756771 0.756771
0.774746 0.774746 0.774746
0.793057 0.793057 0.793057
0.811307 0.811307 0.811307
0.829068 0.829068 0.829068
0.846067 0.846067 0.846067
0.862425 0.862425 0.862425
0.878111 0.878111 0.878111
0.893156 0.893156 0.893156
0.907591 0.907591 0.907591
0.921447 0.921447 0.921447
0.596338 0.596338 0.596338
0.596735 0.596735 0.596735
0.597436 0.597436 0.597436
0.598749 0.598749 0.598749
0.600855 0.600855 0.600855
0.603601 0.603601 0.603601
0.607202 0.607202 0.607202
0.611414 0.611414 0.611414
0.616480 0.616480 0.616480
0.622339 0.622339 0.622339
0.628870 0.628870 0.628870
0.636164 0.636164 0.636164
0.644373 0.644373 0.644373
0.654688 0.654688 0.654688
0.665675 0.665675 0.665675
0.677363 0.677363 0.677363
0.689570 0.689570 0.689570
0.702113 0.702113 0.702113
0.714931 0.714931 0.714931
0.739986 0.739986 0.739986
0.766049 0.766049 0.766049
0.781003 0.781003 0.781003
0.796597 0.796597 0.796597
0.812589 0.812589 0.812589
0.828275 0.828275 0.828275
0.843595 0.843595 0.843595
0.858488 0.858488 0.858488
0.873106 0.873106 0.873106
0.887297 0.887297 0.887297
0.901061 0.901061 0.901061
0.914427 0.914427 0.914427
0.927306 0.927306 0.927306
0.642329 0.642329 0.642329
0.642695 0.642695 0.642695
0.643244 0.643244 0.643244
0.644526 0.644526 0.644526
0.646418 0.646418 0.646418
0.648981 0.648981 0.648981
0.652277 0.652277 0.652277
0.656123 0.656123 0.656123
0.660822 0.660822 0.660822
0.666163 0.666163 0.666163
0.672084 0.672084 0.672084
0.678798 0.678798 0.678798
0.686091 0.686091 0.686091
0.694636 0.694636 0.694636
0.704524 0.704524 0.704524
0.714778 0.714778 0.714778
0.725460 0.725460 0.725460
0.736233 0.736233 0.736233
0.747127 0.747127 0.747127
0.758053 0.758053 0.758053
0.777249 0.777249 0.777249
0.803037 0.803037 0.803037
0.816526 0.816526 0.816526
0.830045 0.830045 0.830045
0.843473 0.843473 0.843473
0.856779 0.856779 0.856779
0.870024 0.870024 0.870024
0.883116 0.883116 0.883116
0.896025 0.896025 0.896025
0.908721 0.908721 0.908721
0.921050 0.921050 0.921050
0.933013 0.933013 0.933013
0.688136 0.688136 0.688136
0.688502 0.688502 0.688502
0.689021 0.689021 0.689021
0.690150 0.690150 0.690150
0.691829 0.691829 0.691829
0.694179 0.694179 0.694179
0.696986 0.696986 0.696986
0.700496 0.700496 0.700496
0.704677 0.704677 0.704677
0.709316 0.709316 0.709316
0.714626 0.714626 0.714626
0.720424 0.720424 0.720424
0.726619 0.726619 0.726619
0.733394 0.733394 0.733394
0.741421 0.741421 0.741421
0.749996 0.749996 0.749996
0.758816 0.758816 0.758816
0.767788 0.767788 0.767788
0.776852 0.776852 0.776852
0.786038 0.786038 0.786038
0.795224 0.795224 0.795224
0.809751 0.809751 0.809751
0.834104 0.834104 0.834104
0.845609 0.845609 0.845609
0.857237 0.857237 0.857237
0.868925 0.868925 0.868925
0.880735 0.880735 0.880735
0.892576 0.892576 0.892576
0.904356 0.904356 0.904356
0.916014 0.916014 0.916014
0.927428 0.927428 0.927428
0.938537 0.938537 0.938537
0.731685 0.731685 0.731685
0.731930 0.731930 0.731930
0.732387 0.732387 0.732387
0.733333 0.733333 0.733333
0.734768 0.734768 0.734768
0.736690 0.736690 0.736690
0.739071 0.739071 0.739071
0.742000 0.742000 0.742000
0.745327 0.745327 0.745327
0.749203 0.749203 0.749203
0.753475 0.753475 0.753475
0.758236 0.758236 0.758236
0.763302 0.763302 0.763302
0.768765 0.768765 0.768765
0.774655 0.774655 0.774655
0.781735 0.781735 0.781735
0.789059 0.789059 0.789059
0.796597 0.796597 0.796597
0.804227 0.804227 0.804227
0.811887 0.811887 0.811887
0.819547 0.819547 0.819547
0.827024 0.827024 0.827024
0.837400 0.837400 0.837400
0.859525 0.859525 0.859525
0.869688 0.869688 0.869688
0.880095 0.880095 0.880095
0.890715 0.890715 0.890715
0.901457 0.901457 0.901457
0.912261 0.912261 0.912261
0.922972 0.922972 0.922972
0.933501 0.933501 0.933501
0.943877 0.943877 0.943877
0.770077 0.770077 0.770077
0.770382 0.770382 0.770382
0.770687 0.770687 0.770687
0.771420 0.771420 0.771420
0.772641 0.772641 0.772641
0.774166 0.774166 0.774166
0.776120 0.776120 0.776120
0.778439 0.778439 0.778439
0.781186 0.781186 0.781186
0.784268 0.784268 0.784268
0.787808 0.787808 0.787808
0.791684 0.791684 0.791684
0.795865 0.795865 0.795865
0.800320 0.800320 0.800320
0.805112 0.805112 0.805112
0.810513 0.810513 0.810513
0.816526 0.816526 0.816526
0.822660 0.822660 0.822660
0.828824 0.828824 0.828824
0.834958 0.834958 0.834958
0.841154 0.841154 0.841154
0.847257 0.847257 0.847257
0.853361 0.853361 0.853361
0.860624 0.860624 0.860624
0.880461 0.880461 0.880461
0.890410 0.890410 0.890410
0.899992 0.899992 0.899992
0.909819 0.909819 0.909819
0.919707 0.919707 0.919707
0.929595 0.929595 0.929595
0.939361 0.939361 0.939361
0.949004 0.949004 0.949004
0.803738 0.803738 0.803738
0.803952 0.803952 0.803952
0.804227 0.804227 0.804227
0.804837 0.804837 0.804837
0.805753 0.805753 0.805753
0.807004 0.807004 0.807004
0.808621 0.808621 0.808621
0.810513 0.810513 0.810513
0.812772 0.812772 0.812772
0.815274 0.815274 0.815274
0.818143 0.818143 0.818143
0.821195 0.821195 0.821195
0.824552 0.824552 0.824552
0.828122 0.828122 0.828122
0.831876 0.831876 0.831876
0.835843 0.835843 0.835843
0.840452 0.840452 0.840452
0.845335 0.845335 0.845335
0.850309 0.850309 0.850309
0.855344 0.855344 0.855344
0.860410 0.860410 0.860410
0.865507 0.865507 0.865507
0.870603 0.870603 0.870603
0.875700 0.875700 0.875700
0.881132 0.881132 0.881132
0.898222 0.898222 0.898222
0.908690 0.908690 0.908690
0.917662 0.917662 0.917662
0.926757 0.926757 0.926757
0.935882 0.935882 0.935882
0.944945 0.944945 0.944945
0.953887 0.953887 0.953887
0.832670 0.832670 0.832670
0.832822 0.832822 0.832822
0.833036 0.833036 0.833036
0.833494 0.833494 0.833494
0.834226 0.834226 0.834226
0.835233 0.835233 0.835233
0.836454 0.836454 0.836454
0.837949 0.837949 0.837949
0.839658 0.839658 0.839658
0.841642 0.841642 0.841642
0.843870 0.843870 0.843870
0.846250 0.846250 0.846250
0.848936 0.848936 0.848936
0.851743 0.851743 0.851743
0.854734 0.854734 0.854734
0.857939 0.857939 0.857939
0.861295 0.861295 0.861295
0.865293 0.865293 0.865293
0.869413 0.869413 0.869413
0.873594 0.873594 0.873594
0.877867 0.877867 0.877867
0.882170 0.882170 0.882170
0.886503 0.886503 0.886503
0.890867 0.890867 0.890867
0.895262 0.895262 0.895262
0.899840 0.899840 0.899840
0.914336 0.914336 0.914336
0.924987 0.924987 0.924987
0.933379 0.933379 0.933379
0.941833 0.941833 0.941833
0.950225 0.950225 0.950225
0.958556 0.958556 0.958556
0.856962 0.856962 0.856962
0.857084 0.857084 0.857084
0.857267 0.857267 0.857267
0.857633 0.857633 0.857633
0.858213 0.858213 0.858213
0.858976 0.858976 0.858976
0.859953 0.859953 0.859953
0.861143 0.861143 0.861143
0.862516 0.862516 0.862516
0.864103 0.864103 0.864103
0.865904 0.865904 0.865904
0.867857 0.867857 0.867857
0.870024 0.870024 0.870024
0.872343 0.872343 0.872343
0.874815 0.874815 0.874815
0.877470 0.877470 0.877470
0.880247 0.880247 0.880247
0.883330 0.883330 0.883330
0.886748 0.886748 0.886748
0.890318 0.890318 0.890318
0.893919 0.893919 0.893919
0.897612 0.897612 0.897612
0.901366 0.901366 0.901366
0.905150 0.905150 0.905150
0.908965 0.908965 0.908965
0.912779 0.912779 0.912779
0.916594 0.916594 0.916594
0.929015 0.929015 0.929015
0.939605 0.939605 0.939605
0.947448 0.947448 0.947448
0.955230 0.955230 0.955230
0.962951 0.962951 0.962951
0.878050 0.878050 0.878050
0.878141 0.878141 0.878141
0.878294 0.878294 0.878294
0.878569 0.878569 0.878569
0.879026 0.879026 0.879026
0.879728 0.879728 0.879728
0.880522 0.880522 0.880522
0.881468 0.881468 0.881468
0.882628 0.882628 0.882628
0.883940 0.883940 0.883940
0.885405 0.885405 0.885405
0.887053 0.887053 0.887053
0.888823 0.888823 0.888823
0.890776 0.890776 0.890776
0.892851 0.892851 0.892851
0.895079 0.895079 0.895079
0.897429 0.897429 0.897429
0.899870 0.899870 0.899870
0.902739 0.902739 0.902739
0.905760 0.905760 0.905760
0.908873 0.908873 0.908873
0.912047 0.912047 0.912047
0.915282 0.915282 0.915282
0.918578 0.918578 0.918578
0.921904 0.921904 0.921904
0.925231 0.925231 0.925231
0.928588 0.928588 0.928588
0.931975 0.931975 0.931975
0.942382 0.942382 0.942382
0.952728 0.952728 0.952728
0.959960 0.959960 0.959960
0.967132 0.967132 0.967132
0.896788 0.896788 0.896788
0.896880 0.896880 0.896880
0.897002 0.897002 0.897002
0.897246 0.897246 0.897246
0.897642 0.897642 0.897642
0.898192 0.898192 0.898192
0.898863 0.898863 0.898863
0.899657 0.899657 0.899657
0.900633 0.900633 0.900633
0.901732 0.901732 0.901732
0.902983 0.902983 0.902983
0.904356 0.904356 0.904356
0.905882 0.905882 0.905882
0.907530 0.907530 0.907530
0.909300 0.909300 0.909300
0.911162 0.911162 0.911162
0.913176 0.913176 0.913176
0.915282 0.915282 0.915282
0.917540 0.917540 0.917540
0.920134 0.920134 0.920134
0.922789 0.922789 0.922789
0.925536 0.925536 0.925536
0.928344 0.928344 0.928344
0.931182 0.931182 0.931182
0.934081 0.934081 0.934081
0.937011 0.937011 0.937011
0.939940 0.939940 0.939940
0.942870 0.942870 0.942870
0.945830 0.945830 0.945830
0.954498 0.954498 0.954498
0.964385 0.964385 0.964385
0.971038 0.971038 0.971038
0.913695 0.913695 0.913695
0.913787 0.913787 0.913787
0.913878 0.913878 0.913878
0.914092 0.914092 0.914092
0.914427 0.914427 0.914427
0.914885 0.914885 0.914885
0.915435 0.915435 0.915435
0.916136 0.916136 0.916136
0.916930 0.916930 0.916930
0.917876 0.917876 0.917876
0.918944 0.918944 0.918944
0.920104 0.920104 0.920104
0.921416 0.921416 0.921416
0.922820 0.922820 0.922820
