cubelut/Cinematic-2.cube
# Created by Adobe Lightroom plugin Export LUT (1.18.0)
# www.johnrellis.com/lightroom/exportlut.htm
# Preset: Cinematic 6
# Color profile: /Library/Application Support/Adobe/Color/Profiles/Recommended/AdobeRGB1998.icc
LUT_3D_SIZE 5
DOMAIN_MIN 0.000000 0.000000 0.000000
DOMAIN_MAX 0.903226 0.903226 0.903226
0.044099 0.049928 0.044465
0.154086 0.037842 0.032990
0.482094 0.000000 0.000000
0.831937 0.000000 0.000000
1.000000 0.002716 0.173434
0.045075 0.116823 0.025330
0.168948 0.162844 0.000000
0.480964 0.224063 0.000000
0.829435 0.221439 0.000000
1.000000 0.249973 0.192752
0.058656 0.450385 0.000000
0.236942 0.454078 0.000000
0.500755 0.479164 0.000000
0.835782 0.514977 0.000000
1.000000 0.483436 0.220706
0.102785 0.768826 0.000000
0.282322 0.772671 0.000000
0.555047 0.780606 0.000000
0.845548 0.780941 0.000000
1.000000 0.704128 0.267674
0.192386 0.980652 0.000000
0.312657 0.978271 0.000000
0.540795 0.968017 0.000000
0.787228 0.952270 0.136233
0.996796 0.907408 0.307225
0.000000 0.066712 0.161471
0.152316 0.000000 0.183383
0.469429 0.000000 0.216617
0.805692 0.000000 0.285008
1.000000 0.179202 0.376226
0.000000 0.166323 0.171481
0.159915 0.179263 0.187411
0.469184 0.208804 0.226474
0.806638 0.237919 0.286748
1.000000 0.290837 0.378882
0.000000 0.460761 0.174777
0.192233 0.462898 0.199313
0.477943 0.475044 0.243229
0.813626 0.515831 0.295903
1.000000 0.498299 0.387732
0.000000 0.772976 0.196506
0.249607 0.776516 0.225559
0.541161 0.783108 0.260533
0.834318 0.782589 0.311009
0.996796 0.708858 0.399725
0.158816 0.980346 0.231052
0.294438 0.977966 0.242344
0.532311 0.969787 0.281743
0.778988 0.953277 0.338415
0.990631 0.909331 0.417548
0.000000 0.145113 0.565057
0.000000 0.000000 0.571710
0.414252 0.097993 0.588525
0.775021 0.132662 0.642817
0.989807 0.254490 0.638605
0.000000 0.256657 0.568200
0.000000 0.247959 0.572259
0.417548 0.285618 0.588342
0.777310 0.263218 0.633936
0.986755 0.357733 0.648493
0.000000 0.486091 0.571679
0.000000 0.488838 0.575250
0.428473 0.500084 0.590356
0.789548 0.511711 0.614038
0.978302 0.551537 0.667659
0.000000 0.783902 0.615503
0.000000 0.785245 0.609979
0.454719 0.795224 0.591302
0.805600 0.792325 0.618952
0.969268 0.736843 0.673030
0.000000 0.980499 0.586969
0.173342 0.978515 0.589807
0.480232 0.970459 0.593591
0.749996 0.952850 0.627771
0.962768 0.915831 0.683955
0.000000 0.239780 0.888212
0.000000 0.207004 0.890471
0.343786 0.248478 0.894926
0.729946 0.250309 0.899290
0.958892 0.370550 0.861692
0.000000 0.352361 0.887297
0.000000 0.346105 0.888701
0.342748 0.343664 0.892607
0.729671 0.331518 0.896880
0.954925 0.447486 0.862669
0.000000 0.566308 0.883482
0.000000 0.565698 0.884123
0.316594 0.543847 0.888212
0.734371 0.556329 0.890013
0.943206 0.641230 0.873472
0.000000 0.808255 0.881224
0.000000 0.808164 0.881163
0.354345 0.810758 0.883299
0.758572 0.812039 0.886748
0.928344 0.823697 0.897459
0.000000 0.983703 0.833066
0.000000 0.981353 0.832486
0.483589 0.967437 0.847959
0.777951 0.944823 0.885405
0.927703 0.928435 0.897429
0.000000 0.346777 0.998474
0.000000 0.372595 0.997345
0.257877 0.396887 0.995575
0.619776 0.435065 0.992187
0.892821 0.524559 0.985809
0.000000 0.408484 0.996826
0.000000 0.426215 0.995850
0.275273 0.452491 0.993835
0.629725 0.495460 0.989929
0.893858 0.576898 0.983673
0.000000 0.548363 0.992889
0.000000 0.549157 0.992493
0.306371 0.590784 0.988861
0.673915 0.660792 0.982544
0.898985 0.716884 0.977478
0.000000 0.746853 0.984771
0.000000 0.744717 0.984497
0.223148 0.745937 0.983001
0.743648 0.827420 0.973388
0.907622 0.860014 0.970214
0.000000 0.951965 0.973419
0.000000 0.951537 0.973083
0.406806 0.948211 0.971069
0.774258 0.939971 0.967376
0.914031 0.935851 0.966125
