cubelut/Cinematic-3.cube
# Created by Adobe Lightroom plugin Export LUT (1.18.0)
# www.johnrellis.com/lightroom/exportlut.htm
# Preset: Cinematic 8
# Color profile: /Library/Application Support/Adobe/Color/Profiles/Recommended/AdobeRGB1998.icc
LUT_3D_SIZE 8
DOMAIN_MIN 0.000000 0.000000 0.000000
DOMAIN_MAX 0.903226 0.903226 0.903226
0.113252 0.088167 0.257298
0.153597 0.076295 0.257053
0.257816 0.000000 0.255680
0.384649 0.000000 0.254887
0.531212 0.000000 0.257023
0.697230 0.000000 0.257694
0.831418 0.000000 0.258427
0.939849 0.000000 0.259129
0.107362 0.131197 0.256077
0.149172 0.130983 0.255619
0.252110 0.112581 0.254215
0.375830 0.091829 0.255924
0.521019 0.000000 0.257389
0.684138 0.000000 0.257328
0.819242 0.000000 0.257267
0.932860 0.000000 0.257450
0.073304 0.240970 0.255070
0.136355 0.240269 0.254795
0.251102 0.237675 0.255741
0.374975 0.231693 0.257115
0.529320 0.230930 0.256565
0.689479 0.229801 0.255192
0.829618 0.236576 0.254917
0.939086 0.254215 0.255436
0.000000 0.387823 0.257420
0.095430 0.387518 0.254154
0.236851 0.394751 0.252750
0.393774 0.416388 0.250797
0.551385 0.423743 0.249180
0.698329 0.423743 0.247440
0.825254 0.421881 0.247349
0.932555 0.424292 0.247929
0.000000 0.580529 0.248295
0.000000 0.580774 0.244114
0.191623 0.584283 0.237613
0.370245 0.592920 0.235538
0.531914 0.595727 0.233249
0.676783 0.590997 0.232456
0.807919 0.586786 0.232700
0.921874 0.584436 0.234684
0.000000 0.739620 0.233555
0.000000 0.746883 0.229221
0.099397 0.747402 0.219455
0.333318 0.747433 0.218662
0.500389 0.745571 0.217533
0.652827 0.745968 0.216526
0.799985 0.752712 0.213993
0.914611 0.741024 0.219730
0.000000 0.874022 0.213077
0.000000 0.875303 0.210636
0.000000 0.873228 0.205417
0.303288 0.871397 0.205478
0.470680 0.867735 0.205173
0.619898 0.866331 0.206241
0.758083 0.865934 0.209110
0.896452 0.877043 0.203128
0.000000 0.983581 0.183078
0.000000 0.982971 0.184878
0.000000 0.981628 0.197147
0.302800 0.981689 0.199710
0.452369 0.972595 0.193759
0.596612 0.971893 0.198032
0.730220 0.971649 0.205936
0.851102 0.968933 0.212436
0.101045 0.087984 0.277867
0.157534 0.071199 0.278294
0.252354 0.059510 0.277958
0.375891 0.000000 0.282383
0.521080 0.000000 0.281224
0.680293 0.000000 0.281041
0.814694 0.000000 0.281132
0.928099 0.000000 0.280949
0.093568 0.130495 0.277867
0.154482 0.127840 0.278050
0.250828 0.119509 0.279423
0.373968 0.086702 0.280247
0.517266 0.000000 0.279942
0.674311 0.000000 0.280186
0.805936 0.000000 0.279393
0.920897 0.000000 0.278538
0.099519 0.234318 0.277531
0.149203 0.234318 0.280247
0.248661 0.234440 0.278843
0.372320 0.227085 0.279210
0.521843 0.220249 0.278996
0.674830 0.211765 0.278172
0.809171 0.215885 0.277379
0.924926 0.241306 0.277165
0.062715 0.377142 0.280400
0.120180 0.378607 0.280278
0.230076 0.388647 0.275334
0.378637 0.396918 0.274723
0.525322 0.396887 0.273777
0.672084 0.398413 0.271672
0.803555 0.401434 0.270603
0.918853 0.412055 0.270146
0.000000 0.573205 0.277562
0.000000 0.572168 0.274266
0.179782 0.573938 0.263340
0.358007 0.576196 0.261570
0.516869 0.576471 0.259800
0.663325 0.575250 0.258915
0.797208 0.575128 0.258946
0.913481 0.576745 0.260227
0.000000 0.729549 0.264347
0.000000 0.730373 0.261082
0.100496 0.731930 0.250706
0.325078 0.734829 0.247288
0.494057 0.736385 0.246921
0.648920 0.740322 0.247227
0.795102 0.746822 0.246006
0.908812 0.735378 0.249546
0.000000 0.863035 0.243626
0.000000 0.861570 0.241123
0.000000 0.861173 0.235813
0.301244 0.862272 0.235935
0.469093 0.861295 0.236637
0.616602 0.859648 0.237736
0.752163 0.857877 0.239658
0.889342 0.868742 0.233097
0.000000 0.978271 0.211368
0.000000 0.978485 0.212955
0.000000 0.977569 0.224277
0.312779 0.977722 0.234165
0.466560 0.975891 0.236240
0.603784 0.972656 0.238163
0.732082 0.969726 0.242039
0.850187 0.966003 0.245670
0.111849 0.072847 0.347936
0.172000 0.033204 0.348486
0.280400 0.000000 0.348699
0.387182 0.000000 0.344823
0.535515 0.000000 0.356756
0.691218 0.000000 0.368444
0.822080 0.000000 0.364446
0.931823 0.000000 0.362524
0.118257 0.123720 0.347448
0.168551 0.123415 0.347326
0.271794 0.113497 0.347570
0.383032 0.098207 0.345434
0.532891 0.000000 0.357244
0.685054 0.000000 0.364752
0.815854 0.000000 0.360906
0.927581 0.107576 0.361791
0.110353 0.245304 0.347082
0.156649 0.242496 0.347509
0.255894 0.234012 0.348302
0.385077 0.229953 0.350958
0.539666 0.219272 0.358679
0.686061 0.204959 0.359808
0.813657 0.224521 0.358984
0.924620 0.275425 0.360113
0.079713 0.383368 0.344884
0.135683 0.387060 0.347784
0.246860 0.393317 0.353094
0.385077 0.401770 0.353429
0.540002 0.400702 0.354925
0.683284 0.399817 0.355840
0.810422 0.411597 0.357244
0.920989 0.434150 0.358251
0.000000 0.570459 0.351690
0.000000 0.571710 0.353216
0.208621 0.575128 0.355077
0.358923 0.581720 0.348852
0.524071 0.583185 0.347845
0.670832 0.579339 0.348547
0.799771 0.579461 0.350774
0.913176 0.587823 0.353399
0.000000 0.727993 0.345678
0.000000 0.728695 0.346715
0.151980 0.729091 0.345892
0.332280 0.730282 0.340307
0.497047 0.730648 0.341100
0.648341 0.734127 0.344671
0.791989 0.742214 0.347692
0.907683 0.739712 0.353460
0.000000 0.864256 0.330632
0.000000 0.863310 0.330388
0.078187 0.861051 0.328191
0.326329 0.859068 0.332647
0.486488 0.856870 0.338018
0.627344 0.856901 0.341772
0.759884 0.858915 0.348730
0.895048 0.873960 0.349126
0.000000 0.977569 0.295995
0.000000 0.976623 0.294347
0.000000 0.974853 0.301915
0.362890 0.973999 0.338415
0.501884 0.971527 0.346899
0.626612 0.969635 0.350378
0.746090 0.968017 0.355962
0.857603 0.965911 0.361151
0.143648 0.000000 0.474617
0.190311 0.000000 0.476905
0.295811 0.000000 0.478126
0.422766 0.000000 0.479835
0.551171 0.000000 0.477607
0.688289 0.000000 0.484565
0.813565 0.000000 0.481239
0.925353 0.000000 0.466590
0.134218 0.114351 0.478950
0.180789 0.110750 0.479469
0.288212 0.093690 0.479591
0.418341 0.007568 0.480903
0.550774 0.000000 0.480293
0.685206 0.000000 0.484321
0.810239 0.000000 0.479744
0.923400 0.000000 0.465034
0.089021 0.240818 0.477913
0.144564 0.237278 0.478187
0.260563 0.227848 0.479927
0.407477 0.222812 0.487404
0.549401 0.220218 0.488685
0.689204 0.224674 0.493477
0.817960 0.250065 0.488960
0.925017 0.296757 0.475135
0.000000 0.411139 0.488380
0.103578 0.409094 0.488441
0.243595 0.403632 0.489693
0.389288 0.398260 0.492805
0.540093 0.398444 0.494270
0.680018 0.405219 0.492683
0.805539 0.432380 0.488808
0.913909 0.488655 0.494972
0.000000 0.574731 0.481086
0.000000 0.573358 0.481422
0.216007 0.573785 0.485389
0.375830 0.579553 0.494911
0.532891 0.583429 0.496864
0.673823 0.587823 0.497505
0.798001 0.602136 0.498238
0.907408 0.621942 0.497841
0.000000 0.731685 0.475044
0.000000 0.736721 0.479194
0.176822 0.734493 0.480812
0.358618 0.734249 0.483986
0.524041 0.733333 0.489723
0.661830 0.734524 0.496925
0.790555 0.743832 0.498634
0.902220 0.751431 0.499794
0.000000 0.862486 0.457343
0.000000 0.863066 0.458076
0.129397 0.863401 0.458930
0.346838 0.862669 0.461311
0.527581 0.857908 0.481941
0.657374 0.856229 0.493477
0.770871 0.857481 0.496498
0.892668 0.872007 0.495521
0.000000 0.978576 0.428138
0.000000 0.978668 0.427436
0.023682 0.977539 0.423224
0.348394 0.974304 0.432868
0.553368 0.966125 0.484291
0.664546 0.964355 0.493904
0.767544 0.964263 0.497566
0.867002 0.964263 0.501335
0.146883 0.000000 0.621576
0.189731 0.000000 0.622705
0.291844 0.000000 0.622827
0.418158 0.000000 0.629725
0.553643 0.000000 0.635828
0.680049 0.000000 0.632074
0.809140 0.000000 0.630945
0.920409 0.000000 0.611475
0.133761 0.095216 0.622919
0.179721 0.091005 0.624781
0.285588 0.070253 0.624720
0.414710 0.000000 0.631464
0.550042 0.000000 0.635187
0.678584 0.000000 0.632807
0.808560 0.000000 0.631434
0.919585 0.000000 0.610681
0.026337 0.223514 0.628260
0.139620 0.226322 0.630030
0.267430 0.224887 0.630823
0.402319 0.219974 0.631617
0.538842 0.214603 0.631861
0.669490 0.215976 0.630091
0.803128 0.227115 0.628870
0.914763 0.258091 0.604791
0.000000 0.385565 0.631159
0.101625 0.384710 0.630640
0.249943 0.384436 0.630976
0.393957 0.389746 0.631556
0.531029 0.395148 0.631403
0.664973 0.403326 0.632410
0.799405 0.415839 0.626581
0.911955 0.435065 0.598566
0.000000 0.553399 0.629358
0.000000 0.553063 0.629633
0.227604 0.551629 0.629206
0.384497 0.553765 0.629206
0.531884 0.564752 0.627436
0.661707 0.574151 0.626123
0.790585 0.588190 0.619196
0.900572 0.619654 0.609949
0.000000 0.708248 0.619684
0.000000 0.707973 0.620081
0.181399 0.705715 0.619715
0.357214 0.706264 0.620630
0.512810 0.711299 0.617945
0.659113 0.721706 0.623194
0.784543 0.739193 0.626490
0.894133 0.757534 0.625452
0.000000 0.855802 0.611292
0.000000 0.854948 0.610651
0.136965 0.853605 0.609155
0.345647 0.852995 0.605829
0.511833 0.851835 0.598993
0.664637 0.848692 0.612848
0.774746 0.849851 0.620539
0.885161 0.863096 0.617639
0.000000 0.970397 0.578393
0.000000 0.969879 0.577142
0.091402 0.968536 0.572564
0.338781 0.970397 0.567864
0.516228 0.965789 0.566796
0.686030 0.957763 0.610986
0.783078 0.957671 0.619501
0.871946 0.958953 0.621088
0.137484 0.000000 0.751400
0.180117 0.000000 0.753384
0.280064 0.000000 0.755001
0.398932 0.000000 0.757198
0.522454 0.000000 0.757198
0.645106 0.000000 0.756649
0.775631 0.000000 0.767544
0.911955 0.000000 0.777981
0.131685 0.076814 0.749783
0.175174 0.072999 0.750179
0.276005 0.053071 0.751247
0.394903 0.000000 0.752590
0.518791 0.000000 0.753262
0.642023 0.000000 0.753658
0.773495 0.000000 0.765530
0.910307 0.000000 0.775662
0.121431 0.223972 0.756252
0.168338 0.223301 0.755459
0.272862 0.222171 0.754574
0.393622 0.221988 0.754543
0.517449 0.224491 0.753628
0.640162 0.235569 0.753170
0.772274 0.249821 0.765194
0.908446 0.265721 0.771817
0.107637 0.369482 0.756039
0.165438 0.370977 0.754818
0.285710 0.381231 0.753933
0.408576 0.393896 0.756741
0.528893 0.404669 0.757290
0.646815 0.418219 0.756008
0.775540 0.432166 0.766171
0.906798 0.442145 0.764096
0.016144 0.517937 0.749813
0.136080 0.519493 0.749752
0.271489 0.525841 0.749386
0.412360 0.541924 0.748928
0.544823 0.564965 0.747097
0.652461 0.573236 0.746212
0.773861 0.581170 0.752956
0.899565 0.587610 0.740963
0.000000 0.666590 0.744533
0.075227 0.668452 0.745754
0.251591 0.671412 0.745510
0.399268 0.679011 0.744503
0.535424 0.692378 0.742214
0.664668 0.713741 0.742184
0.778988 0.727260 0.743526
0.893339 0.742824 0.731960
0.000000 0.823850 0.755642
0.000000 0.824979 0.756527
0.218173 0.825986 0.755856
0.381506 0.829618 0.754055
0.523644 0.836149 0.749020
0.656275 0.844053 0.739834
0.778744 0.847623 0.739803
0.883818 0.863035 0.738705
0.000000 0.966247 0.749142
0.000000 0.965576 0.747616
0.149599 0.963928 0.742275
0.353216 0.962921 0.733364
0.508782 0.960845 0.717617
0.653620 0.957885 0.702205
0.794736 0.952941 0.730861
0.877684 0.954925 0.736629
0.124117 0.000000 0.858579
0.166140 0.000000 0.857908
0.262333 0.000000 0.858061
0.373999 0.000000 0.858824
0.489662 0.000000 0.858488
0.605676 0.000000 0.858427
0.719722 0.000000 0.858701
0.849607 0.037690 0.881956
0.127932 0.061494 0.860868
0.168917 0.057649 0.860288
0.264256 0.035309 0.860227
0.375677 0.000000 0.860380
0.491798 0.000000 0.860746
0.608453 0.060914 0.861326
0.722530 0.126131 0.861692
0.852384 0.165805 0.885039
0.147158 0.215457 0.858824
0.183780 0.215671 0.858915
0.274022 0.217472 0.859373
0.382696 0.221469 0.859556
0.497566 0.231266 0.860136
0.612421 0.249546 0.860258
0.724056 0.277409 0.859464
0.852415 0.299321 0.881346
0.212070 0.371954 0.856687
0.237522 0.372747 0.856596
0.310155 0.376410 0.857237
0.407294 0.383093 0.856870
0.514427 0.394934 0.857023
0.623163 0.410956 0.856382
0.729915 0.431830 0.855222
0.855589 0.447547 0.876371
0.211307 0.506889 0.857115
0.246647 0.511223 0.857389
0.340703 0.526116 0.857328
0.457069 0.552087 0.855802
0.552697 0.564141 0.855344
0.649165 0.575586 0.855131
0.746548 0.589410 0.854520
0.863615 0.597131 0.871397
0.200259 0.642634 0.855955
0.236545 0.644984 0.855772
0.332616 0.653895 0.855100
0.448768 0.669825 0.853483
0.565454 0.691188 0.851713
0.675593 0.714595 0.849241
0.763088 0.722560 0.848722
0.872404 0.728847 0.860807
0.176883 0.771206 0.852415
0.216617 0.772122 0.851926
0.318486 0.776944 0.851316
0.436408 0.785977 0.850095
0.557183 0.800168 0.849332
0.673548 0.818357 0.848234
0.782956 0.840238 0.846525
0.880858 0.852903 0.846494
0.111696 0.914336 0.867918
0.172366 0.915282 0.867918
0.284733 0.917174 0.865782
0.410803 0.923278 0.864317
0.537560 0.933043 0.862181
0.657832 0.944823 0.856321
0.775875 0.953552 0.840757
0.884306 0.952605 0.842618
0.122927 0.000000 0.955322
0.162051 0.000000 0.955077
0.253239 0.000000 0.955291
0.358618 0.000000 0.954864
0.468086 0.000000 0.954406
0.577966 0.064271 0.953826
0.686091 0.141482 0.952728
0.789700 0.216739 0.951781
0.140169 0.078065 0.955901
0.175113 0.077943 0.955657
0.261173 0.080873 0.955688
0.364294 0.089693 0.955413
0.472633 0.111421 0.954894
0.581659 0.149111 0.954223
0.689265 0.198917 0.953246
0.792111 0.261143 0.952270
0.195407 0.230198 0.955474
0.220615 0.231388 0.955383
0.293187 0.236851 0.955596
0.385870 0.244602 0.954467
0.488899 0.261479 0.954009
0.594415 0.288243 0.953460
0.698665 0.323003 0.952300
0.798276 0.368505 0.951049
0.286870 0.391547 0.952941
0.303044 0.392523 0.952728
0.356756 0.398413 0.952667
0.433753 0.407660 0.952026
0.524010 0.422461 0.951202
0.620020 0.443915 0.950286
0.716487 0.469673 0.949035
0.809293 0.499519 0.947875
0.388800 0.557946 0.948760
0.406744 0.563104 0.948241
0.464820 0.582391 0.947265
0.504540 0.574975 0.947631
0.577295 0.585382 0.947112
0.658167 0.599237 0.946380
0.742306 0.614893 0.945281
0.825956 0.633600 0.944030
0.390448 0.661524 0.946777
0.409613 0.666011 0.946654
0.466926 0.679988 0.945983
0.545312 0.700526 0.944579
0.633692 0.726619 0.942351
0.699855 0.733394 0.940978
0.770657 0.740810 0.939513
0.845701 0.753017 0.938598
0.387518 0.765194 0.943847
0.405921 0.767910 0.943725
0.461677 0.776669 0.943236
0.539971 0.790463 0.941955
0.630152 0.809476 0.940154
0.723079 0.833188 0.937774
0.809781 0.858396 0.935119
0.873533 0.867887 0.934356
0.379644 0.875059 0.940459
0.398016 0.876707 0.940429
0.452461 0.881712 0.939849
0.530022 0.889921 0.938384
0.620478 0.901946 0.936492
0.715358 0.917906 0.934325
0.811032 0.938048 0.931762
0.901030 0.963226 0.929168
