cubelut/Cinematic-2.cube
# Created by Adobe Lightroom plugin Export LUT (1.18.0)
# www.johnrellis.com/lightroom/exportlut.htm
# Preset: Cinematic 6
# Color profile: /Library/Application Support/Adobe/Color/Profiles/Recommended/AdobeRGB1998.icc
LUT_3D_SIZE 8
DOMAIN_MIN 0.000000 0.000000 0.000000
DOMAIN_MAX 0.903226 0.903226 0.903226
0.044099 0.049928 0.044465
0.044099 0.049928 0.044465
0.219120 0.024079 0.018128
0.411292 0.000000 0.000000
0.570642 0.000000 0.000000
0.783871 0.000000 0.000000
0.942504 0.000000 0.000000
1.000000 0.002716 0.173434
0.044099 0.049928 0.044465
0.044099 0.049928 0.044465
0.219333 0.109499 0.000000
0.407324 0.122469 0.000000
0.564691 0.103609 0.000000
0.772946 0.000000 0.000000
0.935637 0.000000 0.000000
1.000000 0.133791 0.168368
0.048646 0.179995 0.000000
0.105623 0.188357 0.000000
0.231296 0.223056 0.000000
0.411261 0.261814 0.000000
0.575067 0.264012 0.000000
0.780148 0.267002 0.000000
0.942290 0.265660 0.000000
1.000000 0.282841 0.193668
0.055055 0.385077 0.000000
0.140108 0.385626 0.000000
0.269505 0.389441 0.000000
0.418219 0.402502 0.000000
0.603632 0.426276 0.000000
0.795499 0.438392 0.000000
0.941588 0.429450 0.000000
1.000000 0.418006 0.211978
0.060029 0.526787 0.000000
0.144472 0.528038 0.000000
0.277806 0.534173 0.000000
0.427161 0.547723 0.000000
0.598260 0.567987 0.000000
0.792569 0.590906 0.000000
0.935241 0.576776 0.000000
1.000000 0.548241 0.232700
0.085756 0.717739 0.000000
0.169436 0.723964 0.000000
0.311040 0.727169 0.000000
0.465766 0.733181 0.000000
0.629541 0.739071 0.000000
0.802579 0.745113 0.000000
0.934386 0.719600 0.106905
1.000000 0.674189 0.262486
0.146700 0.887419 0.000000
0.206943 0.888121 0.000000
0.335607 0.886656 0.000000
0.483436 0.885344 0.000000
0.637903 0.881865 0.000000
0.796231 0.877195 0.000000
0.937224 0.856596 0.152010
0.997864 0.791226 0.282200
0.192386 0.980652 0.000000
0.235355 0.979889 0.000000
0.342931 0.977539 0.000000
0.474769 0.973571 0.000000
0.611017 0.964355 0.000000
0.752193 0.955016 0.091493
0.890684 0.942565 0.220768
0.996796 0.907408 0.307225
0.044099 0.049928 0.044465
0.044099 0.049928 0.044465
0.208927 0.000000 0.081361
0.406531 0.000000 0.000000
0.561395 0.000000 0.000000
0.765499 0.000000 0.000000
0.929900 0.000000 0.138308
1.000000 0.104677 0.252018
0.044099 0.049928 0.044465
0.044099 0.049928 0.044465
0.216648 0.023957 0.018860
0.405951 0.000000 0.000000
0.560021 0.000000 0.000000
0.761257 0.000000 0.000000
0.925017 0.000000 0.131472
1.000000 0.161593 0.246494
0.000000 0.187778 0.065126
0.050050 0.199680 0.000000
0.232151 0.223911 0.000000
0.408637 0.242161 0.000000
0.565667 0.244602 0.000000
0.765072 0.258427 0.000000
0.927825 0.267216 0.144533
1.000000 0.291936 0.260899
0.000000 0.387549 0.000000
0.055024 0.388952 0.000000
0.253666 0.392065 0.000000
0.410986 0.396735 0.000000
0.579248 0.409369 0.000000
0.771328 0.426947 0.000000
0.926818 0.426581 0.156893
1.000000 0.421210 0.270603
0.000000 0.529168 0.000000
0.087709 0.529351 0.000000
0.261448 0.533013 0.000000
0.416205 0.541283 0.000000
0.583154 0.557763 0.000000
0.778378 0.583978 0.004944
0.926726 0.575647 0.178927
1.000000 0.550286 0.287938
0.000000 0.713771 0.000000
0.136507 0.715023 0.000000
0.295201 0.718563 0.000000
0.454810 0.726131 0.000000
0.620996 0.734401 0.000000
0.796048 0.743069 0.099153
0.929259 0.719356 0.214786
1.000000 0.675044 0.309270
0.114076 0.881865 0.000000
0.185428 0.880858 0.000000
0.323156 0.880461 0.000000
0.475227 0.881010 0.000000
0.631861 0.879179 0.000000
0.790188 0.874632 0.136690
0.931334 0.854307 0.227146
0.994293 0.790433 0.317296
0.179782 0.978973 0.000000
0.225864 0.978485 0.000000
0.337041 0.976318 0.000000
0.470710 0.972534 0.000000
0.610193 0.965576 0.127840
0.750210 0.955444 0.208927
0.887846 0.942382 0.274693
0.994507 0.907347 0.339605
0.000000 0.080476 0.241886
0.000000 0.022309 0.248051
0.205325 0.000000 0.264103
0.394812 0.000000 0.280095
0.554803 0.000000 0.294041
0.759915 0.000000 0.340002
0.924010 0.054627 0.374640
1.000000 0.197452 0.418067
0.000000 0.125124 0.243412
0.000000 0.081453 0.249180
0.205325 0.000000 0.263676
0.394079 0.000000 0.273686
0.551690 0.089418 0.298741
0.755612 0.110384 0.336889
0.920684 0.151308 0.371008
1.000000 0.229831 0.415625
0.000000 0.230472 0.249027
0.000000 0.234440 0.254246
0.212467 0.243290 0.265995
0.392432 0.256657 0.284581
0.557763 0.275364 0.312993
0.759518 0.285863 0.339483
0.920562 0.297124 0.372076
1.000000 0.323949 0.416175
0.000000 0.400183 0.261448
0.000000 0.402502 0.254887
0.227146 0.404334 0.273686
0.395789 0.408270 0.296666
0.569635 0.426062 0.320409
0.766140 0.442542 0.343359
0.921386 0.442878 0.375097
1.000000 0.439948 0.419104
0.000000 0.537743 0.245640
0.000000 0.539300 0.255833
0.247440 0.544121 0.288121
0.408667 0.554253 0.305699
0.576684 0.570611 0.325505
0.771237 0.592950 0.344305
0.919615 0.583612 0.375463
1.000000 0.560052 0.421271
0.000000 0.720729 0.260533
0.000000 0.722225 0.268986
0.269993 0.725124 0.290227
0.438483 0.730465 0.303807
0.607538 0.737362 0.322148
0.783688 0.744564 0.345342
0.920195 0.721859 0.379828
0.996094 0.680568 0.428626
0.000000 0.886442 0.275914
0.115938 0.885801 0.280674
0.294835 0.884215 0.289464
0.456428 0.883055 0.302647
0.617395 0.880583 0.321202
0.779416 0.876493 0.345617
0.925444 0.857847 0.378943
0.988983 0.794919 0.432013
0.136233 0.979126 0.290806
0.189456 0.978332 0.287449
0.314458 0.975921 0.295659
0.455299 0.972656 0.316106
0.597589 0.965728 0.337224
0.739925 0.955962 0.364355
0.879393 0.943084 0.397894
0.988128 0.909331 0.443610
0.000000 0.126009 0.476539
0.000000 0.028870 0.480537
0.089204 0.000000 0.486427
0.349126 0.000000 0.494301
0.528405 0.055421 0.505791
0.736751 0.087800 0.544854
0.906279 0.102296 0.552728
0.997559 0.228244 0.563348
0.000000 0.170901 0.479744
0.000000 0.127382 0.482460
0.069856 0.076570 0.487221
0.349981 0.112764 0.494240
0.528466 0.165957 0.508629
0.735561 0.165316 0.542596
0.905333 0.160616 0.547692
0.996551 0.260655 0.563897
0.000000 0.275700 0.479164
0.000000 0.267643 0.480995
0.122011 0.273747 0.484657
0.352514 0.293370 0.492409
0.532891 0.304723 0.515862
0.746242 0.286137 0.534997
0.913176 0.289616 0.542657
0.995544 0.358556 0.574090
0.000000 0.411719 0.480537
0.000000 0.412848 0.482094
0.164736 0.416205 0.486854
0.359564 0.422095 0.495338
0.545892 0.426917 0.504753
0.751583 0.429328 0.516350
0.909972 0.437079 0.536889
0.992340 0.463294 0.574212
0.000000 0.554528 0.482368
0.000000 0.554620 0.485359
0.187106 0.558679 0.497841
0.370092 0.572595 0.497353
0.561944 0.584649 0.506554
0.762112 0.594415 0.517601
0.910369 0.585901 0.539666
0.987976 0.578820 0.578058
0.000000 0.735348 0.511559
0.000000 0.740047 0.516228
0.166018 0.742885 0.507683
0.383307 0.749142 0.492866
0.584192 0.753658 0.502068
0.774228 0.754391 0.516136
0.909545 0.727077 0.543175
0.982452 0.695399 0.586450
0.000000 0.891417 0.510430
0.000000 0.892088 0.507317
0.174685 0.893492 0.490425
0.398535 0.892790 0.488197
0.586023 0.889067 0.499580
0.760891 0.882597 0.516838
0.913054 0.862913 0.543755
0.975280 0.804929 0.590661
0.000000 0.981079 0.501152
0.061463 0.980560 0.501274
0.261326 0.978271 0.499458
0.412207 0.974517 0.489906
0.570581 0.967071 0.505119
0.721523 0.956786 0.528008
0.864164 0.943694 0.560479
0.973205 0.913512 0.604517
0.000000 0.169894 0.668666
0.000000 0.118471 0.671748
0.000000 0.066804 0.676570
0.279973 0.114137 0.684260
0.502953 0.171237 0.698695
0.712795 0.174777 0.724086
0.887602 0.175540 0.722805
0.981384 0.284215 0.709957
0.000000 0.207156 0.670497
0.000000 0.179660 0.674067
0.000000 0.163027 0.678218
0.285924 0.190951 0.685206
0.503166 0.224582 0.697719
0.713924 0.216709 0.723507
0.888151 0.214420 0.721035
0.980438 0.314336 0.711452
0.000000 0.311772 0.671870
0.000000 0.310063 0.673487
0.000000 0.313909 0.677058
0.299474 0.323613 0.684901
0.503532 0.327703 0.694759
0.714961 0.309819 0.716396
0.887694 0.315404 0.714382
0.976135 0.403204 0.717861
0.000000 0.440620 0.674098
0.000000 0.441901 0.674983
0.000000 0.449622 0.679133
0.290318 0.442725 0.687587
0.510430 0.440223 0.696956
0.725368 0.439033 0.709712
0.887480 0.465370 0.716762
0.968322 0.534295 0.740993
0.000000 0.579797 0.677119
0.000000 0.581048 0.678492
0.000000 0.584070 0.681941
0.294194 0.590234 0.688899
0.520073 0.595727 0.696468
0.732143 0.601251 0.706569
0.884916 0.612573 0.723384
0.962860 0.636713 0.749599
0.000000 0.741726 0.695918
0.000000 0.742672 0.696529
0.000000 0.745357 0.694545
0.288914 0.752255 0.687953
0.529076 0.756374 0.689784
0.743130 0.760708 0.706264
0.885893 0.745968 0.728298
0.958404 0.735378 0.755856
0.000000 0.895567 0.697169
0.000000 0.895415 0.695186
0.000000 0.895720 0.687617
0.329931 0.894865 0.684627
0.549798 0.890440 0.694270
0.733791 0.884245 0.708095
0.888304 0.869169 0.726009
0.952880 0.826291 0.754055
0.000000 0.981018 0.667292
0.000000 0.980377 0.666590
0.174105 0.977508 0.669245
0.423682 0.970825 0.699397
0.564843 0.964294 0.698787
0.712703 0.954376 0.714748
0.847868 0.942473 0.735714
0.951598 0.919371 0.761685
0.000000 0.225803 0.857542
0.000000 0.202762 0.858640
0.000000 0.187137 0.859434
0.193179 0.215518 0.863828
0.480964 0.238468 0.867399
0.690700 0.237583 0.871336
0.869841 0.242893 0.863615
0.963836 0.356268 0.835660
0.000000 0.263859 0.854643
0.000000 0.251102 0.855283
0.000000 0.240879 0.857328
0.198276 0.259281 0.860777
0.479011 0.271550 0.864652
0.688960 0.265446 0.869352
0.868956 0.271427 0.862028
0.962585 0.380560 0.835935
0.000000 0.372625 0.856870
0.000000 0.369818 0.857115
0.000000 0.365972 0.858640
0.201480 0.358831 0.861814
0.477699 0.355657 0.865019
0.691951 0.346715 0.869200
0.869505 0.366827 0.859983
0.958770 0.464668 0.840024
0.000000 0.497414 0.857053
0.000000 0.497505 0.856748
0.000000 0.497108 0.858213
0.169986 0.477638 0.864286
0.476783 0.474891 0.868315
0.702144 0.480659 0.871122
0.870085 0.512139 0.860533
0.952117 0.582361 0.850095
0.000000 0.628870 0.852964
0.000000 0.629389 0.853422
0.000000 0.628534 0.855131
0.172976 0.621332 0.858793
0.480415 0.621881 0.861631
0.705440 0.629358 0.864439
0.864439 0.650996 0.859068
0.941863 0.697749 0.863096
0.000000 0.766415 0.849485
0.000000 0.768063 0.850736
0.000000 0.769924 0.852232
0.189151 0.772580 0.854398
0.493629 0.773983 0.856291
0.717098 0.777035 0.860594
0.861967 0.783474 0.867735
0.933959 0.796078 0.878355
0.000000 0.904936 0.842679
0.000000 0.905638 0.842496
0.000000 0.905699 0.840238
0.263005 0.903441 0.838865
0.535271 0.895933 0.844388
0.730770 0.886656 0.859129
0.865873 0.879942 0.866117
0.931334 0.861509 0.878111
0.000000 0.983215 0.803952
0.000000 0.982483 0.803403
0.000000 0.979553 0.803677
0.372320 0.972442 0.813260
0.593378 0.959655 0.838132
0.739467 0.948241 0.858061
0.846433 0.940002 0.867338
0.931548 0.926879 0.878080
0.000000 0.285863 0.957702
0.000000 0.282506 0.958282
0.000000 0.290074 0.958190
0.000000 0.306188 0.958129
0.426581 0.316289 0.957824
0.635187 0.319280 0.957366
0.824155 0.326635 0.956451
0.945525 0.426673 0.932250
0.000000 0.317754 0.955810
0.000000 0.316228 0.956268
0.000000 0.321538 0.956329
0.000000 0.330236 0.956207
0.423560 0.335790 0.955962
0.632380 0.336797 0.955444
0.821561 0.344793 0.954467
0.943481 0.439033 0.930694
0.000000 0.407477 0.955352
0.000000 0.407691 0.955322
0.000000 0.409094 0.955077
0.000000 0.401068 0.955413
0.421424 0.402411 0.954955
0.634424 0.408759 0.954376
0.824949 0.429908 0.953429
0.941131 0.518334 0.930785
0.000000 0.517601 0.953735
0.000000 0.517540 0.953429
0.000000 0.514855 0.953216
0.000000 0.504509 0.953918
0.434028 0.515740 0.953063
0.647974 0.532799 0.952148
0.831052 0.556664 0.951019
0.936248 0.621790 0.930632
0.000000 0.636164 0.948974
0.000000 0.635554 0.948699
0.000000 0.631312 0.948638
0.000000 0.621027 0.949462
0.453956 0.641077 0.947906
0.666316 0.662684 0.946288
0.834562 0.679316 0.945373
0.928801 0.727260 0.930968
0.000000 0.762112 0.944030
0.000000 0.761685 0.944091
0.000000 0.759457 0.944396
0.000000 0.756954 0.944854
0.463661 0.764187 0.943908
0.703182 0.791104 0.941527
0.844266 0.802945 0.941161
0.921782 0.824369 0.935027
0.000000 0.893614 0.939025
0.000000 0.893980 0.939208
0.000000 0.894224 0.939300
0.178225 0.894133 0.939147
0.505638 0.891905 0.938079
0.719356 0.888670 0.936980
0.851743 0.887541 0.937438
0.917876 0.890410 0.939940
0.000000 0.984741 0.909606
0.000000 0.984192 0.909239
0.000000 0.982116 0.908904
0.319982 0.975067 0.909728
0.570428 0.962188 0.914885
0.753201 0.946990 0.925994
0.858915 0.937469 0.936309
0.919615 0.932677 0.939208
0.000000 0.346777 0.998474
0.000000 0.354925 0.998230
0.000000 0.378363 0.997040
0.000000 0.390845 0.996155
0.381598 0.403937 0.994842
0.575525 0.426398 0.992828
0.744930 0.468269 0.989837
0.892821 0.524559 0.985809
0.000000 0.367163 0.997772
0.000000 0.374517 0.997528
0.000000 0.394629 0.996460
0.000000 0.406775 0.995483
0.383490 0.419562 0.994202
0.577508 0.443061 0.992126
0.745907 0.483925 0.989014
0.892668 0.537682 0.985077
0.000000 0.424689 0.996277
0.000000 0.430091 0.996033
0.000000 0.443610 0.994995
0.071382 0.464179 0.993866
0.401526 0.480079 0.992309
0.590784 0.506065 0.989868
0.753780 0.544854 0.986694
0.894072 0.591760 0.982971
0.000000 0.497749 0.994568
0.000000 0.501732 0.994354
0.000000 0.511955 0.993439
0.000000 0.530083 0.992004
0.452338 0.582574 0.988312
0.621912 0.606287 0.985840
0.769863 0.636683 0.982879
0.897215 0.672877 0.979583
0.000000 0.603388 0.990845
0.000000 0.603967 0.990784
0.000000 0.602258 0.990478
0.000000 0.594049 0.990417
0.459724 0.660883 0.984985
0.661677 0.710018 0.980407
0.791012 0.733394 0.977844
0.901335 0.762661 0.975250
0.000000 0.717281 0.985901
0.000000 0.716823 0.985779
0.000000 0.714107 0.985504
0.000000 0.710048 0.985138
0.392248 0.726528 0.982757
0.697261 0.798459 0.975555
0.822446 0.828428 0.972625
0.906737 0.844358 0.971160
0.000000 0.833860 0.980133
0.000000 0.833433 0.980041
0.000000 0.831937 0.979797
0.000000 0.832334 0.979004
0.456123 0.842649 0.976471
0.697047 0.865049 0.972412
0.847807 0.893492 0.968750
0.910460 0.900114 0.967864
0.000000 0.951965 0.973419
0.000000 0.951812 0.973327
0.000000 0.951354 0.972961
0.237034 0.949737 0.971923
0.537072 0.946136 0.970031
0.737484 0.941100 0.967803
0.856077 0.937255 0.966400
0.914031 0.935851 0.966125
