cubelut/Cinematic-6.cube
# Created by Adobe Lightroom plugin Export LUT (1.18.0)
# www.johnrellis.com/lightroom/exportlut.htm
# Preset: Cinematic2
# Color profile: /Library/Application Support/Adobe/Color/Profiles/Recommended/AdobeRGB1998.icc
LUT_3D_SIZE 8
DOMAIN_MIN 0.000000 0.000000 0.000000
DOMAIN_MAX 0.903226 0.903226 0.903226
0.135348 0.135348 0.135348
0.173922 0.135012 0.135042
0.254246 0.134218 0.133974
0.370825 0.132113 0.130983
0.562799 0.120760 0.116670
0.803525 0.085176 0.068757
0.934966 0.037934 0.000000
0.994537 0.011017 0.000000
0.134951 0.173159 0.134432
0.173800 0.172763 0.134127
0.254765 0.168673 0.133425
0.372290 0.170657 0.130282
0.565057 0.176455 0.113771
0.804410 0.173068 0.057008
0.934600 0.155947 0.000000
0.994018 0.139742 0.000000
0.135622 0.253117 0.132601
0.170840 0.253208 0.132357
0.256260 0.253483 0.131441
0.377050 0.264012 0.126436
0.572564 0.295262 0.100923
0.807279 0.320928 0.000000
0.933196 0.304356 0.000000
0.992065 0.276402 0.000000
0.131899 0.376196 0.120638
0.173495 0.377203 0.119631
0.271733 0.380499 0.116243
0.392248 0.386969 0.108492
0.587121 0.436774 0.037018
0.811551 0.477852 0.000000
0.930419 0.453956 0.000000
0.988525 0.412940 0.000000
0.084962 0.584375 0.000000
0.164706 0.585962 0.000000
0.304387 0.591699 0.000000
0.457984 0.601465 0.000000
0.623041 0.613794 0.000000
0.817044 0.640589 0.000000
0.926024 0.603113 0.000000
0.983093 0.548547 0.000000
0.000000 0.807462 0.000000
0.115633 0.807370 0.000000
0.309545 0.806973 0.000000
0.480446 0.805509 0.000000
0.646326 0.802060 0.000000
0.807492 0.795560 0.000000
0.919738 0.751125 0.000000
0.975860 0.681971 0.000000
0.000000 0.909331 0.000000
0.000000 0.908537 0.000000
0.274418 0.905669 0.000000
0.439368 0.900359 0.000000
0.593469 0.892454 0.000000
0.740658 0.881804 0.000000
0.881071 0.868406 0.000000
0.966461 0.813657 0.000000
0.000000 0.957733 0.000000
0.000000 0.956970 0.000000
0.238712 0.954192 0.000000
0.391638 0.949157 0.000000
0.532677 0.941680 0.000000
0.667048 0.931823 0.000000
0.796262 0.919463 0.000000
0.920439 0.904631 0.000000
0.135073 0.135042 0.170809
0.173770 0.133577 0.171023
0.255375 0.135622 0.167300
0.375006 0.127352 0.163821
0.569818 0.086793 0.151369
0.808072 0.000000 0.119051
0.936370 0.000000 0.091157
0.995026 0.000000 0.081697
0.133639 0.172915 0.170932
0.174014 0.172610 0.170138
0.255131 0.171542 0.168582
0.376013 0.167819 0.163119
0.571649 0.158297 0.148775
0.808774 0.133516 0.113558
0.935943 0.111269 0.084504
0.994446 0.100710 0.076081
0.134615 0.254307 0.165164
0.170657 0.254795 0.163821
0.258183 0.254917 0.162264
0.379828 0.263401 0.159274
0.578424 0.288640 0.138186
0.811154 0.306218 0.089052
0.934417 0.288457 0.045228
0.992493 0.262394 0.043122
0.113161 0.379553 0.149020
0.163058 0.380560 0.148318
0.269352 0.383581 0.145113
0.395178 0.389319 0.138552
0.592950 0.436194 0.102663
0.814603 0.471504 0.000000
0.931426 0.445808 0.000000
0.988830 0.405524 0.000000
0.000000 0.589014 0.076356
0.129458 0.590600 0.071717
0.293278 0.595880 0.048768
0.455756 0.604944 0.000000
0.626154 0.616388 0.000000
0.819852 0.638788 0.000000
0.926757 0.598871 0.000000
0.983307 0.544213 0.000000
0.000000 0.809964 0.000000
0.000000 0.809812 0.000000
0.290654 0.809140 0.000000
0.472816 0.807340 0.000000
0.644007 0.803311 0.000000
0.808530 0.796170 0.000000
0.920348 0.749355 0.000000
0.975952 0.679500 0.000000
0.000000 0.910460 0.000000
0.000000 0.909636 0.000000
0.255283 0.906676 0.000000
0.430732 0.901213 0.000000
0.589410 0.893065 0.000000
0.739223 0.882170 0.000000
0.881346 0.868498 0.000000
0.966461 0.812467 0.000000
0.000000 0.958312 0.000000
0.000000 0.957519 0.000000
0.222324 0.954711 0.000000
0.384039 0.949584 0.000000
0.528618 0.942046 0.000000
0.664912 0.932036 0.000000
0.795438 0.919554 0.000000
0.920470 0.904601 0.000000
0.134646 0.134340 0.245640
0.169039 0.133639 0.246250
0.255802 0.132479 0.248112
0.380407 0.109957 0.254124
0.582635 0.000000 0.254795
0.819486 0.000000 0.217288
0.940307 0.000000 0.201511
0.996277 0.000000 0.192355
0.134676 0.168338 0.247715
0.169497 0.167300 0.248081
0.257481 0.164706 0.248417
0.382208 0.148165 0.250248
0.585962 0.000000 0.240177
0.819791 0.000000 0.214908
0.939757 0.000000 0.198917
0.995697 0.000000 0.190555
0.132937 0.254124 0.248020
0.165774 0.254704 0.247990
0.256718 0.251926 0.242924
0.385046 0.250828 0.240330
0.592096 0.245487 0.227298
0.821134 0.231571 0.204623
0.937835 0.215671 0.189975
0.993530 0.203738 0.184207
0.096956 0.381659 0.251316
0.136568 0.384222 0.245487
0.246403 0.388891 0.223453
0.399756 0.392157 0.218662
0.604883 0.424933 0.209018
0.822782 0.442725 0.183871
0.934142 0.414038 0.172671
0.989563 0.378027 0.172580
0.000000 0.594049 0.247105
0.000000 0.598138 0.227970
0.228763 0.606592 0.178622
0.439948 0.613458 0.167269
0.633356 0.621698 0.147555
0.827237 0.629267 0.112123
0.928496 0.583398 0.141970
0.983551 0.529259 0.154665
0.000000 0.814389 0.185946
0.000000 0.816007 0.140230
0.190280 0.816098 0.070130
0.439643 0.812833 0.022156
0.633906 0.806973 0.000000
0.811276 0.797665 0.000000
0.921996 0.742428 0.000000
0.975830 0.671046 0.114260
0.000000 0.913451 0.071138
0.000000 0.913359 0.000000
0.159518 0.910033 0.000000
0.396704 0.904051 0.000000
0.573877 0.895140 0.000000
0.733791 0.883299 0.000000
0.882109 0.868681 0.000000
0.966064 0.808255 0.000000
0.000000 0.960082 0.000000
0.000000 0.959319 0.000000
0.150179 0.956390 0.000000
0.356786 0.951019 0.000000
0.514336 0.943145 0.000000
0.657740 0.932738 0.000000
0.792630 0.919799 0.000000
0.920378 0.904417 0.000000
0.132479 0.131044 0.362554
0.171695 0.129030 0.363745
0.266758 0.119966 0.366674
0.387274 0.086915 0.372229
0.595972 0.000000 0.416327
0.822751 0.000000 0.423590
0.939483 0.000000 0.373571
0.995178 0.000000 0.332464
0.119997 0.162509 0.367285
0.164034 0.160372 0.367803
0.264714 0.151125 0.369451
0.390448 0.126345 0.374029
0.599573 0.000000 0.411963
0.824826 0.000000 0.412909
0.940002 0.000000 0.363684
0.994781 0.000000 0.329412
0.088563 0.259464 0.370977
0.131044 0.254307 0.372168
0.243748 0.236301 0.373510
0.396674 0.224613 0.374823
0.609308 0.166171 0.390539
0.830686 0.000000 0.371160
0.940154 0.000000 0.337774
0.992523 0.048646 0.325597
0.002167 0.386114 0.374029
0.103212 0.387304 0.374426
0.223636 0.389471 0.373419
0.396216 0.383917 0.360296
0.616968 0.385534 0.357275
0.831540 0.376013 0.343603
0.935302 0.358648 0.332921
0.987915 0.341405 0.323430
0.000000 0.599359 0.412940
0.000000 0.602899 0.407752
0.125124 0.613245 0.380804
0.382727 0.621485 0.322972
0.639399 0.623377 0.313420
0.831693 0.606195 0.319921
0.927977 0.559533 0.326787
0.981018 0.511986 0.321599
0.000000 0.816434 0.409461
0.000000 0.817807 0.397436
0.000000 0.821653 0.346990
0.354253 0.820859 0.281254
0.609918 0.811643 0.274998
0.814420 0.798642 0.267643
0.922179 0.729213 0.274357
0.972351 0.662135 0.314275
0.000000 0.913512 0.354040
0.000000 0.913573 0.342535
0.000000 0.913085 0.300633
0.328862 0.908080 0.267643
0.546471 0.897917 0.265476
0.724300 0.884611 0.263188
0.882597 0.868498 0.261357
0.963378 0.801389 0.272801
0.000000 0.959716 0.311498
0.000000 0.959319 0.305028
0.000000 0.957305 0.287938
0.318456 0.952361 0.274540
0.496468 0.943999 0.274876
0.649134 0.933074 0.275700
0.789273 0.919585 0.277195
0.919463 0.903777 0.279881
0.117586 0.111788 0.561669
0.176669 0.104250 0.563043
0.299870 0.063447 0.567071
0.443427 0.000000 0.572351
0.610803 0.000000 0.584588
0.823239 0.000000 0.609461
0.931273 0.000000 0.555627
0.986938 0.000000 0.498817
0.059022 0.148165 0.567895
0.150332 0.142123 0.568688
0.290257 0.115023 0.571588
0.441749 0.000000 0.575830
0.614862 0.000000 0.587091
0.824979 0.000000 0.605615
0.931670 0.000000 0.550958
0.986542 0.000000 0.497047
0.000000 0.257450 0.577722
0.000000 0.239536 0.579583
0.230869 0.217533 0.581689
0.428229 0.183261 0.584009
0.626184 0.085634 0.592340
0.829801 0.000000 0.590539
0.931945 0.000000 0.537163
0.983764 0.076814 0.497780
0.000000 0.431128 0.583154
0.000000 0.426337 0.584619
0.102480 0.403021 0.587976
0.374151 0.354589 0.589136
0.635767 0.332280 0.588617
0.831907 0.320989 0.565728
0.925566 0.357610 0.538354
0.970977 0.420966 0.541466
0.000000 0.611414 0.589807
0.000000 0.613123 0.590509
0.000000 0.617762 0.591272
0.332372 0.622217 0.587091
0.631861 0.609125 0.564996
0.821042 0.597742 0.569604
0.912627 0.580713 0.562097
0.963684 0.558679 0.546441
0.000000 0.818906 0.600397
0.000000 0.820005 0.596094
0.000000 0.822812 0.579095
0.287999 0.823026 0.546014
0.585138 0.812284 0.529290
0.813321 0.796628 0.525658
0.905791 0.733333 0.549218
0.953521 0.691615 0.558434
0.000000 0.913420 0.537346
0.000000 0.913329 0.532341
0.000000 0.912352 0.515496
0.306950 0.907500 0.499306
0.549920 0.895720 0.511864
0.726040 0.882414 0.511955
0.879667 0.866819 0.512627
0.950683 0.801389 0.504234
0.000000 0.958801 0.478981
0.000000 0.958282 0.476265
0.000000 0.955901 0.470649
0.352728 0.948913 0.485328
0.534203 0.938750 0.509697
0.670130 0.928405 0.511955
0.797177 0.915984 0.514946
0.915068 0.901884 0.518944
0.073732 0.039399 0.781430
0.167849 0.000000 0.781857
0.317479 0.000000 0.783169
0.476478 0.000000 0.785000
0.644556 0.000000 0.787015
0.820615 0.000000 0.785306
0.919982 0.000000 0.717983
0.975982 0.000000 0.646204
0.000000 0.113191 0.783780
0.119722 0.100587 0.784054
0.300359 0.000000 0.785092
0.468971 0.000000 0.786557
0.642481 0.000000 0.788174
0.821805 0.000000 0.785397
0.920226 0.000000 0.715846
0.975586 0.000000 0.645045
0.000000 0.219791 0.789181
0.000000 0.214145 0.789364
0.211734 0.192020 0.789853
0.435920 0.138247 0.790585
0.633082 0.000000 0.791348
0.825101 0.000000 0.784756
0.920195 0.000000 0.709102
0.973022 0.000000 0.644160
0.000000 0.426184 0.789761
0.000000 0.415534 0.790555
0.000000 0.371435 0.793210
0.350164 0.328405 0.794278
0.609949 0.297398 0.793606
0.826230 0.267521 0.779904
0.915099 0.332372 0.705043
0.962249 0.406592 0.663539
0.000000 0.621332 0.787991
0.000000 0.618006 0.788540
0.000000 0.605127 0.790036
0.275731 0.580591 0.791165
0.589990 0.571374 0.788357
0.814145 0.586633 0.771328
0.893126 0.628443 0.737636
0.934813 0.664302 0.735317
0.000000 0.812375 0.783993
0.000000 0.813138 0.784146
0.000000 0.815488 0.784329
0.259983 0.817258 0.783352
0.602991 0.806302 0.776547
0.799008 0.788693 0.769650
0.874815 0.781765 0.772366
0.920623 0.773312 0.767422
0.000000 0.912902 0.710475
0.000000 0.912596 0.708431
0.000000 0.910887 0.701747
0.316350 0.904265 0.697047
0.608911 0.886412 0.722805
0.774289 0.870939 0.755947
0.870817 0.863432 0.754940
0.917418 0.836637 0.761746
0.000000 0.957305 0.632593
0.000000 0.956603 0.631586
0.000000 0.953643 0.630426
0.379614 0.945190 0.644038
0.625910 0.926818 0.704005
0.758206 0.913207 0.746853
0.832242 0.906371 0.747219
0.906065 0.898741 0.747738
0.028992 0.000000 0.879973
0.149538 0.000000 0.879973
0.293706 0.000000 0.880003
0.441474 0.000000 0.879973
0.593591 0.000000 0.879789
0.751186 0.000000 0.879271
0.907164 0.000000 0.870359
0.962402 0.000000 0.782956
0.000000 0.090578 0.880400
0.102022 0.077119 0.880430
0.277043 0.000000 0.880400
0.433112 0.000000 0.880308
0.589349 0.000000 0.880034
0.749722 0.000000 0.879393
0.907134 0.000000 0.869871
0.961975 0.000000 0.782162
0.000000 0.203952 0.881590
0.000000 0.199191 0.881590
0.199191 0.181094 0.881437
0.399451 0.140566 0.881163
0.573419 0.000000 0.880583
0.744350 0.000000 0.879545
0.906493 0.000000 0.867918
0.959686 0.000000 0.780514
0.000000 0.365972 0.881010
0.000000 0.355901 0.881346
0.000000 0.327672 0.881987
0.331670 0.315282 0.881315
0.546014 0.298009 0.880186
0.735470 0.279484 0.878325
0.902342 0.285344 0.863432
0.951171 0.384955 0.784878
0.000000 0.552575 0.876799
0.000000 0.548516 0.877012
0.000000 0.534997 0.877592
0.294591 0.523430 0.877409
0.551110 0.539055 0.874693
0.740536 0.556878 0.871458
0.887327 0.591974 0.856504
0.929320 0.647944 0.811856
0.000000 0.724727 0.870787
0.000000 0.723354 0.870848
0.000000 0.719326 0.870909
0.311223 0.718013 0.869993
0.608087 0.742214 0.865507
0.779721 0.773678 0.860441
0.870542 0.782712 0.853391
0.910094 0.795529 0.841337
0.000000 0.890471 0.862669
0.000000 0.890501 0.862608
0.000000 0.890166 0.862242
0.349187 0.887144 0.861082
0.633448 0.877806 0.858732
0.789700 0.867308 0.855802
0.864378 0.860441 0.853269
0.902556 0.857572 0.853819
0.000000 0.954803 0.781338
0.000000 0.953918 0.780880
0.094636 0.950042 0.780667
0.426886 0.939574 0.787991
0.656031 0.921447 0.811765
0.789517 0.907042 0.836362
0.854704 0.900572 0.847990
0.900786 0.897215 0.847715
0.031830 0.000000 0.926574
0.136660 0.000000 0.926543
0.265843 0.000000 0.926329
0.398444 0.000000 0.925933
0.533379 0.000000 0.925292
0.671290 0.000000 0.924315
0.812375 0.000000 0.922850
0.948180 0.000000 0.913176
0.000000 0.087892 0.926604
0.099428 0.077882 0.926543
0.252262 0.000000 0.926360
0.391150 0.000000 0.925933
0.529259 0.000000 0.925261
0.669123 0.000000 0.924224
0.811551 0.000000 0.922698
0.947692 0.000000 0.912718
0.000000 0.196078 0.926604
0.000000 0.192874 0.926543
0.194034 0.180575 0.926268
0.363775 0.156130 0.925780
0.514641 0.110323 0.924956
0.661860 0.000000 0.923705
0.808652 0.000000 0.921904
0.945525 0.000000 0.910887
0.000000 0.320562 0.925902
0.000000 0.319463 0.925811
0.000000 0.315679 0.925414
0.320378 0.309606 0.924712
0.495369 0.302831 0.923522
0.654170 0.299565 0.921782
0.805722 0.308568 0.919249
0.938903 0.351629 0.906828
0.000000 0.489204 0.922026
0.000000 0.487007 0.922026
0.000000 0.483040 0.921813
0.342626 0.499763 0.920073
0.522789 0.515343 0.917906
0.677852 0.538354 0.914977
0.815457 0.572900 0.911254
0.923064 0.619654 0.899809
0.000000 0.642939 0.916564
0.000000 0.642298 0.916503
0.000000 0.642329 0.916014
0.373663 0.656947 0.913939
0.624537 0.714900 0.907805
0.759426 0.755856 0.903136
0.840604 0.768124 0.901091
0.908080 0.782376 0.894743
0.000000 0.788296 0.909575
0.000000 0.788205 0.909422
0.092470 0.789029 0.908782
0.422614 0.797391 0.906554
0.652918 0.820554 0.902098
0.788052 0.842863 0.898222
0.856443 0.854246 0.896239
0.900633 0.857877 0.893278
0.000000 0.925292 0.901152
0.000000 0.924865 0.900969
0.222843 0.922881 0.900328
0.485359 0.917571 0.898802
0.683436 0.909606 0.896757
0.796475 0.903471 0.895384
0.860990 0.899413 0.894591
0.897642 0.896330 0.893919
