cubelut/Cinematic-9.cube
# Created by Adobe Lightroom plugin Export LUT (1.18.0)
# www.johnrellis.com/lightroom/exportlut.htm
# Preset: Cinematic5
# Color profile: /Library/Application Support/Adobe/Color/Profiles/Recommended/AdobeRGB1998.icc
LUT_3D_SIZE 8
DOMAIN_MIN 0.000000 0.000000 0.000000
DOMAIN_MAX 0.903226 0.903226 0.903226
0.000000 0.000000 0.000000
0.089418 0.010956 0.012268
0.181918 0.001312 0.022370
0.295781 0.000000 0.015930
0.408972 0.000000 0.010437
0.509789 0.000000 0.014405
0.610742 0.000000 0.030488
0.718685 0.001465 0.071626
0.038544 0.077668 0.015473
0.091798 0.077241 0.017609
0.195773 0.082918 0.025360
0.309911 0.075044 0.015229
0.421790 0.062470 0.010498
0.520104 0.053956 0.018494
0.618341 0.069551 0.041566
0.723903 0.107607 0.078889
0.070741 0.162081 0.023285
0.115297 0.166903 0.026154
0.188602 0.162722 0.018036
0.336065 0.193790 0.003510
0.465126 0.202274 0.022126
0.554131 0.198337 0.049042
0.643885 0.203494 0.073579
0.741573 0.222782 0.107515
0.085908 0.268589 0.000305
0.132448 0.274052 0.001801
0.236851 0.293400 0.017792
0.300908 0.268101 0.000000
0.441657 0.303960 0.000000
0.607324 0.350835 0.104768
0.682704 0.343389 0.129213
0.769284 0.353399 0.165530
0.106264 0.378759 0.000000
0.148806 0.383856 0.000000
0.247562 0.401862 0.000000
0.350408 0.411749 0.021088
0.403388 0.372778 0.000000
0.520470 0.398627 0.000000
0.687129 0.465156 0.146517
0.800107 0.500877 0.264073
0.128634 0.482704 0.000000
0.165469 0.487068 0.000000
0.255924 0.502342 0.003815
0.369757 0.529076 0.087129
0.449409 0.519127 0.068727
0.496193 0.476387 0.000000
0.596674 0.493843 0.000000
0.769986 0.578637 0.194217
0.154208 0.593988 0.000000
0.186343 0.597345 0.000000
0.269780 0.609094 0.051637
0.375158 0.629053 0.117220
0.489998 0.656306 0.188693
0.544518 0.629816 0.122164
0.594446 0.593896 0.000000
0.692958 0.612329 0.000000
0.196628 0.723354 0.070436
0.223789 0.725765 0.083467
0.299138 0.733974 0.121340
0.397864 0.747951 0.177310
0.504997 0.766171 0.250370
0.595819 0.776272 0.293126
0.654322 0.763027 0.220127
0.721492 0.749050 0.088319
0.050172 0.008362 0.068360
0.094148 0.009522 0.071687
0.182284 0.007843 0.078889
0.286168 0.000000 0.079744
0.399725 0.000000 0.081178
0.502007 0.000000 0.083528
0.604059 0.000000 0.088838
0.713893 0.000000 0.106020
0.046479 0.073060 0.070314
0.101076 0.080293 0.075776
0.188876 0.081056 0.081575
0.299931 0.069245 0.082765
0.412573 0.047486 0.084474
0.512322 0.027039 0.087160
0.611963 0.053101 0.093996
0.719203 0.098238 0.112825
0.071626 0.158602 0.078035
0.115084 0.165621 0.080781
0.194736 0.166018 0.077943
0.343145 0.194919 0.094240
0.455879 0.196475 0.098787
0.546715 0.194217 0.104341
0.638056 0.199832 0.114534
0.737209 0.219608 0.138094
0.079469 0.265660 0.075227
0.126436 0.272313 0.076387
0.235019 0.290776 0.091035
0.305974 0.271702 0.064424
0.449378 0.307469 0.077607
0.600580 0.347417 0.150668
0.677516 0.341863 0.164858
0.765347 0.352758 0.193027
0.094423 0.376837 0.065217
0.141970 0.381903 0.069612
0.245396 0.399695 0.086824
0.354162 0.414435 0.102815
0.407172 0.376013 0.029786
0.526390 0.402533 0.018067
0.689631 0.469062 0.191928
0.796536 0.501640 0.289860
0.121096 0.480507 0.059693
0.159823 0.484901 0.066835
0.253758 0.500175 0.089143
0.369055 0.526909 0.129641
0.452064 0.521263 0.121157
0.498482 0.478462 0.000000
0.601007 0.496956 0.000000
0.771389 0.581231 0.230228
0.147250 0.591547 0.062898
0.181247 0.594995 0.072450
0.267155 0.606897 0.102052
0.374426 0.627100 0.149325
0.490028 0.654597 0.216007
0.546075 0.630793 0.159091
0.595331 0.594568 0.000000
0.695521 0.613977 0.000000
0.189975 0.721370 0.107301
0.218265 0.723751 0.116884
0.296147 0.732143 0.148043
0.396643 0.746334 0.199039
0.504845 0.764828 0.269657
0.597742 0.776547 0.317449
0.654994 0.763241 0.244327
0.721645 0.749020 0.125887
0.093202 0.000000 0.137606
0.120119 0.000000 0.145602
0.204532 0.000000 0.162722
0.326787 0.000000 0.180453
0.410712 0.000000 0.169741
0.477516 0.000000 0.153719
0.580438 0.000000 0.156924
0.696284 0.000000 0.168673
0.091585 0.063020 0.135286
0.121889 0.070192 0.144564
0.207797 0.074128 0.164767
0.322606 0.064698 0.176944
0.405646 0.000000 0.165957
0.486671 0.000000 0.158816
0.588922 0.000000 0.163210
0.701930 0.000000 0.175601
0.073793 0.146090 0.142641
0.109194 0.153933 0.150240
0.233799 0.191226 0.185275
0.328710 0.180941 0.179599
0.430213 0.178012 0.181155
0.522820 0.177737 0.183474
0.617304 0.182193 0.187869
0.721370 0.201175 0.202152
0.067262 0.250217 0.151186
0.109865 0.259495 0.154788
0.229740 0.291264 0.176364
0.329229 0.289372 0.168460
0.477211 0.326116 0.213138
0.579156 0.335515 0.238499
0.659663 0.333715 0.242435
0.751431 0.346136 0.258793
0.077729 0.360357 0.156710
0.122927 0.368780 0.158633
0.236332 0.395331 0.176303
0.369879 0.425513 0.216800
0.422827 0.389532 0.162722
0.548333 0.418860 0.186831
0.697780 0.487922 0.318242
0.784573 0.501061 0.355322
0.099092 0.467140 0.157687
0.141115 0.473945 0.160159
0.245151 0.493690 0.178439
0.367010 0.520684 0.217105
0.463569 0.529870 0.230777
0.507713 0.487037 0.157809
0.616327 0.508690 0.148409
0.775906 0.592401 0.337072
0.120241 0.581140 0.159640
0.158602 0.585809 0.163180
0.256168 0.599298 0.183841
0.370520 0.620142 0.225284
0.489326 0.648829 0.288579
0.552209 0.634943 0.253758
0.598840 0.597498 0.157229
0.704891 0.620172 0.079591
0.158206 0.713924 0.179812
0.191348 0.716640 0.184817
0.281498 0.725551 0.210575
0.389868 0.740536 0.257053
0.502403 0.760159 0.324651
0.604486 0.777768 0.391302
0.657343 0.764187 0.316838
0.722316 0.749050 0.208652
0.135164 0.000000 0.221225
0.156252 0.000000 0.231449
0.228672 0.000000 0.269627
0.344701 0.000000 0.298558
0.481666 0.000000 0.330816
0.545708 0.000000 0.303868
0.606409 0.000000 0.277806
0.682521 0.000000 0.248753
0.131868 0.027863 0.218296
0.152316 0.020722 0.228428
0.225193 0.000000 0.266331
0.346105 0.000000 0.299901
0.481727 0.086824 0.332036
0.541039 0.073548 0.300877
0.601617 0.000000 0.273472
0.678096 0.000000 0.241367
0.066560 0.096162 0.206577
0.107637 0.100649 0.214054
0.220401 0.144778 0.261906
0.356939 0.180514 0.311070
0.467079 0.207797 0.321263
0.524895 0.184726 0.290349
0.583490 0.137850 0.255680
0.689326 0.122286 0.254856
0.051820 0.224491 0.226627
0.093629 0.232212 0.234928
0.199405 0.263645 0.268193
0.390448 0.341741 0.349279
0.465095 0.320348 0.326665
0.542290 0.310765 0.317235
0.626429 0.306462 0.311894
0.724788 0.314580 0.318456
0.000000 0.330175 0.229435
0.080995 0.339025 0.234897
0.200137 0.370916 0.257877
0.368872 0.426093 0.323064
0.457038 0.421332 0.310307
0.583368 0.459480 0.370245
0.680476 0.484993 0.417823
0.763729 0.487129 0.420752
0.028931 0.438361 0.238224
0.102113 0.445716 0.241794
0.214023 0.471321 0.259464
0.359838 0.512963 0.312108
0.489937 0.549035 0.376623
0.527001 0.506004 0.289860
0.641413 0.533257 0.314427
0.782712 0.618585 0.489265
0.042451 0.556878 0.246281
0.110567 0.562158 0.248569
0.221012 0.580102 0.262333
0.355261 0.608270 0.306523
0.483619 0.639277 0.373449
0.565332 0.644739 0.380713
0.606317 0.604547 0.276646
0.721248 0.632654 0.257115
0.080446 0.698329 0.265843
0.131716 0.701289 0.267796
0.237308 0.711818 0.279820
0.364935 0.729458 0.321019
0.491005 0.751553 0.389807
0.607111 0.776303 0.475715
0.661616 0.766751 0.418341
0.723537 0.749538 0.307134
0.172976 0.000000 0.305882
0.189120 0.000000 0.317021
0.246525 0.000000 0.357366
0.351476 0.000000 0.430335
0.474311 0.000000 0.454841
0.592676 0.088014 0.478126
0.669886 0.162631 0.469703
0.737606 0.132906 0.442756
0.167575 0.000000 0.302373
0.183627 0.000000 0.313268
0.241672 0.000000 0.353185
0.348699 0.000000 0.426581
0.474800 0.000000 0.455482
0.592401 0.150240 0.479774
0.666346 0.191501 0.467781
0.734463 0.157076 0.439246
0.134768 0.081331 0.284031
0.161532 0.093874 0.299779
0.228305 0.107240 0.341711
0.342535 0.136049 0.416297
0.478370 0.189822 0.460670
0.591974 0.268498 0.488014
0.653925 0.259434 0.459144
0.722866 0.211154 0.423285
0.007996 0.159609 0.275181
0.070436 0.161166 0.282933
0.159396 0.168551 0.312718
0.341100 0.262303 0.404150
0.489326 0.336828 0.477546
0.579889 0.368994 0.484871
0.630121 0.321538 0.432593
0.698695 0.251652 0.376410
0.000000 0.292302 0.304356
0.048066 0.299351 0.312352
0.168673 0.326574 0.343206
0.320623 0.384009 0.406958
0.514549 0.485359 0.516594
0.569787 0.453559 0.478798
0.638056 0.433692 0.454597
0.729854 0.428779 0.446967
0.000000 0.393011 0.299229
0.000000 0.400855 0.305058
0.146822 0.428656 0.327367
0.302678 0.477821 0.375586
0.481941 0.546899 0.472755
0.557885 0.540826 0.454444
0.674067 0.582910 0.523003
0.776364 0.623865 0.590204
0.000000 0.516167 0.319310
0.000000 0.521965 0.322240
0.146059 0.542229 0.334508
0.296605 0.577539 0.367102
0.459297 0.624659 0.444404
0.588067 0.664332 0.527581
0.619043 0.618647 0.412146
0.742672 0.655573 0.443061
0.000000 0.672084 0.351171
0.000000 0.675380 0.352056
0.142367 0.687068 0.357336
0.297337 0.708003 0.378180
0.452308 0.736995 0.440711
0.590600 0.767086 0.534051
0.668696 0.772549 0.536431
0.725490 0.751186 0.417151
0.205570 0.000000 0.394629
0.218418 0.000000 0.405341
0.263401 0.000000 0.443000
0.345708 0.000000 0.508812
0.463569 0.000000 0.590997
0.580438 0.000000 0.603845
0.688167 0.205203 0.624018
0.781613 0.316228 0.648951
0.199374 0.000000 0.389776
0.212253 0.000000 0.400366
0.258366 0.000000 0.438270
0.342290 0.000000 0.504753
0.462806 0.000000 0.590997
0.580377 0.074617 0.604181
0.687556 0.238071 0.625452
0.779507 0.331151 0.648096
0.176455 0.044984 0.371832
0.190402 0.043488 0.382757
0.240787 0.041047 0.421790
0.331548 0.072023 0.490974
0.460090 0.150637 0.584802
0.580987 0.224949 0.606256
0.685939 0.325322 0.630976
0.772091 0.372442 0.643091
0.081971 0.091279 0.311955
0.108095 0.100099 0.326818
0.194278 0.140963 0.382330
0.314946 0.199710 0.466377
0.455665 0.279454 0.568566
0.583917 0.356420 0.613031
0.684749 0.429786 0.642206
0.758602 0.417609 0.625940
0.000000 0.213809 0.335760
0.000000 0.215946 0.342260
0.103090 0.224186 0.366583
0.228977 0.244602 0.415015
0.443519 0.378698 0.540185
0.591608 0.480842 0.628290
0.674861 0.509239 0.638025
0.734463 0.444038 0.577569
0.000000 0.349310 0.372961
0.000000 0.354894 0.379644
0.095888 0.375891 0.404303
0.242832 0.417456 0.452735
0.412665 0.489204 0.532891
0.611170 0.609216 0.662165
0.657282 0.568902 0.614038
0.736965 0.547875 0.587518
0.000000 0.463111 0.379492
0.000000 0.467567 0.382330
0.000000 0.483589 0.391699
0.178714 0.520195 0.420417
0.369085 0.577722 0.481697
0.570672 0.656550 0.606317
0.643275 0.649378 0.583612
0.768215 0.701595 0.663691
0.000000 0.629969 0.428687
0.000000 0.633570 0.429725
0.000000 0.646479 0.433967
0.153231 0.670039 0.445441
0.357397 0.704463 0.481849
0.546929 0.749477 0.577783
0.683864 0.784848 0.670954
0.729000 0.755428 0.549645
0.240116 0.000000 0.511986
0.250523 0.000000 0.521263
0.287388 0.000000 0.553399
0.353368 0.000000 0.607324
0.448096 0.000000 0.676112
0.565057 0.000000 0.732509
0.676661 0.150088 0.742550
0.781643 0.313787 0.763210
0.233188 0.000000 0.505669
0.243870 0.000000 0.515068
0.281743 0.000000 0.547906
0.349279 0.000000 0.602930
0.446082 0.000000 0.672999
0.564904 0.000000 0.732418
0.676417 0.189151 0.742550
0.781125 0.334417 0.764034
0.207492 0.000000 0.482521
0.219120 0.000000 0.492409
0.260380 0.000000 0.527153
0.334447 0.000000 0.586694
0.438941 0.008789 0.661860
0.564843 0.199619 0.732418
0.675959 0.283757 0.743038
0.779629 0.396002 0.766995
0.136477 0.061097 0.426734
0.155184 0.069612 0.439918
0.215946 0.097322 0.484382
0.303655 0.127260 0.552453
0.424079 0.199252 0.639307
0.564904 0.325078 0.731746
0.676020 0.391119 0.745083
0.778164 0.477119 0.772183
0.000000 0.119112 0.372045
0.000000 0.114015 0.375708
0.000000 0.112062 0.389197
0.209171 0.169223 0.471046
0.386389 0.276738 0.593652
0.553918 0.412451 0.709621
0.677852 0.498116 0.750515
0.777829 0.564782 0.779965
0.000000 0.268803 0.408362
0.000000 0.269444 0.412177
0.000000 0.271885 0.426642
0.059907 0.276188 0.454994
0.244633 0.288609 0.504814
0.521386 0.475898 0.661250
0.684321 0.606134 0.762539
0.770993 0.635554 0.776242
0.000000 0.413581 0.453834
0.000000 0.416815 0.457710
0.000000 0.428840 0.472236
0.000000 0.452613 0.500786
0.260807 0.497475 0.552819
0.475532 0.579644 0.641627
0.702602 0.723842 0.789670
0.750637 0.676997 0.737758
0.000000 0.584161 0.513115
0.000000 0.586755 0.514061
0.000000 0.596033 0.517113
0.000000 0.612940 0.521294
0.116213 0.644007 0.536065
0.413245 0.698207 0.596735
0.653834 0.771786 0.729793
0.739742 0.768978 0.707485
0.284245 0.000000 0.697017
0.293187 0.000000 0.702510
0.324620 0.000000 0.721523
0.379828 0.000000 0.753719
0.458137 0.000000 0.795132
0.557702 0.000000 0.839292
0.669703 0.158541 0.861845
0.776089 0.280705 0.866178
0.277256 0.000000 0.692348
0.286381 0.000000 0.698024
0.318822 0.000000 0.717556
0.375463 0.000000 0.750546
0.455573 0.000000 0.792874
0.557000 0.000000 0.837919
0.669856 0.193362 0.861692
0.775875 0.301884 0.866056
0.249851 0.000000 0.674769
0.260227 0.000000 0.680842
0.296208 0.000000 0.702266
0.358556 0.000000 0.738308
0.445655 0.000000 0.784390
0.553887 0.125002 0.832792
0.670192 0.279210 0.861265
0.775296 0.363348 0.865873
0.182956 0.000000 0.636225
0.197024 0.000000 0.643519
0.243900 0.000000 0.668788
0.320592 0.000000 0.711543
0.423072 0.094820 0.765957
0.545342 0.241093 0.822141
0.670466 0.378332 0.860929
0.774716 0.445167 0.865934
0.000000 0.000000 0.558709
0.000000 0.000000 0.567376
0.043824 0.014954 0.598230
0.226993 0.109438 0.654200
0.368109 0.184146 0.727077
0.521355 0.315190 0.801114
0.669734 0.478096 0.861051
0.774655 0.533532 0.866819
0.000000 0.212589 0.560784
0.000000 0.206912 0.561395
0.000000 0.183536 0.563592
0.000000 0.119966 0.568170
0.172244 0.170108 0.629267
0.454536 0.349340 0.751308
0.654749 0.542626 0.845060
0.775753 0.627893 0.869047
0.000000 0.394293 0.607019
0.000000 0.392859 0.607782
0.000000 0.387396 0.610498
0.000000 0.375891 0.616358
0.000000 0.355413 0.628016
0.174655 0.324987 0.652094
0.593133 0.564385 0.793454
0.779812 0.725765 0.874174
0.000000 0.572412 0.656977
0.000000 0.573175 0.657801
0.000000 0.575982 0.661006
0.000000 0.582116 0.667903
0.000000 0.594324 0.681178
0.201816 0.620478 0.707332
0.507530 0.684047 0.765225
0.794797 0.825986 0.888762
