cubelut/Cinematic-8.cube
# Created by Adobe Lightroom plugin Export LUT (1.18.0)
# www.johnrellis.com/lightroom/exportlut.htm
# Preset: Cinematic4
# Color profile: /Library/Application Support/Adobe/Color/Profiles/Recommended/AdobeRGB1998.icc
LUT_3D_SIZE 8
DOMAIN_MIN 0.000000 0.000000 0.000000
DOMAIN_MAX 0.903226 0.903226 0.903226
0.085725 0.106386 0.119387
0.155184 0.094606 0.121065
0.291875 0.079225 0.125704
0.471565 0.109865 0.124575
0.760647 0.057527 0.116304
0.935088 0.059815 0.132967
1.000000 0.062013 0.159365
1.000000 0.134035 0.189822
0.071748 0.175723 0.119539
0.155947 0.180575 0.121492
0.289220 0.171969 0.125887
0.464271 0.196323 0.123140
0.753231 0.187961 0.119600
0.924590 0.182834 0.132570
1.000000 0.167178 0.157687
1.000000 0.187961 0.188693
0.074678 0.315312 0.121981
0.154391 0.316411 0.125460
0.290867 0.319951 0.136172
0.478035 0.349981 0.139254
0.765316 0.366125 0.125734
0.925994 0.354345 0.135744
1.000000 0.323278 0.163760
1.000000 0.310002 0.196719
0.106294 0.498024 0.143618
0.181216 0.498665 0.144106
0.328191 0.511192 0.146304
0.525841 0.531640 0.146242
0.792416 0.547082 0.124880
0.932280 0.513664 0.141238
1.000000 0.465156 0.171359
1.000000 0.431403 0.206668
0.135897 0.719051 0.119356
0.212192 0.718532 0.119356
0.367285 0.719661 0.118379
0.578149 0.719875 0.112184
0.782132 0.711452 0.105653
0.923247 0.673243 0.127779
1.000000 0.612177 0.175631
1.000000 0.561669 0.222232
0.165469 0.857816 0.114321
0.228977 0.860502 0.116487
0.373327 0.857115 0.118227
0.566979 0.848478 0.119295
0.747799 0.835935 0.122805
0.912322 0.822782 0.134493
1.000000 0.751125 0.193271
1.000000 0.689509 0.255406
0.205386 0.938231 0.173129
0.250187 0.937652 0.175235
0.367864 0.933379 0.178195
0.532433 0.924529 0.184451
0.693355 0.911772 0.194919
0.831846 0.898833 0.214878
0.983825 0.880217 0.242771
1.000000 0.815793 0.299077
0.279149 0.972961 0.274479
0.306981 0.971984 0.275364
0.394995 0.968292 0.280858
0.526421 0.960723 0.292912
0.655787 0.949279 0.297704
0.775753 0.937530 0.322118
0.903014 0.921996 0.354437
1.000000 0.906554 0.390845
0.053773 0.106142 0.180880
0.148775 0.092836 0.183841
0.283085 0.114412 0.183352
0.458015 0.138155 0.194888
0.748379 0.044099 0.189181
0.919707 0.005890 0.189029
1.000000 0.000000 0.198795
1.000000 0.125154 0.218784
0.004120 0.172976 0.185061
0.153597 0.178836 0.187350
0.282689 0.188205 0.192416
0.458137 0.204990 0.195987
0.746883 0.182406 0.188479
0.915068 0.172976 0.187350
1.000000 0.157168 0.196597
1.000000 0.180972 0.216770
0.078889 0.311162 0.188266
0.163241 0.312444 0.196567
0.287877 0.317571 0.200381
0.470344 0.346197 0.199557
0.751705 0.355840 0.185672
0.914580 0.345281 0.184909
1.000000 0.315557 0.198215
1.000000 0.304997 0.222599
0.096681 0.488777 0.192874
0.179843 0.491798 0.196689
0.322576 0.502617 0.196445
0.502190 0.514549 0.194369
0.766506 0.528130 0.177371
0.914641 0.502586 0.182376
1.000000 0.458320 0.201419
1.000000 0.427405 0.230655
0.108461 0.713924 0.170840
0.196780 0.712520 0.170596
0.357549 0.711788 0.169253
0.563806 0.708431 0.165072
0.769619 0.699123 0.159091
0.914122 0.665705 0.171511
1.000000 0.607660 0.208194
1.000000 0.559411 0.248722
0.144106 0.853056 0.163424
0.213016 0.852506 0.163912
0.362432 0.849699 0.164736
0.558801 0.842466 0.166506
0.743771 0.831540 0.170504
0.910277 0.820157 0.181552
1.000000 0.748714 0.228519
1.000000 0.688502 0.282811
0.194430 0.934874 0.207645
0.239658 0.933532 0.207462
0.360845 0.929808 0.210330
0.528191 0.921904 0.217990
0.691402 0.909880 0.229191
0.830045 0.897002 0.246708
0.981598 0.878202 0.269963
1.000000 0.813687 0.319402
0.281285 0.971801 0.300023
0.310155 0.970886 0.302312
0.398566 0.967193 0.307500
0.529900 0.959625 0.319585
0.662074 0.949004 0.334234
0.778653 0.937102 0.353216
0.904143 0.921324 0.379187
1.000000 0.906126 0.410132
0.000000 0.102327 0.293370
0.123781 0.087648 0.293980
0.278752 0.119844 0.298802
0.464607 0.115938 0.315068
0.760433 0.000000 0.306523
0.924163 0.000000 0.293889
1.000000 0.000000 0.300053
1.000000 0.136599 0.314641
0.055421 0.172061 0.294865
0.147219 0.179080 0.295354
0.280461 0.190188 0.298680
0.464942 0.180117 0.307866
0.757259 0.000000 0.290471
0.919524 0.000000 0.291783
1.000000 0.106142 0.297765
1.000000 0.188815 0.313634
0.087221 0.308232 0.298528
0.160098 0.310918 0.299199
0.287419 0.315892 0.298192
0.482460 0.329992 0.297978
0.764523 0.318242 0.291691
0.918944 0.312383 0.291417
1.000000 0.299901 0.300023
1.000000 0.308598 0.318486
0.011933 0.492683 0.312627
0.138216 0.497963 0.305303
0.309422 0.506981 0.292821
0.516930 0.516991 0.291600
0.774929 0.516716 0.289097
0.918608 0.489631 0.294560
1.000000 0.452979 0.308904
1.000000 0.433112 0.331823
0.000000 0.712642 0.299657
0.034455 0.714321 0.279728
0.327825 0.714717 0.280156
0.560296 0.711879 0.280095
0.778317 0.701839 0.279454
0.915831 0.659510 0.293523
1.000000 0.605402 0.322026
1.000000 0.565728 0.351873
0.000000 0.853788 0.273960
0.139254 0.852964 0.278965
0.340246 0.849180 0.287663
0.549157 0.840513 0.290105
0.740200 0.828550 0.295018
0.909636 0.816526 0.306554
0.998138 0.745937 0.339178
1.000000 0.694545 0.385199
0.187381 0.934722 0.323705
0.239170 0.933379 0.325475
0.364874 0.928954 0.327886
0.533074 0.920104 0.332464
0.693385 0.907988 0.340307
0.831662 0.895567 0.355474
0.981109 0.878080 0.377600
1.000000 0.818479 0.416907
0.339422 0.968322 0.398444
0.358038 0.967498 0.395789
0.439307 0.963409 0.399054
0.563256 0.955779 0.411200
0.681270 0.945769 0.422156
0.790372 0.934569 0.437690
0.912139 0.919188 0.458442
1.000000 0.906096 0.484810
0.000000 0.088136 0.433265
0.117128 0.099733 0.435889
0.281437 0.118563 0.439216
0.465034 0.104280 0.460426
0.754726 0.000000 0.482948
0.915068 0.000000 0.456672
1.000000 0.000000 0.438209
1.000000 0.263981 0.461860
0.000000 0.177676 0.440131
0.135683 0.179812 0.441016
0.286961 0.184482 0.442481
0.472145 0.167819 0.461769
0.756954 0.000000 0.477150
0.913695 0.000000 0.450813
1.000000 0.099306 0.440101
1.000000 0.285466 0.459907
0.000000 0.318608 0.443885
0.122225 0.315862 0.444678
0.282353 0.307866 0.446571
0.491859 0.300298 0.459785
0.765652 0.251469 0.457527
0.916289 0.277104 0.448188
1.000000 0.337865 0.460151
1.000000 0.375341 0.468238
0.000000 0.488655 0.456092
0.098238 0.492409 0.456916
0.274174 0.502831 0.456428
0.523003 0.505455 0.451301
0.769436 0.493660 0.451362
0.910826 0.482795 0.454597
1.000000 0.472724 0.462867
1.000000 0.479866 0.476356
0.000000 0.711757 0.473610
0.000000 0.711696 0.467689
0.272221 0.713710 0.448920
0.555657 0.709651 0.448615
0.781125 0.697871 0.449470
0.911528 0.658930 0.462318
0.996033 0.623011 0.475837
1.000000 0.603662 0.490883
0.000000 0.853696 0.448829
0.099214 0.855589 0.447883
0.339025 0.850431 0.449012
0.569177 0.839475 0.457008
0.748318 0.828428 0.460060
0.913451 0.815457 0.465492
0.989990 0.753048 0.486336
1.000000 0.718776 0.515038
0.222934 0.931853 0.449775
0.286595 0.930266 0.456153
0.453162 0.922728 0.479683
0.587671 0.914916 0.480751
0.719509 0.904692 0.485847
0.845090 0.892943 0.493996
0.978759 0.877317 0.507164
1.000000 0.828550 0.532799
0.467262 0.959777 0.510918
0.507012 0.956939 0.521569
0.577722 0.951446 0.535119
0.635767 0.947295 0.528161
0.723812 0.939208 0.536126
0.817166 0.929259 0.548333
0.926268 0.915251 0.566125
0.997223 0.905913 0.590051
0.000000 0.091798 0.603082
0.155184 0.092500 0.604028
0.321996 0.088502 0.604456
0.513451 0.000000 0.605676
0.755398 0.000000 0.616510
0.909789 0.000000 0.588647
1.000000 0.000000 0.552636
1.000000 0.284001 0.547143
0.000000 0.173587 0.605463
0.153170 0.172610 0.607019
0.321355 0.165469 0.607141
0.516838 0.123049 0.607721
0.757168 0.000000 0.614801
0.910033 0.000000 0.586053
1.000000 0.109957 0.553735
1.000000 0.331762 0.553491
0.000000 0.317998 0.608515
0.000000 0.304112 0.609583
0.293462 0.298772 0.609796
0.518303 0.280278 0.609583
0.761196 0.234653 0.607324
0.906310 0.258549 0.578759
0.998077 0.347295 0.563745
1.000000 0.449775 0.577630
0.000000 0.510155 0.609400
0.000000 0.506706 0.609277
0.257481 0.495491 0.610285
0.530144 0.488746 0.609186
0.766445 0.483955 0.601068
0.901122 0.502831 0.591485
0.986053 0.546349 0.601526
1.000000 0.588342 0.616052
0.000000 0.697292 0.609857
0.000000 0.699336 0.609857
0.277867 0.702327 0.607538
0.564446 0.695125 0.603296
0.769039 0.683558 0.602014
0.896544 0.670466 0.604730
0.980285 0.660700 0.610010
1.000000 0.662684 0.618830
0.000000 0.843870 0.581445
0.096773 0.843198 0.580285
0.348363 0.837675 0.579675
0.598230 0.823819 0.592157
0.754238 0.815457 0.598505
0.902037 0.804532 0.606256
0.975799 0.770840 0.624720
1.000000 0.756130 0.640497
0.267063 0.926787 0.559777
0.323461 0.924620 0.563226
0.485664 0.915892 0.579217
0.662135 0.901915 0.615717
0.752865 0.896025 0.618372
0.862516 0.886412 0.624842
0.971435 0.875120 0.633936
0.997162 0.842496 0.651026
0.494484 0.955566 0.584070
0.528191 0.952941 0.591302
0.621973 0.944610 0.617304
0.735561 0.932952 0.664790
0.773983 0.930236 0.653346
0.853330 0.921416 0.660945
0.938964 0.910643 0.672389
0.987884 0.905333 0.687739
0.065278 0.092103 0.750881
0.173129 0.090333 0.750790
0.335882 0.070436 0.749050
0.537682 0.000000 0.748959
0.741909 0.000000 0.747036
0.904997 0.000000 0.725307
0.998535 0.000000 0.668879
1.000000 0.293309 0.637018
0.002777 0.168368 0.748318
0.161593 0.166232 0.747982
0.329168 0.154360 0.747280
0.532067 0.088075 0.746517
0.739834 0.000000 0.744656
0.903349 0.000000 0.722560
0.996887 0.111147 0.668421
1.000000 0.335912 0.640650
0.000000 0.298680 0.751034
0.000000 0.297337 0.750515
0.297459 0.292088 0.749355
0.522972 0.271458 0.747799
0.741909 0.234989 0.744747
0.903777 0.251774 0.718379
0.991760 0.349279 0.673335
1.000000 0.456764 0.658442
0.000000 0.490608 0.748379
0.000000 0.485969 0.747829
0.270603 0.478981 0.747341
0.538140 0.482643 0.746731
0.753323 0.482124 0.744137
0.903197 0.500725 0.718654
0.981933 0.550134 0.693507
1.000000 0.614191 0.692805
0.000000 0.666957 0.740993
0.000000 0.666712 0.740963
0.315251 0.667659 0.740108
0.583917 0.671717 0.737209
0.761044 0.677607 0.733852
0.892393 0.684260 0.720943
0.967376 0.702480 0.718990
0.996002 0.732876 0.729915
0.000000 0.841093 0.732021
0.163088 0.840879 0.731991
0.401007 0.834836 0.729183
0.623896 0.821622 0.725765
0.775326 0.810269 0.726162
0.893278 0.802762 0.729946
0.961761 0.797574 0.734646
0.989502 0.800351 0.740414
0.341802 0.921233 0.683162
0.396338 0.919036 0.685359
0.536126 0.910338 0.692439
0.682643 0.898222 0.707973
0.800809 0.886870 0.729671
0.887022 0.879911 0.735012
0.961334 0.872953 0.739315
0.983307 0.861814 0.749660
0.542596 0.950011 0.672969
0.569482 0.947723 0.677180
0.647761 0.940398 0.692561
0.743984 0.930266 0.718837
0.839170 0.918608 0.747402
0.891875 0.913176 0.748653
0.948821 0.907012 0.755154
0.979217 0.905272 0.763546
0.098512 0.109194 0.830503
0.177157 0.108888 0.830900
0.323247 0.096895 0.829831
0.504875 0.000000 0.828336
0.690242 0.000000 0.825711
0.852995 0.000000 0.822477
0.988098 0.000000 0.784817
1.000000 0.282383 0.729274
0.075868 0.169131 0.827756
0.165560 0.168246 0.828092
0.315709 0.159426 0.827329
0.498512 0.118654 0.825559
0.686336 0.000000 0.822782
0.849516 0.000000 0.819211
0.984619 0.000000 0.781613
1.000000 0.305791 0.727810
0.000000 0.290532 0.828183
0.093111 0.289921 0.827909
0.291234 0.286717 0.826596
0.488869 0.273472 0.824674
0.684382 0.250858 0.821286
0.850858 0.255436 0.817533
0.981781 0.324681 0.780758
1.000000 0.441382 0.737606
0.000000 0.456153 0.825620
0.035248 0.455970 0.824949
0.302617 0.462226 0.823087
0.514305 0.466011 0.820890
0.700099 0.470466 0.817380
0.858976 0.485634 0.813931
0.975067 0.528679 0.782742
1.000000 0.601312 0.754604
0.000000 0.615656 0.817624
0.154086 0.616144 0.816831
0.362799 0.622400 0.814633
0.589807 0.642420 0.810788
0.732570 0.656031 0.807675
0.865171 0.665461 0.804807
0.962829 0.686427 0.784604
0.991730 0.726314 0.775204
0.214511 0.773068 0.809506
0.282170 0.773373 0.809110
0.454994 0.773831 0.807706
0.636896 0.777981 0.805478
0.774655 0.789853 0.802640
0.884947 0.797635 0.801297
0.955627 0.806729 0.794980
0.979553 0.824674 0.797116
0.397009 0.916503 0.803067
0.443610 0.914611 0.802823
0.561578 0.906828 0.800717
0.690761 0.896147 0.798672
0.804562 0.884550 0.797604
0.900481 0.874601 0.799313
0.953948 0.872160 0.803250
0.974273 0.873075 0.807156
0.579004 0.944213 0.757687
0.602289 0.942229 0.759609
0.673610 0.935912 0.767605
0.759060 0.926940 0.779294
0.849119 0.916075 0.792844
0.919554 0.907317 0.806546
0.952911 0.904906 0.811002
0.972107 0.904997 0.816068
0.108980 0.126162 0.875578
0.171542 0.125978 0.875578
0.298375 0.119783 0.874540
0.456672 0.086366 0.873350
0.626581 0.000000 0.871336
0.772976 0.000000 0.868803
0.930968 0.000000 0.865782
1.000000 0.252506 0.823819
0.093568 0.172671 0.874449
0.162112 0.172549 0.874449
0.292729 0.167605 0.873594
0.452796 0.147555 0.872221
0.624353 0.098512 0.870237
0.771817 0.072969 0.867704
0.929747 0.107240 0.864378
1.000000 0.289647 0.822934
0.000000 0.277958 0.872740
0.114290 0.278111 0.872587
0.272587 0.276066 0.871489
0.445258 0.272160 0.870817
0.622644 0.260594 0.868467
0.771695 0.271641 0.865293
0.929351 0.312139 0.861479
1.000000 0.410101 0.822873
0.000000 0.423682 0.869505
0.125734 0.426368 0.869352
0.287877 0.429541 0.868254
0.468940 0.436347 0.866545
0.642329 0.447395 0.863828
0.783291 0.468421 0.860594
0.932189 0.495827 0.856992
0.998718 0.568902 0.824826
0.135561 0.569757 0.863798
0.213962 0.573327 0.863554
0.380163 0.584894 0.861692
0.575280 0.612390 0.858061
0.694697 0.623224 0.855558
0.809140 0.642054 0.852689
0.935485 0.664912 0.850065
0.986694 0.712490 0.829679
0.282170 0.710933 0.856992
0.328283 0.712337 0.856413
0.460792 0.718135 0.854459
0.618616 0.732448 0.851377
0.754513 0.760464 0.847562
0.857633 0.778225 0.846036
0.943633 0.795102 0.846250
0.975830 0.818631 0.836240
0.459480 0.838224 0.851438
0.490364 0.838560 0.851011
0.579156 0.840665 0.849668
0.691493 0.847929 0.847837
0.801511 0.858091 0.845945
0.897398 0.865202 0.844999
0.947570 0.869108 0.845090
0.969238 0.876524 0.842802
0.607050 0.940368 0.847807
0.624659 0.938994 0.847623
0.680873 0.934386 0.847288
0.762509 0.926787 0.847196
0.851316 0.915923 0.846006
0.918547 0.907164 0.846006
0.953796 0.903716 0.848234
0.966552 0.904967 0.852995
