cubelut/Cinematic-4.cube
# Created by Adobe Lightroom plugin Export LUT (1.18.0)
# www.johnrellis.com/lightroom/exportlut.htm
# Preset: Cinematic 9
# Color profile: /Library/Application Support/Adobe/Color/Profiles/Recommended/AdobeRGB1998.icc
LUT_3D_SIZE 5
DOMAIN_MIN 0.000000 0.000000 0.000000
DOMAIN_MAX 0.903226 0.903226 0.903226
0.135348 0.135348 0.135348
0.224399 0.134401 0.135531
0.425147 0.123903 0.133974
0.812345 0.000000 0.094392
0.986358 0.000000 0.071931
0.131807 0.225711 0.135286
0.223575 0.225223 0.135927
0.429358 0.235264 0.133730
0.814572 0.257298 0.072847
0.984497 0.221592 0.043091
0.066896 0.446998 0.116884
0.226169 0.451026 0.113497
0.460548 0.465827 0.096254
0.819944 0.538659 0.000000
0.977691 0.476692 0.000000
0.000000 0.828458 0.000000
0.157198 0.827634 0.000000
0.514336 0.823362 0.000000
0.802090 0.811643 0.000000
0.965057 0.719570 0.000000
0.000000 0.955779 0.000000
0.000000 0.953246 0.000000
0.424262 0.944305 0.000000
0.673243 0.928222 0.000000
0.895628 0.905241 0.000000
0.132753 0.133425 0.244480
0.227329 0.130953 0.246830
0.435431 0.082094 0.260716
0.826352 0.000000 0.233402
0.988128 0.000000 0.209598
0.125032 0.227970 0.247471
0.217166 0.220340 0.247532
0.440345 0.196262 0.242557
0.827543 0.048127 0.219303
0.986023 0.095949 0.205081
0.000000 0.450538 0.261662
0.163149 0.460060 0.235721
0.464393 0.471626 0.210819
0.827909 0.512505 0.190066
0.978332 0.450874 0.189517
0.000000 0.830900 0.247105
0.000000 0.835111 0.138003
0.477699 0.829007 0.080873
0.802518 0.813291 0.005219
0.964813 0.710780 0.135927
0.000000 0.957031 0.135012
0.000000 0.955322 0.079591
0.398627 0.945769 0.081178
0.666041 0.928832 0.086641
0.895293 0.905028 0.102052
0.103120 0.108949 0.545617
0.253178 0.080842 0.550561
0.498329 0.000000 0.562493
0.826596 0.000000 0.599298
0.978668 0.000000 0.501793
0.000000 0.210819 0.560876
0.180148 0.190585 0.564050
0.493874 0.105196 0.571923
0.830961 0.000000 0.589075
0.977844 0.000000 0.491402
0.000000 0.506554 0.574151
0.000000 0.499275 0.578515
0.422553 0.440894 0.579950
0.829648 0.442054 0.559106
0.957824 0.499947 0.549279
0.000000 0.833829 0.591730
0.000000 0.836790 0.579126
0.360388 0.836728 0.524163
0.799222 0.811978 0.526268
0.941711 0.729397 0.562860
0.000000 0.956023 0.480110
0.000000 0.954772 0.465126
0.415076 0.942504 0.480934
0.685908 0.923674 0.509545
0.893736 0.901915 0.519249
0.000000 0.000000 0.859586
0.236667 0.000000 0.859861
0.495705 0.000000 0.860594
0.762661 0.000000 0.860960
0.954467 0.000000 0.780575
0.000000 0.169528 0.861631
0.126833 0.148684 0.861753
0.469856 0.000000 0.861936
0.757229 0.000000 0.861631
0.953582 0.000000 0.775967
0.000000 0.456855 0.860472
0.000000 0.433906 0.861692
0.374975 0.390295 0.862455
0.744289 0.383062 0.859464
0.939696 0.473396 0.774716
0.000000 0.754910 0.851957
0.000000 0.751736 0.852323
0.386084 0.751614 0.850950
0.788968 0.794247 0.841733
0.900847 0.814267 0.831662
0.000000 0.953063 0.767941
0.000000 0.950835 0.763272
0.450660 0.935393 0.762203
0.789578 0.904448 0.813077
0.892607 0.895567 0.826474
0.000000 0.000000 0.936461
0.191592 0.000000 0.936278
0.405859 0.000000 0.935637
0.619104 0.000000 0.934234
0.842893 0.000000 0.931609
0.000000 0.157351 0.936309
0.130709 0.147372 0.936095
0.389105 0.104067 0.935363
0.613611 0.000000 0.933745
0.842802 0.000000 0.930663
0.000000 0.378912 0.933776
0.000000 0.375036 0.933593
0.364202 0.372290 0.932433
0.617029 0.388952 0.929534
0.849790 0.449622 0.923949
0.000000 0.618402 0.926177
0.089021 0.624079 0.925414
0.526146 0.684047 0.919463
0.766537 0.768887 0.910704
0.878050 0.790585 0.907530
0.000000 0.835996 0.914916
0.238590 0.839170 0.914000
0.591272 0.857389 0.909392
0.806302 0.880369 0.904082
0.892912 0.893278 0.901488
