cubelut/Cinematic-2.cube
# Created by Adobe Lightroom plugin Export LUT (1.18.0)
# www.johnrellis.com/lightroom/exportlut.htm
# Preset: Cinematic 6
# Color profile: /Library/Application Support/Adobe/Color/Profiles/Recommended/AdobeRGB1998.icc
LUT_3D_SIZE 32
DOMAIN_MIN 0.0 0.0 0.0
DOMAIN_MAX 1.0 1.0 1.0
0.044099 0.049928 0.044465
0.044099 0.049928 0.044465
0.044099 0.049928 0.044465
0.044099 0.049928 0.044465
0.044099 0.049928 0.044465
0.044099 0.049928 0.044465
0.084962 0.047608 0.042176
0.154086 0.037842 0.032990
0.219120 0.024079 0.018128
0.278538 0.005829 0.000000
0.330968 0.000000 0.000000
0.374365 0.000000 0.000000
0.411292 0.000000 0.000000
0.445838 0.000000 0.000000
0.482094 0.000000 0.000000
0.523522 0.000000 0.000000
0.570642 0.000000 0.000000
0.621149 0.000000 0.000000
0.677180 0.000000 0.000000
0.732143 0.000000 0.000000
0.783871 0.000000 0.000000
0.831937 0.000000 0.000000
0.874601 0.000000 0.000000
0.911284 0.000000 0.000000
0.942504 0.000000 0.000000
0.968994 0.000000 0.000000
0.991272 0.000000 0.059419
1.000000 0.000000 0.125002
1.000000 0.002716 0.173434
1.000000 0.117494 0.217929
1.000000 0.168887 0.260960
1.000000 0.212314 0.303563
0.044099 0.049928 0.044465
0.044099 0.049928 0.044465
0.044099 0.049928 0.044465
0.044099 0.049928 0.044465
0.044099 0.049928 0.044465
0.044099 0.049928 0.044465
0.085176 0.050172 0.041871
0.153475 0.050385 0.031983
0.218143 0.045869 0.016632
0.277562 0.036500 0.000000
0.329625 0.021332 0.000000
0.373144 0.002014 0.000000
0.409979 0.000000 0.000000
0.444495 0.000000 0.000000
0.480446 0.000000 0.000000
0.521508 0.000000 0.000000
0.568261 0.000000 0.000000
0.618585 0.000000 0.000000
0.674037 0.000000 0.000000
0.728328 0.000000 0.000000
0.779812 0.000000 0.000000
0.827909 0.000000 0.000000
0.870909 0.000000 0.000000
0.908141 0.000000 0.000000
0.939879 0.000000 0.000000
0.966857 0.000000 0.000000
0.989654 0.000000 0.040223
1.000000 0.000000 0.120851
1.000000 0.023285 0.169741
1.000000 0.120058 0.214664
1.000000 0.169558 0.257816
1.000000 0.212467 0.300542
0.044099 0.049928 0.044465
0.044099 0.049928 0.044465
0.044099 0.049928 0.044465
0.044099 0.049928 0.044465
0.044099 0.049928 0.044465
0.044099 0.049928 0.044465
0.085725 0.053437 0.041444
0.153323 0.061372 0.030549
0.217655 0.064088 0.014282
0.276677 0.063691 0.000000
0.328771 0.060578 0.000000
0.372259 0.051728 0.000000
0.409247 0.033173 0.000000
0.443671 0.010681 0.000000
0.479469 0.000000 0.000000
0.520439 0.000000 0.000000
0.566979 0.000000 0.000000
0.617090 0.000000 0.000000
0.672511 0.000000 0.000000
0.726345 0.000000 0.000000
0.777707 0.000000 0.000000
0.825864 0.000000 0.000000
0.869047 0.000000 0.000000
0.906523 0.000000 0.000000
0.938476 0.000000 0.000000
0.965698 0.000000 0.000000
0.988708 0.000000 0.031891
1.000000 0.000000 0.118410
1.000000 0.061158 0.168124
1.000000 0.127352 0.213169
1.000000 0.173800 0.256474
1.000000 0.215213 0.299229
0.044099 0.049928 0.044465
0.044099 0.049928 0.044465
0.044099 0.049928 0.044465
0.044099 0.049928 0.044465
0.044099 0.049928 0.044465
0.044099 0.049928 0.044465
0.088777 0.061219 0.040070
0.155276 0.075196 0.027008
0.218387 0.085084 0.008698
0.277012 0.090486 0.000000
0.328527 0.092226 0.000000
0.371771 0.090120 0.000000
0.408515 0.085725 0.000000
0.442817 0.079652 0.000000
0.478553 0.071870 0.000000
0.519280 0.061311 0.000000
0.565576 0.030152 0.000000
0.616297 0.000000 0.000000
0.670558 0.000000 0.000000
0.723445 0.000000 0.000000
0.774319 0.000000 0.000000
0.822293 0.000000 0.000000
0.865965 0.000000 0.000000
0.904143 0.000000 0.000000
0.936950 0.000000 0.000000
0.964782 0.000000 0.000000
0.988190 0.000000 0.030457
1.000000 0.000000 0.118715
1.000000 0.098573 0.168765
1.000000 0.145266 0.213413
1.000000 0.185794 0.256504
1.000000 0.223362 0.298680
0.044099 0.049928 0.044465
0.044099 0.049928 0.044465
0.044099 0.049928 0.044465
0.044099 0.049928 0.044465
0.044099 0.049928 0.044465
0.044099 0.049928 0.044465
0.092561 0.070832 0.037568
0.157229 0.093324 0.021241
0.219333 0.109499 0.000000
0.276646 0.119570 0.000000
0.327855 0.124544 0.000000
0.370733 0.124971 0.000000
0.407324 0.122469 0.000000
0.441657 0.118654 0.000000
0.477363 0.114351 0.000000
0.518181 0.109682 0.000000
0.564691 0.103609 0.000000
0.616632 0.094972 0.000000
0.670314 0.081209 0.000000
0.722683 0.056977 0.000000
0.772946 0.000000 0.000000
0.820645 0.000000 0.000000
0.864256 0.000000 0.000000
0.902647 0.000000 0.000000
0.935637 0.000000 0.000000
0.963714 0.000000 0.000000
0.987274 0.047791 0.030823
1.000000 0.096925 0.118776
1.000000 0.133791 0.168368
1.000000 0.168368 0.213107
1.000000 0.202274 0.255924
1.000000 0.235782 0.298131
0.044099 0.049928 0.044465
0.044099 0.049928 0.044465
0.044099 0.049928 0.044465
0.044099 0.049928 0.044465
0.044099 0.049928 0.044465
0.044099 0.049928 0.044465
0.099489 0.085054 0.032959
0.161715 0.115206 0.011963
0.222019 0.136263 0.000000
0.278325 0.149783 0.000000
0.328496 0.157321 0.000000
0.370855 0.159091 0.000000
0.407141 0.157534 0.000000
0.441291 0.154818 0.000000
0.477089 0.152010 0.000000
0.518090 0.149416 0.000000
0.564721 0.146731 0.000000
0.617945 0.143465 0.000000
0.671046 0.137850 0.000000
0.723232 0.129091 0.000000
0.773465 0.115877 0.000000
0.821195 0.107973 0.000000
0.886076 0.111177 0.000000
0.920928 0.112276 0.000000
0.950439 0.118318 0.000000
0.975250 0.129061 0.000000
0.995941 0.144930 0.098512
1.000000 0.164370 0.150576
1.000000 0.186954 0.194247
1.000000 0.211795 0.235599
1.000000 0.237949 0.275395
1.000000 0.265141 0.314641
0.044099 0.049928 0.044465
0.044099 0.049928 0.044465
0.043915 0.050843 0.044373
0.048157 0.060273 0.043061
0.058656 0.069215 0.040772
0.071138 0.078492 0.037537
0.103487 0.100252 0.027436
0.172641 0.144137 0.000000
0.231113 0.168307 0.000000
0.286015 0.184268 0.000000
0.334661 0.192691 0.000000
0.375586 0.195132 0.000000
0.411170 0.193759 0.000000
0.445319 0.191379 0.000000
0.481392 0.189242 0.000000
0.522759 0.188174 0.000000
0.571038 0.187961 0.000000
0.625513 0.187594 0.000000
0.678859 0.184817 0.000000
0.731594 0.179965 0.000000
0.782956 0.174716 0.000000
0.831968 0.172000 0.000000
0.876402 0.170535 0.000000
0.914580 0.170413 0.000000
0.946471 0.173465 0.000000
0.972625 0.179416 0.000000
0.994018 0.188846 0.096529
1.000000 0.201846 0.149477
1.000000 0.217838 0.193149
1.000000 0.237125 0.234501
1.000000 0.258518 0.274022
1.000000 0.281804 0.313146
0.045075 0.116823 0.025330
0.051789 0.118074 0.024537
0.059907 0.119448 0.023621
0.070375 0.123018 0.021241
0.085237 0.128084 0.017548
0.104799 0.134676 0.012085
0.128695 0.142702 0.004425
0.168948 0.162844 0.000000
0.234714 0.198550 0.000000
0.287968 0.216281 0.000000
0.335363 0.225742 0.000000
0.375525 0.228641 0.000000
0.410864 0.227695 0.000000
0.444800 0.225620 0.000000
0.480964 0.224063 0.000000
0.522393 0.224002 0.000000
0.572747 0.226200 0.000000
0.625727 0.227512 0.000000
0.678035 0.226871 0.000000
0.730068 0.224308 0.000000
0.780819 0.222538 0.000000
0.829435 0.221439 0.000000
0.873716 0.220401 0.000000
0.911894 0.220127 0.000000
0.944030 0.221042 0.000000
0.970428 0.224369 0.000000
0.992096 0.229892 0.095674
1.000000 0.238285 0.148592
1.000000 0.249973 0.192752
1.000000 0.264378 0.233677
1.000000 0.281926 0.273503
1.000000 0.301457 0.312383
0.048646 0.179995 0.000000
0.059785 0.180880 0.000000
0.068360 0.182010 0.000000
0.084749 0.184390 0.000000
0.105623 0.188357 0.000000
0.129946 0.193057 0.000000
0.157504 0.199130 0.000000
0.187808 0.205905 0.000000
0.231296 0.223056 0.000000
0.290990 0.249821 0.000000
0.337072 0.259892 0.000000
0.376318 0.262608 0.000000
0.411261 0.261814 0.000000
0.445167 0.259892 0.000000
0.481422 0.258885 0.000000
0.525322 0.260899 0.000000
0.575067 0.264012 0.000000
0.627192 0.266453 0.000000
0.678614 0.267185 0.000000
0.730037 0.266300 0.000000
0.780148 0.267002 0.000000
0.828367 0.266697 0.000000
0.872251 0.266178 0.000000
0.910246 0.265568 0.000000
0.942290 0.265660 0.000000
0.968811 0.266484 0.000000
0.990600 0.269657 0.097322
1.000000 0.274846 0.150149
1.000000 0.282841 0.193668
1.000000 0.293675 0.234562
1.000000 0.307286 0.273777
1.000000 0.323308 0.312261
0.051911 0.240208 0.000000
0.064302 0.240635 0.000000
0.075685 0.241520 0.000000
0.095674 0.243198 0.000000
0.120516 0.245731 0.000000
0.148196 0.249271 0.000000
0.177737 0.253452 0.000000
0.209476 0.258274 0.000000
0.243351 0.263951 0.000000
0.286961 0.277134 0.000000
0.338506 0.293858 0.000000
0.376837 0.296452 0.000000
0.411383 0.295628 0.000000
0.445350 0.293889 0.000000
0.483955 0.294621 0.000000
0.528618 0.297887 0.000000
0.578576 0.302159 0.000000
0.630365 0.305516 0.000000
0.681422 0.307256 0.000000
0.731838 0.308537 0.000000
0.781003 0.309667 0.000000
0.827909 0.309880 0.000000
0.870756 0.309148 0.000000
0.908019 0.308019 0.000000
0.939818 0.306859 0.000000
0.966430 0.306523 0.000000
0.988525 0.307591 0.097322
1.000000 0.310552 0.150515
1.000000 0.315892 0.195010
1.000000 0.323735 0.235813
1.000000 0.334325 0.275090
1.000000 0.347326 0.313512
0.052186 0.294041 0.000000
0.066804 0.294469 0.000000
0.080629 0.295048 0.000000
0.103365 0.296208 0.000000
0.130709 0.298009 0.000000
0.160128 0.300603 0.000000
0.191470 0.303593 0.000000
0.223941 0.307134 0.000000
0.257939 0.310765 0.000000
0.293584 0.314885 0.000000
0.334752 0.323156 0.000000
0.377844 0.330816 0.000000
0.412207 0.329900 0.000000
0.447730 0.329320 0.000000
0.486641 0.330602 0.000000
0.531212 0.334386 0.000000
0.580743 0.339452 0.000000
0.631647 0.343664 0.000000
0.682185 0.346227 0.000000
0.732021 0.348913 0.000000
0.780606 0.350591 0.000000
0.827176 0.351232 0.000000
0.869780 0.350744 0.000000
0.906828 0.349401 0.000000
0.938476 0.347570 0.000000
0.964965 0.345922 0.000000
0.987030 0.345281 0.101289
1.000000 0.346166 0.153719
1.000000 0.348943 0.196902
1.000000 0.354070 0.237125
1.000000 0.361822 0.276158
1.000000 0.371954 0.314214
0.053925 0.341802 0.000000
0.069154 0.342046 0.000000
0.083711 0.342382 0.000000
0.107515 0.343053 0.000000
0.136721 0.344305 0.000000
0.167178 0.345830 0.000000
0.199100 0.347723 0.000000
0.231907 0.349889 0.000000
0.265721 0.352148 0.000000
0.300542 0.354620 0.000000
0.336156 0.357031 0.000000
0.375311 0.361883 0.000000
0.424201 0.373663 0.000000
0.461830 0.374121 0.000000
0.504204 0.377325 0.000000
0.551995 0.382818 0.000000
0.603113 0.388800 0.000000
0.653681 0.393317 0.000000
0.702693 0.396368 0.000000
0.750820 0.398444 0.000000
0.797391 0.399207 0.000000
0.841154 0.398962 0.000000
0.880491 0.397284 0.000000
0.914763 0.394690 0.000000
0.944152 0.391577 0.000000
0.968933 0.388617 0.058747
0.989593 0.386419 0.125399
1.000000 0.385260 0.170657
1.000000 0.385931 0.210880
1.000000 0.388586 0.248966
1.000000 0.393500 0.285924
1.000000 0.400671 0.322026
0.055055 0.385077 0.000000
0.070710 0.385229 0.000000
0.085512 0.385229 0.000000
0.110719 0.385382 0.000000
0.140108 0.385626 0.000000
0.170993 0.386114 0.000000
0.203067 0.386938 0.000000
0.235782 0.388037 0.000000
0.269505 0.389441 0.000000
0.303899 0.391150 0.000000
0.340490 0.394690 0.000000
0.378576 0.398291 0.000000
0.418219 0.402502 0.000000
0.461616 0.408545 0.000000
0.504906 0.413031 0.000000
0.552941 0.419501 0.000000
0.603632 0.426276 0.000000
0.653376 0.431617 0.000000
0.701869 0.435065 0.000000
0.749416 0.437263 0.000000
0.795499 0.438392 0.000000
0.838987 0.438209 0.000000
0.878019 0.436347 0.000000
0.912200 0.433265 0.000000
0.941588 0.429450 0.000000
0.966461 0.425483 0.061067
0.987304 0.421912 0.126711
1.000000 0.419287 0.172183
1.000000 0.418006 0.211978
1.000000 0.418677 0.249882
1.000000 0.421302 0.286503
1.000000 0.426154 0.322362
0.056245 0.418524 0.000000
0.071778 0.418555 0.000000
0.086091 0.418524 0.000000
0.110903 0.418616 0.000000
0.140566 0.418647 0.000000
0.171572 0.418891 0.000000
0.203342 0.419440 0.000000
0.235966 0.420203 0.000000
0.269841 0.422217 0.000000
0.304631 0.424750 0.000000
0.340520 0.427527 0.000000
0.377691 0.430701 0.000000
0.415839 0.433783 0.000000
0.456855 0.438605 0.000000
0.505486 0.448554 0.000000
0.553979 0.456245 0.000000
0.603784 0.463722 0.000000
0.652979 0.469306 0.000000
0.701045 0.473121 0.000000
0.748196 0.475685 0.000000
0.794034 0.476967 0.000000
0.837278 0.476905 0.000000
0.876158 0.474922 0.000000
0.910277 0.471412 0.000000
0.939605 0.466957 0.000000
0.964477 0.462135 0.069886
0.985382 0.457374 0.131167
1.000000 0.453346 0.175570
1.000000 0.450507 0.214878
1.000000 0.449256 0.252293
1.000000 0.449928 0.288579
1.000000 0.452522 0.323980
0.058656 0.450385 0.000000
0.071412 0.450507 0.000000
0.086549 0.450416 0.000000
0.111543 0.450446 0.000000
0.140932 0.450996 0.000000
0.172122 0.451728 0.000000
0.204135 0.452735 0.000000
0.236942 0.454078 0.000000
0.270603 0.455848 0.000000
0.305303 0.458106 0.000000
0.341070 0.460975 0.000000
0.378119 0.464240 0.000000
0.416388 0.467903 0.000000
0.455848 0.471565 0.000000
0.500755 0.479164 0.000000
0.554345 0.492683 0.000000
0.604883 0.501366 0.000000
0.653407 0.507103 0.000000
0.700923 0.511131 0.000000
0.747646 0.513817 0.000000
0.792996 0.515190 0.000000
0.835782 0.514977 0.000000
0.874357 0.512718 0.000000
0.908293 0.508812 0.000000
0.937591 0.503777 0.000000
0.962646 0.498177 0.077760
0.983673 0.492592 0.137026
1.000000 0.487556 0.181277
1.000000 0.483436 0.220706
1.000000 0.480781 0.258030
1.000000 0.479835 0.294255
1.000000 0.480629 0.329412
0.058808 0.486671 0.000000
0.073152 0.486885 0.000000
0.087648 0.487068 0.000000
0.112337 0.487465 0.000000
0.142336 0.487984 0.000000
0.173861 0.488838 0.000000
0.206180 0.490089 0.000000
0.239475 0.491707 0.000000
0.273808 0.493812 0.000000
0.308934 0.496407 0.000000
0.345037 0.499367 0.000000
0.382391 0.502831 0.000000
0.420691 0.506371 0.000000
0.460212 0.509911 0.000000
0.500420 0.513359 0.000000
0.548333 0.522789 0.000000
0.603693 0.536828 0.000000
0.653620 0.544366 0.000000
0.701289 0.548821 0.000000
0.748013 0.551965 0.000000
0.793332 0.553704 0.000000
0.835966 0.553460 0.000000
0.874266 0.551019 0.000000
0.907927 0.546654 0.000000
0.937011 0.540948 0.000000
0.961822 0.534569 0.092164
0.982727 0.527916 0.146426
1.000000 0.521752 0.188937
1.000000 0.516350 0.227817
1.000000 0.511986 0.263859
1.000000 0.509117 0.298772
1.000000 0.507927 0.332647
0.060029 0.526787 0.000000
0.074159 0.527001 0.000000
0.088563 0.527092 0.000000
0.114809 0.527428 0.000000
0.144472 0.528038 0.000000
0.176425 0.528923 0.000000
0.209171 0.530266 0.000000
0.243259 0.531914 0.000000
0.277806 0.534173 0.000000
0.313451 0.536889 0.000000
0.350256 0.540246 0.000000
0.388128 0.543877 0.000000
0.427161 0.547723 0.000000
0.467170 0.551568 0.000000
0.507897 0.555108 0.000000
0.548913 0.558373 0.000000
0.598260 0.567987 0.000000
0.652369 0.579980 0.000000
0.701442 0.586114 0.000000
0.747646 0.589227 0.000000
0.792569 0.590906 0.000000
0.834745 0.590539 0.000000
0.872740 0.587793 0.000000
0.906218 0.583032 0.000000
0.935241 0.576776 0.000000
0.960021 0.569665 0.100893
0.980926 0.562219 0.152865
0.998291 0.554925 0.194827
1.000000 0.548241 0.232700
1.000000 0.542565 0.268406
1.000000 0.538140 0.302617
1.000000 0.535271 0.336217
0.060853 0.571862 0.000000
0.075654 0.572320 0.000000
0.092256 0.584985 0.000000
0.119448 0.585321 0.000000
0.150973 0.585840 0.000000
0.183810 0.586542 0.000000
0.218296 0.587518 0.000000
0.253452 0.588830 0.000000
0.289586 0.590692 0.000000
0.326696 0.593194 0.000000
0.364996 0.596033 0.000000
0.403967 0.599054 0.000000
0.443641 0.602075 0.000000
0.484077 0.605005 0.000000
0.524895 0.607813 0.000000
0.566278 0.610254 0.000000
0.608179 0.612573 0.000000
0.657099 0.620325 0.000000
0.708003 0.628290 0.000000
0.754543 0.631647 0.000000
0.798032 0.632258 0.000000
0.838865 0.630823 0.000000
0.875578 0.627008 0.000000
0.907805 0.621210 0.000000
0.935637 0.613703 0.014923
0.959503 0.605371 0.116243
0.979736 0.596551 0.162600
0.996674 0.587945 0.201785
1.000000 0.579889 0.237858
1.000000 0.572778 0.272801
1.000000 0.566857 0.306188
1.000000 0.562310 0.338872
0.063569 0.623651 0.000000
0.078126 0.625483 0.000000
0.094759 0.627466 0.000000
0.121553 0.629419 0.000000
0.153872 0.631067 0.000000
0.187686 0.632349 0.000000
0.223301 0.633387 0.000000
0.259556 0.634516 0.000000
0.296513 0.636255 0.000000
0.333959 0.638239 0.000000
0.372412 0.640711 0.000000
0.411475 0.643336 0.000000
0.451240 0.645930 0.000000
0.491524 0.648432 0.000000
0.532311 0.650690 0.000000
0.573541 0.652705 0.000000
0.615167 0.654536 0.000000
0.657343 0.656245 0.000000
0.705104 0.662104 0.000000
0.752895 0.667048 0.000000
0.797024 0.668299 0.000000
0.837644 0.666865 0.000000
0.874144 0.662837 0.000000
0.906279 0.656550 0.000000
0.934020 0.648554 0.053651
0.957824 0.639521 0.124758
0.978027 0.629908 0.169497
0.994903 0.620325 0.207950
1.000000 0.611170 0.243351
1.000000 0.602777 0.277256
1.000000 0.595422 0.309972
1.000000 0.589410 0.341924
0.070832 0.670985 0.000000
0.085725 0.672724 0.000000
0.101869 0.674586 0.000000
0.128817 0.676326 0.000000
0.161227 0.677852 0.000000
0.195285 0.678950 0.000000
0.230869 0.679713 0.000000
0.266880 0.680720 0.000000
0.303807 0.682155 0.000000
0.341527 0.683864 0.000000
0.380011 0.685969 0.000000
0.419196 0.688167 0.000000
0.458991 0.690211 0.000000
0.499306 0.692287 0.000000
0.540032 0.694057 0.000000
0.581079 0.695552 0.000000
0.622522 0.696925 0.000000
0.664424 0.698177 0.000000
0.706935 0.699458 0.000000
0.752865 0.703120 0.000000
0.796963 0.704585 0.000000
0.837003 0.702815 0.000000
0.873198 0.698390 0.000000
0.904997 0.691615 0.000000
0.932525 0.683040 0.073945
0.956146 0.673182 0.134005
0.976165 0.662715 0.176272
0.992981 0.652125 0.213718
1.000000 0.641901 0.248173
1.000000 0.632288 0.281193
1.000000 0.623590 0.313024
1.000000 0.616175 0.344366
0.085756 0.717739 0.000000
0.098390 0.719356 0.000000
0.112856 0.721096 0.000000
0.138125 0.722683 0.000000
0.169436 0.723964 0.000000
0.202976 0.724819 0.000000
0.238010 0.725490 0.000000
0.273991 0.726223 0.000000
0.311040 0.727169 0.000000
0.348608 0.728420 0.000000
0.386877 0.730007 0.000000
0.426093 0.731594 0.000000
0.465766 0.733181 0.000000
0.505913 0.734707 0.000000
0.546563 0.736233 0.000000
0.587762 0.737606 0.000000
0.629541 0.739071 0.000000
0.672023 0.740597 0.000000
0.715084 0.742245 0.000000
0.758846 0.743984 0.000000
0.802579 0.745113 0.000000
0.841794 0.742458 0.000000
0.876219 0.736538 0.000000
0.907469 0.729030 0.000000
0.934386 0.719600 0.106905
0.957305 0.708827 0.156161
0.976715 0.697322 0.195071
0.992920 0.685664 0.229984
1.000000 0.674189 0.262486
1.000000 0.663355 0.293645
1.000000 0.653376 0.324102
1.000000 0.644587 0.354284
0.102785 0.768826 0.000000
0.113222 0.769589 0.000000
0.126009 0.770199 0.000000
0.149508 0.770779 0.000000
0.179171 0.771328 0.000000
0.211978 0.771695 0.000000
0.246616 0.772091 0.000000
0.282322 0.772671 0.000000
0.319219 0.773617 0.000000
0.356970 0.774716 0.000000
0.395544 0.776120 0.000000
0.434791 0.777493 0.000000
0.474495 0.778714 0.000000
0.514549 0.779751 0.000000
0.555047 0.780606 0.000000
0.596033 0.781369 0.000000
0.637385 0.782071 0.000000
0.679255 0.782773 0.000000
0.721523 0.783505 0.000000
0.764248 0.784085 0.000000
0.807309 0.784604 0.000000
0.845548 0.780941 0.000000
0.878019 0.773159 0.000000
0.906310 0.763180 0.025879
0.932830 0.752895 0.119051
0.955505 0.741390 0.164492
0.974762 0.729122 0.202060
0.990906 0.716548 0.235843
1.000000 0.704128 0.267674
1.000000 0.692134 0.297795
1.000000 0.680964 0.327428
1.000000 0.670893 0.356878
0.117464 0.811368 0.000000
0.126741 0.812070 0.000000
0.137942 0.812711 0.000000
0.159915 0.813199 0.000000
0.188144 0.813565 0.000000
0.219974 0.813718 0.000000
0.253666 0.813870 0.000000
0.288731 0.814054 0.000000
0.325353 0.814542 0.000000
0.362646 0.815183 0.000000
0.400855 0.816037 0.000000
0.439673 0.816861 0.000000
0.478889 0.817563 0.000000
0.518730 0.818143 0.000000
0.558831 0.818631 0.000000
0.599298 0.818997 0.000000
0.640192 0.819211 0.000000
0.681422 0.819394 0.000000
0.723018 0.819486 0.000000
0.764950 0.819516 0.000000
0.807065 0.819425 0.000000
0.849302 0.819089 0.000000
0.882261 0.811337 0.000000
0.909178 0.799741 0.072724
0.930510 0.785000 0.126833
0.953063 0.772854 0.169863
0.972290 0.759884 0.206424
0.988464 0.746517 0.239322
1.000000 0.733150 0.270207
1.000000 0.720150 0.299901
1.000000 0.707912 0.329015
1.000000 0.696773 0.358221
0.133730 0.854398 0.000000
0.142031 0.855039 0.000000
0.152377 0.855406 0.000000
0.172305 0.855558 0.000000
0.198825 0.855497 0.000000
0.229129 0.855222 0.000000
0.261784 0.854917 0.000000
0.296056 0.854520 0.000000
0.331884 0.854185 0.000000
0.368353 0.854002 0.000000
0.405707 0.853819 0.000000
0.443549 0.853758 0.000000
0.482124 0.853605 0.000000
0.520928 0.853300 0.000000
0.560082 0.852720 0.000000
0.599451 0.852049 0.000000
0.639124 0.851286 0.000000
0.679194 0.850553 0.000000
0.719753 0.850004 0.000000
0.760647 0.849454 0.000000
0.801724 0.848875 0.000000
0.842802 0.848020 0.000000
0.883696 0.846799 0.000000
0.911284 0.835142 0.079164
0.933043 0.820371 0.139376
0.951598 0.804685 0.179721
0.970489 0.790768 0.213901
0.986389 0.776455 0.245182
0.999634 0.762112 0.274540
1.000000 0.748135 0.303319
1.000000 0.734859 0.331701
1.000000 0.722591 0.360204
0.146700 0.887419 0.000000
0.153964 0.887907 0.000000
0.163546 0.888243 0.000000
0.182101 0.888304 0.000000
0.206943 0.888121 0.000000
0.235813 0.887846 0.000000
0.267399 0.887449 0.000000
0.300725 0.887053 0.000000
0.335607 0.886656 0.000000
0.371527 0.886351 0.000000
0.408118 0.886015 0.000000
0.445533 0.885740 0.000000
0.483436 0.885344 0.000000
0.521630 0.884764 0.000000
0.560113 0.883970 0.000000
0.598871 0.882994 0.000000
0.637903 0.881865 0.000000
0.677089 0.880735 0.000000
0.716579 0.879637 0.000000
0.756374 0.878477 0.000000
0.796231 0.877195 0.000000
0.836027 0.875700 0.000000
0.875669 0.873899 0.000000
0.914977 0.871733 0.098878
0.937224 0.856596 0.152010
0.954650 0.839353 0.191257
0.969268 0.821744 0.223972
0.984863 0.806455 0.253819
0.997864 0.791226 0.282200
1.000000 0.776272 0.309819
1.000000 0.761990 0.337499
1.000000 0.748714 0.365484
0.159823 0.916960 0.000000
0.166598 0.917235 0.000000
0.175051 0.917327 0.000000
0.191653 0.917205 0.000000
0.214755 0.916838 0.000000
0.242008 0.916350 0.000000
0.272160 0.915801 0.000000
0.304356 0.915221 0.000000
0.338201 0.914611 0.000000
0.372961 0.914092 0.000000
0.408911 0.913512 0.000000
0.445441 0.912993 0.000000
0.482460 0.912322 0.000000
0.519982 0.911467 0.000000
0.557580 0.910338 0.000000
0.595361 0.909056 0.000000
0.633417 0.907561 0.000000
0.671626 0.906004 0.000000
0.710079 0.904417 0.000000
0.748623 0.902770 0.000000
0.787320 0.900999 0.000000
0.825895 0.899046 0.000000
0.864225 0.896788 0.077729
0.902251 0.894255 0.125948
0.939940 0.891356 0.159060
0.957519 0.873472 0.197787
0.971405 0.854520 0.230472
0.983062 0.835691 0.258946
0.995636 0.819333 0.286290
1.000000 0.803494 0.313237
1.000000 0.788235 0.339940
1.000000 0.774014 0.367529
0.170596 0.941222 0.000000
0.176669 0.941344 0.000000
0.184573 0.941375 0.000000
0.199863 0.941222 0.000000
0.221683 0.940978 0.000000
0.247623 0.940703 0.000000
0.276677 0.940490 0.000000
0.308019 0.940276 0.000000
0.341192 0.940093 0.000000
0.375402 0.939910 0.000000
0.410620 0.939605 0.000000
0.446479 0.939178 0.000000
0.482887 0.938567 0.000000
0.519585 0.937652 0.000000
0.556512 0.936431 0.000000
0.593439 0.934874 0.000000
0.630549 0.933104 0.000000
0.667781 0.931182 0.000000
0.705135 0.929137 0.000000
0.742489 0.927031 0.000000
0.779812 0.924712 0.000000
0.817044 0.922240 0.095735
0.854032 0.919493 0.136812
0.890684 0.916442 0.168002
0.927001 0.913176 0.194522
0.962890 0.909606 0.217624
0.975860 0.889128 0.248508
0.986389 0.868742 0.275944
0.995239 0.848966 0.300908
1.000000 0.831724 0.325963
1.000000 0.815457 0.351629
1.000000 0.800229 0.378271
0.184543 0.964324 0.000000
0.189700 0.964324 0.000000
0.196445 0.964233 0.000000
0.210483 0.963989 0.000000
0.230472 0.963592 0.000000
0.254643 0.963134 0.000000
0.282109 0.962554 0.000000
0.311650 0.961975 0.000000
0.343175 0.961334 0.000000
0.376013 0.960601 0.000000
0.409735 0.959747 0.000000
0.444282 0.958801 0.000000
0.479316 0.957671 0.000000
0.514733 0.956329 0.000000
