cubelut/Cinematic-10.cube
# Created by Adobe Lightroom plugin Export LUT (1.18.0)
# www.johnrellis.com/lightroom/exportlut.htm
# Preset: Cinematic 10
# Color profile: /Library/Application Support/Adobe/Color/Profiles/Recommended/AdobeRGB1998.icc
LUT_3D_SIZE 8
DOMAIN_MIN 0.000000 0.000000 0.000000
DOMAIN_MAX 0.903226 0.903226 0.903226
0.111452 0.111452 0.111452
0.119936 0.119936 0.119936
0.141451 0.141451 0.141451
0.186954 0.186954 0.186954
0.279149 0.279149 0.279149
0.409552 0.409552 0.409552
0.570459 0.570459 0.570459
0.750820 0.750820 0.750820
0.130831 0.130831 0.130831
0.137026 0.137026 0.137026
0.159091 0.159091 0.159091
0.209751 0.209751 0.209751
0.304082 0.304082 0.304082
0.431373 0.431373 0.431373
0.587488 0.587488 0.587488
0.761227 0.761227 0.761227
0.197086 0.197086 0.197086
0.204044 0.204044 0.204044
0.234195 0.234195 0.234195
0.302342 0.302342 0.302342
0.391516 0.391516 0.391516
0.503777 0.503777 0.503777
0.644099 0.644099 0.644099
0.793668 0.793668 0.793668
0.353765 0.353765 0.353765
0.361120 0.361120 0.361120
0.386450 0.386450 0.386450
0.438972 0.438972 0.438972
0.529320 0.529320 0.529320
0.615137 0.615137 0.615137
0.730007 0.730007 0.730007
0.837339 0.837339 0.837339
0.549920 0.549920 0.549920
0.554925 0.554925 0.554925
0.572320 0.572320 0.572320
0.603998 0.603998 0.603998
0.653040 0.653040 0.653040
0.739284 0.739284 0.739284
0.811307 0.811307 0.811307
0.878111 0.878111 0.878111
0.731685 0.731685 0.731685
0.734768 0.734768 0.734768
0.745327 0.745327 0.745327
0.763302 0.763302 0.763302
0.789059 0.789059 0.789059
0.819547 0.819547 0.819547
0.869688 0.869688 0.869688
0.912261 0.912261 0.912261
0.856962 0.856962 0.856962
0.858213 0.858213 0.858213
0.862516 0.862516 0.862516
0.870024 0.870024 0.870024
0.880247 0.880247 0.880247
0.893919 0.893919 0.893919
0.908965 0.908965 0.908965
0.939605 0.939605 0.939605
0.929046 0.929046 0.929046
0.929625 0.929625 0.929625
0.931792 0.931792 0.931792
0.935576 0.935576 0.935576
0.940917 0.940917 0.940917
0.947753 0.947753 0.947753
0.956176 0.956176 0.956176
0.965057 0.965057 0.965057
0.116182 0.116182 0.116182
0.120821 0.120821 0.120821
0.149142 0.149142 0.149142
0.204685 0.204685 0.204685
0.299168 0.299168 0.299168
0.425879 0.425879 0.425879
0.580865 0.580865 0.580865
0.755154 0.755154 0.755154
0.128237 0.128237 0.128237
0.141878 0.141878 0.141878
0.168673 0.168673 0.168673
0.226200 0.226200 0.226200
0.321965 0.321965 0.321965
0.446143 0.446143 0.446143
0.597040 0.597040 0.597040
0.765164 0.765164 0.765164
0.197574 0.197574 0.197574
0.211887 0.211887 0.211887
0.241825 0.241825 0.241825
0.311589 0.311589 0.311589
0.403235 0.403235 0.403235
0.513970 0.513970 0.513970
0.651240 0.651240 0.651240
0.796445 0.796445 0.796445
0.355535 0.355535 0.355535
0.369329 0.369329 0.369329
0.395727 0.395727 0.395727
0.445136 0.445136 0.445136
0.533776 0.533776 0.533776
0.620569 0.620569 0.620569
0.733883 0.733883 0.733883
0.838834 0.838834 0.838834
0.552209 0.552209 0.552209
0.561028 0.561028 0.561028
0.578393 0.578393 0.578393
0.608698 0.608698 0.608698
0.656641 0.656641 0.656641
0.741176 0.741176 0.741176
0.812955 0.812955 0.812955
0.878874 0.878874 0.878874
0.733486 0.733486 0.733486
0.738308 0.738308 0.738308
0.748592 0.748592 0.748592
0.766110 0.766110 0.766110
0.790982 0.790982 0.790982
0.820920 0.820920 0.820920
0.870298 0.870298 0.870298
0.912657 0.912657 0.912657
0.858030 0.858030 0.858030
0.859342 0.859342 0.859342
0.863584 0.863584 0.863584
0.870970 0.870970 0.870970
0.881010 0.881010 0.881010
0.894499 0.894499 0.894499
0.909361 0.909361 0.909361
0.939879 0.939879 0.939879
0.929412 0.929412 0.929412
0.930022 0.930022 0.930022
0.932128 0.932128 0.932128
0.935912 0.935912 0.935912
0.941222 0.941222 0.941222
0.947967 0.947967 0.947967
0.956359 0.956359 0.956359
0.965209 0.965209 0.965209
0.127260 0.127260 0.127260
0.132082 0.132082 0.132082
0.152773 0.152773 0.152773
0.215518 0.215518 0.215518
0.321477 0.321477 0.321477
0.455238 0.455238 0.455238
0.601862 0.601862 0.601862
0.763821 0.763821 0.763821
0.149020 0.149020 0.149020
0.156924 0.156924 0.156924
0.175753 0.175753 0.175753
0.243015 0.243015 0.243015
0.347173 0.347173 0.347173
0.473732 0.473732 0.473732
0.616785 0.616785 0.616785
0.773068 0.773068 0.773068
0.188602 0.188602 0.188602
0.205173 0.205173 0.205173
0.263340 0.263340 0.263340
0.329351 0.329351 0.329351
0.425391 0.425391 0.425391
0.535332 0.535332 0.535332
0.667170 0.667170 0.667170
0.802426 0.802426 0.802426
0.350958 0.350958 0.350958
0.365087 0.365087 0.365087
0.410590 0.410590 0.410590
0.462776 0.462776 0.462776
0.544915 0.544915 0.544915
0.633936 0.633936 0.633936
0.743709 0.743709 0.743709
0.842405 0.842405 0.842405
0.548760 0.548760 0.548760
0.558618 0.558618 0.558618
0.590448 0.590448 0.590448
0.623957 0.623957 0.623957
0.668147 0.668147 0.668147
0.747036 0.747036 0.747036
0.817502 0.817502 0.817502
0.880919 0.880919 0.880919
0.732113 0.732113 0.732113
0.737911 0.737911 0.737911
0.756252 0.756252 0.756252
0.774838 0.774838 0.774838
0.797116 0.797116 0.797116
0.825284 0.825284 0.825284
0.872251 0.872251 0.872251
0.913970 0.913970 0.913970
0.857572 0.857572 0.857572
0.859678 0.859678 0.859678
0.866697 0.866697 0.866697
0.874022 0.874022 0.874022
0.883665 0.883665 0.883665
0.896330 0.896330 0.896330
0.910857 0.910857 0.910857
0.940856 0.940856 0.940856
0.929442 0.929442 0.929442
0.930358 0.930358 0.930358
0.933288 0.933288 0.933288
0.936980 0.936980 0.936980
0.942199 0.942199 0.942199
0.948699 0.948699 0.948699
0.956970 0.956970 0.956970
0.965759 0.965759 0.965759
0.148623 0.148623 0.148623
0.155245 0.155245 0.155245
0.177768 0.177768 0.177768
0.223117 0.223117 0.223117
0.323522 0.323522 0.323522
0.469612 0.469612 0.469612
0.618494 0.618494 0.618494
0.770687 0.770687 0.770687
0.178958 0.178958 0.178958
0.184970 0.184970 0.184970
0.206638 0.206638 0.206638
0.250980 0.250980 0.250980
0.350652 0.350652 0.350652
0.490303 0.490303 0.490303
0.633783 0.633783 0.633783
0.778744 0.778744 0.778744
0.216739 0.216739 0.216739
0.243320 0.243320 0.243320
0.304295 0.304295 0.304295
0.344793 0.344793 0.344793
0.438483 0.438483 0.438483
0.556420 0.556420 0.556420
0.683253 0.683253 0.683253
0.806119 0.806119 0.806119
0.328832 0.328832 0.328832
0.345953 0.345953 0.345953
0.401801 0.401801 0.401801
0.493965 0.493965 0.493965
0.561761 0.561761 0.561761
0.651514 0.651514 0.651514
0.754177 0.754177 0.754177
0.844968 0.844968 0.844968
0.528985 0.528985 0.528985
0.541680 0.541680 0.541680
0.584192 0.584192 0.584192
0.635889 0.635889 0.635889
0.686091 0.686091 0.686091
0.755856 0.755856 0.755856
0.823148 0.823148 0.823148
0.882841 0.882841 0.882841
0.728481 0.728481 0.728481
0.734340 0.734340 0.734340
0.753384 0.753384 0.753384
0.781979 0.781979 0.781979
0.807248 0.807248 0.807248
0.832181 0.832181 0.832181
0.875303 0.875303 0.875303
0.915648 0.915648 0.915648
0.856291 0.856291 0.856291
0.858457 0.858457 0.858457
0.865568 0.865568 0.865568
0.877104 0.877104 0.877104
0.887785 0.887785 0.887785
0.899290 0.899290 0.899290
0.913329 0.913329 0.913329
0.942473 0.942473 0.942473
0.928954 0.928954 0.928954
0.929870 0.929870 0.929870
0.932982 0.932982 0.932982
0.938506 0.938506 0.938506
0.943755 0.943755 0.943755
0.950103 0.950103 0.950103
0.958007 0.958007 0.958007
0.966644 0.966644 0.966644
0.189425 0.189425 0.189425
0.197299 0.197299 0.197299
0.224460 0.224460 0.224460
0.270634 0.270634 0.270634
0.342290 0.342290 0.342290
0.461738 0.461738 0.461738
0.634028 0.634028 0.634028
0.783322 0.783322 0.783322
0.226047 0.226047 0.226047
0.233097 0.233097 0.233097
0.257481 0.257481 0.257481
0.300877 0.300877 0.300877
0.369329 0.369329 0.369329
0.484047 0.484047 0.484047
0.649897 0.649897 0.649897
0.790677 0.790677 0.790677
0.318242 0.318242 0.318242
0.337194 0.337194 0.337194
0.360174 0.360174 0.360174
0.398505 0.398505 0.398505
0.455695 0.455695 0.455695
0.554772 0.554772 0.554772
0.698695 0.698695 0.698695
0.813535 0.813535 0.813535
0.368780 0.368780 0.368780
0.385718 0.385718 0.385718
0.448066 0.448066 0.448066
0.539300 0.539300 0.539300
0.579034 0.579034 0.579034
0.658045 0.658045 0.658045
0.762631 0.762631 0.762631
0.843961 0.843961 0.843961
0.514153 0.514153 0.514153
0.526757 0.526757 0.526757
0.567895 0.567895 0.567895
0.631525 0.631525 0.631525
0.713313 0.713313 0.713313
0.764492 0.764492 0.764492
0.826108 0.826108 0.826108
0.881804 0.881804 0.881804
0.690028 0.690028 0.690028
0.699062 0.699062 0.699062
0.728267 0.728267 0.728267
0.770871 0.770871 0.770871
0.811948 0.811948 0.811948
0.840879 0.840879 0.840879
0.878477 0.878477 0.878477
0.916503 0.916503 0.916503
0.854337 0.854337 0.854337
0.856504 0.856504 0.856504
0.863706 0.863706 0.863706
0.875242 0.875242 0.875242
0.890043 0.890043 0.890043
0.903349 0.903349 0.903349
0.916594 0.916594 0.916594
0.944366 0.944366 0.944366
0.928191 0.928191 0.928191
0.929076 0.929076 0.929076
0.932189 0.932189 0.932189
0.937469 0.937469 0.937469
0.945006 0.945006 0.945006
0.951904 0.951904 0.951904
0.959380 0.959380 0.959380
0.967926 0.967926 0.967926
0.263066 0.263066 0.263066
0.271641 0.271641 0.271641
0.300053 0.300053 0.300053
0.347173 0.347173 0.347173
0.410376 0.410376 0.410376
0.494667 0.494667 0.494667
0.619165 0.619165 0.619165
0.790311 0.790311 0.790311
0.301396 0.301396 0.301396
0.308598 0.308598 0.308598
0.333959 0.333959 0.333959
0.377325 0.377325 0.377325
0.436683 0.436683 0.436683
0.515801 0.515801 0.515801
0.635462 0.635462 0.635462
0.797910 0.797910 0.797910
0.408240 0.408240 0.408240
0.414038 0.414038 0.414038
0.434333 0.434333 0.434333
0.469673 0.469673 0.469673
0.518059 0.518059 0.518059
0.582849 0.582849 0.582849
0.687922 0.687922 0.687922
0.821530 0.821530 0.821530
0.468269 0.468269 0.468269
0.489937 0.489937 0.489937
0.559808 0.559808 0.559808
0.597040 0.597040 0.597040
0.633021 0.633021 0.633021
0.680110 0.680110 0.680110
0.759548 0.759548 0.759548
0.852628 0.852628 0.852628
0.563165 0.563165 0.563165
0.574578 0.574578 0.574578
0.612146 0.612146 0.612146
0.673884 0.673884 0.673884
0.749996 0.749996 0.749996
0.776699 0.776699 0.776699
0.826169 0.826169 0.826169
0.882292 0.882292 0.882292
0.701808 0.701808 0.701808
0.709621 0.709621 0.709621
0.734524 0.734524 0.734524
0.770504 0.770504 0.770504
0.810391 0.810391 0.810391
0.854276 0.854276 0.854276
0.880735 0.880735 0.880735
0.915190 0.915190 0.915190
0.824613 0.824613 0.824613
0.828489 0.828489 0.828489
0.841184 0.841184 0.841184
0.860472 0.860472 0.860472
0.883696 0.883696 0.883696
0.905364 0.905364 0.905364
0.921111 0.921111 0.921111
0.946105 0.946105 0.946105
0.927031 0.927031 0.927031
0.927947 0.927947 0.927947
0.931029 0.931029 0.931029
0.936339 0.936339 0.936339
0.943694 0.943694 0.943694
0.953063 0.953063 0.953063
0.961334 0.961334 0.961334
0.969726 0.969726 0.969726
0.387060 0.387060 0.387060
0.394995 0.394995 0.394995
0.421515 0.421515 0.421515
0.464210 0.464210 0.464210
0.519738 0.519738 0.519738
0.584192 0.584192 0.584192
0.666163 0.666163 0.666163
0.781125 0.781125 0.781125
0.421515 0.421515 0.421515
0.428290 0.428290 0.428290
0.451362 0.451362 0.451362
0.490120 0.490120 0.490120
0.541955 0.541955 0.541955
0.602777 0.602777 0.602777
0.680659 0.680659 0.680659
0.789151 0.789151 0.789151
0.514916 0.514916 0.514916
0.519829 0.519829 0.519829
0.537621 0.537621 0.537621
0.568627 0.568627 0.568627
0.610895 0.610895 0.610895
0.661860 0.661860 0.661860
0.725887 0.725887 0.725887
0.814084 0.814084 0.814084
0.621363 0.621363 0.621363
0.637324 0.637324 0.637324
0.653590 0.653590 0.653590
0.676448 0.676448 0.676448
0.707454 0.707454 0.707454
0.743374 0.743374 0.743374
0.784237 0.784237 0.784237
0.846860 0.846860 0.846860
0.635950 0.635950 0.635950
0.650874 0.650874 0.650874
0.700069 0.700069 0.700069
0.766842 0.766842 0.766842
0.794827 0.794827 0.794827
0.815732 0.815732 0.815732
0.839445 0.839445 0.839445
0.881132 0.881132 0.881132
0.760128 0.760128 0.760128
0.765347 0.765347 0.765347
0.782071 0.782071 0.782071
0.806455 0.806455 0.806455
0.834897 0.834897 0.834897
0.873472 0.873472 0.873472
0.886748 0.886748 0.886748
0.914733 0.914733 0.914733
0.844755 0.844755 0.844755
0.847257 0.847257 0.847257
0.855497 0.855497 0.855497
0.868254 0.868254 0.868254
0.884825 0.884825 0.884825
0.904479 0.904479 0.904479
0.928771 0.928771 0.928771
0.946624 0.946624 0.946624
0.907439 0.907439 0.907439
0.908721 0.908721 0.908721
0.913542 0.913542 0.913542
0.922698 0.922698 0.922698
0.935058 0.935058 0.935058
0.949798 0.949798 0.949798
0.962676 0.962676 0.962676
0.972259 0.972259 0.972259
0.573205 0.573205 0.573205
0.578973 0.578973 0.578973
0.598749 0.598749 0.598749
0.631800 0.631800 0.631800
0.675380 0.675380 0.675380
0.724636 0.724636 0.724636
0.771756 0.771756 0.771756
0.823667 0.823667 0.823667
0.597284 0.597284 0.597284
0.602380 0.602380 0.602380
0.620264 0.620264 0.620264
0.650874 0.650874 0.650874
0.691585 0.691585 0.691585
0.737026 0.737026 0.737026
0.780575 0.780575 0.780575
0.829068 0.829068 0.829068
0.665949 0.665949 0.665949
0.669978 0.669978 0.669978
0.684077 0.684077 0.684077
0.708156 0.708156 0.708156
0.739498 0.739498 0.739498
0.773556 0.773556 0.773556
0.807523 0.807523 0.807523
0.845670 0.845670 0.845670
0.751797 0.751797 0.751797
0.754330 0.754330 0.754330
0.763088 0.763088 0.763088
0.777920 0.777920 0.777920
0.797482 0.797482 0.797482
0.819699 0.819699 0.819699
0.842191 0.842191 0.842191
0.868681 0.868681 0.868681
0.787778 0.787778 0.787778
0.795193 0.795193 0.795193
0.818112 0.818112 0.818112
0.836332 0.836332 0.836332
0.847715 0.847715 0.847715
0.861234 0.861234 0.861234
0.876188 0.876188 0.876188
0.894835 0.894835 0.894835
0.823606 0.823606 0.823606
0.826078 0.826078 0.826078
0.833890 0.833890 0.833890
0.852354 0.852354 0.852354
0.884245 0.884245 0.884245
0.898863 0.898863 0.898863
0.909392 0.909392 0.909392
0.922271 0.922271 0.922271
0.884886 0.884886 0.884886
0.886137 0.886137 0.886137
0.890349 0.890349 0.890349
0.897337 0.897337 0.897337
0.907073 0.907073 0.907073
0.919463 0.919463 0.919432
0.941314 0.941314 0.941314
0.950225 0.950225 0.950225
0.924956 0.924956 0.924956
0.925719 0.925719 0.925719
0.928466 0.928466 0.928466
0.933349 0.933349 0.933349
0.940368 0.940368 0.940368
0.949615 0.949615 0.949615
0.961669 0.961669 0.961669
0.977234 0.977234 0.977234
