cubelut/Cinematic-5.cube
# Created by Adobe Lightroom plugin Export LUT (1.18.0)
# www.johnrellis.com/lightroom/exportlut.htm
# Preset: Cinematic1
# Color profile: /Library/Application Support/Adobe/Color/Profiles/Recommended/AdobeRGB1998.icc
LUT_3D_SIZE 5
DOMAIN_MIN 0.000000 0.000000 0.000000
DOMAIN_MAX 0.903226 0.903226 0.903226
0.078279 0.078279 0.078279
0.315373 0.098848 0.048219
0.759274 0.202701 0.000000
0.933776 0.248997 0.000000
1.000000 0.254185 0.000000
0.001190 0.260410 0.003906
0.227237 0.214176 0.049622
0.704829 0.374151 0.000000
0.919005 0.367590 0.000000
0.997009 0.334478 0.000000
0.000000 0.587396 0.000000
0.261540 0.583612 0.000000
0.432654 0.405737 0.000000
0.839750 0.547662 0.000000
0.980346 0.512657 0.000000
0.000000 0.804562 0.000000
0.163333 0.801083 0.000000
0.499397 0.789181 0.000000
0.666468 0.623835 0.000000
0.918212 0.639246 0.000000
0.000000 0.925872 0.000000
0.000000 0.923461 0.000000
0.387671 0.915038 0.000000
0.653803 0.891936 0.000000
0.882719 0.829313 0.000000
0.115236 0.062989 0.228580
0.224674 0.070069 0.224613
0.711604 0.000000 0.263371
0.927123 0.324193 0.341375
0.993286 0.332586 0.279698
0.000000 0.237430 0.247257
0.245121 0.245121 0.245121
0.714351 0.339025 0.280949
0.915557 0.397284 0.307530
0.990356 0.380621 0.254551
0.000000 0.587823 0.238651
0.167758 0.583429 0.167819
0.459205 0.434333 0.151217
0.859281 0.568383 0.166171
0.977874 0.518639 0.138582
0.000000 0.805783 0.079988
0.000000 0.802792 0.000000
0.483406 0.790219 0.000000
0.672450 0.631037 0.000000
0.926177 0.643305 0.000000
0.000000 0.927428 0.000000
0.000000 0.924987 0.000000
0.365728 0.916289 0.000000
0.648157 0.893645 0.000000
0.884855 0.828580 0.000000
0.174594 0.000000 0.396094
0.231693 0.000000 0.392187
0.401465 0.000000 0.401404
0.760739 0.000000 0.486946
0.956695 0.460761 0.580163
0.130220 0.139956 0.427649
0.231907 0.153323 0.428290
0.429480 0.150881 0.429480
0.805905 0.278935 0.524437
0.943359 0.604944 0.656916
0.000000 0.499306 0.523339
0.000000 0.505852 0.526726
0.536828 0.536828 0.536828
0.844816 0.686458 0.671534
0.929198 0.714839 0.693782
0.000000 0.804929 0.495216
0.000000 0.801083 0.487831
0.503868 0.781430 0.504021
0.689631 0.657954 0.351110
0.923644 0.718563 0.516136
0.000000 0.926329 0.375189
0.000000 0.923613 0.375463
0.419348 0.910918 0.419501
0.648005 0.897551 0.375311
0.881529 0.830686 0.191958
0.253666 0.000000 0.610285
0.294316 0.000000 0.605646
0.399237 0.000000 0.588251
0.602228 0.000000 0.602136
0.847990 0.000000 0.632319
0.224308 0.003479 0.620966
0.274479 0.000000 0.616449
0.396643 0.000000 0.599390
0.610529 0.000000 0.610468
0.849607 0.178805 0.632929
0.000000 0.247044 0.655299
0.000000 0.227695 0.649348
0.390265 0.303227 0.646448
0.644282 0.325719 0.644190
0.888548 0.558007 0.706081
0.000000 0.697108 0.730770
0.000000 0.699428 0.730770
0.430854 0.711025 0.730587
0.740444 0.740414 0.740444
0.896300 0.835355 0.830137
0.000000 0.922789 0.663752
0.000000 0.919036 0.665980
0.480171 0.903288 0.688319
0.725063 0.883146 0.725124
0.863066 0.834104 0.587884
0.347845 0.000000 0.858061
0.381231 0.000000 0.857176
0.480690 0.000000 0.853819
0.621332 0.000000 0.847410
0.844572 0.000000 0.844480
0.320714 0.000000 0.858732
0.358190 0.000000 0.857816
0.466499 0.000000 0.854520
0.615229 0.000000 0.848051
0.844694 0.000000 0.844572
0.126070 0.168246 0.862089
0.243626 0.195346 0.860929
0.409461 0.169802 0.857481
0.591821 0.000000 0.850553
0.844236 0.160861 0.844114
0.000000 0.474281 0.869810
0.000000 0.462745 0.869047
0.061646 0.416114 0.865019
0.587060 0.510491 0.850706
0.838865 0.557427 0.838804
0.000000 0.830869 0.870848
0.000000 0.832151 0.870268
0.352514 0.838102 0.867399
0.671534 0.848112 0.862272
0.862455 0.862455 0.862455
