cubelut/Cinematic-9.cube
# Created by Adobe Lightroom plugin Export LUT (1.18.0)
# www.johnrellis.com/lightroom/exportlut.htm
# Preset: Cinematic5
# Color profile: /Library/Application Support/Adobe/Color/Profiles/Recommended/AdobeRGB1998.icc
LUT_3D_SIZE 5
DOMAIN_MIN 0.000000 0.000000 0.000000
DOMAIN_MAX 0.903226 0.903226 0.903226
0.000000 0.000000 0.000000
0.156374 0.008423 0.021973
0.353613 0.000000 0.012207
0.534691 0.000000 0.017212
0.718685 0.001465 0.071626
0.065400 0.138460 0.024689
0.162051 0.138796 0.023194
0.399878 0.168460 0.011780
0.566247 0.164889 0.044038
0.736080 0.192660 0.098054
0.095918 0.324651 0.000000
0.214542 0.342901 0.000000
0.354620 0.321752 0.000000
0.611719 0.397986 0.092622
0.784848 0.425422 0.209140
0.134676 0.509422 0.000000
0.233494 0.523827 0.000000
0.430640 0.569207 0.125795
0.520043 0.504265 0.000000
0.754421 0.590478 0.145724
0.196628 0.723354 0.070436
0.277165 0.731350 0.110109
0.450935 0.756619 0.211765
0.609644 0.773159 0.277531
0.721492 0.749050 0.088319
0.082948 0.001465 0.118502
0.172793 0.000000 0.135378
0.355444 0.000000 0.144900
0.509789 0.000000 0.136873
0.702083 0.000000 0.153201
0.072145 0.126528 0.122835
0.195895 0.158297 0.151858
0.372564 0.148379 0.151705
0.542779 0.147219 0.157198
0.720607 0.174105 0.176974
0.076173 0.310948 0.135561
0.203494 0.338689 0.146700
0.371405 0.335302 0.135195
0.624414 0.413764 0.243137
0.772366 0.424201 0.283757
0.111269 0.499214 0.134920
0.223148 0.516655 0.150546
0.429755 0.563043 0.222904
0.526970 0.510643 0.126711
0.760433 0.597894 0.259983
0.168673 0.716518 0.159548
0.262730 0.724910 0.185275
0.447852 0.751614 0.272313
0.614832 0.774166 0.352941
0.722103 0.748989 0.185977
0.155001 0.000000 0.264042
0.217319 0.000000 0.301976
0.413367 0.000000 0.377234
0.596582 0.079622 0.392462
0.710658 0.000000 0.342443
0.126925 0.078096 0.249790
0.203494 0.095735 0.291905
0.418219 0.144167 0.383093
0.582696 0.201022 0.384100
0.697383 0.095003 0.322087
0.000000 0.260258 0.267216
0.152743 0.287114 0.296788
0.457984 0.416999 0.436225
0.573510 0.378576 0.392065
0.727047 0.372412 0.382391
0.000000 0.446632 0.274998
0.156313 0.470527 0.289830
0.417304 0.548486 0.385077
0.556878 0.541161 0.360113
0.777188 0.638972 0.530510
0.000000 0.686824 0.308873
0.167758 0.697414 0.314885
0.408209 0.732692 0.379492
0.629328 0.779141 0.529442
0.724453 0.750149 0.360021
0.213626 0.000000 0.420081
0.254734 0.000000 0.455451
0.398566 0.000000 0.571557
0.604578 0.000000 0.639155
0.786435 0.337835 0.687861
0.191470 0.000000 0.401678
0.235721 0.000000 0.437995
0.390570 0.000000 0.559411
0.604486 0.205814 0.640253
0.783902 0.399115 0.694301
0.000000 0.120333 0.328038
0.095674 0.123934 0.347906
0.363073 0.262608 0.513512
0.608606 0.423804 0.650935
0.761837 0.475502 0.667475
0.000000 0.363104 0.390112
0.000000 0.380865 0.411322
0.292973 0.452308 0.494270
0.634058 0.638758 0.696040
0.739559 0.578210 0.623529
0.000000 0.615961 0.445228
0.000000 0.628626 0.449775
0.213046 0.673304 0.474128
0.571466 0.753902 0.613611
0.730495 0.757473 0.586114
0.284245 0.000000 0.697017
0.314519 0.000000 0.715419
0.416083 0.000000 0.773617
0.585443 0.000000 0.849912
0.776089 0.280705 0.866178
0.259281 0.000000 0.680690
0.292790 0.000000 0.700771
0.403784 0.000000 0.764034
0.584009 0.149172 0.845731
0.775509 0.345129 0.865934
0.090150 0.000000 0.603601
0.170291 0.000000 0.630854
0.340948 0.102907 0.718471
0.570977 0.320745 0.828122
0.774594 0.488869 0.866239
0.000000 0.261295 0.571862
0.000000 0.246738 0.574090
0.000000 0.165621 0.583978
0.484077 0.397803 0.759426
0.776333 0.652155 0.869902
0.000000 0.572412 0.656977
0.000000 0.575006 0.659937
0.000000 0.587213 0.673518
0.286320 0.631312 0.717586
0.794797 0.825986 0.888762
