cubelut/Cinematic-10.cube
# Created by Adobe Lightroom plugin Export LUT (1.18.0)
# www.johnrellis.com/lightroom/exportlut.htm
# Preset: Cinematic 10
# Color profile: /Library/Application Support/Adobe/Color/Profiles/Recommended/AdobeRGB1998.icc
LUT_3D_SIZE 5
DOMAIN_MIN 0.000000 0.000000 0.000000
DOMAIN_MAX 0.903226 0.903226 0.903226
0.111452 0.111452 0.111452
0.134737 0.134737 0.134737
0.227359 0.227359 0.227359
0.447486 0.447486 0.447486
0.750820 0.750820 0.750820
0.173190 0.173190 0.173190
0.198642 0.198642 0.198642
0.313573 0.313573 0.313573
0.514916 0.514916 0.514916
0.783902 0.783902 0.783902
0.452888 0.452888 0.452888
0.473548 0.473548 0.473548
0.549828 0.549828 0.549828
0.701289 0.701289 0.701289
0.858457 0.858457 0.858457
0.770077 0.770077 0.770077
0.778439 0.778439 0.778439
0.805112 0.805112 0.805112
0.847257 0.847257 0.847257
0.919707 0.919707 0.919707
0.929046 0.929046 0.929046
0.931090 0.931090 0.931090
0.938079 0.938079 0.938079
0.949798 0.949798 0.949798
0.965057 0.965057 0.965057
0.123751 0.123751 0.123751
0.142031 0.142031 0.142031
0.261631 0.261631 0.261631
0.482765 0.482765 0.482765
0.761685 0.761685 0.761685
0.167514 0.167514 0.167514
0.219669 0.219669 0.219669
0.343664 0.343664 0.343664
0.541619 0.541619 0.541619
0.791867 0.791867 0.791867
0.452247 0.452247 0.452247
0.490761 0.490761 0.490761
0.564538 0.564538 0.564538
0.711452 0.711452 0.711452
0.861479 0.861479 0.861479
0.771176 0.771176 0.771176
0.785641 0.785641 0.785641
0.811521 0.811521 0.811521
0.850523 0.850523 0.850523
0.920928 0.920928 0.920928
0.929534 0.929534 0.929534
0.932250 0.932250 0.932250
0.939086 0.939086 0.939086
0.950469 0.950469 0.950469
0.965576 0.965576 0.965576
0.165957 0.165957 0.165957
0.190036 0.190036 0.190036
0.277653 0.277653 0.277653
0.511742 0.511742 0.511742
0.776577 0.776577 0.776577
0.259678 0.259678 0.259678
0.291508 0.291508 0.291508
0.369329 0.369329 0.369329
0.576104 0.576104 0.576104
0.800992 0.800992 0.800992
0.420874 0.420874 0.420874
0.469947 0.469947 0.469947
0.609522 0.609522 0.609522
0.732448 0.732448 0.732448
0.864225 0.864225 0.864225
0.765927 0.765927 0.765927
0.781125 0.781125 0.781125
0.822873 0.822873 0.822873
0.859831 0.859831 0.859831
0.923644 0.923644 0.923644
0.928618 0.928618 0.928618
0.931640 0.931640 0.931640
0.941558 0.941558 0.941558
0.952667 0.952667 0.952667
0.967224 0.967224 0.967224
0.288609 0.288609 0.288609
0.316503 0.316503 0.316503
0.401587 0.401587 0.401587
0.535912 0.535912 0.535912
0.788327 0.788327 0.788327
0.400549 0.400549 0.400549
0.421057 0.421057 0.421057
0.488106 0.488106 0.488106
0.598352 0.598352 0.598352
0.812833 0.812833 0.812833
0.513512 0.513512 0.513512
0.577508 0.577508 0.577508
0.692683 0.692683 0.692683
0.752132 0.752132 0.752132
0.867826 0.867826 0.867826
0.745235 0.745235 0.745235
0.764706 0.764706 0.764706
0.815183 0.815183 0.815183
0.876585 0.876585 0.876585
0.923186 0.923186 0.923186
0.924346 0.924346 0.924346
0.928649 0.928649 0.928649
0.939391 0.939391 0.939391
0.955322 0.955322 0.955322
0.970275 0.970275 0.970245
0.573205 0.573205 0.573205
0.592493 0.592493 0.592493
0.652491 0.652491 0.652491
0.736843 0.736843 0.736843
0.823667 0.823667 0.823667
0.645655 0.645655 0.645655
0.660273 0.660273 0.660273
0.707698 0.707698 0.707698
0.772152 0.772152 0.772152
0.840696 0.840696 0.840696
0.784451 0.784451 0.784451
0.798764 0.798764 0.798764
0.816434 0.816434 0.816434
0.845609 0.845609 0.845609
0.881468 0.881468 0.881468
0.841886 0.841886 0.841886
0.848447 0.848447 0.848447
0.869017 0.869017 0.869017
0.910094 0.910094 0.910094
0.929168 0.929168 0.929168
0.924956 0.924956 0.924956
0.927581 0.927581 0.927581
0.936584 0.936584 0.936584
0.952331 0.952331 0.952331
0.977234 0.977234 0.977234
