cubelut/Cinematic-5.cube
# Created by Adobe Lightroom plugin Export LUT (1.18.0)
# www.johnrellis.com/lightroom/exportlut.htm
# Preset: Cinematic1
# Color profile: /Library/Application Support/Adobe/Color/Profiles/Recommended/AdobeRGB1998.icc
LUT_3D_SIZE 32
DOMAIN_MIN 0.0 0.0 0.0
DOMAIN_MAX 1.0 1.0 1.0
0.078279 0.078279 0.078279
0.087953 0.078340 0.078004
0.100710 0.078920 0.077516
0.129335 0.079927 0.076265
0.169375 0.081849 0.073671
0.213474 0.085786 0.069520
0.261723 0.090730 0.063111
0.315373 0.098848 0.048219
0.377325 0.109377 0.012665
0.446418 0.123049 0.000000
0.520623 0.139254 0.000000
0.593317 0.157321 0.000000
0.657862 0.174807 0.000000
0.713222 0.190799 0.000000
0.759274 0.202701 0.000000
0.797787 0.212680 0.000000
0.830014 0.220951 0.000000
0.857145 0.228214 0.000000
0.879973 0.234745 0.000000
0.900053 0.240116 0.000000
0.917906 0.244877 0.000000
0.933776 0.248997 0.000000
0.947784 0.252476 0.000000
0.960082 0.255039 0.000000
0.970886 0.256870 0.000000
0.980255 0.257877 0.000000
0.988403 0.257969 0.000000
0.995422 0.257389 0.000000
1.000000 0.254185 0.000000
1.000000 0.250462 0.000000
1.000000 0.246281 0.000000
1.000000 0.241337 0.000000
0.076905 0.087434 0.077516
0.087251 0.086152 0.077668
0.099489 0.087098 0.076844
0.127810 0.090272 0.075380
0.167178 0.093751 0.072602
0.211063 0.097993 0.068330
0.258854 0.103273 0.061769
0.312505 0.111574 0.045075
0.374090 0.122194 0.008942
0.443244 0.135439 0.000000
0.517449 0.151736 0.000000
0.590661 0.168643 0.000000
0.655512 0.185611 0.000000
0.711360 0.200290 0.000000
0.757748 0.211276 0.000000
0.796567 0.220096 0.000000
0.829038 0.228214 0.000000
0.856291 0.234684 0.000000
0.879271 0.240635 0.000000
0.899474 0.245701 0.000000
0.917388 0.250095 0.000000
0.933349 0.253544 0.000000
0.947448 0.256535 0.000000
0.959808 0.258671 0.000000
0.970611 0.260288 0.000000
0.980041 0.261143 0.000000
0.988251 0.260960 0.000000
0.995270 0.260380 0.000000
1.000000 0.257115 0.000000
1.000000 0.253178 0.000000
1.000000 0.248692 0.000000
1.000000 0.243870 0.000000
0.075257 0.099428 0.076326
0.085725 0.099123 0.076081
0.099001 0.097078 0.076844
0.125307 0.099855 0.074434
0.164279 0.106264 0.071321
0.207645 0.111513 0.066804
0.255161 0.117372 0.059968
0.308293 0.125612 0.040711
0.369970 0.136629 0.004120
0.438727 0.150210 0.000000
0.512963 0.166140 0.000000
0.586633 0.183413 0.000000
0.652277 0.199130 0.000000
0.708736 0.212406 0.000000
0.755581 0.222477 0.000000
0.794919 0.230686 0.000000
0.827573 0.237949 0.000000
0.855039 0.243626 0.000000
0.878294 0.248325 0.000000
0.898619 0.252720 0.000000
0.916716 0.256596 0.000000
0.932799 0.259617 0.000000
0.946929 0.262150 0.000000
0.959411 0.263798 0.000000
0.970275 0.265202 0.000000
0.979767 0.265507 0.000000
0.987976 0.265232 0.000000
0.995056 0.264286 0.000000
1.000000 0.260807 0.000000
1.000000 0.256840 0.000000
1.000000 0.252049 0.000000
1.000000 0.247044 0.000000
0.070558 0.125368 0.072969
0.083284 0.125002 0.072663
0.098116 0.124575 0.072236
0.123262 0.118715 0.074495
0.154513 0.119631 0.070466
0.200595 0.133181 0.063813
0.247410 0.140291 0.054719
0.299962 0.149386 0.031739
0.360998 0.160983 0.000000
0.429419 0.175509 0.000000
0.503807 0.192172 0.000000
0.578607 0.209232 0.000000
0.645045 0.224430 0.000000
0.702937 0.235538 0.000000
0.751095 0.244144 0.000000
0.791073 0.251102 0.000000
0.824552 0.256565 0.000000
0.852506 0.261082 0.000000
0.876127 0.264836 0.000000
0.896849 0.267582 0.000000
0.915190 0.270512 0.000000
0.931487 0.272313 0.000000
0.945861 0.274052 0.000000
0.958495 0.274815 0.000000
0.969512 0.275303 0.000000
0.979126 0.274907 0.000000
0.987427 0.274083 0.000000
0.994598 0.272740 0.000000
1.000000 0.268772 0.000000
1.000000 0.264378 0.000000
1.000000 0.259403 0.000000
1.000000 0.253910 0.000000
0.062501 0.157473 0.067048
0.078126 0.157107 0.066712
0.094575 0.156680 0.066224
0.122621 0.154299 0.065461
0.149844 0.143160 0.070771
0.176150 0.137789 0.070649
0.231785 0.158541 0.050538
0.287358 0.175448 0.020111
0.347387 0.188785 0.000000
0.415076 0.205081 0.000000
0.489509 0.223087 0.000000
0.565209 0.241215 0.000000
0.634119 0.255222 0.000000
0.693935 0.266117 0.000000
0.743771 0.273350 0.000000
0.785061 0.279057 0.000000
0.819638 0.282933 0.000000
0.848417 0.285466 0.000000
0.872801 0.287327 0.000000
0.894011 0.289006 0.000000
0.912840 0.289982 0.000000
0.929503 0.290806 0.000000
0.944182 0.291264 0.000000
0.957092 0.290837 0.000000
0.968322 0.290379 0.000000
0.978119 0.289128 0.000000
0.986572 0.287358 0.000000
0.993896 0.285191 0.000000
1.000000 0.280705 0.000000
1.000000 0.275700 0.000000
1.000000 0.270268 0.000000
1.000000 0.264530 0.000000
0.050416 0.190372 0.057832
0.071077 0.190219 0.057038
0.089540 0.189639 0.056153
0.117983 0.188815 0.054047
0.151888 0.182773 0.053285
0.175814 0.167147 0.065888
0.193118 0.153658 0.072358
0.257969 0.181247 0.027253
0.326421 0.210483 0.000000
0.396551 0.232944 0.000000
0.470588 0.252720 0.000000
0.547906 0.272282 0.000000
0.619135 0.287724 0.000000
0.681758 0.298985 0.000000
0.733639 0.306676 0.000000
0.776944 0.310887 0.000000
0.812924 0.313298 0.000000
0.842893 0.314427 0.000000
0.868132 0.314733 0.000000
0.890135 0.314702 0.000000
0.909575 0.314214 0.000000
0.926787 0.313542 0.000000
0.941924 0.312383 0.000000
0.955138 0.311162 0.000000
0.966674 0.309239 0.000000
0.976715 0.307073 0.000000
0.985412 0.304356 0.000000
0.992889 0.301152 0.000000
0.999359 0.296025 0.000000
1.000000 0.290288 0.000000
1.000000 0.284245 0.000000
1.000000 0.277928 0.000000
0.030488 0.224613 0.032136
0.064637 0.224247 0.031250
0.084321 0.223880 0.029969
0.115084 0.223178 0.027100
0.149081 0.222110 0.022583
0.182406 0.210147 0.026429
0.201541 0.190402 0.058808
0.207279 0.167056 0.074342
0.280430 0.201724 0.011109
0.358953 0.238346 0.000000
0.447608 0.278660 0.000000
0.525628 0.300969 0.000000
0.600061 0.319493 0.000000
0.665705 0.332677 0.000000
0.720912 0.340734 0.000000
0.766384 0.344823 0.000000
0.804196 0.346410 0.000000
0.835721 0.346258 0.000000
0.862150 0.345190 0.000000
0.885191 0.343420 0.000000
0.905455 0.341527 0.000000
0.923308 0.339391 0.000000
0.938933 0.337102 0.000000
0.952667 0.334295 0.000000
0.964599 0.331060 0.000000
0.974975 0.327794 0.000000
0.983917 0.324132 0.000000
0.991669 0.319982 0.000000
0.998291 0.314000 0.000000
1.000000 0.307683 0.000000
1.000000 0.300847 0.000000
1.000000 0.294011 0.000000
0.001190 0.260410 0.003906
0.049653 0.260227 0.002777
0.076448 0.259922 0.001526
0.110964 0.259281 0.000000
0.146822 0.258396 0.000000
0.182773 0.253178 0.000000
0.212863 0.237858 0.000000
0.227237 0.214176 0.049622
0.220462 0.179599 0.078462
0.299016 0.220035 0.020630
0.390143 0.265476 0.000000
0.486793 0.312139 0.000000
0.576898 0.348241 0.000000
0.645747 0.364324 0.000000
0.704829 0.374151 0.000000
0.753292 0.378820 0.000000
0.793393 0.380377 0.000000
0.826902 0.379309 0.000000
0.854765 0.377295 0.000000
0.879026 0.374334 0.000000
0.900298 0.371160 0.000000
0.919005 0.367590 0.000000
0.935332 0.363897 0.000000
0.949615 0.359899 0.000000
0.962036 0.355627 0.000000
0.972808 0.351141 0.000000
0.982116 0.346227 0.000000
0.990143 0.341131 0.000000
0.997009 0.334478 0.000000
1.000000 0.327214 0.000000
1.000000 0.319860 0.000000
1.000000 0.312169 0.000000
0.000000 0.299748 0.000000
0.017823 0.299687 0.000000
0.067109 0.299535 0.000000
0.105470 0.298955 0.000000
0.144503 0.298253 0.000000
0.182376 0.297215 0.000000
0.217746 0.286046 0.000000
0.244236 0.267155 0.000000
0.253880 0.239017 0.039185
0.241001 0.198703 0.078523
0.315496 0.236484 0.031800
0.418433 0.290684 0.000000
0.520470 0.341924 0.000000
0.617578 0.387213 0.000000
0.685176 0.405432 0.000000
0.737301 0.411994 0.000000
0.780423 0.413825 0.000000
0.816098 0.412970 0.000000
0.845884 0.410040 0.000000
0.871672 0.406287 0.000000
0.894133 0.402014 0.000000
0.913817 0.397345 0.000000
0.930999 0.392493 0.000000
0.945953 0.387427 0.000000
0.958923 0.382055 0.000000
0.970214 0.376226 0.000000
0.979919 0.370459 0.000000
0.988312 0.364263 0.000000
0.995483 0.356786 0.000000
1.000000 0.348760 0.000000
1.000000 0.340490 0.000000
1.000000 0.332158 0.000000
0.000000 0.343236 0.000000
0.000000 0.343084 0.000000
0.044587 0.342992 0.000000
0.098787 0.342565 0.000000
0.141756 0.342046 0.000000
0.182376 0.341497 0.000000
0.221744 0.340459 0.000000
0.254154 0.320623 0.000000
0.276310 0.297063 0.000000
0.281682 0.265019 0.020569
0.263798 0.220096 0.076600
0.330205 0.251164 0.043915
0.440864 0.312016 0.000000
0.549889 0.368658 0.000000
0.644312 0.413214 0.000000
0.718288 0.442634 0.000000
0.764889 0.446296 0.000000
0.803342 0.445777 0.000000
0.835264 0.442939 0.000000
0.862821 0.438666 0.000000
0.886809 0.433722 0.000000
0.907683 0.428138 0.000000
0.925872 0.422248 0.000000
0.941619 0.416114 0.000000
0.955322 0.409522 0.000000
0.967163 0.402808 0.000000
0.977386 0.395972 0.000000
0.986145 0.388952 0.000000
0.993683 0.380621 0.000000
1.000000 0.371710 0.000000
1.000000 0.362799 0.000000
1.000000 0.353674 0.000000
0.000000 0.390112 0.000000
0.000000 0.390204 0.000000
0.000000 0.390021 0.000000
0.088106 0.389746 0.000000
0.137545 0.389288 0.000000
0.181216 0.388739 0.000000
0.223423 0.388006 0.000000
0.262547 0.380804 0.000000
0.291875 0.356542 0.000000
0.309422 0.328008 0.000000
0.310491 0.291905 0.000000
0.287449 0.242130 0.072145
0.342382 0.263615 0.052277
0.458137 0.329686 0.000000
0.574273 0.391882 0.000000
0.666499 0.436011 0.000000
0.738460 0.465858 0.000000
0.788113 0.477272 0.000000
0.822904 0.474830 0.000000
0.852598 0.470741 0.000000
0.878264 0.465339 0.000000
0.900572 0.459327 0.000000
0.919890 0.452674 0.000000
0.936645 0.445563 0.000000
0.951110 0.438209 0.000000
0.963653 0.430549 0.000000
0.974426 0.422766 0.000000
0.983673 0.414710 0.000000
0.991608 0.405615 0.000000
0.998322 0.395941 0.000000
1.000000 0.386206 0.000000
1.000000 0.376440 0.000000
0.000000 0.439796 0.000000
0.000000 0.439826 0.000000
0.000000 0.439612 0.000000
0.069978 0.439307 0.000000
0.130373 0.439033 0.000000
0.178897 0.438392 0.000000
0.223758 0.437934 0.000000
0.266850 0.437201 0.000000
0.304112 0.420722 0.000000
0.330083 0.393011 0.000000
0.343023 0.359411 0.000000
0.340276 0.319646 0.000000
0.311803 0.264836 0.065705
0.352422 0.274083 0.058534
0.472602 0.345006 0.000000
0.594568 0.411933 0.000000
0.684810 0.455695 0.000000
0.753628 0.484169 0.000000
0.806210 0.502281 0.000000
0.840635 0.501976 0.000000
0.868376 0.496742 0.000000
0.892302 0.490425 0.000000
0.913024 0.483192 0.000000
0.930877 0.475563 0.000000
0.946319 0.467384 0.000000
0.959594 0.458991 0.000000
0.971038 0.450294 0.000000
0.980835 0.441474 0.000000
0.989258 0.431525 0.000000
0.996368 0.421118 0.000000
1.000000 0.410712 0.000000
1.000000 0.400214 0.000000
0.000000 0.490822 0.000000
0.000000 0.490791 0.000000
0.000000 0.490700 0.000000
0.012879 0.490425 0.000000
0.119356 0.490028 0.000000
0.174166 0.489601 0.000000
0.222263 0.488991 0.000000
0.268009 0.488197 0.000000
0.312383 0.487251 0.000000
0.345495 0.460273 0.000000
0.368475 0.429633 0.000000
0.376928 0.391241 0.000000
0.370703 0.348028 0.000000
0.337285 0.288334 0.052522
0.360723 0.282872 0.061524
0.484688 0.358160 0.000000
0.608789 0.427955 0.000000
0.700038 0.472969 0.000000
0.766476 0.500603 0.000000
0.817929 0.518334 0.000000
0.857023 0.527245 0.000000
0.882933 0.521050 0.000000
0.905150 0.513725 0.000000
0.924315 0.505608 0.000000
0.940795 0.496895 0.000000
0.955016 0.487770 0.000000
0.967193 0.478431 0.000000
0.977661 0.468818 0.000000
0.986633 0.458076 0.000000
0.994141 0.447059 0.000000
1.000000 0.435859 0.000000
1.000000 0.424689 0.000000
0.000000 0.541222 0.000000
0.000000 0.541131 0.000000
0.000000 0.541039 0.000000
0.000000 0.540826 0.000000
0.102266 0.540337 0.000000
0.165957 0.539635 0.000000
0.218418 0.538994 0.000000
0.266514 0.538018 0.000000
0.312566 0.536919 0.000000
0.355352 0.528191 0.000000
0.386206 0.498695 0.000000
0.406439 0.465339 0.000000
0.410986 0.423194 0.000000
0.401465 0.376654 0.000000
0.365118 0.314122 0.020844
0.366918 0.289830 0.064393
0.495308 0.369818 0.000000
0.619623 0.441291 0.000000
0.713527 0.488472 0.000000
0.778866 0.516045 0.000000
0.829038 0.533379 0.000000
0.868254 0.543938 0.000000
0.896239 0.543694 0.000000
0.916899 0.535424 0.000000
0.934630 0.526360 0.000000
0.949859 0.516747 0.000000
0.962921 0.506767 0.000000
0.974090 0.496498 0.000000
0.983642 0.485237 0.000000
0.991669 0.473487 0.000000
0.998322 0.461677 0.000000
1.000000 0.449836 0.000000
0.000000 0.587396 0.000000
0.000000 0.587243 0.000000
0.000000 0.587060 0.000000
0.000000 0.586786 0.000000
0.078218 0.586267 0.000000
0.154757 0.585657 0.000000
0.211124 0.584802 0.000000
0.261540 0.583612 0.000000
0.308995 0.582452 0.000000
0.355016 0.581048 0.000000
0.395117 0.563806 0.000000
0.424384 0.533898 0.000000
0.443366 0.499825 0.000000
0.444831 0.454932 0.000000
0.432654 0.405737 0.000000
0.393713 0.340429 0.000000
0.372259 0.295933 0.067079
0.503990 0.379828 0.000000
0.629725 0.453620 0.000000
0.726497 0.503258 0.000000
0.790860 0.530694 0.000000
0.839750 0.547662 0.000000
0.877714 0.557610 0.000000
0.907622 0.562951 0.000000
0.927642 0.555688 0.000000
0.944060 0.545830 0.000000
0.958099 0.535393 0.000000
0.970092 0.524590 0.000000
0.980346 0.512657 0.000000
0.988922 0.500389 0.000000
0.996063 0.487953 0.000000
1.000000 0.475502 0.000000
0.000000 0.629297 0.000000
0.000000 0.629145 0.000000
0.000000 0.628962 0.000000
0.000000 0.628687 0.000000
0.005829 0.628077 0.000000
0.138979 0.627375 0.000000
0.200534 0.626429 0.000000
0.253635 0.625452 0.000000
0.302922 0.623987 0.000000
0.349676 0.622461 0.000000
0.395056 0.620691 0.000000
0.432105 0.595575 0.000000
0.459754 0.565698 0.000000
0.478065 0.531975 0.000000
0.478187 0.486030 0.000000
0.464454 0.435431 0.000000
0.423468 0.367834 0.000000
0.390326 0.312657 0.059968
0.513268 0.389837 0.000000
0.640467 0.466011 0.000000
0.736812 0.516350 0.000000
0.802701 0.544854 0.000000
0.850309 0.561303 0.000000
0.886992 0.570611 0.000000
0.915648 0.575280 0.000000
0.937591 0.574640 0.000000
0.952728 0.563958 0.000000
0.965637 0.552880 0.000000
0.976684 0.540368 0.000000
0.985931 0.527581 0.000000
0.993561 0.514580 0.000000
0.999786 0.501488 0.000000
0.000000 0.666590 0.000000
0.000000 0.666468 0.000000
0.000000 0.666285 0.000000
0.000000 0.665980 0.000000
0.000000 0.665400 0.000000
0.118563 0.664607 0.000000
0.187564 0.663630 0.000000
0.243473 0.662379 0.000000
0.294011 0.660883 0.000000
0.341283 0.659266 0.000000
0.387366 0.657435 0.000000
0.430701 0.649409 0.000000
0.465949 0.623987 0.000000
0.492622 0.594568 0.000000
0.510063 0.560967 0.000000
0.510033 0.515740 0.000000
0.496468 0.465309 0.000000
0.454292 0.396246 0.000000
0.418250 0.337682 0.026215
0.522667 0.399817 0.000000
0.651575 0.478401 0.000000
0.747463 0.529290 0.000000
0.814511 0.558587 0.000000
0.860746 0.574395 0.000000
0.896147 0.583124 0.000000
0.923644 0.587091 0.000000
0.945190 0.587701 0.000000
0.960723 0.580926 0.000000
0.972625 0.568139 0.000000
0.982605 0.554986 0.000000
0.990814 0.541497 0.000000
0.997528 0.527886 0.000000
0.000000 0.699184 0.000000
0.000000 0.699031 0.000000
0.000000 0.698909 0.000000
0.000000 0.698482 0.000000
0.000000 0.697963 0.000000
0.093416 0.697139 0.000000
0.172061 0.696132 0.000000
0.230503 0.694911 0.000000
0.282872 0.693538 0.000000
0.331090 0.691890 0.000000
0.377295 0.689998 0.000000
0.421942 0.687922 0.000000
0.463203 0.673701 0.000000
0.497261 0.649409 0.000000
0.523552 0.621393 0.000000
0.540246 0.588373 0.000000
0.541192 0.544579 0.000000
0.529534 0.496101 0.000000
0.487770 0.426978 0.000000
0.449165 0.365240 0.000000
0.534081 0.411078 0.000000
0.664424 0.491676 0.000000
0.758999 0.542473 0.000000
0.826322 0.572076 0.000000
0.871366 0.587243 0.000000
0.905394 0.595270 0.000000
0.931701 0.598474 0.000000
0.952117 0.598413 0.000000
0.968170 0.595850 0.000000
0.978973 0.582452 0.000000
0.987854 0.568597 0.000000
0.995056 0.554467 0.000000
0.000000 0.728695 0.000000
0.000000 0.728603 0.000000
0.000000 0.728420 0.000000
0.000000 0.728084 0.000000
0.000000 0.727504 0.000000
0.039490 0.726772 0.000000
0.154330 0.725795 0.000000
0.216861 0.724666 0.000000
0.270420 0.723354 0.000000
0.319280 0.721798 0.000000
0.365942 0.719966 0.000000
0.410712 0.718013 0.000000
0.454292 0.715846 0.000000
0.493812 0.696529 0.000000
0.526879 0.673426 0.000000
0.553063 0.647089 0.000000
0.570031 0.615198 0.000000
0.572473 0.573754 0.000000
0.562982 0.527276 0.000000
0.524071 0.460212 0.000000
0.483711 0.395850 0.000000
0.547875 0.423926 0.000000
0.678889 0.505974 0.000000
0.771389 0.556085 0.000000
0.837034 0.584985 0.000000
0.882353 0.600031 0.000000
0.914916 0.607202 0.000000
0.940002 0.609674 0.000000
0.959442 0.608759 0.000000
0.974151 0.605341 0.000000
0.984619 0.595758 0.000000
0.992401 0.581292 0.000000
0.000000 0.755978 0.000000
0.000000 0.755856 0.000000
0.000000 0.755703 0.000000
0.000000 0.755398 0.000000
0.000000 0.754849 0.000000
0.000000 0.754177 0.000000
0.132753 0.753262 0.000000
0.201175 0.752163 0.000000
0.256779 0.750881 0.000000
0.306706 0.749416 0.000000
0.353765 0.747738 0.000000
0.398627 0.745876 0.000000
0.442390 0.743771 0.000000
0.484596 0.737362 0.000000
0.522698 0.718074 0.000000
0.555169 0.696284 0.000000
0.581628 0.671656 0.000000
0.598993 0.641321 0.000000
0.603845 0.602930 0.000000
0.597101 0.559106 0.000000
0.561700 0.494667 0.000000
0.522332 0.430121 0.000000
0.564385 0.438788 0.000000
0.694850 0.521294 0.000000
0.785214 0.570459 0.000000
0.848722 0.598260 0.000000
0.893828 0.612848 0.000000
0.925078 0.619165 0.000000
0.948821 0.620691 0.000000
0.966674 0.618799 0.000000
0.979950 0.614466 0.000000
0.989532 0.608240 0.000000
0.000000 0.781247 0.000000
0.000000 0.781125 0.000000
0.000000 0.781003 0.000000
0.000000 0.780667 0.000000
0.000000 0.780148 0.000000
0.000000 0.779477 0.000000
0.105470 0.778653 0.000000
0.183322 0.777646 0.000000
0.241855 0.776364 0.000000
0.293034 0.774990 0.000000
0.340703 0.773404 0.000000
0.385931 0.771603 0.000000
0.429419 0.769619 0.000000
0.471809 0.767453 0.000000
0.513146 0.756588 0.000000
0.550225 0.738521 0.000000
0.582330 0.718227 0.000000
0.609003 0.695399 0.000000
0.627192 0.666743 0.000000
0.634730 0.631617 0.000000
0.631891 0.591638 0.000000
0.600793 0.530541 0.000000
0.563195 0.466316 0.000000
0.584894 0.456672 0.000000
0.713436 0.538384 0.000000
0.800656 0.585809 0.000000
0.861540 0.612177 0.000000
0.906004 0.625940 0.000000
0.935790 0.631159 0.000000
0.957671 0.631525 0.000000
0.973785 0.628504 0.000000
0.985443 0.623163 0.000000
0.000000 0.804562 0.000000
0.000000 0.804471 0.000000
0.000000 0.804318 0.000000
0.000000 0.803983 0.000000
0.000000 0.803525 0.000000
0.000000 0.802884 0.000000
0.062593 0.802121 0.000000
0.163333 0.801083 0.000000
0.225681 0.799954 0.000000
0.278630 0.798581 0.000000
0.326726 0.797116 0.000000
0.372473 0.795346 0.000000
0.415991 0.793484 0.000000
0.458167 0.791440 0.000000
0.499397 0.789181 0.000000
0.539940 0.774929 0.000000
0.576379 0.758053 0.000000
0.608362 0.739254 0.000000
0.635523 0.718349 0.000000
0.654749 0.691554 0.000000
0.665095 0.659846 0.000000
0.666468 0.623835 0.000000
0.641047 0.567376 0.000000
0.605890 0.504417 0.000000
0.609766 0.477913 0.000000
0.734493 0.557366 0.000000
0.817868 0.602380 0.000000
0.876280 0.627222 0.000000
0.918212 0.639246 0.000000
0.946746 0.643061 0.000000
0.966461 0.642023 0.000000
0.980682 0.637812 0.000000
0.000000 0.826017 0.000000
0.000000 0.825956 0.000000
0.000000 0.825803 0.000000
0.000000 0.825498 0.000000
0.000000 0.825071 0.000000
0.000000 0.824460 0.000000
0.000000 0.823728 0.000000
0.139406 0.822812 0.000000
0.208164 0.821683 0.000000
0.263005 0.820401 0.000000
0.312291 0.818936 0.000000
0.358160 0.817319 0.000000
0.401831 0.815518 0.000000
0.444099 0.813565 0.000000
0.485145 0.811398 0.000000
0.525750 0.806271 0.000000
0.565423 0.792264 0.000000
0.601343 0.776730 0.000000
0.633387 0.759518 0.000000
0.661311 0.740475 0.000000
0.681727 0.715969 0.000000
0.694942 0.687495 0.000000
0.700557 0.655665 0.000000
0.681300 0.604395 0.000000
0.649958 0.543786 0.000000
0.648737 0.511131 0.000000
0.758663 0.578698 0.000000
0.837705 0.620905 0.000000
0.892119 0.643000 0.000000
0.930907 0.652796 0.000000
0.957671 0.654810 0.000000
0.975036 0.652247 0.000000
0.000000 0.845945 0.000000
0.000000 0.845853 0.000000
0.000000 0.845731 0.000000
0.000000 0.845426 0.000000
0.000000 0.844999 0.000000
0.000000 0.844450 0.000000
0.000000 0.843748 0.000000
0.109621 0.842832 0.000000
0.188449 0.841794 0.000000
0.246464 0.840574 0.000000
0.296727 0.839200 0.000000
0.343084 0.837675 0.000000
0.387121 0.835966 0.000000
0.429480 0.834043 0.000000
0.470405 0.831998 0.000000
0.510277 0.829770 0.000000
0.550835 0.821775 0.000000
0.589685 0.808896 0.000000
0.625269 0.794705 0.000000
0.657527 0.779171 0.000000
0.686275 0.762081 0.000000
0.708156 0.739742 0.000000
0.724269 0.714778 0.000000
0.734035 0.686854 0.000000
0.720821 0.640833 0.000000
0.693660 0.583154 0.000000
0.699031 0.554711 0.000000
0.786130 0.602808 0.000000
0.858732 0.640497 0.000000
0.908690 0.659419 0.000000
0.943877 0.666590 0.000000
0.968444 0.666285 0.000000
0.000000 0.864378 0.000000
0.000000 0.864286 0.000000
0.000000 0.864195 0.000000
0.000000 0.863920 0.000000
0.000000 0.863523 0.000000
0.000000 0.862974 0.000000
0.000000 0.862272 0.000000
0.062348 0.861448 0.000000
0.165866 0.860441 0.000000
0.228183 0.859281 0.000000
0.280247 0.858000 0.000000
0.327733 0.856504 0.000000
0.372076 0.854887 0.000000
0.414343 0.853117 0.000000
0.455268 0.851133 0.000000
0.495003 0.849027 0.000000
0.533806 0.846769 0.000000
0.574609 0.836667 0.000000
0.612787 0.824949 0.000000
0.648249 0.812192 0.000000
0.680873 0.798245 0.000000
0.710475 0.782895 0.000000
0.734035 0.763088 0.000000
0.752987 0.741390 0.000000
0.766873 0.717525 0.000000
0.759579 0.676753 0.000000
0.736873 0.622492 0.000000
0.747036 0.597101 0.000000
0.815061 0.628412 0.000000
0.880613 0.661006 0.000000
0.925505 0.676295 0.000000
0.956817 0.680476 0.000000
0.000000 0.881529 0.000000
0.000000 0.881437 0.000000
0.000000 0.881315 0.000000
0.000000 0.881071 0.000000
0.000000 0.880674 0.000000
0.000000 0.880186 0.000000
0.000000 0.879545 0.000000
0.000000 0.878752 0.000000
0.138460 0.877775 0.000000
0.207797 0.876707 0.000000
0.262760 0.875456 0.000000
0.311101 0.874052 0.000000
0.356023 0.872526 0.000000
0.398688 0.870787 0.000000
0.439704 0.868925 0.000000
0.479316 0.866941 0.000000
0.517998 0.864775 0.000000
0.556970 0.860685 0.000000
0.597223 0.850980 0.000000
0.635035 0.840452 0.000000
0.670527 0.829068 0.000000
0.703578 0.816800 0.000000
0.733883 0.803098 0.000000
0.759152 0.786099 0.000000
0.780789 0.767727 0.000000
0.798489 0.747738 0.000000
0.796994 0.712001 0.000000
0.780270 0.662379 0.000000
0.792050 0.637629 0.000000
0.844816 0.655207 0.000000
0.902800 0.682368 0.000000
0.942229 0.693599 0.000000
0.000000 0.897459 0.000000
0.000000 0.897368 0.000000
0.000000 0.897276 0.000000
0.000000 0.897063 0.000000
0.000000 0.896666 0.000000
0.000000 0.896208 0.000000
0.000000 0.895567 0.000000
0.000000 0.894804 0.000000
0.102113 0.893889 0.000000
0.185031 0.892882 0.000000
0.243656 0.891691 0.000000
0.293797 0.890349 0.000000
0.339513 0.888914 0.000000
0.382544 0.887266 0.000000
0.423651 0.885466 0.000000
0.463325 0.883543 0.000000
0.501915 0.881498 0.000000
0.539574 0.879271 0.000000
0.579187 0.873503 0.000000
0.618830 0.864836 0.000000
0.656245 0.855558 0.000000
0.691341 0.845762 0.000000
0.724605 0.835325 0.000000
0.755673 0.823453 0.000000
0.782895 0.808896 0.000000
0.807218 0.793362 0.000000
0.828519 0.776638 0.000000
0.832334 0.745571 0.000000
0.820798 0.700160 0.000000
0.833433 0.675837 0.000000
0.874632 0.682887 0.000000
0.924620 0.704280 0.000000
0.000000 0.912230 0.000000
0.000000 0.912169 0.000000
0.000000 0.912078 0.000000
0.000000 0.911864 0.000000
0.000000 0.911498 0.000000
0.000000 0.911040 0.000000
0.000000 0.910430 0.000000
0.000000 0.909728 0.000000
0.000427 0.908904 0.000000
0.157259 0.907897 0.000000
0.222263 0.906767 0.000000
0.275090 0.905486 0.000000
0.322026 0.904082 0.000000
0.365728 0.902495 0.000000
