cubelut/Cinematic-4.cube
# Created by Adobe Lightroom plugin Export LUT (1.18.0)
# www.johnrellis.com/lightroom/exportlut.htm
# Preset: Cinematic 9
# Color profile: /Library/Application Support/Adobe/Color/Profiles/Recommended/AdobeRGB1998.icc
LUT_3D_SIZE 8
DOMAIN_MIN 0.000000 0.000000 0.000000
DOMAIN_MAX 0.903226 0.903226 0.903226
0.135348 0.135348 0.135348
0.170779 0.135164 0.135286
0.244999 0.134035 0.135683
0.350866 0.129915 0.135134
0.520287 0.110750 0.129854
0.760311 0.000000 0.103609
0.917540 0.000000 0.074159
0.986358 0.000000 0.071931
0.134188 0.171328 0.134829
0.170230 0.170993 0.134981
0.245090 0.166201 0.135744
0.351812 0.165438 0.135561
0.521965 0.163027 0.129152
0.761379 0.142184 0.099062
0.917235 0.105501 0.066835
0.985809 0.087831 0.066377
0.130159 0.247349 0.135592
0.163790 0.247379 0.135653
0.245457 0.247562 0.136507
0.354894 0.253208 0.136202
0.527489 0.274510 0.124331
0.764950 0.297337 0.078920
0.916106 0.284337 0.005493
0.983856 0.259709 0.023987
0.109255 0.363043 0.130831
0.153536 0.363867 0.130495
0.251560 0.366705 0.129244
0.368109 0.372076 0.125704
0.539178 0.407568 0.101534
0.770199 0.454749 0.000000
0.913664 0.442329 0.000000
0.980224 0.405646 0.000000
0.000000 0.555749 0.074983
0.093446 0.557275 0.072236
0.261662 0.562737 0.059083
0.416144 0.572290 0.000000
0.578210 0.585138 0.000000
0.778256 0.619776 0.000000
0.909636 0.597192 0.000000
0.974640 0.547021 0.000000
0.000000 0.788083 0.000000
0.000000 0.788327 0.000000
0.238743 0.788968 0.000000
0.433875 0.789425 0.000000
0.608301 0.788235 0.000000
0.774807 0.784176 0.000000
0.903716 0.751247 0.000000
0.967224 0.685328 0.000000
0.000000 0.903655 0.000000
0.000000 0.902922 0.000000
0.181064 0.900328 0.000000
0.390448 0.895506 0.000000
0.557610 0.888212 0.000000
0.711360 0.878294 0.000000
0.855894 0.865660 0.000000
0.957397 0.821714 0.000000
0.000000 0.955779 0.000000
0.000000 0.955016 0.000000
0.140597 0.952392 0.000000
0.344762 0.947570 0.000000
0.499031 0.940429 0.000000
0.639582 0.930938 0.000000
0.771420 0.919158 0.000000
0.895628 0.905241 0.000000
0.134615 0.134737 0.178805
0.171359 0.133150 0.179446
0.245579 0.136294 0.178134
0.354864 0.118929 0.178103
0.528038 0.005341 0.170932
0.766842 0.000000 0.152010
0.919738 0.000000 0.133150
0.986999 0.000000 0.128603
0.131533 0.171603 0.179507
0.168917 0.169924 0.179690
0.244968 0.167086 0.179355
0.355505 0.157290 0.176852
0.529229 0.130434 0.169772
0.767727 0.000000 0.148867
0.919371 0.000000 0.129519
0.986481 0.000000 0.125704
0.130922 0.247745 0.177432
0.160922 0.248661 0.177798
0.246036 0.248631 0.174899
0.357000 0.251102 0.176486
0.533684 0.263310 0.164981
0.770413 0.272404 0.136355
0.917967 0.256687 0.115114
0.984436 0.237491 0.115450
0.104921 0.364355 0.179294
0.135256 0.367071 0.169253
0.244205 0.369940 0.163302
0.369848 0.374334 0.160159
0.545281 0.405982 0.144839
0.774502 0.445106 0.106447
0.915160 0.429694 0.081239
0.980682 0.394873 0.092866
0.000000 0.558221 0.161929
0.000000 0.562249 0.127321
0.238743 0.567437 0.116304
0.409979 0.576287 0.102113
0.580560 0.588006 0.071748
0.782437 0.617762 0.000000
0.910674 0.591180 0.000000
0.974884 0.541161 0.025177
0.000000 0.790066 0.000000
0.000000 0.791775 0.000000
0.193545 0.792081 0.000000
0.419287 0.791958 0.000000
0.603326 0.790036 0.000000
0.775357 0.785061 0.000000
0.904570 0.749050 0.000000
0.967285 0.682155 0.000000
0.000000 0.905150 0.000000
0.000000 0.904479 0.000000
0.125185 0.901762 0.000000
0.375006 0.896727 0.000000
0.550652 0.889128 0.000000
0.708736 0.878813 0.000000
0.855802 0.865843 0.000000
0.957336 0.820279 0.000000
0.000000 0.956481 0.000000
0.000000 0.955718 0.000000
0.092775 0.953033 0.000000
0.333227 0.948119 0.000000
0.493416 0.940856 0.000000
0.636713 0.931212 0.000000
0.770260 0.919280 0.000000
0.895567 0.905211 0.000000
0.131716 0.132662 0.271153
0.166079 0.131502 0.272068
0.250645 0.128176 0.274571
0.359045 0.113313 0.281132
0.537713 0.000000 0.304021
0.776761 0.000000 0.308232
0.925017 0.000000 0.251926
0.988373 0.000000 0.241733
0.123384 0.163516 0.274327
0.161135 0.163027 0.274846
0.248692 0.158602 0.276158
0.360418 0.146731 0.281407
0.540368 0.000000 0.298650
0.779232 0.000000 0.290990
0.924620 0.000000 0.248447
0.987732 0.000000 0.240757
0.116243 0.251774 0.275822
0.149172 0.250004 0.276677
0.236484 0.240635 0.276127
0.361486 0.235355 0.276066
0.547112 0.194247 0.268345
0.783597 0.113466 0.255192
0.922576 0.096559 0.243137
0.985412 0.140139 0.237278
0.078645 0.366369 0.282322
0.119631 0.368566 0.281773
0.214603 0.373266 0.271977
0.368170 0.374823 0.258518
0.552972 0.388220 0.262394
0.785336 0.400641 0.243534
0.918700 0.381567 0.233219
0.981140 0.358862 0.231449
0.000000 0.561364 0.307225
0.000000 0.565209 0.300450
0.134737 0.576440 0.260533
0.373388 0.585199 0.225193
0.583215 0.592889 0.215335
0.792386 0.604913 0.198459
0.912474 0.570001 0.219211
0.974609 0.523186 0.223819
0.000000 0.791745 0.308843
0.000000 0.793759 0.293736
0.000000 0.799771 0.214206
0.351629 0.799619 0.165621
0.582086 0.795071 0.155673
0.775814 0.787045 0.143191
0.906493 0.740322 0.151308
0.966461 0.672480 0.201785
0.000000 0.905211 0.259983
0.000000 0.905486 0.242100
0.000000 0.906065 0.154086
0.313512 0.900542 0.140139
0.525475 0.891905 0.136965
0.699428 0.880369 0.134371
0.855467 0.866117 0.132998
0.956329 0.815335 0.156680
0.000000 0.956970 0.200961
0.000000 0.956756 0.183871
0.000000 0.954894 0.150851
0.295232 0.949645 0.151675
0.476081 0.941955 0.153140
0.628473 0.931853 0.155947
0.767086 0.919402 0.160433
0.895171 0.904906 0.167391
0.121065 0.123690 0.425666
0.165774 0.120302 0.427161
0.267735 0.105745 0.431250
0.389502 0.041718 0.436744
0.552148 0.000000 0.463600
0.781521 0.000000 0.505394
0.918181 0.000000 0.471199
0.983612 0.000000 0.413367
0.091157 0.155764 0.431281
0.148196 0.152590 0.432258
0.260227 0.139193 0.435126
0.388617 0.103273 0.439582
0.555261 0.000000 0.464637
0.783474 0.000000 0.501091
0.918822 0.000000 0.464546
0.983520 0.000000 0.408576
0.000000 0.257176 0.437873
0.036072 0.248203 0.439673
0.216068 0.223453 0.443153
0.380652 0.204532 0.445899
0.563043 0.158724 0.464057
0.789517 0.000000 0.482521
0.920165 0.000000 0.441993
0.981048 0.000000 0.406622
0.000000 0.394751 0.443946
0.000000 0.393225 0.445350
0.165499 0.384344 0.448249
0.342779 0.354559 0.447181
0.567651 0.343175 0.450507
0.794369 0.305364 0.441474
0.916655 0.322820 0.426947
0.974792 0.349004 0.416419
0.000000 0.566674 0.468208
0.000000 0.569909 0.468757
0.000000 0.579644 0.467079
0.299107 0.589380 0.448707
0.573877 0.589197 0.417395
0.790860 0.577539 0.433448
0.908110 0.549584 0.428901
0.967010 0.523003 0.421454
0.000000 0.794461 0.501701
0.000000 0.796201 0.496590
0.000000 0.801328 0.474678
0.222477 0.806119 0.419623
0.536126 0.800320 0.383764
0.773861 0.787472 0.381353
0.903227 0.726589 0.385840
0.957214 0.674464 0.425849
0.000000 0.905394 0.455390
0.000000 0.905577 0.448249
0.000000 0.905760 0.421210
0.219425 0.903624 0.376196
0.494911 0.893980 0.372412
0.689509 0.880949 0.374060
0.854429 0.865446 0.376959
0.950103 0.809293 0.379278
0.000000 0.956451 0.394781
0.000000 0.956176 0.388281
0.000000 0.954894 0.365942
0.278843 0.949310 0.366827
0.475074 0.940948 0.374151
0.629969 0.930510 0.377478
0.768460 0.917906 0.382422
0.894347 0.903563 0.388830
0.063111 0.079896 0.678462
0.156466 0.064149 0.679500
0.298863 0.000000 0.682918
0.450355 0.000000 0.687526
0.612268 0.000000 0.693202
0.784787 0.000000 0.697230
0.908110 0.000000 0.654658
0.972839 0.000000 0.585443
0.000000 0.127657 0.683192
0.103639 0.118502 0.683894
0.280919 0.071962 0.686488
0.442878 0.000000 0.690425
0.610651 0.000000 0.695338
0.786465 0.000000 0.697719
0.908568 0.000000 0.651881
0.972717 0.000000 0.582666
0.000000 0.231662 0.692378
0.000000 0.216922 0.693507
0.181979 0.198215 0.695155
0.408576 0.152590 0.697780
0.602502 0.000000 0.701198
0.791073 0.000000 0.697780
0.909422 0.000000 0.642206
0.971405 0.000000 0.575525
0.000000 0.430610 0.695644
0.000000 0.422156 0.697139
0.000000 0.385443 0.701381
0.305241 0.324468 0.705257
0.577752 0.291722 0.706630
0.794614 0.261021 0.691859
0.906737 0.293828 0.629755
0.963561 0.357458 0.583459
0.000000 0.614954 0.699336
0.000000 0.613001 0.700343
0.000000 0.604181 0.703151
0.216464 0.582849 0.705684
0.535210 0.554192 0.702632
0.784207 0.569055 0.682460
0.883757 0.611261 0.672389
0.934081 0.644617 0.677974
0.000000 0.797665 0.698451
0.000000 0.799100 0.698390
0.000000 0.802976 0.696437
0.142275 0.805631 0.687068
0.520317 0.797086 0.668757
0.768978 0.780972 0.675074
0.871122 0.757748 0.692683
0.926207 0.740322 0.686213
0.000000 0.905364 0.639307
0.000000 0.905425 0.636225
0.000000 0.905089 0.624689
0.184604 0.901946 0.605402
0.523705 0.888548 0.615351
0.725277 0.872251 0.654841
0.853147 0.861418 0.656001
0.926513 0.820768 0.646418
0.000000 0.955444 0.563348
0.000000 0.955108 0.560082
0.000000 0.953368 0.549676
0.251560 0.948333 0.539971
0.556054 0.931365 0.604334
0.700862 0.918700 0.642176
0.799649 0.909606 0.645014
0.893156 0.899596 0.648585
0.000000 0.000000 0.838529
0.125521 0.000000 0.838712
0.282261 0.000000 0.839292
0.433143 0.000000 0.840055
0.586206 0.000000 0.840909
0.744533 0.000000 0.841611
0.893919 0.000000 0.825437
0.958587 0.000000 0.742855
0.000000 0.091524 0.839628
0.014160 0.077729 0.839750
0.262181 0.000000 0.840177
0.422950 0.000000 0.840818
0.581140 0.000000 0.841489
0.742733 0.000000 0.842008
0.894102 0.000000 0.825010
0.958404 0.000000 0.741329
0.000000 0.201938 0.842283
0.000000 0.196994 0.842374
0.156954 0.177523 0.842557
0.381964 0.132235 0.842863
0.561669 0.000000 0.843107
0.736141 0.000000 0.843076
0.894285 0.000000 0.822782
0.957183 0.000000 0.736202
0.000000 0.379828 0.842252
0.000000 0.369024 0.842802
0.000000 0.326970 0.844602
0.286412 0.304448 0.844724
0.524498 0.280583 0.844236
0.724666 0.248783 0.843229
0.892149 0.242557 0.816220
0.951141 0.331670 0.733455
0.000000 0.564569 0.839170
0.000000 0.560174 0.839597
0.000000 0.544152 0.840818
0.193271 0.519341 0.842039
0.501884 0.515831 0.840726
0.722683 0.526574 0.837980
0.879118 0.563195 0.807828
0.929808 0.617731 0.762295
0.000000 0.737331 0.834470
0.000000 0.736019 0.834684
0.000000 0.731655 0.835264
0.171695 0.726284 0.835386
0.531151 0.735256 0.832425
0.757656 0.764584 0.825925
0.858671 0.776669 0.814817
0.904082 0.795621 0.814420
0.000000 0.904784 0.824826
0.000000 0.904631 0.823911
0.000000 0.903441 0.820066
0.173770 0.898436 0.811215
0.545861 0.882963 0.802304
0.758114 0.864286 0.807095
0.852689 0.857115 0.814572
0.900053 0.849577 0.818784
0.000000 0.953704 0.727199
0.000000 0.953155 0.725612
0.000000 0.950805 0.720363
0.285313 0.944091 0.716457
0.568750 0.927764 0.737911
0.760647 0.908110 0.786984
0.837888 0.900389 0.805264
0.892638 0.896056 0.805264
0.000000 0.000000 0.903105
0.099580 0.000000 0.903105
0.249638 0.000000 0.903044
0.386419 0.000000 0.902892
0.522667 0.000000 0.902617
0.661006 0.000000 0.902098
0.802548 0.000000 0.901213
0.940887 0.000000 0.889891
0.000000 0.075654 0.903319
0.000000 0.063142 0.903258
0.232578 0.000000 0.903227
0.377630 0.000000 0.903044
0.517693 0.000000 0.902708
0.658381 0.000000 0.902129
0.801633 0.000000 0.901152
0.940642 0.000000 0.889128
0.000000 0.188418 0.903807
0.000000 0.184604 0.903777
0.152590 0.170993 0.903624
0.344091 0.141909 0.903349
0.499886 0.077607 0.902861
0.649683 0.000000 0.902068
0.798795 0.000000 0.900755
0.939452 0.000000 0.885893
0.000000 0.318914 0.903593
0.000000 0.311406 0.903777
0.000000 0.303807 0.903593
0.281468 0.295109 0.903075
0.472633 0.283604 0.902220
0.638605 0.272343 0.900877
0.796353 0.268772 0.898833
0.935119 0.292760 0.878660
0.000000 0.492134 0.899962
0.000000 0.489082 0.900053
0.000000 0.480476 0.900267
0.266423 0.481270 0.899565
0.481086 0.490578 0.897856
0.653956 0.508568 0.895323
0.805814 0.540002 0.891844
0.920745 0.585229 0.870054
0.000000 0.647700 0.894926
0.000000 0.646571 0.894957
0.000000 0.644190 0.894835
0.282689 0.649561 0.893706
0.566094 0.693477 0.888762
0.740078 0.744503 0.883116
0.832242 0.757717 0.881010
0.903777 0.773342 0.867887
0.000000 0.795621 0.888334
0.000000 0.795499 0.888273
0.000000 0.795865 0.887907
0.315404 0.800534 0.886442
0.592706 0.817838 0.882536
0.765286 0.839170 0.878233
0.849058 0.851652 0.875517
0.894896 0.856718 0.870787
0.000000 0.947112 0.885801
0.000000 0.947509 0.885679
0.000000 0.946319 0.883238
0.359197 0.937133 0.875120
0.616693 0.920165 0.867704
0.769345 0.905303 0.865324
0.848966 0.897398 0.866484
0.892607 0.894469 0.870542
0.000000 0.000000 0.936461
0.087648 0.000000 0.936400
0.222995 0.000000 0.936217
0.345312 0.000000 0.935882
0.466407 0.000000 0.935302
0.588342 0.000000 0.934508
0.713771 0.000000 0.933318
0.842893 0.000000 0.931609
0.000000 0.079194 0.936431
0.004547 0.071687 0.936370
0.210391 0.013916 0.936187
0.338811 0.000000 0.935821
0.462654 0.000000 0.935241
0.586236 0.000000 0.934386
0.712886 0.000000 0.933135
0.842771 0.000000 0.931365
0.000000 0.183383 0.936217
0.000000 0.181186 0.936156
0.158267 0.172915 0.935943
0.315404 0.156832 0.935515
0.449958 0.131167 0.934844
0.579889 0.090913 0.933837
0.710750 0.000000 0.932372
0.842893 0.000000 0.930297
0.000000 0.298680 0.935332
0.000000 0.298039 0.935241
0.000000 0.295781 0.934966
0.282658 0.292546 0.934386
0.436286 0.289586 0.933440
0.575891 0.290013 0.932067
0.712215 0.298955 0.930083
0.845487 0.325170 0.927245
0.000000 0.450477 0.931975
0.000000 0.451362 0.931853
0.121889 0.458961 0.931151
0.317388 0.463539 0.930297
0.469154 0.475441 0.928740
0.608576 0.497169 0.926390
0.739834 0.531579 0.923095
0.857389 0.577752 0.919005
0.000000 0.585718 0.927489
0.000000 0.586938 0.927306
0.164920 0.594415 0.926452
0.404273 0.624201 0.923674
0.621668 0.696956 0.917174
0.724178 0.727047 0.913878
0.803433 0.745388 0.911498
0.874784 0.763119 0.909178
0.000000 0.714229 0.921782
0.000000 0.715480 0.921569
0.219944 0.721889 0.920562
0.445197 0.743435 0.917662
0.646815 0.785763 0.912352
0.777554 0.825406 0.907408
0.843229 0.844358 0.904936
0.885801 0.849302 0.903990
0.000000 0.835996 0.914916
0.000000 0.836790 0.914672
0.290257 0.840574 0.913634
0.495949 0.850248 0.911131
0.674800 0.865202 0.907530
0.786709 0.877897 0.904601
0.853330 0.886778 0.902770
0.892912 0.893278 0.901488
