cubelut/Cinematic-9.cube
# Created by Adobe Lightroom plugin Export LUT (1.18.0)
# www.johnrellis.com/lightroom/exportlut.htm
# Preset: Cinematic5
# Color profile: /Library/Application Support/Adobe/Color/Profiles/Recommended/AdobeRGB1998.icc
LUT_3D_SIZE 32
DOMAIN_MIN 0.0 0.0 0.0
DOMAIN_MAX 1.0 1.0 1.0
0.000000 0.000000 0.000000
0.014008 0.001160 0.001709
0.033265 0.002594 0.003235
0.066804 0.005890 0.007080
0.089418 0.010956 0.012268
0.110262 0.011902 0.017365
0.132509 0.011109 0.020661
0.156374 0.008423 0.021973
0.181918 0.001312 0.022370
0.209262 0.000000 0.022553
0.237613 0.000000 0.020233
0.266575 0.000000 0.017639
0.295781 0.000000 0.015930
0.324773 0.000000 0.013764
0.353613 0.000000 0.012207
0.381689 0.000000 0.011933
0.408972 0.000000 0.010437
0.435157 0.000000 0.010437
0.460304 0.000000 0.010681
0.485115 0.000000 0.012146
0.509789 0.000000 0.014405
0.534691 0.000000 0.017212
0.559442 0.000000 0.020996
0.584955 0.000000 0.025666
0.610742 0.000000 0.030488
0.636622 0.000000 0.040162
0.662837 0.000000 0.051270
0.689906 0.000000 0.062348
0.718685 0.001465 0.071626
0.749294 0.058137 0.083375
0.781827 0.086000 0.097505
0.816068 0.113313 0.114992
0.004639 0.009705 0.002319
0.015167 0.010315 0.002014
0.036988 0.012543 0.003418
0.068482 0.016815 0.008209
0.090303 0.020874 0.013550
0.111238 0.022827 0.017426
0.133913 0.021363 0.020661
0.157717 0.018433 0.021942
0.183291 0.013275 0.023224
0.210788 0.005280 0.022065
0.239017 0.000000 0.020905
0.268070 0.000000 0.018189
0.297093 0.000000 0.015198
0.326207 0.000000 0.013947
0.355138 0.000000 0.012360
0.383001 0.000000 0.012024
0.410254 0.000000 0.010498
0.436378 0.000000 0.011383
0.461402 0.000000 0.011810
0.486183 0.000000 0.013092
0.510918 0.000000 0.015290
0.535546 0.000000 0.017304
0.560449 0.000000 0.020630
0.585840 0.000000 0.025422
0.611383 0.000000 0.032593
0.637354 0.000000 0.040833
0.663447 0.000000 0.052674
0.690455 0.000000 0.063081
0.719173 0.024628 0.072236
0.749783 0.068086 0.084138
0.782223 0.092958 0.098116
0.816403 0.118257 0.115938
0.009827 0.025177 0.004181
0.022705 0.026551 0.004822
0.038422 0.026276 0.005493
0.069459 0.032746 0.009003
0.092042 0.034943 0.014374
0.112856 0.036683 0.018219
0.135378 0.037385 0.021271
0.159274 0.034028 0.022522
0.185153 0.029175 0.023651
0.212467 0.020935 0.022461
0.240970 0.012055 0.020844
0.269932 0.000000 0.019074
0.298894 0.000000 0.016052
0.328130 0.000000 0.013550
0.356786 0.000000 0.012970
0.384924 0.000000 0.011231
0.411902 0.000000 0.010925
0.437934 0.000000 0.011688
0.463050 0.000000 0.011780
0.487678 0.000000 0.013092
0.512352 0.000000 0.015290
0.536950 0.000000 0.016999
0.561578 0.000000 0.021851
0.586938 0.000000 0.026551
0.612573 0.000000 0.032471
0.638209 0.000000 0.042145
0.664332 0.000000 0.054078
0.691310 0.009888 0.063874
0.719905 0.053864 0.073579
0.750484 0.079500 0.084901
0.782773 0.101076 0.099275
0.816892 0.124697 0.116884
0.022827 0.058717 0.009430
0.037049 0.059174 0.010040
0.054261 0.059266 0.010590
0.070466 0.059174 0.010712
0.092348 0.061585 0.014740
0.116304 0.062074 0.020356
0.139223 0.062409 0.022126
0.163363 0.061952 0.024079
0.189090 0.061097 0.024842
0.216648 0.057740 0.023377
0.245274 0.051698 0.020356
0.274235 0.041627 0.018311
0.303380 0.029786 0.015808
0.332403 0.018372 0.014069
0.360845 0.005402 0.012329
0.388952 0.000000 0.011200
0.415839 0.000000 0.010468
0.441718 0.000000 0.011383
0.466438 0.000000 0.012604
0.490913 0.000000 0.013794
0.515282 0.000000 0.017121
0.539788 0.000000 0.019593
0.564446 0.000000 0.022827
0.589532 0.000000 0.028748
0.614832 0.000000 0.035950
0.640375 0.013245 0.046296
0.666224 0.038941 0.056764
0.692958 0.063508 0.066407
0.721462 0.080232 0.075715
0.751827 0.097566 0.087526
0.784024 0.116701 0.101350
0.817899 0.137972 0.119356
0.038544 0.077668 0.015473
0.051575 0.077668 0.015076
0.062593 0.078096 0.016632
0.076783 0.077821 0.017792
0.091798 0.077241 0.017609
0.114351 0.080201 0.017334
0.141390 0.082216 0.022278
0.169680 0.083497 0.026062
0.195773 0.082918 0.025360
0.223423 0.082246 0.024262
0.251896 0.080476 0.020813
0.280888 0.077760 0.018219
0.309911 0.075044 0.015229
0.338933 0.071748 0.013001
0.367437 0.068482 0.011688
0.395270 0.065644 0.010285
0.421790 0.062470 0.010498
0.447395 0.059419 0.012177
0.471809 0.056367 0.013306
0.496040 0.054963 0.015351
0.520104 0.053956 0.018494
0.544274 0.057923 0.022065
0.568536 0.060487 0.026551
0.593500 0.064179 0.033234
0.618341 0.069551 0.041566
0.643641 0.076967 0.050629
0.669123 0.085451 0.061128
0.695644 0.095552 0.069459
0.723903 0.107607 0.078889
0.753994 0.121065 0.091035
0.785824 0.137118 0.105226
0.819394 0.156191 0.123079
0.050813 0.096376 0.019104
0.060151 0.096651 0.019715
0.068116 0.096925 0.020142
0.082429 0.097902 0.021881
0.098207 0.097688 0.022492
0.113649 0.096529 0.020966
0.136904 0.099733 0.018433
0.167117 0.103517 0.023133
0.201907 0.107332 0.025116
0.232303 0.108003 0.024567
0.261112 0.107485 0.021363
0.290074 0.106477 0.016876
0.318944 0.105074 0.014405
0.347875 0.103670 0.011505
0.376135 0.102419 0.010651
0.403388 0.100526 0.011383
0.429786 0.099580 0.010956
0.454963 0.097749 0.012573
0.478920 0.097108 0.014588
0.502678 0.096162 0.019013
0.526482 0.096590 0.021851
0.550072 0.097566 0.026825
0.574182 0.099458 0.032044
0.598688 0.102510 0.039582
0.623163 0.106355 0.048402
0.647944 0.111330 0.058656
0.672999 0.117922 0.066102
0.699214 0.125582 0.074403
0.727138 0.135256 0.084016
0.756863 0.146883 0.095827
0.788327 0.160891 0.110353
0.821408 0.177859 0.128573
0.059846 0.116640 0.022705
0.065980 0.117037 0.022126
0.073518 0.117433 0.023529
0.087404 0.118593 0.025025
0.106111 0.120424 0.026429
0.121401 0.118929 0.025025
0.136995 0.116915 0.023468
0.160067 0.119905 0.017823
0.193545 0.125948 0.020264
0.231571 0.132021 0.020417
0.272435 0.136904 0.020783
0.301549 0.136812 0.016419
0.330297 0.136172 0.013214
0.358862 0.135470 0.011902
0.386755 0.134401 0.011872
0.413947 0.133700 0.011810
0.439826 0.132876 0.012360
0.464424 0.131899 0.014862
0.487800 0.131075 0.018158
0.511040 0.130800 0.022400
0.534203 0.131075 0.027588
0.557519 0.131868 0.032410
0.581262 0.133730 0.039521
0.605097 0.135988 0.048035
0.628992 0.138857 0.057649
0.653223 0.143160 0.064027
0.677821 0.148470 0.071931
0.703670 0.155154 0.080446
0.731228 0.163516 0.090303
0.760494 0.173983 0.102358
0.791379 0.186343 0.117128
0.823941 0.201999 0.135225
0.065400 0.138460 0.024689
0.070954 0.138796 0.024109
0.078218 0.139467 0.025299
0.092226 0.140658 0.026551
0.110903 0.142733 0.027527
0.130098 0.143923 0.028382
0.146059 0.141573 0.025879
0.162051 0.138796 0.023194
0.183841 0.141085 0.013825
0.220584 0.149416 0.014282
0.261265 0.157748 0.012940
0.305180 0.165316 0.012970
0.343755 0.169131 0.013642
0.372290 0.169070 0.011322
0.399878 0.168460 0.011780
0.426307 0.167483 0.013977
0.451514 0.166629 0.015656
0.475654 0.165713 0.019165
0.498360 0.164828 0.023743
0.520958 0.164401 0.029297
0.543450 0.164401 0.036896
0.566247 0.164889 0.044038
0.589502 0.166506 0.050843
0.612665 0.168215 0.059052
0.635889 0.170962 0.065003
0.659480 0.174746 0.071778
0.683528 0.179324 0.079469
0.708980 0.185183 0.088167
0.736080 0.192660 0.098054
0.764706 0.201999 0.110445
0.795041 0.213657 0.125277
0.826902 0.228000 0.143740
0.070741 0.162081 0.023285
0.076143 0.162448 0.023682
0.083223 0.163119 0.024781
0.096925 0.164492 0.024628
0.115297 0.166903 0.026154
0.137301 0.169680 0.027375
0.156283 0.169436 0.026215
0.172396 0.166293 0.022766
0.188602 0.162722 0.018036
0.209049 0.163180 0.007996
0.247684 0.173617 0.002869
0.290440 0.183902 0.001801
0.336065 0.193790 0.003510
0.383154 0.203159 0.011475
0.414832 0.204685 0.016785
0.440589 0.203525 0.017945
0.465126 0.202274 0.022126
0.488319 0.200931 0.027314
0.510491 0.199588 0.032319
0.532219 0.198672 0.040742
0.554131 0.198337 0.049042
0.576440 0.198367 0.056214
0.598932 0.199619 0.061585
0.621363 0.201175 0.067262
0.643885 0.203494 0.073579
0.666590 0.206363 0.080751
0.690181 0.210330 0.088655
0.715114 0.215671 0.097078
0.741573 0.222782 0.107515
0.769619 0.231388 0.119875
0.799191 0.242100 0.135195
0.830289 0.255619 0.153964
0.075074 0.187198 0.021332
0.080079 0.187655 0.021637
0.087098 0.188449 0.021424
0.100954 0.189914 0.022034
0.119966 0.192416 0.021912
0.141878 0.195499 0.024567
0.166751 0.199435 0.026184
0.183597 0.196353 0.021668
0.200320 0.192355 0.017395
0.216190 0.187991 0.010956
0.235142 0.186221 0.000000
0.273930 0.198001 0.000000
0.318730 0.210605 0.000000
0.365484 0.222477 0.000000
0.412573 0.233585 0.006439
0.456519 0.242252 0.028321
0.480293 0.240330 0.033295
0.502617 0.237949 0.039857
0.523735 0.235935 0.048707
0.544762 0.234379 0.056519
0.566155 0.233494 0.061769
0.587701 0.233433 0.066804
0.609308 0.233799 0.071656
0.630884 0.234836 0.077974
0.652644 0.236576 0.083833
0.674586 0.239017 0.091737
0.697688 0.242618 0.099336
0.721981 0.247318 0.108400
0.747768 0.253605 0.118898
0.775051 0.261723 0.131380
0.803830 0.271885 0.146761
0.834073 0.284611 0.165835
0.078523 0.213596 0.015167
0.083589 0.214206 0.015259
0.091585 0.214908 0.015991
0.104891 0.216464 0.016297
0.124300 0.218692 0.016999
0.146609 0.222171 0.017578
0.171389 0.226352 0.021515
0.195224 0.228428 0.021332
0.212375 0.224155 0.015381
0.228611 0.219486 0.008423
0.244297 0.214054 0.000000
0.261295 0.210300 0.000000
0.299657 0.222385 0.000000
0.345830 0.236973 0.000000
0.393164 0.250858 0.000000
0.439765 0.263249 0.000000
0.485084 0.273960 0.032776
0.518059 0.277775 0.058900
0.538231 0.274632 0.063935
0.558648 0.272221 0.067842
0.579248 0.270817 0.073304
0.599847 0.269718 0.078584
0.620508 0.269413 0.084199
0.641260 0.269810 0.089998
0.662074 0.270756 0.096834
0.683375 0.272557 0.104189
0.705867 0.275700 0.112093
0.729549 0.280003 0.121187
0.754574 0.285740 0.131930
0.780941 0.293248 0.144839
0.808804 0.302770 0.160800
0.838132 0.314977 0.179995
0.081849 0.240757 0.007935
0.088045 0.241367 0.007782
0.095216 0.242100 0.008423
0.109255 0.243656 0.009461
0.128115 0.246220 0.009461
0.150546 0.249485 0.011749
0.175631 0.253819 0.013642
0.203067 0.259007 0.018280
0.224613 0.258213 0.015106
0.241367 0.253117 0.005707
0.257542 0.247318 0.000000
0.272648 0.240879 0.000000
0.287694 0.234806 0.000000
0.324102 0.246433 0.000000
0.371008 0.262760 0.000000
0.418372 0.277989 0.000000
0.464698 0.291447 0.000000
0.508507 0.303136 0.035828
0.549462 0.312963 0.073762
0.573327 0.312322 0.082460
0.592981 0.309667 0.087770
0.612634 0.307683 0.093355
0.632380 0.306554 0.098817
0.652094 0.306004 0.105226
0.672053 0.306310 0.111818
0.692866 0.307652 0.119173
0.714626 0.310094 0.127413
0.737545 0.313848 0.136568
0.761746 0.319005 0.147433
0.787289 0.325902 0.160403
0.814115 0.334844 0.176608
0.842374 0.346319 0.196414
0.085908 0.268589 0.000305
0.091737 0.269230 0.000061
0.099458 0.269993 0.000458
0.113069 0.271489 0.001282
0.132448 0.274052 0.001801
0.154665 0.277440 0.004456
0.179904 0.281865 0.007568
0.207034 0.287144 0.011170
0.236851 0.293400 0.017792
0.254368 0.288426 0.008576
0.270909 0.282475 0.000000
0.286473 0.275456 0.000000
0.300908 0.268101 0.000000
0.314031 0.260105 0.000000
0.346990 0.269627 0.000000
0.394537 0.287572 0.000000
0.441657 0.303960 0.000000
0.487129 0.318303 0.000000
0.529900 0.330632 0.040772
0.571038 0.342016 0.079530
0.607324 0.350835 0.104768
0.625910 0.347662 0.110384
0.644617 0.345434 0.115999
0.663386 0.343877 0.122347
0.682704 0.343389 0.129213
0.702846 0.343938 0.136690
0.723903 0.345739 0.144656
0.745968 0.348913 0.154330
0.769284 0.353399 0.165530
0.793851 0.359625 0.178500
0.819669 0.367926 0.194827
0.846738 0.378698 0.214939
0.090669 0.296696 0.000000
0.096773 0.297215 0.000000
0.103395 0.298070 0.000000
0.117586 0.299626 0.000000
0.136507 0.302159 0.000000
0.159304 0.305638 0.000000
0.184054 0.310033 0.000305
0.211276 0.315312 0.004028
0.240208 0.321447 0.013184
0.267063 0.324834 0.014832
0.283726 0.318486 0.002533
0.299779 0.311528 0.000000
0.314641 0.303624 0.000000
0.328283 0.295262 0.000000
0.340490 0.286015 0.000000
0.368109 0.291783 0.000000
0.415991 0.311101 0.000000
0.462867 0.328557 0.000000
0.507744 0.343938 0.000000
0.550591 0.357610 0.046448
0.591882 0.370367 0.086183
0.629999 0.381811 0.117830
0.656947 0.385595 0.136690
0.675074 0.383276 0.142702
0.693751 0.381842 0.149386
0.713191 0.381689 0.156771
0.733516 0.382666 0.164736
0.754726 0.385016 0.174380
0.777035 0.388800 0.185702
0.800534 0.394476 0.199344
0.825254 0.402075 0.215640
0.851194 0.412116 0.236057
0.095918 0.324651 0.000000
0.101289 0.325139 0.000000
0.107881 0.325902 0.000000
0.122011 0.327581 0.000000
0.140932 0.330022 0.000000
0.162814 0.333532 0.000000
0.187655 0.337804 0.000000
0.214542 0.342901 0.000000
0.243290 0.349096 0.007111
0.273899 0.356237 0.018860
0.296056 0.354833 0.013245
0.312230 0.347753 0.000000
0.327520 0.339788 0.000000
0.341802 0.331273 0.000000
0.354620 0.321752 0.000000
0.365911 0.311681 0.000000
0.387549 0.312657 0.000000
0.435676 0.333410 0.000000
0.482582 0.352209 0.000000
0.527550 0.369024 0.000000
0.570977 0.384314 0.046937
0.611719 0.397986 0.092622
0.649195 0.410040 0.126711
0.684291 0.421576 0.161105
0.705104 0.421729 0.172274
0.723720 0.420630 0.179690
0.743160 0.420813 0.188083
0.763485 0.422339 0.197665
0.784848 0.425422 0.209140
0.807279 0.430182 0.222538
0.830838 0.437049 0.239048
0.855528 0.446296 0.259648
0.100801 0.352087 0.000000
0.106172 0.352605 0.000000
0.113161 0.353368 0.000000
0.126314 0.354894 0.000000
0.144686 0.357214 0.000000
0.166690 0.360662 0.000000
0.191226 0.364935 0.000000
0.217258 0.369940 0.000000
0.245701 0.375952 0.002716
0.275364 0.382788 0.016358
0.307073 0.390539 0.033173
0.324010 0.384070 0.015656
0.339483 0.376135 0.000000
0.354101 0.367407 0.000000
0.367498 0.357885 0.000000
0.379644 0.347631 0.000000
0.390143 0.336736 0.000000
0.407904 0.334325 0.000000
0.454200 0.355016 0.000000
0.501793 0.375555 0.000000
0.547143 0.393805 0.000000
0.590753 0.410529 0.050477
0.630976 0.424872 0.098054
0.668025 0.437659 0.136355
0.703395 0.450385 0.173739
0.734279 0.460761 0.206210
0.752926 0.459998 0.213931
0.772274 0.460700 0.223697
0.792599 0.462898 0.234989
0.813840 0.466743 0.248814
0.836240 0.472663 0.265202
0.859678 0.481147 0.285832
0.106264 0.378759 0.000000
0.111086 0.379126 0.000000
0.117372 0.379889 0.000000
0.131075 0.381476 0.000000
0.148806 0.383856 0.000000
0.169955 0.387121 0.000000
0.193790 0.391119 0.000000
0.220066 0.396094 0.000000
0.247562 0.401862 0.000000
0.276829 0.408423 0.013825
0.307652 0.415808 0.035950
0.334844 0.419501 0.046998
0.350408 0.411749 0.021088
0.365332 0.403143 0.000000
0.379278 0.393683 0.000000
0.391974 0.383734 0.000000
0.403388 0.372778 0.000000
0.413306 0.361273 0.000000
0.429450 0.357214 0.000000
0.472236 0.376349 0.000000
0.520470 0.398627 0.000000
0.566552 0.418677 0.000000
0.609979 0.436255 0.050904
0.649775 0.451270 0.104799
0.687129 0.465156 0.146517
0.722652 0.478920 0.186648
0.756039 0.492836 0.227878
0.780789 0.499672 0.253056
0.800107 0.500877 0.264073
0.820249 0.503838 0.277653
0.841367 0.508873 0.294163
0.863554 0.516289 0.314611
0.111757 0.404578 0.000000
0.116701 0.405066 0.000000
0.122225 0.405707 0.000000
0.135103 0.407172 0.000000
0.152743 0.409522 0.000000
0.173556 0.412726 0.000000
0.196811 0.416571 0.000000
0.221897 0.421210 0.000000
0.249393 0.426795 0.000000
0.278080 0.433204 0.014771
0.307897 0.440284 0.037934
0.338872 0.448035 0.061280
0.360693 0.446540 0.059327
0.375799 0.438392 0.031312
0.390173 0.429450 0.000000
0.403479 0.419806 0.000000
0.415808 0.409277 0.000000
0.426734 0.398016 0.000000
0.436164 0.386023 0.000000
0.451026 0.380652 0.000000
0.489967 0.397589 0.000000
0.538933 0.421607 0.000000
0.585840 0.443397 0.000000
0.629023 0.461769 0.053193
0.668666 0.477577 0.111391
0.706508 0.492714 0.156558
0.742275 0.507469 0.200412
0.775418 0.522210 0.245274
0.805844 0.537285 0.291447
0.826261 0.541222 0.309331
0.846159 0.545190 0.325780
0.867033 0.551537 0.345769
0.117830 0.430396 0.000000
0.121798 0.430793 0.000000
0.127687 0.431434 0.000000
0.139925 0.432898 0.000000
0.156680 0.435126 0.000000
0.176913 0.438148 0.000000
0.199741 0.441962 0.000000
0.224582 0.446418 0.000000
0.251347 0.451789 0.000000
0.279301 0.457862 0.017823
0.308385 0.464668 0.043030
0.338689 0.472114 0.064179
0.370031 0.480262 0.079652
0.385962 0.473426 0.067872
0.400580 0.465034 0.046296
0.414405 0.455848 0.005432
0.427405 0.445899 0.000000
0.439277 0.435218 0.000000
0.449866 0.423590 0.000000
0.459052 0.411261 0.000000
0.472694 0.404639 0.000000
0.507836 0.419013 0.000000
0.557763 0.445136 0.000000
0.604913 0.468086 0.000000
0.647974 0.487190 0.054719
0.688380 0.504295 0.118471
0.726711 0.520592 0.167788
0.762509 0.536278 0.215427
0.795377 0.551751 0.264439
0.825223 0.567529 0.314763
0.850523 0.581353 0.359197
0.870085 0.586664 0.378851
0.122744 0.456367 0.000000
0.127169 0.456825 0.000000
0.133181 0.457496 0.000000
0.144411 0.458869 0.000000
0.160800 0.460975 0.000000
0.180545 0.463874 0.000000
0.203067 0.467475 0.000000
0.227420 0.471809 0.000000
0.253361 0.476936 0.000824
0.280613 0.482673 0.022278
0.309239 0.489235 0.050416
0.338933 0.496529 0.068299
0.369757 0.504540 0.082734
0.396368 0.508598 0.090578
0.411048 0.500633 0.077119
0.425086 0.491859 0.059358
0.438483 0.482429 0.014374
0.450996 0.472175 0.000000
0.462531 0.461402 0.000000
0.472969 0.449683 0.000000
0.482002 0.437140 0.000000
0.494636 0.429358 0.000000
0.525658 0.440803 0.000000
0.576806 0.469093 0.000000
0.624292 0.493141 0.000000
0.667720 0.513268 0.058167
0.708919 0.531792 0.126253
0.747738 0.549157 0.179873
0.783505 0.565667 0.232639
0.815946 0.581750 0.286046
0.845060 0.598230 0.341131
0.870787 0.615595 0.397406
0.128634 0.482704 0.000000
0.132998 0.483162 0.000000
0.138247 0.483803 0.000000
0.149447 0.485054 0.000000
0.165469 0.487068 0.000000
0.184756 0.489815 0.000000
0.206546 0.493263 0.000000
0.230076 0.497444 0.000000
0.255924 0.502342 0.003815
0.282567 0.508049 0.028931
0.310765 0.514458 0.055818
0.339818 0.521416 0.072633
0.369757 0.529076 0.087129
0.400397 0.537102 0.103456
0.421393 0.535882 0.101534
0.435615 0.527886 0.086946
0.449409 0.519127 0.068727
0.462531 0.509697 0.029175
0.474800 0.499367 0.000000
0.486091 0.488319 0.000000
0.496193 0.476387 0.000000
0.504997 0.463569 0.000000
0.516808 0.454871 0.000000
0.544305 0.463539 0.000000
0.596674 0.493843 0.000000
0.644312 0.518791 0.000000
0.688808 0.540490 0.059846
0.730831 0.560418 0.134951
0.769986 0.578637 0.194217
0.805509 0.595727 0.251865
0.837400 0.612482 0.310948
0.865599 0.629694 0.371130
0.134676 0.509422 0.000000
0.138186 0.509911 0.000000
0.143587 0.510521 0.000000
0.154421 0.511772 0.000000
0.170016 0.513725 0.000000
0.188815 0.516442 0.000000
0.210147 0.519829 0.000000
0.233494 0.523827 0.000000
0.258549 0.528588 0.008240
0.285069 0.533959 0.035492
0.312535 0.539971 0.062501
0.341100 0.546532 0.077943
0.370336 0.553643 0.092988
0.400244 0.561212 0.109041
0.430640 0.569207 0.125795
0.445869 0.562860 0.114565
0.459693 0.554925 0.099001
0.473335 0.546349 0.079500
0.486275 0.537041 0.049531
0.498451 0.526940 0.000000
0.509819 0.516014 0.000000
0.520043 0.504265 0.000000
0.529046 0.491737 0.000000
0.540063 0.481910 0.000000
0.564202 0.487892 0.000000
0.617365 0.519707 0.000000
0.665766 0.546014 0.000000
0.711635 0.569512 0.061799
0.754421 0.590478 0.145724
0.793606 0.609339 0.211582
0.828733 0.626978 0.275364
0.859831 0.644373 0.340215
0.140597 0.537163 0.000000
0.144533 0.537560 0.000000
0.149142 0.538140 0.000000
0.159854 0.539269 0.000000
0.174990 0.541161 0.000000
0.193271 0.543725 0.000000
0.214054 0.546868 0.000000
0.236820 0.550622 0.000000
0.261753 0.555138 0.016052
0.287541 0.560052 0.049500
0.314824 0.565698 0.068116
0.342596 0.571832 0.084016
0.371160 0.578332 0.099886
0.400549 0.585412 0.116182
0.430213 0.592828 0.133059
0.455879 0.596582 0.142641
0.469795 0.589532 0.128206
0.483497 0.581842 0.111788
0.496864 0.573602 0.092073
0.509819 0.564538 0.065858
0.522087 0.554803 0.000000
0.533623 0.544274 0.000000
0.544182 0.532982 0.000000
0.553643 0.520836 0.000000
0.564202 0.510399 0.000000
0.587549 0.515862 0.000000
0.639612 0.547387 0.000000
0.689570 0.575616 0.000000
0.736660 0.600549 0.067689
0.780026 0.622309 0.160372
0.818936 0.641566 0.233127
0.853422 0.659693 0.303655
0.146822 0.565301 0.000000
0.150546 0.565667 0.000000
0.155489 0.566186 0.000000
0.165713 0.567224 0.000000
0.180087 0.569024 0.000000
0.198245 0.571374 0.000000
0.218570 0.574212 0.000000
0.241184 0.577783 0.003967
0.265354 0.581872 0.031830
0.290684 0.586481 0.060578
0.317388 0.591638 0.076844
0.344640 0.597253 0.091951
0.372808 0.603357 0.107881
0.401434 0.609827 0.124269
0.430426 0.616785 0.141573
0.459968 0.624201 0.159548
0.480018 0.623377 0.159243
0.493629 0.616480 0.144015
0.507103 0.609064 0.127291
0.520348 0.601007 0.106600
0.533288 0.592401 0.080354
0.545800 0.583215 0.023072
0.557702 0.573327 0.000000
0.568841 0.562676 0.000000
0.579095 0.551415 0.000000
0.589319 0.540429 0.000000
0.615198 0.548333 0.000000
0.664424 0.577844 0.000000
0.716335 0.608118 0.000000
0.764401 0.634058 0.080812
0.807736 0.656184 0.180056
0.846189 0.675685 0.260380
0.154208 0.593988 0.000000
0.157931 0.594293 0.000000
0.162417 0.594751 0.000000
0.171939 0.595758 0.000000
0.186343 0.597345 0.000000
0.203799 0.599512 0.000000
0.223636 0.602197 0.000000
0.245823 0.605280 0.021942
0.269780 0.609094 0.051637
0.294530 0.613306 0.070771
0.320500 0.618097 0.086091
0.347570 0.623316 0.101076
0.375158 0.629053 0.117220
0.403265 0.635279 0.133455
0.431922 0.641901 0.151034
0.460853 0.648981 0.169039
0.489998 0.656306 0.188693
0.504479 0.651148 0.176761
0.517876 0.644526 0.161288
0.531304 0.637415 0.143008
0.544518 0.629816 0.122164
0.557610 0.621637 0.096071
0.570367 0.612940 0.057343
0.582635 0.603693 0.000000
0.594446 0.593896 0.000000
0.605646 0.583551 0.000000
0.616022 0.572595 0.000000
0.644770 0.583307 0.000000
0.692958 0.612329 0.000000
0.746456 0.644129 0.000000
0.794949 0.670344 0.101198
0.838010 0.692348 0.206760
0.162448 0.623255 0.000000
0.166049 0.623590 0.000000
0.170260 0.624018 0.000000
0.179782 0.624933 0.000000
0.193179 0.626368 0.000000
0.210330 0.628382 0.000000
0.229709 0.630854 0.018250
0.251469 0.633845 0.048219
0.274632 0.637263 0.068086
0.299260 0.641321 0.082490
0.324895 0.645777 0.097688
0.351415 0.650813 0.112337
0.378576 0.656214 0.127932
0.406256 0.662074 0.144533
0.434394 0.668299 0.162112
0.462867 0.674891 0.180209
0.491554 0.681788 0.199710
0.516167 0.685603 0.211246
0.529473 0.679927 0.196750
0.542870 0.673854 0.180301
0.556359 0.667384 0.161532
0.569848 0.660365 0.140017
0.583246 0.652979 0.114504
0.596521 0.645106 0.079774
0.609583 0.636774 0.000000
0.622217 0.627955 0.000000
0.634516 0.618677 0.000000
0.646296 0.609094 0.000000
0.677638 0.622187 0.000000
0.725887 0.651545 0.000000
0.780362 0.683711 0.000000
0.828763 0.709529 0.131563
0.171878 0.654292 0.000000
0.175143 0.654597 0.000000
0.179385 0.654994 0.000000
0.188327 0.655879 0.000000
0.201419 0.657191 0.009644
0.217990 0.659052 0.029816
0.236973 0.661372 0.054444
0.258091 0.664179 0.069001
0.281193 0.667445 0.082612
0.305180 0.671199 0.096834
0.330541 0.675380 0.110628
0.356542 0.680018 0.125612
0.383246 0.685054 0.141329
0.410620 0.690455 0.157870
0.438239 0.696193 0.175235
0.466285 0.702235 0.193515
0.494423 0.708522 0.213443
0.522667 0.715023 0.234318
0.541863 0.714931 0.234501
0.555200 0.709895 0.219181
0.568780 0.704555 0.202304
0.582544 0.698878 0.183078
0.596490 0.692866 0.161593
0.610529 0.686458 0.135683
0.624598 0.679744 0.103578
0.638666 0.672694 0.049561
0.652644 0.665339 0.000000
0.666499 0.657679 0.000000
0.680171 0.649836 0.000000
0.714321 0.665370 0.000000
0.763729 0.695644 0.000000
0.818296 0.726986 0.000000
0.183230 0.687648 0.021149
0.185946 0.687953 0.023713
0.190066 0.688258 0.029084
0.198642 0.689082 0.040162
0.211276 0.690364 0.054353
0.227298 0.692042 0.066102
0.245914 0.694148 0.076417
0.266575 0.696712 0.087892
0.288853 0.699702 0.100343
0.312810 0.703120 0.113039
0.337682 0.706935 0.126864
0.363287 0.711147 0.141543
0.389563 0.715663 0.157321
0.416510 0.720485 0.173953
