cubelut/Earth Tone Boost.cube
# Created by Adobe Lightroom plugin Export LUT (1.18.0)
# www.johnrellis.com/lightroom/exportlut.htm
# Preset: Earth Tone Boost
# Color profile: /Library/Application Support/Adobe/Color/Profiles/Recommended/AdobeRGB1998.icc
LUT_3D_SIZE 5
DOMAIN_MIN 0.000000 0.000000 0.000000
DOMAIN_MAX 0.903226 0.903226 0.903226
0.241093 0.212467 0.229160
0.260441 0.212528 0.228305
0.544945 0.261418 0.209720
0.872496 0.385565 0.232425
1.000000 0.528252 0.406744
0.241245 0.211460 0.229038
0.248081 0.216648 0.227909
0.526696 0.283543 0.210819
0.860685 0.407660 0.236820
1.000000 0.556176 0.430457
0.234562 0.246983 0.232486
0.236027 0.267094 0.223606
0.470771 0.402106 0.210483
0.858122 0.496315 0.271305
1.000000 0.604395 0.451789
0.184085 0.403693 0.269871
0.175265 0.437354 0.260960
0.380774 0.534234 0.199161
0.767269 0.688808 0.254704
1.000000 0.702174 0.516472
0.000000 0.718013 0.336858
0.000000 0.735622 0.350591
0.135439 0.776761 0.123690
0.634943 0.825467 0.272679
0.976013 0.882567 0.513481
0.238743 0.212680 0.237461
0.275273 0.209476 0.249882
0.542687 0.267796 0.255650
0.834134 0.402808 0.312993
1.000000 0.559899 0.467964
0.236759 0.221103 0.239567
0.265141 0.231785 0.245731
0.536187 0.302129 0.263828
0.831357 0.426551 0.318975
1.000000 0.577844 0.478706
0.220493 0.284489 0.263005
0.229404 0.316991 0.256687
0.480201 0.415503 0.252018
0.830869 0.511009 0.350317
1.000000 0.638605 0.517601
0.134463 0.454749 0.327306
0.127169 0.502129 0.319249
0.387121 0.577813 0.242924
0.771023 0.698421 0.327214
1.000000 0.729488 0.578973
0.000000 0.737758 0.401892
0.000000 0.753597 0.412787
0.000000 0.811643 0.226139
0.644282 0.842924 0.342016
0.976806 0.890990 0.565484
0.165682 0.247440 0.445991
0.243137 0.251926 0.463722
0.579706 0.317906 0.507439
0.816342 0.514794 0.520531
0.988647 0.689021 0.647364
0.161532 0.299351 0.453834
0.235172 0.287358 0.472480
0.564385 0.366400 0.496498
0.809232 0.543084 0.531151
0.989899 0.699123 0.651514
0.095216 0.414435 0.456275
0.186679 0.432715 0.468818
0.524315 0.502464 0.488441
0.809323 0.619318 0.566278
0.990051 0.733089 0.665461
0.000000 0.593957 0.507042
0.000000 0.614282 0.506859
0.412726 0.661524 0.483497
0.780392 0.736202 0.537346
0.987488 0.796262 0.699031
0.000000 0.795346 0.575769
0.000000 0.810269 0.566094
0.000000 0.840146 0.498604
0.644556 0.862699 0.500847
0.967590 0.900938 0.661189
0.000000 0.360113 0.727993
0.212619 0.366674 0.734890
0.504509 0.488258 0.741085
0.820005 0.603113 0.738491
0.975830 0.770565 0.770626
0.000000 0.409949 0.726406
0.221439 0.407019 0.731075
0.512139 0.514702 0.735439
0.810391 0.618769 0.733059
0.971984 0.773434 0.767514
0.000000 0.520439 0.719875
0.165927 0.524437 0.723598
0.501701 0.568444 0.730373
0.787961 0.673396 0.723720
0.966125 0.819608 0.784390
0.000000 0.671870 0.724453
0.000000 0.678767 0.725429
0.434882 0.718044 0.732326
0.778653 0.782589 0.742000
0.975891 0.857267 0.797299
0.000000 0.883116 0.774075
0.000000 0.888731 0.770657
0.000000 0.901915 0.749752
0.672084 0.894591 0.724758
0.963226 0.923980 0.782620
0.370245 0.560296 0.886625
0.456489 0.589685 0.886290
0.673396 0.722194 0.881773
0.809934 0.795346 0.885252
0.976013 0.850584 0.883116
0.355291 0.573663 0.884703
0.442329 0.600000 0.884520
0.658656 0.716091 0.881590
0.811032 0.800687 0.884154
0.974487 0.853971 0.882567
0.263371 0.614954 0.883360
0.352667 0.627131 0.883452
0.605097 0.706142 0.883024
0.817227 0.821714 0.883848
0.972595 0.870146 0.883696
0.020325 0.710323 0.883665
0.234745 0.716640 0.883391
0.499550 0.752773 0.884764
0.796323 0.839200 0.888548
0.970916 0.902403 0.887694
0.000000 0.832395 0.882506
0.000000 0.837247 0.883055
0.370642 0.865904 0.887907
0.719905 0.911833 0.888701
0.963226 0.953460 0.894347
