cubelut/Earth Tone Boost.cube
# Created by Adobe Lightroom plugin Export LUT (1.18.0)
# www.johnrellis.com/lightroom/exportlut.htm
# Preset: Earth Tone Boost
# Color profile: /Library/Application Support/Adobe/Color/Profiles/Recommended/AdobeRGB1998.icc
LUT_3D_SIZE 8
DOMAIN_MIN 0.000000 0.000000 0.000000
DOMAIN_MAX 0.903226 0.903226 0.903226
0.241093 0.212467 0.229160
0.239933 0.212558 0.229160
0.282109 0.214084 0.227390
0.444343 0.236484 0.217411
0.662348 0.299016 0.202304
0.839048 0.368963 0.219303
0.951843 0.436194 0.288273
1.000000 0.528252 0.406744
0.241093 0.212467 0.229160
0.240269 0.212406 0.229191
0.273655 0.215640 0.227481
0.425818 0.239139 0.218296
0.637415 0.299565 0.203922
0.812436 0.365454 0.213779
0.936187 0.430762 0.275669
1.000000 0.521599 0.394110
0.241184 0.211368 0.228946
0.241001 0.212070 0.228916
0.259251 0.224186 0.226810
0.424842 0.261784 0.217319
0.639643 0.331609 0.205783
0.818021 0.397833 0.223514
0.951385 0.469184 0.304967
1.000000 0.557885 0.428351
0.238376 0.226505 0.229587
0.237675 0.230411 0.230167
0.251774 0.246220 0.225132
0.376806 0.316381 0.216892
0.671290 0.406653 0.214450
0.836240 0.459907 0.249485
0.950591 0.512871 0.328374
1.000000 0.587884 0.444831
0.227604 0.277867 0.238590
0.225986 0.284123 0.240391
0.232517 0.311162 0.219181
0.324834 0.350500 0.217350
0.557336 0.486000 0.207675
0.800259 0.535332 0.254185
0.937407 0.559258 0.344213
1.000000 0.627283 0.465949
0.198856 0.369635 0.260777
0.193668 0.381353 0.265354
0.193973 0.413581 0.236942
0.303746 0.469978 0.201663
0.465461 0.520775 0.216739
0.728389 0.652277 0.236240
0.917784 0.663539 0.363195
1.000000 0.687465 0.511315
0.090639 0.524163 0.301030
0.068086 0.535912 0.306462
0.015198 0.571099 0.290379
0.190646 0.616938 0.172000
0.436286 0.650874 0.189792
0.615625 0.690669 0.251865
0.865660 0.778531 0.334112
0.991150 0.770596 0.501122
0.000000 0.718013 0.336858
0.000000 0.722805 0.340856
0.000000 0.742641 0.355474
0.000000 0.783322 0.240452
0.351690 0.790188 0.146822
0.585199 0.818204 0.241184
0.773251 0.844480 0.378515
0.976013 0.882567 0.513481
0.241245 0.212467 0.228336
0.240146 0.212131 0.228489
0.281163 0.211856 0.227237
0.430182 0.232090 0.223453
0.635584 0.293126 0.220584
0.801511 0.361181 0.238743
0.927276 0.431647 0.298680
1.000000 0.523095 0.407721
0.241306 0.212131 0.228367
0.240146 0.211612 0.228244
0.278355 0.215122 0.227543
0.424262 0.237980 0.223758
0.624750 0.298009 0.220554
0.790036 0.363409 0.236423
0.915740 0.428870 0.290105
1.000000 0.515557 0.394110
0.240848 0.212833 0.229129
0.239384 0.216281 0.229007
0.267582 0.230137 0.227512
0.420966 0.261570 0.224796
0.619013 0.325963 0.223331
0.790951 0.391852 0.243473
0.922515 0.458076 0.306615
1.000000 0.545922 0.419806
0.236515 0.233127 0.234592
0.234775 0.240848 0.234257
0.253635 0.258732 0.225834
0.375891 0.316197 0.222446
0.626123 0.382605 0.232151
0.792752 0.441047 0.257816
0.920470 0.497292 0.323033
1.000000 0.574884 0.434272
0.222141 0.291630 0.251164
0.220554 0.299535 0.249210
0.224674 0.326177 0.221073
0.327825 0.359075 0.222293
0.539208 0.469429 0.220401
0.778958 0.522393 0.270787
0.921447 0.555169 0.353491
1.000000 0.623377 0.467170
0.191073 0.379461 0.276677
0.187869 0.388220 0.276463
0.192294 0.423194 0.251225
0.297459 0.470619 0.208682
0.462287 0.519066 0.228122
0.723537 0.649287 0.254154
0.911040 0.662623 0.381506
1.000000 0.687221 0.516960
0.079042 0.522057 0.316533
0.066651 0.527489 0.319524
0.046967 0.560967 0.300877
0.169863 0.610163 0.182467
0.430426 0.647089 0.202548
0.608850 0.683955 0.263005
0.853483 0.768978 0.337285
0.982300 0.762600 0.496986
0.000000 0.709895 0.352361
0.000000 0.716854 0.357000
0.000000 0.737575 0.370672
0.000000 0.779904 0.268986
0.349767 0.807675 0.171725
0.588739 0.826047 0.263981
0.771847 0.843961 0.390692
0.971832 0.879820 0.516686
0.235233 0.213809 0.251804
0.237003 0.212192 0.256779
0.306188 0.210605 0.271183
0.450019 0.240757 0.265446
0.655268 0.320775 0.292882
0.810025 0.404883 0.336584
0.930663 0.489326 0.405402
1.000000 0.587701 0.506035
0.234257 0.218326 0.252964
0.236637 0.215640 0.256870
0.299290 0.219913 0.265965
0.440772 0.253300 0.267643
0.639338 0.324926 0.291234
0.799496 0.404761 0.330877
0.923186 0.485695 0.396612
1.000000 0.584100 0.499031
0.231876 0.233097 0.253788
0.233219 0.237430 0.257847
0.288090 0.251804 0.263340
0.441474 0.291630 0.279332
0.641749 0.363806 0.303655
0.800809 0.434150 0.340612
0.922454 0.507713 0.406134
1.000000 0.598901 0.506004
0.222354 0.270726 0.266636
0.220768 0.282597 0.270878
0.259434 0.307225 0.263920
0.418280 0.359594 0.267857
0.645075 0.424537 0.321630
0.803006 0.485084 0.360418
0.923735 0.549645 0.428260
1.000000 0.629877 0.524712
0.200961 0.334936 0.290043
0.198276 0.347631 0.291722
0.225010 0.382574 0.281285
0.355779 0.421515 0.262455
0.577356 0.512932 0.284398
0.793332 0.551476 0.377600
0.918975 0.599115 0.451270
1.000000 0.667659 0.545373
0.151919 0.427375 0.325170
0.145327 0.442786 0.326390
0.168032 0.479927 0.313420
0.284245 0.520562 0.246891
0.481422 0.555688 0.280461
0.728267 0.660029 0.324712
0.906706 0.682124 0.468757
1.000000 0.724025 0.585901
0.000000 0.571801 0.384863
0.000000 0.580682 0.382696
0.000000 0.607111 0.361669
0.175662 0.645167 0.278996
0.429603 0.675074 0.256626
0.622065 0.706600 0.325353
0.861784 0.784024 0.415076
0.985077 0.789456 0.575921
0.000000 0.733486 0.417121
0.000000 0.735042 0.417212
0.000000 0.752438 0.421118
0.000000 0.796170 0.359747
0.321752 0.822324 0.238712
0.590356 0.838499 0.327367
0.779629 0.854002 0.451118
0.972869 0.888518 0.568811
0.201694 0.229435 0.363592
0.206760 0.223148 0.373144
0.277348 0.235996 0.386938
0.483497 0.261234 0.418219
0.655512 0.311162 0.389868
0.791257 0.454627 0.443854
0.909178 0.551873 0.512596
0.996277 0.647395 0.594293
0.199374 0.244938 0.372503
0.207950 0.237369 0.378485
0.280430 0.247807 0.388586
0.481239 0.279423 0.416968
0.649805 0.330053 0.390509
0.786465 0.460151 0.444221
0.905577 0.552667 0.510155
0.995117 0.646601 0.591333
0.193210 0.282567 0.370489
0.202640 0.281987 0.375463
0.273960 0.277317 0.388800
0.461036 0.326757 0.401831
0.635187 0.417243 0.419928
0.793637 0.504753 0.471412
0.917296 0.596612 0.544121
0.999664 0.673060 0.611536
0.175662 0.338201 0.372869
0.183383 0.343481 0.377050
0.252811 0.367163 0.392340
0.442390 0.409216 0.404578
0.631067 0.477485 0.442298
0.787076 0.546319 0.486732
0.909697 0.617762 0.547112
0.997040 0.692897 0.619745
0.122042 0.421820 0.395117
0.126711 0.432502 0.400031
0.198154 0.464820 0.408789
0.390417 0.501640 0.398962
0.607965 0.562310 0.421393
0.793271 0.615045 0.523217
0.911711 0.669001 0.576379
0.995483 0.726802 0.638453
0.000000 0.520867 0.430549
0.000000 0.540581 0.439277
0.084962 0.568200 0.437293
0.320897 0.600946 0.414984
0.520500 0.628351 0.403601
0.748074 0.695369 0.458473
0.907256 0.728817 0.598383
0.995239 0.772244 0.667262
0.000000 0.640497 0.477485
0.000000 0.650172 0.477638
0.000000 0.675410 0.469123
0.191928 0.705013 0.436011
0.433570 0.731258 0.376226
0.649348 0.748409 0.443580
0.867521 0.804135 0.526421
0.982788 0.819059 0.661433
0.000000 0.783139 0.525597
0.000000 0.787137 0.526574
0.000000 0.798520 0.511803
0.000000 0.820615 0.466926
0.304875 0.844297 0.377447
0.592615 0.856352 0.428321
0.789548 0.867277 0.536889
0.972259 0.899840 0.636805
0.102480 0.272923 0.536736
0.132570 0.264622 0.545800
0.264500 0.290288 0.557458
0.409613 0.335668 0.575158
0.662959 0.392584 0.587060
0.792081 0.483833 0.563592
0.892912 0.628016 0.622827
0.981231 0.728206 0.695003
0.106447 0.294255 0.543389
0.137758 0.289158 0.554162
0.260655 0.300145 0.565301
0.412299 0.348577 0.574365
0.657984 0.404639 0.583551
0.789822 0.495338 0.564935
0.891020 0.639094 0.628016
0.981109 0.729915 0.695277
0.094545 0.348760 0.548516
0.138003 0.347539 0.554131
0.252995 0.334813 0.561822
0.417700 0.385992 0.567437
0.640955 0.442695 0.572076
0.775601 0.521935 0.561486
0.886900 0.650050 0.630182
0.979065 0.730465 0.690974
0.000000 0.416419 0.544335
0.085176 0.417243 0.546929
0.230503 0.423407 0.557549
0.418921 0.441749 0.567590
0.624842 0.515038 0.567193
0.762875 0.605371 0.592676
0.889799 0.679164 0.643885
0.982940 0.743343 0.693782
0.000000 0.496254 0.543877
0.000000 0.501732 0.547814
0.180087 0.518181 0.556664
0.386603 0.551110 0.565362
0.603235 0.594507 0.572381
0.764614 0.655299 0.612879
0.891630 0.712581 0.656550
0.983429 0.767269 0.703182
0.000000 0.585595 0.550347
0.000000 0.595850 0.556207
0.000000 0.621820 0.567102
0.294774 0.644892 0.562249
0.528801 0.658778 0.541955
0.742519 0.714870 0.586236
0.898619 0.769467 0.690303
0.985870 0.809537 0.729000
0.000000 0.709071 0.595056
0.000000 0.712795 0.593957
0.000000 0.726680 0.589899
0.141695 0.745846 0.576074
0.455695 0.757870 0.552148
0.661616 0.774685 0.562921
0.863188 0.818235 0.625269
0.977966 0.843046 0.731319
0.000000 0.819974 0.628412
0.000000 0.822324 0.625635
0.000000 0.830442 0.613825
0.000000 0.850919 0.591608
0.292149 0.858488 0.547295
0.585382 0.870359 0.538933
0.792996 0.877195 0.618982
0.966735 0.907378 0.696773
0.000000 0.350713 0.712795
0.067201 0.347570 0.715633
0.251469 0.362585 0.715206
0.431983 0.436347 0.717159
0.575921 0.500237 0.720333
0.795834 0.567803 0.715846
0.897520 0.664637 0.714839
0.977844 0.769528 0.760403
0.000000 0.361273 0.699977
0.079500 0.357366 0.701534
0.248569 0.364660 0.705379
0.427222 0.436927 0.708125
0.567315 0.501701 0.713466
0.789639 0.569360 0.711086
0.894194 0.665949 0.712734
0.975921 0.771298 0.760037
0.000000 0.416999 0.706966
0.102541 0.414038 0.706874
0.258762 0.410315 0.709895
0.446418 0.479316 0.710658
0.576623 0.537316 0.713405
0.784573 0.597803 0.710628
0.891722 0.685664 0.716457
0.973632 0.787778 0.766781
0.000000 0.483284 0.704616
0.000000 0.482429 0.704341
0.243961 0.487221 0.708858
0.437629 0.517723 0.719722
0.605127 0.601282 0.720760
0.784115 0.652583 0.717769
0.892821 0.723232 0.727871
0.973907 0.814328 0.778927
0.000000 0.555169 0.694759
0.000000 0.557275 0.696620
0.183841 0.565911 0.701900
0.393378 0.589319 0.708675
0.593530 0.631891 0.710353
0.761379 0.689754 0.706600
0.877134 0.762173 0.733730
0.974090 0.819608 0.774624
0.000000 0.636072 0.688655
0.000000 0.641657 0.692622
0.000000 0.653620 0.697566
0.337346 0.676539 0.702754
0.551080 0.710140 0.703792
0.747494 0.751614 0.714382
0.886534 0.804410 0.753262
0.979644 0.845335 0.784787
0.000000 0.746181 0.707301
0.000000 0.753811 0.711513
0.000000 0.772915 0.719203
0.177523 0.805875 0.730648
0.469520 0.812589 0.714931
0.695888 0.811887 0.702327
0.867979 0.845121 0.733455
0.979767 0.880064 0.802579
0.000000 0.872313 0.745266
0.000000 0.873381 0.743404
0.000000 0.877958 0.736751
0.000000 0.887175 0.723568
0.273136 0.890806 0.699123
0.602991 0.885649 0.686519
0.804196 0.894163 0.711910
0.964294 0.920958 0.766415
0.140047 0.429358 0.808530
0.198581 0.434180 0.810971
0.326177 0.460487 0.812436
0.503593 0.558190 0.810941
0.611597 0.612055 0.811551
0.742580 0.663844 0.812619
0.893980 0.716060 0.806821
0.972564 0.802182 0.819577
0.136812 0.436591 0.803433
0.193271 0.440467 0.805600
0.319432 0.459419 0.807828
0.489357 0.548272 0.805844
0.604608 0.607538 0.805936
0.733089 0.658167 0.806851
0.887266 0.709987 0.801266
0.969818 0.799191 0.816464
0.152895 0.478828 0.807156
0.201541 0.480964 0.807767
0.322179 0.493294 0.808804
0.479561 0.554711 0.808225
0.614984 0.629816 0.805447
0.731716 0.678187 0.806760
0.887633 0.728115 0.803922
0.971130 0.811337 0.820371
0.116670 0.534234 0.809445
0.173251 0.534905 0.808835
0.302403 0.544335 0.809354
0.470466 0.582177 0.811490
0.633936 0.668391 0.807401
0.732204 0.714199 0.809445
0.888243 0.756283 0.808347
0.971893 0.827237 0.824125
0.000000 0.592737 0.802853
0.000000 0.593317 0.802365
0.242435 0.599817 0.802976
0.415747 0.622644 0.805600
0.597559 0.670222 0.806912
0.735042 0.739071 0.804929
0.878935 0.777981 0.805020
0.970642 0.843687 0.825193
0.000000 0.665339 0.799466
0.000000 0.667170 0.800168
0.154208 0.674861 0.802274
0.369696 0.694453 0.805783
0.558282 0.728420 0.808194
0.740047 0.775814 0.810422
0.875975 0.819425 0.809598
0.968292 0.876158 0.834043
0.000000 0.749203 0.800748
0.000000 0.752285 0.802182
0.000000 0.760525 0.804288
0.298161 0.777707 0.807340
0.513695 0.803464 0.808133
0.705928 0.834958 0.808377
0.867521 0.865995 0.816342
0.972961 0.904356 0.844816
0.000000 0.849058 0.812619
0.000000 0.851499 0.813016
0.000000 0.865263 0.818540
0.000000 0.885893 0.823667
0.372381 0.915221 0.830137
0.621271 0.920470 0.817777
0.827939 0.914244 0.810086
0.963622 0.937774 0.836423
0.370245 0.560296 0.886625
0.399847 0.570306 0.887114
0.481453 0.600732 0.885954
0.600641 0.673487 0.883848
0.713466 0.743709 0.882048
0.790341 0.784390 0.884245
0.889891 0.819547 0.887236
0.976013 0.850584 0.883116
0.362402 0.561730 0.884764
0.391974 0.571252 0.885283
0.475471 0.600458 0.884703
0.593774 0.669642 0.882475
0.711482 0.743465 0.880674
0.789120 0.784543 0.883238
0.887541 0.819272 0.886198
0.974731 0.849882 0.882109
0.345373 0.575891 0.883726
0.374273 0.583673 0.883909
0.457557 0.608453 0.882841
0.586633 0.671809 0.883391
0.716426 0.753719 0.880217
0.791745 0.791867 0.882689
0.884764 0.825315 0.885618
0.973754 0.854582 0.882139
0.292454 0.596857 0.884031
0.327092 0.603937 0.884520
0.422736 0.626825 0.884031
0.559686 0.675624 0.884215
0.702388 0.753597 0.882261
0.798856 0.807156 0.883604
0.881254 0.837980 0.886076
0.973449 0.864714 0.883421
0.229953 0.637476 0.882689
0.265599 0.641535 0.883421
0.357397 0.653529 0.883543
0.483040 0.679316 0.884428
0.657649 0.742947 0.884092
0.800931 0.822141 0.883513
0.871763 0.852445 0.885679
0.972168 0.877623 0.884550
0.101137 0.691768 0.881712
0.159030 0.693202 0.881437
0.281468 0.700649 0.881254
0.426368 0.720058 0.882078
0.585931 0.756283 0.884031
0.769711 0.821073 0.887938
0.878264 0.874357 0.887816
0.972045 0.898039 0.887755
0.000000 0.758389 0.882444
0.000000 0.759579 0.882353
0.154147 0.765347 0.882506
0.359930 0.781521 0.883818
0.543542 0.810941 0.885801
0.720211 0.850492 0.888182
0.869810 0.888701 0.888609
0.967376 0.919524 0.888151
0.000000 0.832395 0.882506
0.000000 0.833463 0.882475
0.000000 0.839475 0.883513
0.238315 0.854490 0.886320
0.481392 0.878630 0.888823
0.675319 0.905119 0.888640
0.842283 0.930938 0.888945
0.963226 0.953460 0.894347
