cubelut/Earth Tone Boost.cube
# Created by Adobe Lightroom plugin Export LUT (1.18.0)
# www.johnrellis.com/lightroom/exportlut.htm
# Preset: Earth Tone Boost
# Color profile: /Library/Application Support/Adobe/Color/Profiles/Recommended/AdobeRGB1998.icc
LUT_3D_SIZE 32
0.241093 0.212467 0.229160
0.241093 0.212467 0.229160
0.241093 0.212467 0.229160
0.241093 0.212467 0.229160
0.239933 0.212558 0.229160
0.241001 0.212467 0.229160
0.247166 0.212253 0.228916
0.260441 0.212528 0.228305
0.282109 0.214084 0.227390
0.313237 0.216953 0.225772
0.352300 0.221286 0.223606
0.396704 0.227634 0.220737
0.444343 0.236484 0.217411
0.494209 0.247959 0.213596
0.544945 0.261418 0.209720
0.597925 0.277531 0.205905
0.662348 0.299016 0.202304
0.715511 0.318120 0.201511
0.760861 0.335515 0.203952
0.801999 0.352331 0.209842
0.839048 0.368963 0.219303
0.872496 0.385565 0.232425
0.901915 0.402014 0.248753
0.928191 0.418830 0.267308
0.951843 0.436194 0.288273
0.973449 0.455085 0.311894
0.993683 0.476143 0.338994
1.000000 0.500237 0.370520
1.000000 0.528252 0.406744
1.000000 0.561028 0.448737
1.000000 0.598566 0.495583
1.000000 0.639307 0.544884
0.241093 0.212467 0.229160
0.241093 0.212467 0.229160
0.241093 0.212467 0.229160
0.241093 0.212467 0.229160
0.239933 0.212558 0.229160
0.240879 0.212497 0.229160
0.246586 0.212253 0.228916
0.259190 0.212680 0.228336
0.280186 0.214176 0.227451
0.310552 0.217014 0.225864
0.348730 0.221286 0.223789
0.392401 0.227543 0.220981
0.439307 0.236149 0.217777
0.488685 0.247257 0.214084
0.538750 0.260594 0.210208
0.591730 0.276524 0.206394
0.653620 0.296880 0.202701
0.705806 0.315618 0.201663
0.750942 0.332555 0.203433
0.792416 0.349340 0.208225
0.830076 0.365667 0.216495
0.864134 0.381933 0.228977
0.894408 0.398291 0.244022
0.921538 0.414801 0.261936
0.945922 0.432013 0.282231
0.968353 0.450599 0.305455
0.989380 0.471412 0.332341
1.000000 0.495369 0.363531
1.000000 0.522942 0.399481
1.000000 0.555383 0.441077
1.000000 0.592645 0.487953
1.000000 0.633417 0.537621
0.241093 0.212467 0.229160
0.241093 0.212467 0.229160
0.241093 0.212467 0.229160
0.241093 0.212467 0.229160
0.239933 0.212558 0.229160
0.240787 0.212528 0.229160
0.245945 0.212375 0.228916
0.258122 0.212802 0.228367
0.278447 0.214389 0.227512
0.308049 0.217319 0.225956
0.345769 0.221530 0.223880
0.389136 0.227665 0.221134
0.435889 0.236393 0.217960
0.484871 0.247318 0.214328
0.534874 0.260624 0.210513
0.588037 0.276616 0.206607
0.648615 0.296574 0.203067
0.700069 0.314824 0.201694
0.745205 0.331823 0.203128
0.786862 0.348241 0.207492
0.825132 0.364508 0.215579
0.859709 0.380835 0.227268
0.890410 0.396979 0.242100
0.917998 0.413397 0.259373
0.942748 0.430396 0.279637
0.965545 0.448798 0.302373
0.986999 0.469398 0.328954
1.000000 0.493202 0.359930
1.000000 0.520653 0.395941
1.000000 0.552819 0.437385
1.000000 0.590021 0.484230
1.000000 0.630488 0.533684
0.241093 0.212467 0.229160
0.241093 0.212467 0.229160
0.241093 0.212467 0.229160
0.241093 0.212467 0.229160
0.240055 0.212558 0.229160
0.240482 0.212467 0.229160
0.245457 0.212467 0.228855
0.257053 0.213138 0.228367
0.276738 0.214878 0.227420
0.305760 0.217990 0.225986
0.342840 0.222446 0.223850
0.385748 0.228824 0.221195
0.431952 0.237461 0.218082
0.480568 0.248478 0.214511
0.530175 0.261845 0.210758
0.583886 0.277836 0.206943
0.642573 0.297154 0.203494
0.692958 0.314916 0.202090
0.737270 0.331365 0.203128
0.778531 0.347478 0.206760
0.816831 0.363317 0.214023
0.851804 0.379400 0.224735
0.883665 0.395483 0.238926
0.912688 0.412207 0.256596
0.939178 0.429694 0.276982
0.963439 0.448798 0.300847
0.985809 0.470069 0.328222
1.000000 0.494118 0.359838
1.000000 0.521691 0.396094
1.000000 0.553491 0.437293
1.000000 0.589807 0.483192
1.000000 0.629358 0.531670
0.241093 0.212467 0.229160
0.241093 0.212467 0.229160
0.241093 0.212467 0.229160
0.241093 0.212467 0.229160
0.240269 0.212406 0.229191
0.240208 0.212314 0.229099
0.244419 0.212558 0.228855
0.254765 0.213596 0.228397
0.273655 0.215640 0.227481
0.301427 0.218967 0.225986
0.337682 0.223667 0.223972
0.379889 0.230228 0.221378
0.425818 0.239139 0.218296
0.474159 0.250309 0.214878
0.524132 0.263462 0.211185
0.579278 0.280186 0.207309
0.637415 0.299565 0.203922
0.688106 0.317357 0.202518
0.732937 0.333837 0.203494
0.774289 0.349706 0.207156
0.812436 0.365454 0.213779
0.847471 0.381079 0.224216
0.879606 0.396826 0.238041
0.909148 0.413275 0.255375
0.936187 0.430762 0.275669
0.960937 0.449653 0.299565
0.983764 0.470710 0.326696
1.000000 0.494423 0.358221
1.000000 0.521599 0.394110
1.000000 0.552850 0.434791
1.000000 0.588739 0.480537
1.000000 0.627985 0.528923
0.241093 0.212467 0.229160
0.241093 0.212467 0.229160
0.241093 0.212467 0.229160
0.241123 0.212345 0.229160
0.240970 0.211948 0.229191
0.240055 0.211917 0.229038
0.243595 0.212741 0.228794
0.253361 0.214115 0.228305
0.271305 0.216678 0.227390
0.298741 0.220432 0.225956
0.334630 0.225772 0.223941
0.376654 0.232914 0.221317
0.422248 0.242313 0.218296
0.470619 0.253910 0.214939
0.520775 0.267430 0.211307
0.577295 0.284764 0.207431
0.634699 0.304234 0.204227
0.685389 0.321996 0.203006
0.730739 0.338628 0.204105
0.772763 0.354589 0.207828
0.811582 0.370367 0.214969
0.847349 0.386084 0.225742
0.922515 0.429633 0.270542
0.947234 0.446967 0.292271
0.969238 0.465126 0.316136
0.989044 0.484779 0.342321
1.000000 0.506340 0.371374
1.000000 0.530724 0.403662
1.000000 0.558495 0.440009
1.000000 0.590173 0.480598
1.000000 0.624384 0.523064
1.000000 0.660578 0.566857
0.241184 0.212009 0.229099
0.241184 0.212009 0.229099
0.241184 0.211795 0.229099
0.241245 0.211582 0.229038
0.241245 0.211368 0.229129
0.240330 0.211551 0.228885
0.242466 0.213077 0.228519
0.253605 0.215976 0.227878
0.274479 0.219120 0.226902
0.304326 0.224277 0.225254
0.342748 0.231083 0.223026
0.386572 0.239902 0.220371
0.433478 0.250523 0.217258
0.482368 0.263310 0.213870
0.532311 0.277897 0.210422
0.591608 0.297032 0.206760
0.649134 0.317021 0.204105
0.699397 0.334874 0.203891
0.744869 0.351629 0.206241
0.788022 0.368322 0.211948
0.828885 0.385595 0.222080
0.867369 0.403449 0.237522
0.902586 0.422339 0.257420
0.933715 0.442023 0.281346
0.960601 0.462470 0.307927
0.983246 0.483345 0.336248
1.000000 0.505455 0.366186
1.000000 0.529534 0.398749
1.000000 0.556878 0.435035
1.000000 0.587671 0.474922
1.000000 0.621180 0.517113
1.000000 0.656947 0.560784
0.241245 0.211460 0.229038
0.241276 0.211368 0.229038
0.241276 0.211368 0.229038
0.241184 0.211368 0.228946
0.241184 0.211368 0.228946
0.240726 0.211795 0.228855
0.240940 0.212284 0.228550
0.248081 0.216648 0.227909
0.267430 0.222751 0.226749
0.298955 0.227420 0.225101
0.338079 0.234409 0.222965
0.381476 0.244022 0.220340
0.428046 0.255344 0.217288
0.476844 0.268650 0.214084
0.526696 0.283543 0.210819
0.587091 0.303563 0.207156
0.642756 0.322911 0.204959
0.692317 0.340520 0.204685
0.737606 0.357031 0.207004
0.780911 0.373510 0.212497
0.821988 0.390265 0.222293
0.860685 0.407660 0.236820
0.896147 0.425818 0.256016
0.927703 0.444709 0.279149
0.955108 0.464363 0.305058
0.978424 0.484657 0.332830
0.998596 0.505943 0.362066
1.000000 0.529412 0.394385
1.000000 0.556176 0.430457
1.000000 0.586236 0.469978
1.000000 0.619379 0.512291
1.000000 0.654780 0.556054
0.241184 0.211368 0.228946
0.241154 0.211490 0.228946
0.241154 0.211490 0.228946
0.241032 0.211734 0.228946
0.241001 0.212070 0.228916
0.240818 0.212741 0.228763
0.241489 0.213687 0.228428
0.243687 0.215396 0.228031
0.259251 0.224186 0.226810
0.289311 0.234012 0.224918
0.330297 0.241642 0.222751
0.378058 0.249424 0.220218
0.424842 0.261784 0.217319
0.473671 0.275700 0.214298
0.523919 0.291234 0.211124
0.585077 0.312413 0.207706
0.639643 0.331609 0.205783
0.688563 0.348913 0.205783
0.733700 0.365240 0.208286
0.776883 0.381262 0.213993
0.818021 0.397833 0.223514
0.856626 0.414588 0.237858
0.892119 0.432074 0.256626
0.923766 0.450294 0.279210
0.951385 0.469184 0.304967
0.975006 0.488655 0.332097
0.995575 0.509361 0.361242
1.000000 0.532128 0.393042
1.000000 0.557885 0.428351
1.000000 0.587182 0.467567
1.000000 0.619409 0.509178
1.000000 0.653956 0.552483
0.240970 0.212284 0.228885
0.240940 0.212375 0.228885
0.240909 0.212619 0.228977
0.240757 0.212955 0.228946
0.240665 0.213718 0.228977
0.240604 0.214786 0.228550
0.241703 0.216281 0.228214
0.244297 0.218112 0.227817
0.250675 0.222232 0.227115
0.276768 0.236484 0.225223
0.316991 0.250614 0.222660
0.365148 0.260899 0.220096
0.420020 0.268589 0.217472
0.469429 0.283391 0.214511
0.523857 0.301427 0.211276
0.584558 0.323186 0.208316
0.639704 0.342992 0.206668
0.689174 0.360632 0.207248
0.734371 0.376745 0.210452
0.777005 0.392462 0.216587
0.816831 0.407843 0.226535
0.853758 0.423407 0.240208
0.887755 0.439246 0.257664
0.918395 0.455848 0.278843
0.945769 0.473274 0.302739
0.969787 0.491768 0.329198
0.991150 0.511833 0.358129
1.000000 0.534386 0.390234
1.000000 0.560113 0.426307
1.000000 0.589441 0.466163
1.000000 0.621790 0.508629
1.000000 0.656458 0.552575
0.240543 0.214481 0.229007
0.240543 0.214572 0.229007
0.240513 0.214908 0.228977
0.240299 0.215579 0.229038
0.240146 0.216648 0.229038
0.239994 0.218265 0.228183
0.241733 0.220310 0.227817
0.244724 0.222934 0.227329
0.250462 0.226291 0.226810
0.262852 0.234165 0.226047
0.301274 0.254673 0.223148
0.350317 0.272679 0.220035
0.403510 0.285405 0.217227
0.461921 0.295811 0.214603
0.523217 0.312596 0.211673
0.582391 0.334539 0.209110
0.636652 0.354131 0.208011
0.685725 0.371679 0.208865
0.730678 0.387457 0.212375
0.773281 0.402716 0.218570
0.813138 0.417823 0.228672
0.850278 0.432898 0.242405
0.884489 0.448280 0.260136
0.915373 0.464332 0.280949
0.942840 0.481025 0.304692
0.966949 0.498695 0.330785
0.988373 0.517754 0.358892
1.000000 0.539239 0.390356
1.000000 0.563836 0.425544
1.000000 0.592096 0.464668
1.000000 0.623468 0.506584
1.000000 0.657465 0.550408
0.239780 0.218479 0.229191
0.239750 0.218692 0.229160
0.239689 0.219120 0.229129
0.239567 0.219944 0.229252
0.239231 0.221530 0.229221
0.238926 0.223758 0.228061
0.240543 0.226596 0.227237
0.244663 0.230076 0.226658
0.251286 0.234195 0.226108
0.261143 0.238987 0.225681
0.282658 0.252415 0.224582
0.332403 0.279210 0.220523
0.408362 0.315038 0.215488
0.469368 0.331579 0.212802
0.551720 0.355535 0.210239
0.625147 0.372564 0.210727
0.679835 0.392676 0.212375
0.727138 0.409003 0.216861
0.769039 0.422980 0.224002
0.807614 0.436316 0.234348
0.842954 0.449256 0.247501
0.875578 0.462409 0.264103
0.905119 0.475929 0.283116
0.932036 0.490425 0.304845
0.956176 0.505852 0.328801
0.977691 0.522606 0.354803
0.996826 0.540917 0.382849
1.000000 0.561425 0.413550
1.000000 0.584863 0.447700
1.000000 0.611688 0.485176
1.000000 0.640986 0.524529
1.000000 0.672877 0.565789
0.238376 0.226505 0.229587
0.238285 0.226902 0.229648
0.238193 0.227390 0.229770
0.238010 0.228519 0.229953
0.237675 0.230411 0.230167
0.237247 0.233310 0.228519
0.238254 0.237003 0.226352
0.243717 0.241123 0.225742
0.251774 0.246220 0.225132
0.263462 0.252262 0.224582
0.279393 0.259770 0.224186
0.314183 0.281895 0.222293
0.376806 0.316381 0.216892
0.447578 0.347814 0.212802
0.526207 0.376959 0.209995
0.603082 0.397650 0.209873
0.671290 0.406653 0.214450
0.719783 0.421271 0.219333
0.762081 0.435035 0.226413
0.800717 0.447700 0.236545
0.836240 0.459907 0.249485
0.869047 0.472328 0.265476
0.898894 0.485054 0.283970
0.926116 0.498512 0.304936
0.950591 0.512871 0.328374
0.972534 0.528588 0.353674
0.992218 0.545830 0.381048
1.000000 0.565423 0.411322
1.000000 0.587884 0.444831
1.000000 0.613977 0.482216
1.000000 0.642634 0.521599
1.000000 0.674006 0.563043
0.236728 0.235325 0.230686
0.236637 0.235904 0.230808
0.236545 0.236393 0.230869
0.236271 0.237736 0.231205
0.235874 0.239841 0.231571
0.235355 0.243626 0.229557
0.235233 0.247990 0.225925
0.240757 0.252781 0.224765
0.249943 0.258518 0.224125
0.262669 0.265049 0.223453
0.279301 0.273014 0.223026
0.300175 0.282078 0.222904
0.346105 0.311894 0.220157
0.420813 0.355474 0.213596
0.501061 0.394263 0.209689
0.577081 0.420752 0.208835
0.645808 0.435279 0.212436
0.706569 0.440833 0.220005
0.754971 0.447791 0.229343
0.794064 0.460151 0.239200
0.830167 0.472053 0.252415
0.863493 0.483864 0.268009
0.893797 0.495827 0.286259
0.921447 0.508629 0.307195
0.946410 0.522210 0.329992
0.968719 0.537163 0.355230
0.988769 0.553521 0.382269
1.000000 0.572259 0.412238
1.000000 0.594018 0.445655
1.000000 0.619135 0.482612
1.000000 0.647120 0.521813
1.000000 0.677821 0.563195
0.234562 0.246983 0.232486
0.234440 0.247532 0.232639
0.234318 0.248081 0.232761
0.233982 0.249607 0.233249
0.233402 0.251957 0.233677
0.232700 0.256626 0.231510
0.232670 0.261387 0.227359
0.236027 0.267094 0.223606
0.246525 0.273289 0.222843
0.260502 0.280461 0.222019
0.278172 0.288579 0.221469
0.299809 0.297917 0.221317
0.324865 0.308324 0.221714
0.388739 0.353338 0.217929
0.470771 0.402106 0.210483
0.549920 0.438636 0.208194
0.620600 0.460182 0.210391
0.682918 0.470344 0.217227
0.739437 0.473243 0.228458
0.788510 0.474067 0.243046
0.824674 0.485237 0.255711
0.858122 0.496315 0.271305
0.888609 0.507530 0.289097
0.916655 0.519524 0.309667
0.942107 0.532525 0.332616
0.965148 0.546960 0.357916
0.986053 0.563195 0.385595
1.000000 0.582238 0.416907
1.000000 0.604395 0.451789
1.000000 0.629908 0.490028
1.000000 0.658228 0.530510
1.000000 0.689113 0.572656
0.231479 0.261295 0.235233
0.231327 0.261997 0.235355
0.231174 0.262760 0.235447
0.230716 0.264530 0.236088
0.230076 0.267460 0.236698
0.229191 0.272770 0.234470
0.229099 0.278782 0.229862
0.229343 0.285557 0.222385
0.241032 0.292180 0.221012
0.257084 0.300023 0.220188
0.276310 0.308080 0.219638
0.298985 0.316991 0.219303
0.325750 0.328405 0.219608
0.360571 0.346777 0.220829
0.433600 0.398016 0.215915
0.515160 0.444739 0.208438
0.590906 0.477333 0.208164
0.657160 0.494697 0.213931
0.716701 0.502922 0.224796
0.771389 0.505119 0.240391
0.820188 0.503380 0.259922
0.855955 0.512016 0.277470
0.886992 0.522850 0.295933
0.915435 0.534356 0.316686
0.941131 0.546868 0.340124
0.964446 0.560998 0.366003
0.985443 0.576867 0.394202
1.000000 0.595361 0.425696
1.000000 0.616938 0.460609
1.000000 0.641108 0.497780
1.000000 0.667750 0.536645
1.000000 0.696803 0.577111
0.227604 0.277867 0.238590
0.227451 0.278508 0.238712
0.227237 0.279301 0.238987
0.226749 0.281102 0.239567
0.225986 0.284123 0.240391
0.225101 0.289799 0.238041
0.224857 0.296696 0.233310
0.225071 0.303655 0.225437
0.232517 0.311162 0.219181
0.250309 0.318914 0.218357
0.271489 0.327520 0.217502
0.295415 0.336309 0.217166
0.324834 0.350500 0.217350
0.358282 0.366400 0.218540
0.397589 0.387091 0.220829
0.476326 0.441474 0.214786
0.557336 0.486000 0.207675
0.628748 0.513451 0.210727
0.691890 0.527855 0.220493
0.748714 0.534203 0.235172
0.800259 0.535332 0.254185
0.845945 0.533043 0.277531
0.882200 0.536370 0.299901
0.911131 0.547295 0.320897
0.937407 0.559258 0.344213
0.961151 0.572717 0.370306
0.982727 0.588220 0.398962
1.000000 0.606226 0.430762
1.000000 0.627283 0.465949
1.000000 0.650843 0.503136
1.000000 0.676814 0.541863
1.000000 0.705226 0.582238
0.222721 0.297124 0.242863
0.222477 0.298009 0.243107
0.219699 0.307805 0.245731
0.219059 0.309850 0.246525
0.218021 0.313176 0.247074
0.217105 0.319158 0.244388
0.216861 0.326574 0.238956
0.217746 0.333806 0.229648
0.218936 0.342168 0.216007
0.241428 0.349798 0.215152
0.266636 0.358404 0.214328
0.295140 0.369635 0.213809
0.329259 0.387060 0.213779
0.365820 0.403723 0.215274
0.403235 0.419318 0.218570
0.448188 0.443641 0.222385
0.535973 0.503624 0.215244
0.614405 0.542412 0.210575
0.680964 0.562676 0.219577
0.739895 0.572229 0.235447
0.791958 0.574487 0.255619
0.838315 0.573144 0.279881
0.879515 0.569909 0.306981
0.914458 0.568292 0.335546
0.939086 0.578424 0.357794
0.961456 0.589837 0.382025
0.981781 0.603174 0.408545
1.000000 0.619196 0.438483
1.000000 0.638483 0.472053
1.000000 0.660731 0.508202
1.000000 0.685695 0.546532
1.000000 0.712825 0.586053
0.215671 0.321294 0.248783
0.215122 0.323156 0.249241
0.214359 0.325383 0.250065
0.213260 0.328649 0.251102
0.211887 0.332830 0.252323
0.210575 0.339361 0.250004
0.210086 0.347234 0.244633
0.211063 0.355108 0.235508
0.212467 0.363500 0.221744
0.227024 0.372107 0.212650
0.255619 0.380560 0.211673
0.288273 0.397131 0.210391
0.323430 0.412665 0.210452
0.360357 0.427680 0.211795
0.397803 0.441840 0.214755
0.435340 0.455360 0.219760
0.483192 0.482155 0.224399
0.574243 0.542718 0.216434
0.648341 0.575677 0.214664
0.711727 0.592401 0.227298
0.768093 0.599908 0.247044
0.818021 0.601617 0.271550
0.862333 0.599969 0.299229
0.900999 0.597314 0.329778
0.934356 0.595209 0.362066
0.958709 0.603632 0.388342
0.979492 0.616419 0.415229
0.998322 0.631861 0.445350
1.000000 0.650385 0.478706
1.000000 0.671595 0.514427
1.000000 0.695369 0.552026
1.000000 0.721401 0.590875
0.208347 0.344121 0.254307
0.207553 0.346197 0.255100
0.206729 0.348363 0.255894
0.205509 0.351568 0.257023
0.203891 0.355718 0.258579
0.202365 0.362158 0.256443
0.201633 0.370062 0.251225
0.202640 0.379095 0.242832
0.204318 0.387396 0.228611
0.208194 0.396948 0.209598
0.241032 0.410834 0.208042
0.277440 0.426307 0.206607
0.315343 0.440742 0.206394
0.353796 0.454536 0.207767
0.392340 0.467567 0.210636
0.430701 0.480140 0.215152
0.468452 0.492409 0.221714
0.519432 0.522423 0.227634
0.613489 0.582513 0.219486
0.683680 0.609857 0.221439
0.743923 0.623011 0.238590
0.797269 0.628443 0.262852
0.844663 0.629114 0.291508
0.886076 0.627405 0.322606
0.921813 0.624994 0.355535
0.952575 0.624079 0.390326
0.976867 0.630091 0.422217
0.995850 0.644587 0.451972
1.000000 0.661860 0.484504
1.000000 0.681910 0.519493
1.000000 0.704341 0.556176
1.000000 0.729183 0.594324
0.198856 0.369635 0.260777
0.198001 0.371710 0.261479
0.197024 0.373999 0.262272
0.195499 0.377295 0.263706
0.193668 0.381353 0.265354
0.191897 0.387549 0.264012
0.190921 0.395361 0.258976
0.191714 0.404578 0.250706
0.193973 0.413581 0.236942
0.195346 0.428168 0.216342
0.219730 0.442573 0.203708
0.261540 0.456275 0.202365
0.303746 0.469978 0.201663
0.344762 0.482612 0.202853
0.385260 0.495186 0.205661
0.425452 0.507744 0.210056
0.465461 0.520775 0.216739
0.505180 0.534173 0.225589
0.560662 0.568566 0.234043
0.660456 0.629755 0.228061
0.728389 0.652277 0.236240
0.785824 0.662104 0.260533
0.835660 0.664973 0.291875
0.879973 0.664912 0.326574
0.917784 0.663539 0.363195
0.949889 0.662867 0.400977
0.977173 0.664729 0.439918
0.999939 0.670954 0.479347
1.000000 0.687465 0.511315
1.000000 0.706264 0.544854
1.000000 0.727260 0.579828
1.000000 0.750423 0.616022
0.184085 0.403693 0.269871
0.183352 0.405066 0.270451
0.182620 0.406561 0.270939
0.181186 0.409155 0.272068
0.179232 0.412696 0.273686
0.176913 0.418219 0.273625
0.175692 0.426093 0.268711
0.175265 0.437354 0.260960
0.176455 0.452430 0.247959
0.178286 0.467109 0.226566
0.186862 0.482795 0.197421
0.239963 0.496193 0.196078
0.289891 0.509636 0.195468
0.336828 0.522545 0.196017
0.380774 0.534234 0.199161
0.423651 0.545769 0.204105
0.465370 0.557397 0.211490
0.506371 0.569299 0.220920
0.546868 0.581598 0.233249
0.606043 0.617731 0.244297
0.705928 0.674372 0.241184
0.767269 0.688808 0.254704
0.818814 0.693111 0.283238
0.863249 0.692409 0.317449
0.903410 0.691127 0.354376
0.937835 0.689967 0.393256
0.967285 0.690700 0.433631
0.992279 0.694606 0.474952
1.000000 0.702174 0.516472
1.000000 0.717800 0.551446
1.000000 0.737514 0.585473
1.000000 0.759426 0.620722
0.167849 0.435065 0.277623
0.166873 0.436591 0.278355
0.165866 0.438148 0.278996
0.164065 0.440803 0.280278
0.161563 0.444434 0.281987
0.157534 0.450843 0.284062
0.153384 0.461891 0.280430
0.151369 0.474708 0.273014
0.153872 0.489082 0.260563
0.157595 0.502495 0.239261
0.162875 0.516991 0.207309
0.207797 0.530358 0.189700
0.267308 0.542351 0.188998
0.320531 0.554620 0.189273
0.368658 0.565698 0.192264
0.414069 0.576471 0.197360
0.457923 0.587518 0.204929
0.500694 0.598901 0.215152
0.542748 0.610681 0.227817
0.584497 0.623072 0.243259
0.649744 0.662501 0.256565
0.747494 0.713832 0.259037
0.803738 0.722469 0.278416
0.851347 0.723537 0.311803
0.885466 0.715267 0.340795
0.922698 0.713985 0.380316
0.954772 0.713863 0.421759
0.981994 0.716213 0.464485
1.000000 0.721706 0.506950
1.000000 0.730892 0.548943
1.000000 0.745876 0.588006
1.000000 0.766964 0.622980
0.138125 0.479042 0.289464
0.136385 0.481056 0.290196
0.134371 0.483223 0.291173
0.130739 0.487007 0.292943
0.125368 0.492378 0.295323
0.118257 0.498909 0.298283
0.112276 0.508263 0.295964
0.109651 0.519890 0.288273
0.114137 0.532677 0.275425
0.124025 0.545037 0.254429
0.133211 0.556847 0.222721
0.155703 0.569329 0.181521
0.236637 0.578943 0.181064
0.298619 0.588586 0.181949
0.352758 0.597681 0.184085
0.400763 0.605707 0.189639
0.445869 0.614221 0.197421
0.489418 0.623499 0.207706
0.532250 0.634058 0.220432
0.574853 0.645747 0.235874
0.619989 0.661219 0.254093
0.687831 0.699886 0.270115
0.780667 0.744167 0.277440
0.832059 0.748043 0.300114
0.874540 0.745754 0.334691
0.909972 0.741115 0.372473
0.943908 0.740017 0.414588
0.972717 0.740719 0.457710
0.997162 0.744198 0.500755
1.000000 0.751095 0.543236
1.000000 0.761990 0.585229
1.000000 0.776974 0.626520
0.090639 0.524163 0.301030
0.086946 0.526482 0.301854
0.083284 0.528496 0.302831
0.077577 0.531395 0.304326
0.068086 0.535912 0.306462
0.048249 0.541466 0.309361
0.007355 0.548913 0.310552
0.000000 0.559258 0.302800
0.015198 0.571099 0.290379
0.068757 0.583490 0.271214
0.087770 0.594537 0.240330
0.107576 0.606653 0.194675
0.190646 0.616938 0.172000
0.270115 0.625849 0.173007
0.333043 0.634668 0.175570
0.387366 0.642847 0.180850
0.436286 0.650874 0.189792
0.482856 0.659449 0.201144
0.527825 0.669123 0.215061
0.572076 0.679652 0.232242
0.615625 0.690669 0.251865
0.663050 0.707362 0.273991
0.732448 0.742916 0.293889
0.819394 0.779080 0.307408
0.865660 0.778531 0.334112
0.903471 0.773892 0.371191
0.934600 0.768429 0.411048
0.965209 0.768368 0.456519
0.991150 0.770596 0.501122
1.000000 0.775998 0.544610
1.000000 0.785061 0.587427
1.000000 0.797940 0.628840
0.000000 0.572320 0.312413
0.000000 0.574304 0.313207
0.000000 0.575708 0.313909
0.000000 0.577844 0.315373
0.000000 0.580621 0.316869
0.000000 0.584802 0.319554
0.000000 0.590021 0.322515
0.000000 0.598108 0.318029
0.000000 0.608576 0.305852
0.000000 0.620081 0.287999
0.000000 0.630671 0.259098
0.000000 0.641932 0.216800
0.108766 0.653101 0.161410
0.230259 0.661250 0.162783
0.305943 0.669062 0.165866
0.368170 0.676936 0.170718
0.421515 0.684047 0.180423
0.470985 0.691676 0.192996
0.518120 0.700252 0.208194
0.563867 0.709621 0.226139
0.608698 0.719478 0.247166
0.652522 0.729335 0.270665
0.701411 0.746517 0.296818
0.771511 0.778836 0.320073
0.852415 0.808103 0.338750
0.893919 0.804440 0.368078
0.927703 0.798459 0.407202
0.955077 0.792630 0.448127
0.982452 0.793179 0.493721
1.000000 0.796963 0.538506
1.000000 0.803891 0.581811
1.000000 0.814603 0.623896
0.000000 0.615412 0.320531
0.000000 0.616876 0.321416
0.000000 0.618250 0.322087
0.000000 0.620325 0.323430
0.000000 0.623316 0.325109
0.000000 0.627619 0.327947
0.000000 0.634180 0.331609
0.000000 0.642573 0.334783
0.000000 0.654932 0.324376
0.000000 0.668635 0.307683
0.000000 0.682216 0.281895
0.000000 0.695003 0.241123
0.000000 0.707942 0.178317
0.166415 0.717952 0.148104
0.274388 0.726009 0.153597
0.350317 0.733272 0.161440
0.413245 0.740047 0.173037
0.468116 0.746456 0.189853
0.519463 0.753567 0.209445
0.568414 0.761227 0.231479
0.615686 0.769070 0.256413
0.661433 0.776974 0.283665
0.705470 0.784390 0.312871
0.755062 0.800015 0.345342
0.824613 0.826932 0.374365
0.897337 0.848081 0.399847
0.932341 0.841245 0.432532
0.960204 0.833921 0.472297
0.982452 0.827939 0.511376
1.000000 0.828946 0.554772
1.000000 0.833921 0.597559
1.000000 0.842161 0.638056
0.000000 0.675898 0.333288
0.000000 0.677058 0.333806
0.000000 0.677882 0.334508
0.000000 0.679133 0.335546
0.000000 0.681270 0.337224
0.000000 0.684352 0.339544
0.000000 0.688655 0.342809
0.000000 0.694636 0.346715
0.000000 0.703059 0.343786
0.000000 0.713863 0.327428
0.000000 0.725154 0.304112
0.000000 0.735103 0.265843
0.000000 0.745266 0.210513
0.000000 0.754818 0.133150
0.222660 0.760983 0.140322
0.316960 0.767086 0.150301
