cubelut/Fade to Green.cube
# Created by: Lutify.me
# Copyright: (c) Copyright Lutify.me 2016, G.T. Colord LTD
# Website: https://lutify.me
# Contact: help@lutify.me
LUT_3D_SIZE 5
0.000080 0.000000 0.000133
0.177338 0.004645 0.000626
0.460507 0.010470 0.000133
0.688902 0.021637 0.000133
0.851742 0.088539 0.025038
0.040519 0.135245 0.011872
0.196702 0.155850 0.008132
0.461874 0.173973 0.006629
0.682182 0.195914 0.005483
0.835885 0.252307 0.014383
0.121073 0.419382 0.038457
0.271765 0.446941 0.032258
0.528343 0.502683 0.026585
0.721846 0.544774 0.026494
0.846532 0.571340 0.020489
0.167297 0.644258 0.031052
0.286991 0.675086 0.017587
0.514007 0.715167 0.026969
0.749251 0.749399 0.040834
0.943795 0.780916 0.051492
0.187731 0.798433 0.019348
0.302738 0.825907 0.009051
0.529748 0.857331 0.010050
0.748351 0.886155 0.014539
0.989915 0.915835 0.030182
0.005364 0.008043 0.123608
0.173305 0.008335 0.110767
0.453979 0.018418 0.093917
0.702243 0.056277 0.137308
0.860625 0.116227 0.205824
0.049228 0.136059 0.168679
0.246905 0.251609 0.227977
0.485299 0.265088 0.216568
0.700761 0.244425 0.186962
0.852069 0.243899 0.184806
0.139711 0.425466 0.195608
0.317285 0.470144 0.240526
0.518712 0.500800 0.236688
0.726787 0.538987 0.198666
0.856032 0.582464 0.130596
0.200116 0.666738 0.195883
0.338507 0.684670 0.208287
0.548510 0.720234 0.194362
0.765551 0.756445 0.207382
0.940755 0.793241 0.177504
0.223108 0.819913 0.179008
0.333557 0.839446 0.163417
0.562292 0.870947 0.147469
0.757257 0.898486 0.138451
0.996677 0.928673 0.166343
0.000303 0.013375 0.311416
0.110954 0.017752 0.305327
0.447231 0.060165 0.368325
0.720626 0.111703 0.422991
0.916906 0.132816 0.448873
0.033188 0.142325 0.393106
0.271559 0.285606 0.459521
0.502573 0.289659 0.452534
0.733453 0.271428 0.456416
0.920261 0.255484 0.475178
0.175876 0.445409 0.495416
0.332254 0.483518 0.483417
0.508089 0.532188 0.479190
0.746433 0.560858 0.473335
0.919755 0.580241 0.466968
0.255360 0.703069 0.523959
0.382446 0.713181 0.507997
0.583169 0.749104 0.491542
0.771078 0.783954 0.489628
0.939539 0.817730 0.471312
0.288651 0.851085 0.518488
0.397913 0.867418 0.504672
0.611299 0.900602 0.480059
0.793795 0.926275 0.463150
0.997890 0.952828 0.476655
0.004124 0.037526 0.510903
0.163084 0.086650 0.613258
0.517170 0.155400 0.701620
0.750944 0.154971 0.688109
0.942862 0.158374 0.669678
0.105552 0.236093 0.735306
0.253840 0.288101 0.702517
0.513021 0.295441 0.702073
0.751793 0.302610 0.696548
0.955222 0.270690 0.689616
0.174012 0.428366 0.756319
0.320815 0.479373 0.738409
0.540793 0.569559 0.722659
0.764262 0.580409 0.723221
0.964250 0.584190 0.745080
0.263605 0.685293 0.783464
0.400347 0.721064 0.767458
0.598427 0.764969 0.745487
0.769165 0.813311 0.734228
0.958582 0.833329 0.727918
0.329614 0.878408 0.805492
0.435718 0.899165 0.792222
0.642390 0.930502 0.766510
0.812931 0.952430 0.746015
0.991447 0.967531 0.740528
0.058102 0.115600 0.806074
0.253869 0.180983 0.906467
0.536335 0.188528 0.894471
0.761714 0.187522 0.879098
0.952900 0.190153 0.857125
0.130310 0.276525 0.941996
0.259495 0.304792 0.935329
0.538099 0.301047 0.914340
0.765287 0.299505 0.896540
0.961143 0.300694 0.874176
0.185846 0.452093 0.959526
0.314715 0.499154 0.957536
0.548195 0.591669 0.945254
0.775480 0.600777 0.932865
0.983041 0.602502 0.915702
0.264946 0.656708 0.977835
0.377203 0.685999 0.973123
0.598239 0.746196 0.954251
0.786130 0.824628 0.929729
0.987603 0.833084 0.939595
0.339151 0.866920 1.000000
0.452004 0.905337 0.994529
0.659958 0.949181 0.975674
0.823389 0.966798 0.951393
1.000000 1.000000 0.934323
