cubelut/Fade to Green.cube
# Created by: Lutify.me
# Copyright: (c) Copyright Lutify.me 2016, G.T. Colord LTD
# Website: https://lutify.me
# Contact: help@lutify.me
LUT_3D_SIZE 33
0.000080 0.000000 0.000133
0.004451 0.000122 0.000266
0.031564 0.000845 0.000884
0.054814 0.001369 0.000863
0.074386 0.001789 0.000969
0.091657 0.002177 0.001184
0.112821 0.002721 0.001453
0.142264 0.003600 0.001252
0.177338 0.004645 0.000626
0.215572 0.005584 0.000203
0.253225 0.006420 0.000126
0.292837 0.006476 0.000133
0.330947 0.006675 0.000133
0.365615 0.007394 0.000133
0.398402 0.008411 0.000133
0.429946 0.009511 0.000133
0.460507 0.010470 0.000133
0.490362 0.011233 0.000133
0.519228 0.011991 0.000133
0.546799 0.013083 0.000133
0.574698 0.014125 0.000133
0.604668 0.014540 0.000133
0.634453 0.015418 0.000133
0.662272 0.017830 0.000133
0.688902 0.021637 0.000133
0.716141 0.026126 0.000113
0.742176 0.031659 0.000154
0.764668 0.039044 0.000901
0.784227 0.047789 0.002772
0.802586 0.056941 0.006644
0.821011 0.067347 0.013015
0.837624 0.077979 0.019402
0.851742 0.088539 0.025038
0.000841 0.002590 0.000439
0.005218 0.002676 0.000522
0.031516 0.003685 0.000972
0.054918 0.004409 0.000931
0.074250 0.004895 0.001035
0.091351 0.005272 0.001242
0.112481 0.005742 0.001488
0.142246 0.006448 0.001259
0.177404 0.007320 0.000682
0.215403 0.008115 0.000276
0.253305 0.008877 0.000181
0.292546 0.009080 0.000147
0.330250 0.009391 0.000132
0.365074 0.010062 0.000133
0.398231 0.010921 0.000133
0.429968 0.011875 0.000133
0.460554 0.012744 0.000131
0.490396 0.013461 0.000128
0.519232 0.014218 0.000127
0.546746 0.015344 0.000128
0.574462 0.016505 0.000130
0.604120 0.017130 0.000132
0.633692 0.018164 0.000131
0.661451 0.020625 0.000130
0.688277 0.024356 0.000126
0.715869 0.028739 0.000097
0.741859 0.034489 0.000136
0.764389 0.041981 0.000940
0.783969 0.050785 0.002890
0.802284 0.059959 0.006848
0.820666 0.070403 0.013147
0.837234 0.081043 0.019492
0.851300 0.091596 0.025105
0.006936 0.023232 0.002729
0.010735 0.023902 0.002540
0.033297 0.027130 0.001594
0.055216 0.029432 0.001446
0.073641 0.030325 0.001578
0.090224 0.030636 0.001759
0.111250 0.030798 0.001824
0.141311 0.030445 0.001424
0.177127 0.029944 0.001270
0.215741 0.029767 0.000972
0.253731 0.030006 0.000699
0.291049 0.031325 0.000305
0.326792 0.032397 0.000137
0.361662 0.032713 0.000127
0.396284 0.032463 0.000129
0.429171 0.032181 0.000127
0.460143 0.032195 0.000139
0.490060 0.032531 0.000141
0.518939 0.033274 0.000130
0.546650 0.034660 0.000128
0.573763 0.036544 0.000127
0.601076 0.038500 0.000128
0.628396 0.040816 0.000133
0.655736 0.043796 0.000136
0.683663 0.047130 0.000140
0.712701 0.050884 0.000137
0.738434 0.058038 0.000290
0.761701 0.066399 0.001353
0.781913 0.075755 0.003888
0.800421 0.085289 0.008500
0.818183 0.095814 0.014214
0.834221 0.106448 0.020142
0.847932 0.116963 0.025576
0.012945 0.042994 0.004137
0.016496 0.043532 0.003729
0.038171 0.046955 0.001781
0.059121 0.050611 0.001520
0.076675 0.051600 0.001885
0.092340 0.051801 0.002230
0.112383 0.052874 0.002139
0.141517 0.053844 0.001839
0.177675 0.052884 0.002192
0.216140 0.052448 0.002061
0.254264 0.053035 0.001495
0.290568 0.054652 0.000691
0.325798 0.055571 0.000139
0.360259 0.055436 0.000023
0.394751 0.054698 0.000043
0.428219 0.053677 0.000029
0.459791 0.052906 0.000108
0.489887 0.052788 0.000288
0.518796 0.053412 0.000365
0.546678 0.054692 0.000280
0.573903 0.056320 0.000150
0.601124 0.058160 0.000100
0.628358 0.060672 0.000143
0.655141 0.063986 0.000235
0.681847 0.067933 0.000447
0.708833 0.072824 0.000930
0.733484 0.080921 0.001697
0.757966 0.089626 0.002602
0.780899 0.098781 0.004674
0.799864 0.108622 0.009737
0.817857 0.119243 0.015289
0.833722 0.129755 0.020721
0.846962 0.139923 0.025806
0.018032 0.059714 0.005151
0.021551 0.060176 0.004702
0.043135 0.063309 0.002610
0.063951 0.066868 0.002372
0.081143 0.068054 0.002821
0.096369 0.068382 0.003261
0.115749 0.070115 0.003175
0.144003 0.072513 0.003037
0.179219 0.072968 0.003398
0.216979 0.073701 0.003089
0.254702 0.074688 0.002281
0.291061 0.075948 0.001316
0.326361 0.076357 0.000636
0.360730 0.075754 0.000401
0.394780 0.074686 0.000326
0.428085 0.073478 0.000422
0.459751 0.072723 0.000617
0.489835 0.072658 0.000891
0.518746 0.073247 0.001042
0.546797 0.074339 0.000912
0.574439 0.075639 0.000674
0.602088 0.077373 0.000502
0.629532 0.080029 0.000457
0.656214 0.083409 0.000546
0.681930 0.087722 0.000829
0.706572 0.093644 0.001714
0.729520 0.102534 0.003516
0.753625 0.111726 0.005103
0.778599 0.120414 0.006368
0.799266 0.129725 0.010410
0.817337 0.139992 0.015537
0.833314 0.150018 0.020487
0.846516 0.159700 0.025188
0.022505 0.074673 0.006237
0.025994 0.075137 0.005917
0.047432 0.078123 0.004427
0.068198 0.080958 0.004296
0.085656 0.082374 0.004591
0.101091 0.083203 0.004880
0.120504 0.084901 0.004904
0.148283 0.087599 0.004884
0.181752 0.090739 0.004747
0.217984 0.093749 0.003895
0.255400 0.094932 0.002947
0.291904 0.095610 0.002125
0.327110 0.095608 0.001676
0.361792 0.094618 0.001396
0.395918 0.093243 0.001130
0.428894 0.092241 0.001351
0.460218 0.092026 0.001716
0.490125 0.092533 0.001942
0.518986 0.093327 0.002075
0.547147 0.094313 0.001974
0.575066 0.095599 0.001715
0.602746 0.097677 0.001417
0.629817 0.100873 0.001172
0.656391 0.104527 0.001121
0.682126 0.108693 0.001273
0.706459 0.114418 0.002163
0.728122 0.123732 0.004728
0.750307 0.133813 0.007577
0.774286 0.142925 0.009366
0.797652 0.150690 0.010789
0.815617 0.160196 0.015176
0.831628 0.169562 0.019689
0.845343 0.178303 0.023750
0.027115 0.089968 0.007179
0.030600 0.090514 0.007028
0.052004 0.093583 0.006292
0.072623 0.095745 0.006314
0.090334 0.097498 0.006248
0.106037 0.099002 0.006090
0.125331 0.101224 0.005816
0.152717 0.103683 0.006115
0.185398 0.108206 0.005578
0.220477 0.112829 0.004485
0.256715 0.114927 0.003698
0.292705 0.115820 0.003222
0.327946 0.115484 0.002932
0.362687 0.114307 0.002774
0.396709 0.113148 0.002479
0.429512 0.112514 0.002489
0.460598 0.112779 0.002868
0.490296 0.113693 0.003065
0.519163 0.114666 0.003134
0.547452 0.115615 0.003035
0.575487 0.116878 0.002747
0.603106 0.119161 0.002433
0.629776 0.122773 0.002135
0.656204 0.126723 0.001933
0.682104 0.130959 0.002062
0.706643 0.136557 0.003003
0.728203 0.145855 0.005539
0.749502 0.156294 0.008605
0.772031 0.166085 0.010847
0.796038 0.173390 0.010959
0.813666 0.182217 0.014631
0.829318 0.190679 0.018632
0.843575 0.198136 0.022039
0.032659 0.108138 0.008570
0.036111 0.108643 0.008542
0.057365 0.111663 0.008478
0.077998 0.113625 0.008628
0.095791 0.115779 0.008217
0.111564 0.117970 0.007601
0.130588 0.120706 0.006909
0.157445 0.123518 0.006914
0.190014 0.128194 0.006262
0.224636 0.133170 0.005224
0.259968 0.136395 0.004757
0.294805 0.138088 0.004630
0.329497 0.138100 0.004529
0.363835 0.137348 0.004537
0.397458 0.137002 0.004326
0.429851 0.137154 0.004145
0.460826 0.137805 0.004260
0.490577 0.138827 0.004385
0.519567 0.139851 0.004380
0.547947 0.140927 0.004207
0.575883 0.142326 0.003857
0.603249 0.144731 0.003540
0.629620 0.148603 0.003325
0.655929 0.152775 0.003118
0.682000 0.157206 0.003297
0.706755 0.162976 0.004367
0.728710 0.172004 0.006535
0.749773 0.182282 0.009203
0.771217 0.192252 0.011186
0.793999 0.199758 0.010792
0.810952 0.207873 0.013416
0.826143 0.215191 0.016577
0.840688 0.221122 0.019405
0.040519 0.135245 0.011872
0.043911 0.135649 0.011912
0.064963 0.138412 0.012189
0.085589 0.140495 0.012292
0.103045 0.143030 0.011870
0.118425 0.145609 0.011176
0.137315 0.148507 0.010131
0.164098 0.152228 0.008846
0.196702 0.155850 0.008132
0.231812 0.160207 0.007296
0.267495 0.163426 0.006988
0.301836 0.165969 0.006975
0.334759 0.167822 0.007114
0.367353 0.169111 0.007161
0.399444 0.170875 0.006980
0.431041 0.172649 0.006722
0.461874 0.173973 0.006629
0.491893 0.175120 0.006557
0.521200 0.176373 0.006349
0.549542 0.177972 0.005947
0.577075 0.179896 0.005482
0.604020 0.182514 0.005157
0.630097 0.186585 0.005080
0.656142 0.191164 0.005179
0.682182 0.195914 0.005483
0.707246 0.201537 0.006291
0.729732 0.209744 0.007958
0.750279 0.219439 0.010577
0.769670 0.229355 0.012848
0.789284 0.237223 0.012218
0.806549 0.243354 0.012004
0.822039 0.248347 0.012682
0.835885 0.252307 0.014383
0.050506 0.171168 0.016429
0.053757 0.171666 0.016314
0.073956 0.174590 0.015834
0.094122 0.176357 0.016010
0.111220 0.178696 0.015506
0.126416 0.181359 0.014657
0.145549 0.184619 0.013467
0.172579 0.187754 0.012063
0.205700 0.190407 0.010841
0.240992 0.194100 0.010563
0.276936 0.196813 0.010575
0.311522 0.199882 0.010436
0.344098 0.203144 0.010269
0.375256 0.206937 0.010240
0.405736 0.210677 0.010153
0.436059 0.214490 0.009916
0.466004 0.217810 0.009622
0.495090 0.220624 0.009235
0.523364 0.223237 0.008732
0.551152 0.225860 0.008095
0.578455 0.228438 0.007597
0.605342 0.231326 0.007496
0.631485 0.235513 0.007747
0.657392 0.240432 0.008315
0.683233 0.245512 0.008854
0.708386 0.250675 0.009155
0.731351 0.257371 0.009860
0.752421 0.265789 0.011585
0.770737 0.274743 0.014409
0.785584 0.281912 0.016566
0.802929 0.286791 0.012814
0.819044 0.290307 0.009534
0.832365 0.292787 0.009102
0.061648 0.209737 0.020851
0.064766 0.210161 0.020740
0.084377 0.212747 0.020038
0.104583 0.215133 0.019235
0.121852 0.217152 0.018614
0.137028 0.218944 0.018229
0.155591 0.220722 0.018463
0.182654 0.224555 0.016855
0.215870 0.227329 0.015255
0.251267 0.230718 0.014249
0.286631 0.234158 0.014196
0.321299 0.238164 0.014031
0.353970 0.242784 0.013783
0.385450 0.247132 0.013560
0.416043 0.251900 0.013295
0.445636 0.256799 0.012951
0.474533 0.261618 0.012533
0.502521 0.266186 0.012036
0.529586 0.270638 0.011510
0.556135 0.275028 0.010906
0.582384 0.279559 0.010585
0.608534 0.283928 0.010817
0.634456 0.288646 0.011315
0.660129 0.293801 0.012029
0.685370 0.298844 0.012698
0.710102 0.303428 0.012794
0.733478 0.308884 0.012674
0.755016 0.315748 0.013142
0.773611 0.322920 0.015255
0.786997 0.328062 0.019620
0.801539 0.332844 0.014805
0.815876 0.336260 0.008864
0.829174 0.338012 0.004863
0.072610 0.246175 0.024256
0.075624 0.246459 0.024280
0.094867 0.248582 0.024239
0.115149 0.250784 0.023513
0.132573 0.252678 0.022871
0.147861 0.254286 0.022519
0.166476 0.256109 0.022647
0.193995 0.260856 0.021531
0.226729 0.264283 0.020228
0.261321 0.268328 0.018942
0.296649 0.272566 0.017922
0.330826 0.277889 0.017180
0.363960 0.282833 0.016872
0.395652 0.288042 0.016586
0.426368 0.293074 0.016064
0.456150 0.298385 0.015571
0.484844 0.303858 0.015219
0.512496 0.309234 0.014978
0.539200 0.314621 0.014838
0.565238 0.320211 0.014808
0.591004 0.325883 0.014731
0.616349 0.331746 0.014931
0.641441 0.337389 0.015240
0.666102 0.343038 0.015700
0.690117 0.348725 0.016193
0.713382 0.353839 0.016287
0.736192 0.358939 0.015758
0.757709 0.364525 0.015405
0.776829 0.370392 0.015764
0.791058 0.375221 0.018052
0.801415 0.379518 0.015054
0.812181 0.382233 0.009672
0.824603 0.382875 0.002984
0.083203 0.281100 0.027928
0.086139 0.281359 0.028053
0.104824 0.282920 0.028632
0.124829 0.284760 0.028660
0.142067 0.286905 0.028093
0.157344 0.289042 0.027477
0.176326 0.291716 0.027055
0.203563 0.296645 0.026015
0.236385 0.300981 0.024729
0.271454 0.306016 0.023263
0.306835 0.311202 0.021765
0.341294 0.316789 0.020355
0.373839 0.322857 0.019443
0.405586 0.328485 0.019060
0.436359 0.333901 0.018643
0.466164 0.339479 0.018275
0.495008 0.345343 0.018157
0.522915 0.351279 0.018246
0.549876 0.357250 0.018454
0.575988 0.363234 0.018715
0.601274 0.369221 0.018972
0.626185 0.375225 0.019121
0.650822 0.381221 0.019170
0.674915 0.387154 0.019235
0.698033 0.393001 0.019416
0.720097 0.398770 0.019452
0.741643 0.404179 0.018750
0.761833 0.409463 0.017961
0.779435 0.414462 0.017507
0.792125 0.418818 0.017953
0.800666 0.422044 0.017321
0.809849 0.424844 0.012965
0.821473 0.427163 0.004244
0.093131 0.316466 0.031495
0.096029 0.316807 0.031565
0.114370 0.318569 0.032040
0.134048 0.320627 0.032555
0.151048 0.322835 0.032352
0.166108 0.325081 0.031803
0.184746 0.328043 0.031034
0.211953 0.333195 0.029889
0.244923 0.337464 0.028723
0.280665 0.343225 0.027073
0.316811 0.349743 0.025249
0.351443 0.356082 0.023507
0.384241 0.362423 0.022001
0.415504 0.368683 0.021490
0.446293 0.374866 0.021355
0.476324 0.381055 0.021279
0.505382 0.387335 0.021401
0.533436 0.393612 0.021662
0.560365 0.399880 0.021947
0.585989 0.406061 0.022110
0.610558 0.412059 0.022114
0.634472 0.417867 0.022054
0.658249 0.423674 0.021935
0.681537 0.429431 0.021687
0.704030 0.435086 0.021300
0.725731 0.440559 0.021076
0.747350 0.445753 0.020689
0.767109 0.450624 0.020023
0.783805 0.454919 0.019729
0.794976 0.458046 0.020587
0.803609 0.460678 0.020985
0.812670 0.463908 0.016878
0.823610 0.468113 0.006939
0.102991 0.351945 0.034778
0.105884 0.352335 0.034770
0.124127 0.354837 0.034562
0.143481 0.357969 0.034159
0.160316 0.360302 0.033956
0.175341 0.362307 0.033701
0.194041 0.365153 0.032980
0.220839 0.369452 0.032418
0.253982 0.374594 0.031488
0.290091 0.380902 0.029862
0.326291 0.387935 0.028060
0.361252 0.395006 0.026265
0.394259 0.401874 0.024928
0.425857 0.408572 0.024067
0.455883 0.415569 0.023822
0.485341 0.422201 0.023933
0.514191 0.428888 0.024055
0.541872 0.435303 0.024139
0.568269 0.441501 0.024171
0.593152 0.447570 0.024022
0.616866 0.453310 0.023722
0.640222 0.458859 0.023424
0.663633 0.464323 0.023239
0.686573 0.469682 0.023005
0.709197 0.474794 0.022712
0.731636 0.479604 0.022418
0.754002 0.484208 0.022592
0.773453 0.488587 0.022382
0.790113 0.492392 0.022396
0.802213 0.495104 0.023503
0.811566 0.497870 0.023104
0.820799 0.500748 0.018831
0.831201 0.504514 0.008729
0.112398 0.386475 0.037154
0.115338 0.386911 0.037082
0.133690 0.389947 0.036297
0.152706 0.393919 0.034800
0.169416 0.396480 0.034146
0.184474 0.398382 0.033897
0.203348 0.401118 0.033331
0.230315 0.405428 0.032797
0.263317 0.411599 0.032240
0.299319 0.418044 0.031828
0.335524 0.425558 0.030187
0.370254 0.432780 0.028715
0.403312 0.439873 0.027585
0.434695 0.446918 0.026684
0.464914 0.453862 0.026000
0.493733 0.460978 0.025650
0.521428 0.467680 0.025734
0.548565 0.474070 0.025659
0.574504 0.480040 0.025476
0.599119 0.485805 0.025181
0.622347 0.491331 0.024727
0.645299 0.496566 0.024334
0.668842 0.501674 0.024238
0.692283 0.506674 0.024286
0.715665 0.511419 0.024526
0.738943 0.515593 0.024902
0.761283 0.519508 0.025433
0.779774 0.523630 0.025590
0.796123 0.527340 0.025684
0.810212 0.530192 0.026484
0.819358 0.533070 0.025783
0.829115 0.535777 0.022103
0.839642 0.538597 0.013455
0.121073 0.419382 0.038457
0.124121 0.419931 0.038291
0.142919 0.423335 0.037259
0.161720 0.427174 0.035755
0.178269 0.429842 0.034974
0.193266 0.431907 0.034566
0.212110 0.434898 0.033937
0.239081 0.439838 0.033099
0.271765 0.446941 0.032258
0.307000 0.453818 0.032432
0.342786 0.460985 0.031953
0.377721 0.468301 0.030740
0.410628 0.475434 0.029864
0.442102 0.482429 0.029044
0.472024 0.489298 0.028127
0.500796 0.496063 0.027164
0.528343 0.502683 0.026585
0.554444 0.508950 0.026476
0.579905 0.514887 0.026183
0.604435 0.520474 0.025907
0.627779 0.525845 0.025576
0.650640 0.530827 0.025311
0.674077 0.535685 0.025289
0.698113 0.540312 0.025697
0.721846 0.544774 0.026494
0.745417 0.548854 0.027728
0.766842 0.552721 0.028628
0.784713 0.557054 0.028993
0.800462 0.560562 0.029036
0.816701 0.563057 0.029248
0.825302 0.565852 0.028860
0.835218 0.568686 0.026477
0.846532 0.571340 0.020489
0.129120 0.450753 0.039101
0.132218 0.451424 0.038829
0.151212 0.455197 0.037548
0.169859 0.458297 0.036804
0.185926 0.461019 0.035982
0.200617 0.463456 0.035378
0.219139 0.466906 0.034579
0.245602 0.472632 0.033443
0.277634 0.480130 0.032462
0.313539 0.487165 0.032736
0.348580 0.494064 0.033144
0.383143 0.501220 0.032490
0.415901 0.508325 0.031699
0.447256 0.515189 0.030879
0.477236 0.521829 0.029895
0.505969 0.528300 0.028799
0.533512 0.534684 0.027633
0.559588 0.540849 0.026805
0.584224 0.546765 0.026312
0.608038 0.552398 0.025835
0.631638 0.557607 0.025712
0.655141 0.562433 0.025939
0.678567 0.567017 0.026299
0.702963 0.571353 0.027115
0.726663 0.575516 0.028385
0.748817 0.579580 0.030131
0.768804 0.583506 0.031584
0.786375 0.588543 0.032166
0.802367 0.592684 0.032077
0.820114 0.594409 0.031729
0.830352 0.597035 0.031061
0.840455 0.599656 0.029188
0.852958 0.602386 0.025140
0.136019 0.481349 0.038865
0.139040 0.482056 0.038515
0.157459 0.486062 0.036835
0.175371 0.488660 0.036490
0.190631 0.491522 0.035331
0.204570 0.494400 0.034160
0.222440 0.498078 0.033218
0.248004 0.504147 0.032146
0.279063 0.512045 0.031339
0.317187 0.518493 0.032599
0.353108 0.525409 0.033393
0.386901 0.532330 0.033549
0.418996 0.539329 0.032882
0.449830 0.546096 0.032015
0.479517 0.552554 0.030931
0.508149 0.558799 0.029834
0.535693 0.564950 0.028524
0.562049 0.570959 0.027186
0.587092 0.576656 0.026205
0.610428 0.582267 0.025379
0.634433 0.587283 0.025423
0.659342 0.591787 0.026326
0.684362 0.596081 0.027853
0.707565 0.600478 0.029182
0.730932 0.604662 0.030880
0.751492 0.608861 0.032877
0.769287 0.613218 0.034413
0.784914 0.617460 0.035228
0.800948 0.622546 0.034978
0.820195 0.624674 0.033895
0.833700 0.627171 0.033133
0.845855 0.629564 0.031037
0.860057 0.631932 0.027472
0.141955 0.511506 0.037845
0.144910 0.512189 0.037501
0.162620 0.516284 0.035531
0.178925 0.519486 0.034172
0.193165 0.522767 0.032214
0.206353 0.525938 0.030413
0.223719 0.529556 0.029544
0.248757 0.534923 0.029667
0.278531 0.542606 0.028942
0.313923 0.549157 0.031005
0.349783 0.556013 0.031863
0.385875 0.562761 0.031987
0.417381 0.569447 0.031704
0.448291 0.576006 0.031115
0.478081 0.582234 0.030269
0.506946 0.588185 0.029556
0.534815 0.594003 0.028646
0.561534 0.599723 0.027394
0.587426 0.605189 0.026310
0.612838 0.610223 0.025848
0.638257 0.614944 0.026147
0.665334 0.619040 0.027832
0.691512 0.623156 0.030154
0.714054 0.627715 0.032325
0.734468 0.632607 0.034027
0.753908 0.637301 0.035946
0.771460 0.641936 0.037346
0.788966 0.646193 0.038055
0.803982 0.650122 0.037856
0.822903 0.653337 0.036285
0.838742 0.656165 0.035514
0.853765 0.658556 0.033345
0.869400 0.660510 0.029366
0.147575 0.540784 0.036515
0.150507 0.541469 0.036191
0.167818 0.545646 0.034063
0.182893 0.549784 0.031534
0.196428 0.553524 0.028904
0.209164 0.556878 0.026728
0.225778 0.560712 0.025424
0.249976 0.565880 0.025468
0.278554 0.572848 0.024797
0.311494 0.578923 0.028187
0.343906 0.585753 0.029476
0.377385 0.592442 0.029539
0.409432 0.598865 0.028765
0.439837 0.605050 0.028297
0.471062 0.610823 0.028162
0.500502 0.616454 0.027713
0.529382 0.621830 0.027548
0.557823 0.627024 0.027243
0.585903 0.631964 0.027018
0.613660 0.636533 0.027283
0.638474 0.641048 0.028023
0.666826 0.645213 0.030382
0.694378 0.649342 0.033045
0.717988 0.653932 0.035392
0.738913 0.658946 0.037266
0.758521 0.664198 0.038581
0.777615 0.668876 0.039766
0.797680 0.673095 0.040475
0.817768 0.676888 0.040408
0.834404 0.680285 0.039186
0.850759 0.683278 0.038621
0.866479 0.685844 0.037289
0.881571 0.687929 0.034145
0.152921 0.568638 0.035095
0.155730 0.569367 0.034687
0.172422 0.573660 0.032206
0.187235 0.577908 0.029643
0.200832 0.581596 0.027249
0.213495 0.584966 0.025188
0.229169 0.589231 0.023266
0.251784 0.595171 0.021549
0.279021 0.602344 0.019754
0.311082 0.608321 0.022465
0.343786 0.614300 0.025134
0.375011 0.620094 0.027388
0.403833 0.626069 0.027959
0.431740 0.632256 0.026879
0.461339 0.637770 0.026793
0.491339 0.642889 0.026772
0.520238 0.648022 0.026420
0.549769 0.652876 0.026782
0.580300 0.657364 0.027707
0.610901 0.661492 0.029123
0.638183 0.665635 0.030505
0.661459 0.670168 0.032180
0.687592 0.675128 0.034709
0.713267 0.679829 0.036990
0.738788 0.684447 0.038973
0.765960 0.688905 0.040742
0.789287 0.693396 0.041887
0.810681 0.697719 0.042891
0.831580 0.701711 0.043257
0.850321 0.705339 0.042597
0.867286 0.708436 0.041812
0.882401 0.711163 0.041779
0.895945 0.713455 0.041464
0.157968 0.595005 0.033720
0.160618 0.595796 0.033215
0.176473 0.600207 0.030282
0.190952 0.604332 0.027669
0.204563 0.607868 0.025559
0.217321 0.611113 0.023820
0.232789 0.615339 0.022229
0.254835 0.621338 0.020433
0.281584 0.628425 0.018511
0.311472 0.635162 0.018192
0.342506 0.641477 0.018750
0.373399 0.646669 0.021905
0.403019 0.651524 0.025372
0.431025 0.657123 0.025693
0.458993 0.662352 0.026264
0.486690 0.667307 0.026416
0.514422 0.672096 0.026284
0.543122 0.676742 0.026538
0.573962 0.681099 0.028187
0.604788 0.685265 0.030127
0.633018 0.689446 0.031774
0.656926 0.694005 0.032968
0.683432 0.698569 0.035099
0.711360 0.703336 0.037510
0.740179 0.707751 0.039734
0.770945 0.711904 0.041925
0.797918 0.716439 0.043906
0.821934 0.720883 0.045561
0.844310 0.725077 0.046534
0.865087 0.728860 0.046271
0.883509 0.732012 0.045276
0.899114 0.734808 0.044977
0.912326 0.737219 0.045400
0.162777 0.620077 0.032414
0.165351 0.620881 0.031887
0.180712 0.625304 0.028796
0.194820 0.629203 0.026140
0.208196 0.632554 0.024328
0.220835 0.635676 0.022896
0.236138 0.639760 0.021526
0.257928 0.645595 0.019910
0.284406 0.652376 0.018098
0.313130 0.659376 0.016264
0.342555 0.666112 0.014808
0.372292 0.671662 0.016127
0.402511 0.676090 0.020188
0.431481 0.681050 0.021911
0.459845 0.685521 0.024506
0.487097 0.689715 0.026661
0.513104 0.694259 0.026602
0.539591 0.698720 0.026779
0.568485 0.703002 0.028204
0.598558 0.707341 0.030250
0.627322 0.711724 0.031997
0.653653 0.716198 0.033261
0.681991 0.720520 0.035131
0.713160 0.724872 0.037758
0.743801 0.729247 0.040155
0.775901 0.733375 0.042607
0.804076 0.737858 0.044748
0.830359 0.742378 0.047179
0.854700 0.746804 0.049066
0.877547 0.750809 0.049483
0.897969 0.754216 0.048730
0.914935 0.757092 0.048208
0.928656 0.759584 0.048475
0.167297 0.644258 0.031052
0.169818 0.645025 0.030529
0.184904 0.649322 0.027492
0.198750 0.652953 0.024951
0.211846 0.656112 0.023430
0.224174 0.659074 0.022351
0.239208 0.662992 0.021072
0.260727 0.668617 0.019419
0.286991 0.675086 0.017587
0.315532 0.681901 0.015749
0.344301 0.688642 0.013934
0.372686 0.694830 0.012937
0.401918 0.699844 0.014278
0.431318 0.704422 0.015995
0.460533 0.708152 0.020308
0.488549 0.711285 0.025523
0.514007 0.715167 0.026969
0.538357 0.719491 0.026747
0.564535 0.723727 0.027826
0.594714 0.727947 0.030840
0.624614 0.732522 0.032732
0.654337 0.736892 0.034505
0.684531 0.741044 0.036271
0.716037 0.745151 0.038219
0.749251 0.749399 0.040834
0.780834 0.753713 0.043324
0.809589 0.758192 0.045437
0.836704 0.762671 0.047810
0.862537 0.767124 0.050519
0.887288 0.771392 0.051937
0.909493 0.775094 0.051807
0.928646 0.778274 0.051311
0.943795 0.780916 0.051492
0.171241 0.667645 0.029373
0.173708 0.668373 0.028835
0.188524 0.672485 0.025843
0.202177 0.675919 0.023622
0.214998 0.678907 0.022473
0.227027 0.681702 0.021707
0.241801 0.685447 0.020535
0.263259 0.690866 0.018904
0.289480 0.697204 0.017152
0.318045 0.703981 0.015455
0.346765 0.710653 0.013820
0.374874 0.716847 0.012353
0.403346 0.722194 0.011586
0.431846 0.726872 0.011310
0.460327 0.730434 0.014401
0.488335 0.733023 0.020841
0.513515 0.736223 0.024137
0.536682 0.740173 0.024475
0.560773 0.744264 0.025392
0.590413 0.748241 0.029478
0.625146 0.752433 0.033830
0.659150 0.756723 0.036242
0.690712 0.760828 0.037812
0.721796 0.764872 0.039247
0.753272 0.769028 0.041568
0.784616 0.773438 0.044442
0.814439 0.777883 0.046579
0.842551 0.782324 0.048783
0.869231 0.786731 0.050979
0.894893 0.791068 0.053350
0.918413 0.795013 0.054106
0.939091 0.798452 0.054256
0.956617 0.801371 0.054212
0.174169 0.689114 0.027226
0.176607 0.689829 0.026664
0.191274 0.693981 0.023742
0.204863 0.697453 0.021990
0.217402 0.700433 0.021173
0.229181 0.703176 0.020672
0.243819 0.706757 0.019894
0.265736 0.712053 0.018681
0.292106 0.718589 0.017018
0.320641 0.725584 0.015308
0.349838 0.732243 0.013709
0.378343 0.738134 0.012232
0.406421 0.743144 0.011210
0.433762 0.747687 0.010383
0.459976 0.751743 0.010554
0.485985 0.755010 0.012984
0.510599 0.758136 0.015424
0.533662 0.761736 0.015642
0.558607 0.765178 0.017614
0.589282 0.768416 0.023873
0.625192 0.772001 0.030334
0.660298 0.776186 0.031900
0.692331 0.780306 0.032105
0.723230 0.784332 0.032317
0.754551 0.788435 0.034853
