cubelut/Fade to Green.cube
# Created by: Lutify.me
# Copyright: (c) Copyright Lutify.me 2016, G.T. Colord LTD
# Website: https://lutify.me
# Contact: help@lutify.me
LUT_3D_SIZE 9
0.000080 0.000000 0.000133
0.074386 0.001789 0.000969
0.177338 0.004645 0.000626
0.330947 0.006675 0.000133
0.460507 0.010470 0.000133
0.574698 0.014125 0.000133
0.688902 0.021637 0.000133
0.784227 0.047789 0.002772
0.851742 0.088539 0.025038
0.018032 0.059714 0.005151
0.081143 0.068054 0.002821
0.179219 0.072968 0.003398
0.326361 0.076357 0.000636
0.459751 0.072723 0.000617
0.574439 0.075639 0.000674
0.681930 0.087722 0.000829
0.778599 0.120414 0.006368
0.846516 0.159700 0.025188
0.040519 0.135245 0.011872
0.103045 0.143030 0.011870
0.196702 0.155850 0.008132
0.334759 0.167822 0.007114
0.461874 0.173973 0.006629
0.577075 0.179896 0.005482
0.682182 0.195914 0.005483
0.769670 0.229355 0.012848
0.835885 0.252307 0.014383
0.083203 0.281100 0.027928
0.142067 0.286905 0.028093
0.236385 0.300981 0.024729
0.373839 0.322857 0.019443
0.495008 0.345343 0.018157
0.601274 0.369221 0.018972
0.698033 0.393001 0.019416
0.779435 0.414462 0.017507
0.821473 0.427163 0.004244
0.121073 0.419382 0.038457
0.178269 0.429842 0.034974
0.271765 0.446941 0.032258
0.410628 0.475434 0.029864
0.528343 0.502683 0.026585
0.627779 0.525845 0.025576
0.721846 0.544774 0.026494
0.800462 0.560562 0.029036
0.846532 0.571340 0.020489
0.147575 0.540784 0.036515
0.196428 0.553524 0.028904
0.278554 0.572848 0.024797
0.409432 0.598865 0.028765
0.529382 0.621830 0.027548
0.638474 0.641048 0.028023
0.738913 0.658946 0.037266
0.817768 0.676888 0.040408
0.881571 0.687929 0.034145
0.167297 0.644258 0.031052
0.211846 0.656112 0.023430
0.286991 0.675086 0.017587
0.401918 0.699844 0.014278
0.514007 0.715167 0.026969
0.624614 0.732522 0.032732
0.749251 0.749399 0.040834
0.862537 0.767124 0.050519
0.943795 0.780916 0.051492
0.178108 0.727740 0.022583
0.218913 0.739324 0.017748
0.297116 0.756210 0.016596
0.410561 0.780164 0.010656
0.510041 0.796795 0.008056
0.619100 0.809841 0.010474
0.752187 0.825702 0.018289
0.881256 0.842308 0.032543
0.979576 0.856654 0.047538
0.187731 0.798433 0.019348
0.230802 0.809989 0.015151
0.302738 0.825907 0.009051
0.412036 0.843056 0.009329
0.529748 0.857331 0.010050
0.632048 0.871224 0.010344
0.748351 0.886155 0.014539
0.880183 0.902057 0.022872
0.989915 0.915835 0.030182
0.002772 0.005282 0.061094
0.073404 0.004468 0.054666
0.180217 0.007333 0.048387
0.334276 0.008807 0.036994
0.468490 0.014073 0.035728
0.578285 0.019643 0.030064
0.695000 0.033856 0.041756
0.803984 0.075865 0.085346
0.853797 0.109010 0.124124
0.022360 0.059485 0.078873
0.104580 0.096107 0.093287
0.218211 0.098378 0.083324
0.342102 0.102850 0.080701
0.466021 0.110035 0.081833
0.581961 0.119710 0.085469
0.682902 0.119438 0.082861
0.779116 0.132006 0.086692
0.849870 0.162621 0.110112
0.045101 0.134361 0.086669
0.140505 0.203662 0.096595
0.243993 0.208625 0.094859
0.360708 0.218212 0.092207
0.480259 0.229378 0.088279
0.585500 0.240889 0.081396
0.683440 0.239408 0.068268
0.771926 0.239874 0.069586
0.839366 0.247976 0.083020
0.087205 0.279683 0.100397
0.170391 0.316496 0.108848
0.271146 0.331158 0.105256
0.379272 0.346588 0.103145
0.489896 0.365120 0.101950
0.599766 0.379503 0.096716
0.697004 0.387414 0.078731
0.777567 0.407127 0.062249
0.829694 0.422350 0.042647
0.125774 0.421412 0.105166
0.198535 0.438476 0.114035
0.292076 0.454159 0.107979
0.398713 0.471472 0.106882
0.512840 0.491836 0.108736
0.618490 0.511859 0.111514
0.713512 0.534094 0.097601
0.800322 0.559347 0.080582
0.847881 0.576595 0.060401
0.160152 0.550328 0.105429
0.222263 0.554400 0.113544
0.310396 0.568886 0.107061
0.413371 0.586980 0.103325
0.528219 0.606881 0.104331
0.644600 0.627309 0.110993
0.743169 0.653327 0.111873
0.819948 0.678652 0.101820
0.880365 0.693018 0.084508
0.181575 0.654264 0.100867
0.232424 0.656622 0.101227
0.317398 0.673170 0.091695
0.421128 0.691242 0.086649
0.530293 0.710008 0.085407
0.649558 0.728776 0.091286
0.764477 0.747005 0.101216
0.860172 0.771110 0.113373
0.941235 0.786860 0.105889
0.192710 0.737705 0.092969
0.237698 0.745593 0.087784
0.314867 0.761638 0.079232
0.423956 0.781930 0.070443
0.531985 0.798320 0.066635
0.633254 0.812126 0.068664
0.759350 0.828437 0.081018
0.880880 0.844923 0.095086
0.981952 0.863255 0.105629
0.202974 0.808265 0.086209
0.246291 0.818157 0.079293
0.316548 0.832314 0.072192
0.423785 0.849029 0.066047
0.546082 0.863493 0.064681
0.645573 0.877607 0.061650
0.752831 0.891997 0.062760
0.882809 0.907642 0.074971
0.993657 0.922073 0.089755
0.005364 0.008043 0.123608
0.062973 0.007842 0.117462
0.173305 0.008335 0.110767
0.333550 0.013201 0.105551
0.453979 0.018418 0.093917
0.576194 0.029076 0.101614
0.702243 0.056277 0.137308
0.800312 0.089702 0.180021
0.860625 0.116227 0.205824
0.017883 0.062620 0.147574
0.116033 0.114749 0.197110
0.235553 0.115606 0.191600
0.353476 0.118859 0.186526
0.477038 0.123800 0.184406
0.595818 0.130196 0.188501
0.699521 0.130336 0.189173
0.792485 0.144008 0.198130
0.860039 0.163162 0.209381
0.049228 0.136059 0.168679
0.142664 0.208618 0.200439
0.246905 0.251609 0.227977
0.369395 0.258015 0.220892
0.485299 0.265088 0.216568
0.596322 0.259556 0.203934
0.700761 0.244425 0.186962
0.789553 0.243241 0.186837
0.852069 0.243899 0.184806
0.093053 0.278968 0.185755
0.179253 0.323107 0.220149
0.289316 0.365991 0.232808
0.388194 0.375238 0.231527
0.498505 0.385607 0.228034
0.609876 0.389767 0.210657
0.707369 0.391394 0.179923
0.790133 0.409729 0.155837
0.847137 0.419951 0.135185
0.139711 0.425466 0.195608
0.213607 0.447495 0.230301
0.317285 0.470144 0.240526
0.416319 0.485314 0.236595
0.518712 0.500800 0.236688
0.622222 0.517882 0.225809
0.726787 0.538987 0.198666
0.809285 0.564552 0.168170
0.856032 0.582464 0.130596
0.176608 0.562959 0.199736
0.241421 0.564856 0.232461
0.334004 0.577914 0.233400
0.432471 0.594077 0.226393
0.537023 0.610505 0.224518
0.647758 0.629591 0.228908
0.745303 0.662709 0.213610
0.821262 0.686519 0.187202
0.887610 0.698828 0.158737
0.200116 0.666738 0.195883
0.253922 0.669170 0.218350
0.338507 0.684670 0.208287
0.441083 0.701100 0.200004
0.548510 0.720234 0.194362
0.654935 0.738010 0.197139
0.765551 0.756445 0.207382
0.857213 0.780261 0.201697
0.940755 0.793241 0.177504
0.215252 0.748877 0.188293
0.258546 0.757835 0.192654
0.336442 0.772045 0.181805
0.445290 0.791147 0.169115
0.550008 0.806585 0.163257
0.649104 0.820602 0.161577
0.765298 0.836451 0.170439
0.882852 0.852936 0.184261
0.981537 0.870486 0.183190
0.223108 0.819913 0.179008
0.264365 0.828590 0.171636
0.333557 0.839446 0.163417
0.450786 0.855654 0.153580
0.562292 0.870947 0.147469
0.658935 0.885053 0.142174
0.757257 0.898486 0.138451
0.886463 0.914402 0.152576
0.996677 0.928673 0.166343
0.000048 0.009450 0.220662
0.042821 0.011186 0.218046
0.150259 0.013570 0.211266
0.292088 0.018761 0.201193
0.441076 0.036114 0.220181
0.583627 0.058903 0.254305
0.710210 0.086583 0.285997
0.811545 0.112272 0.314096
0.882911 0.125437 0.326816
0.010245 0.063019 0.252865
0.123838 0.129808 0.309578
0.234094 0.129721 0.305276
0.354468 0.132210 0.300456
0.481184 0.137526 0.297947
0.604273 0.145110 0.301122
0.712389 0.145689 0.303149
0.811195 0.159868 0.323107
0.886379 0.173285 0.338365
0.042984 0.139251 0.284980
0.149555 0.220195 0.323575
0.264342 0.271619 0.346434
0.384784 0.275664 0.342593
0.496882 0.278557 0.338094
0.611688 0.270644 0.332881
0.719807 0.254956 0.326579
0.814941 0.251858 0.340553
0.890078 0.247033 0.352944
0.105152 0.286162 0.325140
0.186878 0.327669 0.341552
0.291447 0.372628 0.349539
0.376272 0.392102 0.354025
0.499065 0.399656 0.346549
0.616914 0.401603 0.335062
0.722171 0.399854 0.321983
0.816014 0.410904 0.322559
0.889476 0.413885 0.326797
0.160510 0.435190 0.347375
0.225646 0.455852 0.360117
0.324708 0.480194 0.364660
0.419017 0.504737 0.358133
0.518091 0.515650 0.357418
0.631181 0.526512 0.347974
0.739365 0.547164 0.329958
0.820995 0.573618 0.308621
0.886027 0.586584 0.285401
0.198419 0.578038 0.360255
0.260524 0.575599 0.368940
0.349191 0.590171 0.367213
0.446520 0.609150 0.359915
0.548693 0.624409 0.355664
0.652390 0.640852 0.356768
0.747611 0.675052 0.344123
0.829608 0.697785 0.326889
0.906859 0.710036 0.301518
0.230052 0.686698 0.362307
0.278289 0.684046 0.362827
0.362519 0.698207 0.354154
0.462994 0.715778 0.344237
0.569012 0.733194 0.337353
0.667634 0.750589 0.335552
0.769771 0.768897 0.342482
0.853566 0.794942 0.343394
0.938335 0.805981 0.325443
0.249411 0.770466 0.356358
0.289796 0.774557 0.351225
0.365588 0.787573 0.340807
0.473248 0.805006 0.327794
0.576834 0.820099 0.320041
0.672676 0.834429 0.314960
0.773393 0.849358 0.315905
0.884698 0.866372 0.328951
0.979786 0.886010 0.336859
0.256190 0.837544 0.350053
0.297644 0.843520 0.343931
0.367193 0.853218 0.335358
0.485063 0.870152 0.324260
0.589350 0.885830 0.313528
0.681533 0.899465 0.303731
0.775336 0.912521 0.297387
0.892876 0.927318 0.307179
0.999354 0.941134 0.318402
0.000303 0.013375 0.311416
0.027223 0.013860 0.308096
0.110954 0.017752 0.305327
0.283299 0.037893 0.328542
0.447231 0.060165 0.368325
0.588527 0.087207 0.399888
0.720626 0.111703 0.422991
0.833120 0.125320 0.438547
0.916906 0.132816 0.448873
0.007703 0.059677 0.342517
0.122704 0.140333 0.422829
0.225369 0.142245 0.420807
0.349646 0.146732 0.419464
0.480422 0.152799 0.419033
0.606491 0.160406 0.420873
0.723620 0.161636 0.428026
0.831793 0.173611 0.447729
0.918478 0.182415 0.460087
0.033188 0.142325 0.393106
0.148724 0.228292 0.444787
0.271559 0.285606 0.459521
0.386526 0.288258 0.456189
0.502573 0.289659 0.452534
0.619998 0.283399 0.449586
0.733453 0.271428 0.456416
0.834887 0.262717 0.467288
0.920261 0.255484 0.475178
0.124785 0.297650 0.478101
0.188207 0.325888 0.467069
0.297538 0.377591 0.468376
0.394455 0.410312 0.472513
0.515702 0.416801 0.469865
0.629157 0.415651 0.466678
0.738550 0.412212 0.474624
0.838766 0.413637 0.485329
0.925436 0.412767 0.502496
0.175876 0.445409 0.495416
0.233676 0.456157 0.491450
0.332254 0.483518 0.483417
0.422461 0.511607 0.476390
0.508089 0.532188 0.479190
0.630348 0.542022 0.472679
0.746433 0.560858 0.473335
0.836593 0.577827 0.468756
0.919755 0.580241 0.466968
0.220646 0.588886 0.514231
0.275040 0.584664 0.506840
0.360984 0.599775 0.498969
0.453264 0.620950 0.490576
0.548282 0.642231 0.485581
0.649567 0.656490 0.484212
0.755979 0.687256 0.484854
0.842006 0.708921 0.475441
0.920114 0.720545 0.451981
0.255360 0.703069 0.523959
0.300678 0.698271 0.516717
0.382446 0.713181 0.507997
0.480199 0.731277 0.498560
0.583169 0.749104 0.491542
0.678775 0.765766 0.487313
0.771078 0.783954 0.489628
0.851744 0.809801 0.490018
0.939539 0.817730 0.471312
0.278498 0.788813 0.521803
0.317813 0.790872 0.516934
0.390841 0.803304 0.507081
0.498357 0.819503 0.494990
0.600275 0.835169 0.486303
0.692228 0.849562 0.479235
0.781534 0.864225 0.476058
0.883464 0.880518 0.485279
0.976508 0.900959 0.487883
0.288651 0.851085 0.518488
0.330338 0.857066 0.512876
0.397913 0.867418 0.504672
0.509809 0.884781 0.491537
0.611299 0.900602 0.480059
0.704795 0.914277 0.471456
0.793795 0.926275 0.463150
0.894128 0.939864 0.465397
0.997890 0.952828 0.476655
0.000097 0.019765 0.404752
0.023244 0.022249 0.405835
0.110057 0.040844 0.438232
0.316266 0.079955 0.507671
0.488629 0.117435 0.557760
0.624399 0.137079 0.574357
0.740747 0.137296 0.571629
0.851686 0.138334 0.565426
0.939396 0.139378 0.561114
0.010063 0.066849 0.459308
0.125682 0.153636 0.534435
0.224669 0.157235 0.535759
0.348885 0.163883 0.539316
0.482342 0.171347 0.541439
0.609194 0.178916 0.543765
0.731521 0.180823 0.555243
0.848690 0.186371 0.568616
0.941426 0.188214 0.572014
0.060979 0.180609 0.563898
0.152216 0.239597 0.566162
0.263551 0.287793 0.575345
0.379328 0.289772 0.572731
0.502300 0.292138 0.569655
0.623745 0.295788 0.566986
0.743778 0.285540 0.578916
0.854453 0.271545 0.583574
0.942812 0.259962 0.589162
0.140013 0.319628 0.625324
0.187074 0.330069 0.591051
0.291534 0.378564 0.588377
0.400712 0.420068 0.591581
0.521799 0.426157 0.589375
0.637378 0.427892 0.588382
0.750093 0.425363 0.600023
0.854825 0.422500 0.608240
0.944229 0.421355 0.622251
0.182668 0.438422 0.634065
0.235314 0.448525 0.615837
0.328446 0.478072 0.604304
0.427987 0.517061 0.601274
0.525986 0.549955 0.599991
0.646668 0.558726 0.599506
0.755587 0.572339 0.608526
0.853360 0.578617 0.618329
0.946998 0.575914 0.639211
0.228003 0.588928 0.659954
0.282076 0.583243 0.636703
0.369295 0.601915 0.625009
0.461830 0.624847 0.614497
0.553140 0.649681 0.609214
0.642435 0.675259 0.607384
0.758721 0.699648 0.612668
0.851598 0.716911 0.611705
0.937941 0.722435 0.607666
0.266325 0.704962 0.669075
0.315800 0.706199 0.655019
0.395804 0.723808 0.646417
0.491763 0.742670 0.636267
0.589751 0.761860 0.628198
0.679605 0.780232 0.622477
0.768106 0.799415 0.620565
0.858431 0.821337 0.623112
0.945585 0.827738 0.612411
0.294906 0.798065 0.674045
0.338256 0.805646 0.668113
0.410001 0.817607 0.658282
0.515061 0.834153 0.646102
0.614453 0.849967 0.636262
0.704839 0.864671 0.628455
0.789408 0.878628 0.623037
0.882280 0.895010 0.626855
0.973874 0.913519 0.627883
0.310482 0.864538 0.676228
0.353664 0.871715 0.670869
0.420186 0.882688 0.662445
0.529540 0.901343 0.649563
0.630411 0.916898 0.638533
0.721614 0.929450 0.629488
0.805868 0.940482 0.620331
0.894405 0.951365 0.617058
0.989551 0.958361 0.622844
0.004124 0.037526 0.510903
0.042167 0.049749 0.535116
0.163084 0.086650 0.613258
0.369330 0.137018 0.685880
0.517170 0.155400 0.701620
0.637956 0.154970 0.695018
0.750944 0.154971 0.688109
0.854789 0.157352 0.677156
0.942862 0.158374 0.669678
0.035929 0.116247 0.617863
0.122999 0.159918 0.645723
0.224271 0.167023 0.652447
0.355014 0.177985 0.663241
0.495558 0.188490 0.671369
0.625045 0.196299 0.676171
0.742125 0.202556 0.676435
0.855562 0.203356 0.683554
0.948438 0.204290 0.678542
0.105552 0.236093 0.735306
0.151583 0.251228 0.690402
0.253840 0.288101 0.702517
0.380187 0.291034 0.702131
0.513021 0.295441 0.702073
0.637666 0.299487 0.701083
0.751793 0.302610 0.696548
0.861348 0.284369 0.695965
0.955222 0.270690 0.689616
0.147356 0.329084 0.743736
0.188221 0.343081 0.717333
0.286145 0.386484 0.724780
0.399335 0.427006 0.722118
0.526766 0.431701 0.720755
0.646735 0.432976 0.718271
0.759468 0.433669 0.713808
0.868485 0.429209 0.714762
0.963213 0.427952 0.717943
0.174012 0.428366 0.756319
0.230199 0.446433 0.741140
0.320815 0.479373 0.738409
0.428773 0.524841 0.733127
0.540793 0.569559 0.722659
0.657540 0.579075 0.723319
0.764262 0.580409 0.723221
0.867790 0.585290 0.730073
0.964250 0.584190 0.745080
0.215728 0.560786 0.767996
0.276328 0.571837 0.758224
0.360422 0.594867 0.751132
0.462651 0.624467 0.741245
0.567844 0.662581 0.733872
0.663317 0.701068 0.729322
0.770269 0.710526 0.729640
0.866290 0.720385 0.732221
0.960595 0.717662 0.744452
0.263605 0.685293 0.783464
0.319064 0.699556 0.774124
0.400347 0.721064 0.767458
0.498602 0.743582 0.757071
0.598427 0.764969 0.745487
0.685636 0.787226 0.738107
0.769165 0.813311 0.734228
0.868418 0.829501 0.735876
0.958582 0.833329 0.727918
0.303389 0.796837 0.798774
0.348585 0.807494 0.792422
0.421583 0.824859 0.785287
0.526863 0.844254 0.772431
0.625397 0.860269 0.760641
0.713045 0.875113 0.751529
0.795029 0.890436 0.744338
0.882495 0.909553 0.743051
0.973906 0.923590 0.741099
0.329614 0.878408 0.805492
0.372429 0.888351 0.801464
0.435718 0.899165 0.792222
0.543103 0.916495 0.778103
0.642390 0.930502 0.766510
0.731704 0.942208 0.756646
0.812931 0.952430 0.746015
0.894465 0.959481 0.738811
0.991447 0.967531 0.740528
0.019527 0.068749 0.640895
0.073609 0.092498 0.700665
0.214910 0.139028 0.772082
0.397075 0.171917 0.813316
0.528048 0.172344 0.801596
0.644088 0.172307 0.791956
0.755807 0.172070 0.785351
0.860823 0.173002 0.775454
0.948893 0.174078 0.766297
0.066592 0.172435 0.775618
0.132201 0.186007 0.783528
0.239582 0.198910 0.797831
0.391467 0.212201 0.810563
0.526783 0.216662 0.808806
0.645685 0.217931 0.800570
0.756875 0.218507 0.791877
0.860628 0.219686 0.782328
0.952901 0.220388 0.774041
0.124780 0.257191 0.841044
0.164648 0.279052 0.835044
0.258251 0.299693 0.835035
0.397043 0.299596 0.828801
0.528190 0.298879 0.821226
0.648338 0.298460 0.812983
0.760496 0.298340 0.804344
0.865581 0.298812 0.794724
0.957661 0.286199 0.783517
0.150188 0.349088 0.848628
0.197377 0.367977 0.849776
0.282217 0.400495 0.847619
0.400527 0.438944 0.841776
0.531205 0.440176 0.834550
0.652385 0.440029 0.828407
0.765689 0.439688 0.821984
0.873088 0.439973 0.813713
0.970623 0.438146 0.806057
0.175627 0.439022 0.857562
0.227719 0.455462 0.856631
0.311366 0.488074 0.853975
0.429941 0.535851 0.846706
0.539627 0.581934 0.834995
0.655608 0.589921 0.833023
0.768917 0.590029 0.831466
0.878352 0.589522 0.828645
0.977972 0.592132 0.828917
0.216709 0.545777 0.869732
0.263796 0.557223 0.867445
0.342405 0.578957 0.861767
0.457966 0.617621 0.851928
0.568653 0.663578 0.840984
0.666282 0.711334 0.828303
0.770897 0.724680 0.827355
0.876770 0.724400 0.831941
0.977409 0.719389 0.847396
0.264568 0.672837 0.887087
0.309505 0.683476 0.881440
0.385566 0.704034 0.876684
0.496337 0.733295 0.866860
0.600797 0.760079 0.853710
0.694270 0.787696 0.838934
0.780504 0.825878 0.832196
0.881512 0.835887 0.833462
0.973130 0.832983 0.836219
0.306541 0.786085 0.899163
0.349911 0.796298 0.894583
0.424345 0.818297 0.890074
0.531281 0.844662 0.880769
0.632113 0.864117 0.867961
0.720979 0.878090 0.854290
0.802572 0.894724 0.843370
0.887645 0.922478 0.839527
0.977407 0.931537 0.836524
0.339871 0.878620 0.907677
0.381818 0.891241 0.905121
0.445275 0.906628 0.898912
0.552987 0.926614 0.885960
0.652382 0.940144 0.873304
0.739369 0.951854 0.862610
0.818794 0.960471 0.851628
0.898009 0.966106 0.841446
0.995956 0.983973 0.840629
0.058102 0.115600 0.806074
0.112659 0.145434 0.852354
0.253869 0.180983 0.906467
0.405539 0.189802 0.902942
0.536335 0.188528 0.894471
0.652696 0.187578 0.887825
0.761714 0.187522 0.879098
0.865703 0.188445 0.868201
0.952900 0.190153 0.857125
0.104717 0.221443 0.920269
0.162718 0.228834 0.925575
0.263099 0.233429 0.928090
0.405218 0.233968 0.912147
0.536664 0.233239 0.902367
0.653681 0.232926 0.895484
0.763058 0.233334 0.886450
0.867320 0.234490 0.875381
0.956418 0.236300 0.864610
0.130310 0.276525 0.941996
0.175696 0.293987 0.942909
0.259495 0.304792 0.935329
0.404099 0.302422 0.923861
0.538099 0.301047 0.914340
0.655621 0.299964 0.906216
0.765287 0.299505 0.896540
0.870577 0.299484 0.885864
0.961143 0.300694 0.874176
0.154045 0.365811 0.950458
0.199683 0.382635 0.949381
0.279574 0.410973 0.946991
0.405492 0.450587 0.941797
0.541154 0.449701 0.937373
0.660820 0.449607 0.929515
0.771036 0.450496 0.917572
0.877151 0.451123 0.906149
0.972551 0.451809 0.896117
0.185846 0.452093 0.959526
0.235787 0.470674 0.959420
0.314715 0.499154 0.957536
0.439151 0.546828 0.951094
0.548195 0.591669 0.945254
0.663458 0.600154 0.939912
0.775480 0.600777 0.932865
0.883725 0.601546 0.924659
0.983041 0.602502 0.915702
0.218923 0.534049 0.967219
0.266315 0.549789 0.966025
0.340954 0.576345 0.962338
0.463587 0.624445 0.955957
0.574236 0.670148 0.948704
0.671938 0.713573 0.939599
0.777448 0.728918 0.935875
0.886618 0.729205 0.932668
0.988648 0.727446 0.932642
0.264946 0.656708 0.977835
0.308551 0.668147 0.977730
0.377203 0.685999 0.973123
0.493127 0.716261 0.964032
0.598239 0.746196 0.954251
0.693717 0.780356 0.943349
0.786130 0.824628 0.929729
0.886718 0.839846 0.926315
0.987603 0.833084 0.939595
0.306088 0.771147 0.989219
0.350412 0.783871 0.986915
0.417608 0.803391 0.983703
0.531723 0.836348 0.978364
0.634923 0.863031 0.969209
0.724998 0.882461 0.958580
0.811862 0.900871 0.939654
0.894984 0.929756 0.928964
0.987175 0.936304 0.929489
0.339151 0.866920 1.000000
0.384723 0.882694 0.997841
0.452004 0.905337 0.994529
0.561525 0.932545 0.985873
0.659958 0.949181 0.975674
0.745706 0.960331 0.964587
0.823389 0.966798 0.951393
0.903251 0.976659 0.937431
1.000000 1.000000 0.934323
