cubelut/FILM-KPC_KODAK_PROFESSIONAL_COLD_LUT.cube
TITLE "Photo Curves LUT"
LUT_3D_SIZE 33
0.03137254901960784 0.050980392156862744 0.0
0.047058823529411764 0.050980392156862744 0.0
0.07058823529411765 0.050980392156862744 0.0
0.09803921568627451 0.050980392156862744 0.0
0.12156862745098039 0.050980392156862744 0.0
0.1450980392156863 0.050980392156862744 0.0
0.16862745098039217 0.050980392156862744 0.0
0.19607843137254902 0.050980392156862744 0.0
0.2235294117647059 0.050980392156862744 0.0
0.25098039215686274 0.050980392156862744 0.0
0.2901960784313726 0.050980392156862744 0.0
0.32941176470588235 0.050980392156862744 0.0
0.3764705882352941 0.050980392156862744 0.0
0.41568627450980394 0.050980392156862744 0.0
0.4549019607843137 0.050980392156862744 0.0
0.4823529411764706 0.050980392156862744 0.0
0.5176470588235295 0.050980392156862744 0.0
0.5490196078431373 0.050980392156862744 0.0196078431372549
0.5882352941176471 0.058823529411764705 0.054901960784313725
0.6196078431372549 0.07058823529411765 0.07450980392156863
0.6509803921568628 0.08235294117647059 0.09019607843137255
0.6862745098039216 0.08627450980392157 0.09411764705882353
0.7176470588235294 0.09411764705882353 0.10196078431372549
0.7529411764705882 0.10196078431372549 0.11764705882352941
0.788235294117647 0.11372549019607843 0.12549019607843137
0.8156862745098039 0.12156862745098039 0.13333333333333333
0.8509803921568627 0.12549019607843137 0.1411764705882353
0.8745098039215686 0.12156862745098039 0.13725490196078433
0.9019607843137255 0.11372549019607843 0.12549019607843137
0.9254901960784314 0.09803921568627451 0.10980392156862745
0.9450980392156862 0.08627450980392157 0.09803921568627451
0.9647058823529412 0.08627450980392157 0.09019607843137255
0.984313725490196 0.08235294117647059 0.09019607843137255
0.03137254901960784 0.06274509803921569 0.0
0.043137254901960784 0.06666666666666667 0.0
0.07058823529411765 0.054901960784313725 0.0
0.09803921568627451 0.054901960784313725 0.0
0.12156862745098039 0.050980392156862744 0.0
0.1450980392156863 0.050980392156862744 0.0
0.16862745098039217 0.050980392156862744 0.0
0.19607843137254902 0.050980392156862744 0.0
0.2235294117647059 0.050980392156862744 0.0
0.25098039215686274 0.050980392156862744 0.0
0.2901960784313726 0.050980392156862744 0.0
0.32941176470588235 0.050980392156862744 0.0
0.3764705882352941 0.050980392156862744 0.0
0.41568627450980394 0.050980392156862744 0.0
0.45098039215686275 0.050980392156862744 0.0
0.4823529411764706 0.050980392156862744 0.0
0.5176470588235295 0.050980392156862744 0.0
0.5490196078431373 0.06274509803921569 0.0196078431372549
0.5882352941176471 0.08627450980392157 0.054901960784313725
0.6196078431372549 0.09803921568627451 0.07450980392156863
0.6509803921568628 0.10588235294117647 0.08627450980392157
0.6862745098039216 0.11372549019607843 0.09411764705882353
0.7215686274509804 0.12156862745098039 0.10196078431372549
0.7529411764705882 0.12549019607843137 0.10980392156862745
0.788235294117647 0.13333333333333333 0.12549019607843137
0.8196078431372549 0.1450980392156863 0.13725490196078433
0.8509803921568627 0.1450980392156863 0.1411764705882353
0.8784313725490196 0.1450980392156863 0.13725490196078433
0.9019607843137255 0.13725490196078433 0.12549019607843137
0.9254901960784314 0.12549019607843137 0.10980392156862745
0.9450980392156862 0.11372549019607843 0.09411764705882353
0.9647058823529412 0.10980392156862745 0.09019607843137255
0.984313725490196 0.11372549019607843 0.09019607843137255
0.03137254901960784 0.08627450980392157 0.0
0.03137254901960784 0.09019607843137255 0.0
0.06274509803921569 0.09019607843137255 0.0
0.09803921568627451 0.07450980392156863 0.0
0.12156862745098039 0.06666666666666667 0.0
0.1450980392156863 0.06666666666666667 0.0
0.16862745098039217 0.06274509803921569 0.0
0.19215686274509805 0.06274509803921569 0.0
0.21568627450980393 0.058823529411764705 0.0
0.25098039215686274 0.054901960784313725 0.0
0.2901960784313726 0.050980392156862744 0.0
0.32941176470588235 0.050980392156862744 0.0
0.3764705882352941 0.050980392156862744 0.0
0.4117647058823529 0.050980392156862744 0.0
0.45098039215686275 0.050980392156862744 0.0
0.4823529411764706 0.054901960784313725 0.0
0.5176470588235295 0.07058823529411765 0.0
0.5490196078431373 0.09411764705882353 0.01568627450980392
0.5882352941176471 0.10980392156862745 0.047058823529411764
0.6196078431372549 0.12156862745098039 0.06666666666666667
0.6509803921568628 0.12941176470588237 0.08235294117647059
0.6862745098039216 0.13333333333333333 0.09019607843137255
0.7254901960784313 0.1450980392156863 0.09803921568627451
0.7529411764705882 0.14901960784313725 0.10980392156862745
0.792156862745098 0.15294117647058825 0.12549019607843137
0.8196078431372549 0.1607843137254902 0.13333333333333333
0.8509803921568627 0.16862745098039217 0.13725490196078433
0.8784313725490196 0.16862745098039217 0.13333333333333333
0.9019607843137255 0.15294117647058825 0.12549019607843137
0.9254901960784314 0.14901960784313725 0.10588235294117647
0.9450980392156862 0.13725490196078433 0.09411764705882353
0.9647058823529412 0.13333333333333333 0.09019607843137255
0.984313725490196 0.13333333333333333 0.09019607843137255
0.03137254901960784 0.10588235294117647 0.0
0.03137254901960784 0.10980392156862745 0.0
0.0392156862745098 0.11372549019607843 0.0
0.09019607843137255 0.11372549019607843 0.0
0.12156862745098039 0.09803921568627451 0.0
0.1450980392156863 0.09019607843137255 0.0
0.16862745098039217 0.08235294117647059 0.0
0.19215686274509805 0.08235294117647059 0.0
0.2235294117647059 0.07450980392156863 0.0
0.25098039215686274 0.07058823529411765 0.0
0.2901960784313726 0.06666666666666667 0.0
0.32941176470588235 0.06274509803921569 0.0
0.3764705882352941 0.058823529411764705 0.0
0.41568627450980394 0.058823529411764705 0.0
0.4549019607843137 0.06274509803921569 0.0
0.4823529411764706 0.07450980392156863 0.0
0.5176470588235295 0.09411764705882353 0.0
0.5529411764705883 0.11372549019607843 0.00392156862745098
0.5882352941176471 0.12549019607843137 0.03529411764705882
0.6235294117647059 0.13725490196078433 0.06274509803921569
0.6549019607843137 0.14901960784313725 0.07450980392156863
0.6901960784313725 0.15294117647058825 0.08627450980392157
0.7254901960784313 0.1607843137254902 0.09411764705882353
0.7607843137254902 0.16862745098039217 0.10980392156862745
0.792156862745098 0.17647058823529413 0.12156862745098039
0.8235294117647058 0.1843137254901961 0.12549019607843137
0.8509803921568627 0.18823529411764706 0.13333333333333333
0.8784313725490196 0.1843137254901961 0.12549019607843137
0.9058823529411765 0.1803921568627451 0.12156862745098039
0.9254901960784314 0.16862745098039217 0.09803921568627451
0.9450980392156862 0.1607843137254902 0.09019607843137255
0.9647058823529412 0.15294117647058825 0.08235294117647059
0.984313725490196 0.1607843137254902 0.08627450980392157
0.03137254901960784 0.12549019607843137 0.0
0.03137254901960784 0.12941176470588237 0.0
0.03137254901960784 0.13333333333333333 0.0
0.06274509803921569 0.13333333333333333 0.0
0.11372549019607843 0.12941176470588237 0.0
0.1411764705882353 0.12156862745098039 0.0
0.16862745098039217 0.10980392156862745 0.0
0.19607843137254902 0.09803921568627451 0.0
0.2235294117647059 0.09411764705882353 0.0
0.2549019607843137 0.08627450980392157 0.0
0.2901960784313726 0.08235294117647059 0.0
0.3333333333333333 0.07450980392156863 0.0
0.3764705882352941 0.07450980392156863 0.0
0.41568627450980394 0.07450980392156863 0.0
0.4549019607843137 0.08627450980392157 0.0
0.48627450980392156 0.09803921568627451 0.0
0.5176470588235295 0.11372549019607843 0.0
0.5529411764705883 0.12941176470588237 0.0
0.592156862745098 0.1450980392156863 0.023529411764705882
0.6235294117647059 0.15294117647058825 0.047058823529411764
0.6627450980392157 0.16862745098039217 0.06666666666666667
0.6941176470588235 0.17254901960784313 0.07450980392156863
0.7254901960784313 0.17647058823529413 0.08235294117647059
0.7607843137254902 0.18823529411764706 0.09803921568627451
0.792156862745098 0.19607843137254902 0.10980392156862745
0.8235294117647058 0.20784313725490197 0.12156862745098039
0.8549019607843137 0.21176470588235294 0.12549019607843137
0.8823529411764706 0.20784313725490197 0.12549019607843137
0.9019607843137255 0.2 0.10980392156862745
0.9294117647058824 0.18823529411764706 0.09019607843137255
0.9450980392156862 0.17647058823529413 0.07450980392156863
0.9647058823529412 0.17647058823529413 0.07450980392156863
0.984313725490196 0.17647058823529413 0.07450980392156863
0.03137254901960784 0.1450980392156863 0.0
0.03137254901960784 0.14901960784313725 0.0
0.03137254901960784 0.14901960784313725 0.0
0.047058823529411764 0.14901960784313725 0.0
0.09411764705882353 0.14901960784313725 0.0
0.13333333333333333 0.14901960784313725 0.0
0.16470588235294117 0.1450980392156863 0.0
0.19215686274509805 0.12941176470588237 0.0
0.2235294117647059 0.11764705882352941 0.0
0.2549019607843137 0.10980392156862745 0.0
0.2901960784313726 0.10196078431372549 0.0
0.3333333333333333 0.09803921568627451 0.0
0.3764705882352941 0.09803921568627451 0.0
0.4196078431372549 0.09803921568627451 0.0
0.4549019607843137 0.10588235294117647 0.0
0.49019607843137253 0.11764705882352941 0.0
0.5215686274509804 0.12941176470588237 0.0
0.5607843137254902 0.14901960784313725 0.0
0.592156862745098 0.1607843137254902 0.00392156862745098
0.6274509803921569 0.17647058823529413 0.03137254901960784
0.6627450980392157 0.1843137254901961 0.050980392156862744
0.6980392156862745 0.18823529411764706 0.06274509803921569
0.7333333333333333 0.20392156862745098 0.07450980392156863
0.7607843137254902 0.20784313725490197 0.08235294117647059
0.796078431372549 0.2196078431372549 0.09803921568627451
0.8235294117647058 0.23137254901960785 0.10980392156862745
0.8549019607843137 0.23137254901960785 0.10980392156862745
0.8823529411764706 0.23137254901960785 0.10980392156862745
0.9058823529411765 0.2235294117647059 0.09803921568627451
0.9294117647058824 0.21176470588235294 0.08235294117647059
0.9490196078431372 0.20784313725490197 0.07450980392156863
0.9647058823529412 0.2 0.058823529411764705
0.984313725490196 0.20392156862745098 0.06274509803921569
0.03137254901960784 0.1607843137254902 0.0
0.03137254901960784 0.16470588235294117 0.0
0.03137254901960784 0.16862745098039217 0.0
0.03137254901960784 0.17254901960784313 0.0
0.07058823529411765 0.17254901960784313 0.0
0.10980392156862745 0.17254901960784313 0.0
0.15294117647058825 0.17254901960784313 0.0
0.18823529411764706 0.16470588235294117 0.0
0.2235294117647059 0.14901960784313725 0.0
0.2549019607843137 0.13725490196078433 0.0
0.2901960784313726 0.12549019607843137 0.0
0.3333333333333333 0.12156862745098039 0.0
0.3764705882352941 0.11764705882352941 0.0
0.4196078431372549 0.11764705882352941 0.0
0.4588235294117647 0.12156862745098039 0.0
0.49411764705882355 0.13333333333333333 0.0
0.5294117647058824 0.14901960784313725 0.0
0.5607843137254902 0.1607843137254902 0.0
0.6 0.17647058823529413 0.0
0.6313725490196078 0.18823529411764706 0.011764705882352941
0.6666666666666666 0.20392156862745098 0.027450980392156862
0.6980392156862745 0.21176470588235294 0.043137254901960784
0.7333333333333333 0.2235294117647059 0.058823529411764705
0.7686274509803922 0.23529411764705882 0.07450980392156863
0.8 0.24705882352941178 0.08627450980392157
0.8235294117647058 0.2549019607843137 0.09019607843137255
0.8588235294117647 0.25882352941176473 0.09803921568627451
0.8862745098039215 0.25882352941176473 0.09803921568627451
0.9098039215686274 0.2549019607843137 0.09019607843137255
0.9294117647058824 0.23529411764705882 0.06274509803921569
0.9490196078431372 0.23137254901960785 0.054901960784313725
0.9686274509803922 0.2235294117647059 0.043137254901960784
0.984313725490196 0.22745098039215686 0.054901960784313725
0.03137254901960784 0.1803921568627451 0.0
0.03137254901960784 0.1843137254901961 0.0
0.03137254901960784 0.18823529411764706 0.0
0.03137254901960784 0.19607843137254902 0.0
0.043137254901960784 0.2 0.0
0.08627450980392157 0.2 0.0
0.12941176470588237 0.2 0.0
0.17647058823529413 0.2 0.0
0.21568627450980393 0.18823529411764706 0.0
0.2549019607843137 0.17254901960784313 0.0
0.2901960784313726 0.1607843137254902 0.0
0.33725490196078434 0.14901960784313725 0.0
0.3843137254901961 0.1450980392156863 0.0
0.4235294117647059 0.13725490196078433 0.0
0.4588235294117647 0.1450980392156863 0.0
0.49411764705882355 0.14901960784313725 0.0
0.5294117647058824 0.16862745098039217 0.0
0.5647058823529412 0.1803921568627451 0.0
0.6 0.19607843137254902 0.0
0.6352941176470588 0.21176470588235294 0.0
0.6666666666666666 0.2235294117647059 0.00784313725490196
0.7058823529411765 0.23529411764705882 0.0196078431372549
0.7333333333333333 0.24313725490196078 0.03137254901960784
0.7725490196078432 0.25882352941176473 0.054901960784313725
0.8 0.27450980392156865 0.06274509803921569
0.8313725490196079 0.28627450980392155 0.07450980392156863
0.8627450980392157 0.2901960784313726 0.08235294117647059
0.8862745098039215 0.29411764705882354 0.08235294117647059
0.9137254901960784 0.2823529411764706 0.06666666666666667
0.9333333333333333 0.26666666666666666 0.050980392156862744
0.9490196078431372 0.2549019607843137 0.03529411764705882
0.9686274509803922 0.2549019607843137 0.03529411764705882
0.9882352941176471 0.25882352941176473 0.03529411764705882
0.03137254901960784 0.20784313725490197 0.0
0.03137254901960784 0.20784313725490197 0.0
0.03137254901960784 0.21568627450980393 0.0
0.03137254901960784 0.2235294117647059 0.0
0.03137254901960784 0.22745098039215686 0.0
0.058823529411764705 0.23137254901960785 0.0
0.10588235294117647 0.23137254901960785 0.0
0.15294117647058825 0.23137254901960785 0.0
0.2 0.23137254901960785 0.0
0.2549019607843137 0.2235294117647059 0.0
0.2980392156862745 0.20392156862745098 0.0
0.3411764705882353 0.1843137254901961 0.0
0.3843137254901961 0.17254901960784313 0.0
0.42745098039215684 0.16862745098039217 0.0
0.4666666666666667 0.16862745098039217 0.0
0.5019607843137255 0.17647058823529413 0.0
0.5372549019607843 0.18823529411764706 0.0
0.5725490196078431 0.20784313725490197 0.0
0.6078431372549019 0.2196078431372549 0.0
0.6431372549019608 0.23921568627450981 0.0
0.6784313725490196 0.2549019607843137 0.0
0.7098039215686275 0.2627450980392157 0.0
0.7411764705882353 0.27450980392156865 0.011764705882352941
0.7764705882352941 0.28627450980392155 0.023529411764705882
0.807843137254902 0.30196078431372547 0.043137254901960784
0.8352941176470589 0.3176470588235294 0.054901960784313725
0.8627450980392157 0.3254901960784314 0.06666666666666667
0.8862745098039215 0.3254901960784314 0.06274509803921569
0.9137254901960784 0.30980392156862746 0.047058823529411764
0.9333333333333333 0.30196078431372547 0.027450980392156862
0.9529411764705882 0.28627450980392155 0.0196078431372549
0.9725490196078431 0.28627450980392155 0.0196078431372549
0.9882352941176471 0.28627450980392155 0.01568627450980392
0.03137254901960784 0.23529411764705882 0.0
0.03137254901960784 0.24313725490196078 0.0
0.03137254901960784 0.24705882352941178 0.0
0.03137254901960784 0.25882352941176473 0.0
0.03137254901960784 0.2627450980392157 0.0
0.03137254901960784 0.27058823529411763 0.0
0.08235294117647059 0.27450980392156865 0.0
0.12941176470588237 0.27450980392156865 0.0
0.17647058823529413 0.27450980392156865 0.0
0.23137254901960785 0.27450980392156865 0.0
0.2980392156862745 0.27058823529411763 0.0
0.3411764705882353 0.23921568627450981 0.0
0.39215686274509803 0.2196078431372549 0.0
0.43529411764705883 0.20784313725490197 0.0
0.47058823529411764 0.20392156862745098 0.0
0.5098039215686274 0.20784313725490197 0.0
0.5411764705882353 0.2196078431372549 0.0
0.5764705882352941 0.23529411764705882 0.0
0.615686274509804 0.25098039215686274 0.0
0.6509803921568628 0.26666666666666666 0.0
0.6823529411764706 0.2823529411764706 0.0
0.7137254901960784 0.29411764705882354 0.0
0.7450980392156863 0.30196078431372547 0.0
0.7764705882352941 0.3176470588235294 0.0
0.8117647058823529 0.33725490196078434 0.0196078431372549
0.8352941176470589 0.34509803921568627 0.027450980392156862
0.8666666666666667 0.35294117647058826 0.03529411764705882
0.8901960784313725 0.35294117647058826 0.03137254901960784
0.9137254901960784 0.34509803921568627 0.0196078431372549
0.9372549019607843 0.3333333333333333 0.00784313725490196
0.9568627450980393 0.3215686274509804 0.0
0.9725490196078431 0.3176470588235294 0.0
0.9882352941176471 0.3215686274509804 0.0
0.03137254901960784 0.27450980392156865 0.0
0.03137254901960784 0.2823529411764706 0.0
0.03137254901960784 0.2901960784313726 0.0
0.03137254901960784 0.30196078431372547 0.0
0.03137254901960784 0.3058823529411765 0.0
0.03137254901960784 0.3176470588235294 0.0
0.047058823529411764 0.3215686274509804 0.0
0.10588235294117647 0.3254901960784314 0.0
0.15294117647058825 0.3254901960784314 0.0
0.20784313725490197 0.3254901960784314 0.0
0.27058823529411763 0.3333333333333333 0.0
0.3568627450980392 0.3333333333333333 0.0
0.4 0.2980392156862745 0.0
0.44313725490196076 0.27450980392156865 0.0
0.4823529411764706 0.25882352941176473 0.0
0.5176470588235295 0.25882352941176473 0.0
0.5529411764705883 0.27058823529411763 0.0
0.5882352941176471 0.2823529411764706 0.0
0.6235294117647059 0.2980392156862745 0.0
0.6549019607843137 0.30980392156862746 0.0
0.6862745098039216 0.3215686274509804 0.0
0.7254901960784313 0.3333333333333333 0.0
0.7490196078431373 0.34509803921568627 0.0
0.7803921568627451 0.3568627450980392 0.0
0.8156862745098039 0.3686274509803922 0.0
0.8431372549019608 0.3843137254901961 0.00784313725490196
0.8666666666666667 0.38823529411764707 0.011764705882352941
0.8941176470588236 0.38823529411764707 0.00784313725490196
0.9137254901960784 0.3764705882352941 0.0
0.9372549019607843 0.3568627450980392 0.0
0.9568627450980393 0.35294117647058826 0.0
0.9725490196078431 0.34509803921568627 0.0
0.9921568627450981 0.3568627450980392 0.0
0.03137254901960784 0.3176470588235294 0.0
0.03137254901960784 0.3254901960784314 0.0
0.03137254901960784 0.33725490196078434 0.0
0.03137254901960784 0.34509803921568627 0.0
0.03137254901960784 0.3568627450980392 0.0
0.03137254901960784 0.36470588235294116 0.0
0.03137254901960784 0.3764705882352941 0.0
0.0784313725490196 0.3803921568627451 0.0
0.12941176470588237 0.38823529411764707 0.0
0.1843137254901961 0.39215686274509803 0.0
0.24313725490196078 0.39215686274509803 0.0
0.32941176470588235 0.396078431372549 0.0
0.41568627450980394 0.396078431372549 0.0
0.4549019607843137 0.36470588235294116 0.0
0.49019607843137253 0.3411764705882353 0.0
0.5294117647058824 0.33725490196078434 0.0
0.5607843137254902 0.33725490196078434 0.0
0.592156862745098 0.3411764705882353 0.0
0.6313725490196078 0.35294117647058826 0.0
0.6627450980392157 0.3568627450980392 0.0
0.6941176470588235 0.3686274509803922 0.0
0.7254901960784313 0.3764705882352941 0.0
0.7529411764705882 0.3843137254901961 0.0
0.788235294117647 0.39215686274509803 0.0
0.8156862745098039 0.403921568627451 0.0
0.8431372549019608 0.41568627450980394 0.0
0.8745098039215686 0.4235294117647059 0.0
0.8941176470588236 0.4196078431372549 0.0
0.9215686274509803 0.40784313725490196 0.0
0.9411764705882353 0.396078431372549 0.0
0.9568627450980393 0.38823529411764707 0.0
0.9764705882352941 0.39215686274509803 0.0
0.996078431372549 0.39215686274509803 0.0
0.03137254901960784 0.36470588235294116 0.0
0.03137254901960784 0.3764705882352941 0.0
0.03137254901960784 0.39215686274509803 0.0
0.03137254901960784 0.403921568627451 0.0
0.03137254901960784 0.4117647058823529 0.0
0.03137254901960784 0.4196078431372549 0.0
0.03137254901960784 0.43137254901960786 0.0
0.050980392156862744 0.43137254901960786 0.0
0.11372549019607843 0.44313725490196076 0.0
0.16470588235294117 0.4470588235294118 0.0
0.2235294117647059 0.4470588235294118 0.0
0.2980392156862745 0.4549019607843137 0.0
0.3843137254901961 0.4549019607843137 0.0
0.4666666666666667 0.4588235294117647 0.0
0.5019607843137255 0.43137254901960786 0.0
0.5372549019607843 0.4196078431372549 0.0
0.5725490196078431 0.40784313725490196 0.0
0.6078431372549019 0.41568627450980394 0.0
0.6392156862745098 0.41568627450980394 0.0
0.6705882352941176 0.4196078431372549 0.0
0.7019607843137254 0.4235294117647059 0.0
0.7333333333333333 0.4235294117647059 0.0
0.7607843137254902 0.42745098039215684 0.0
0.792156862745098 0.43137254901960786 0.0
0.8235294117647058 0.44313725490196076 0.0
0.8509803921568627 0.4549019607843137 0.0
0.8745098039215686 0.4549019607843137 0.0
0.9019607843137255 0.4549019607843137 0.0
0.9254901960784314 0.4470588235294118 0.0
0.9411764705882353 0.43137254901960786 0.0
0.9607843137254902 0.42745098039215684 0.0
0.9764705882352941 0.4235294117647059 0.0
0.996078431372549 0.42745098039215684 0.0
0.03137254901960784 0.4196078431372549 0.0
0.03137254901960784 0.42745098039215684 0.0
0.03137254901960784 0.44313725490196076 0.0
0.03137254901960784 0.4549019607843137 0.0
0.03137254901960784 0.4627450980392157 0.0
0.03137254901960784 0.47058823529411764 0.0
0.03137254901960784 0.47843137254901963 0.0
0.03529411764705882 0.48627450980392156 0.0
0.09803921568627451 0.49019607843137253 0.0
0.14901960784313725 0.49411764705882355 0.0
0.20392156862745098 0.4980392156862745 0.0
0.27058823529411763 0.5019607843137255 0.0
0.3607843137254902 0.5058823529411764 0.0
0.4392156862745098 0.5058823529411764 0.0
0.5098039215686274 0.5137254901960784 0.0
0.5450980392156862 0.49411764705882355 0.0
0.5803921568627451 0.48627450980392156 0.0
0.615686274509804 0.47843137254901963 0.0
0.6470588235294118 0.47843137254901963 0.0
0.6784313725490196 0.4745098039215686 0.0
0.7058823529411765 0.4745098039215686 0.0
0.7411764705882353 0.4745098039215686 0.0
0.7725490196078432 0.4745098039215686 0.0
0.796078431372549 0.4745098039215686 0.0
0.8235294117647058 0.48627450980392156 0.0
0.8549019607843137 0.48627450980392156 0.0
0.8784313725490196 0.48627450980392156 0.0
0.9019607843137255 0.48627450980392156 0.0
0.9254901960784314 0.4745098039215686 0.0
0.9411764705882353 0.4666666666666667 0.0
0.9607843137254902 0.4588235294117647 0.0
0.9803921568627451 0.4549019607843137 0.0
0.996078431372549 0.4588235294117647 0.0
0.03137254901960784 0.47058823529411764 0.0
0.03137254901960784 0.47843137254901963 0.0
0.03137254901960784 0.49019607843137253 0.0
0.03137254901960784 0.4980392156862745 0.0
0.03137254901960784 0.5098039215686274 0.0
0.03137254901960784 0.5137254901960784 0.0
0.03137254901960784 0.5254901960784314 0.0
0.03137254901960784 0.5333333333333333 0.0
0.09411764705882353 0.5333333333333333 0.0
0.1411764705882353 0.5372549019607843 0.0
0.18823529411764706 0.5372549019607843 0.0
0.2549019607843137 0.5450980392156862 0.0
0.3333333333333333 0.5490196078431373 0.0
0.4196078431372549 0.5490196078431373 0.0
0.4823529411764706 0.5490196078431373 0.0
0.5529411764705883 0.5568627450980392 0.0
0.5882352941176471 0.5490196078431373 0.0
0.6196078431372549 0.5372549019607843 0.0
0.6509803921568628 0.5333333333333333 0.0
0.6862745098039216 0.5333333333333333 0.0
0.7137254901960784 0.5254901960784314 0.0
0.7450980392156863 0.5254901960784314 0.0
0.7764705882352941 0.5215686274509804 0.0
0.803921568627451 0.5215686274509804 0.0
0.8313725490196079 0.5215686274509804 0.0
0.8588235294117647 0.5215686274509804 0.0
0.8823529411764706 0.5254901960784314 0.0
0.9058823529411765 0.5137254901960784 0.0
0.9254901960784314 0.5098039215686274 0.0
0.9450980392156862 0.4980392156862745 0.0
0.9647058823529412 0.49019607843137253 0.0
0.984313725490196 0.48627450980392156 0.0
0.996078431372549 0.48627450980392156 0.0
0.03137254901960784 0.5137254901960784 0.0
0.03137254901960784 0.5254901960784314 0.0
0.03137254901960784 0.5333333333333333 0.0
0.03137254901960784 0.5411764705882353 0.0
0.03137254901960784 0.5490196078431373 0.0
0.03137254901960784 0.5568627450980392 0.0
0.03137254901960784 0.5647058823529412 0.0
0.03137254901960784 0.5647058823529412 0.0
0.09411764705882353 0.5686274509803921 0.0
0.1411764705882353 0.5764705882352941 0.0
0.18823529411764706 0.5803921568627451 0.0
0.24705882352941178 0.5803921568627451 0.0
0.3215686274509804 0.5803921568627451 0.0
