cubelut/FILM-KDC_KODAK_90's_COLD_LUT.cube
TITLE "Photo Curves LUT"
LUT_3D_SIZE 33
0.09803921568627451 0.09803921568627451 0.21568627450980393
0.10196078431372549 0.09803921568627451 0.21568627450980393
0.10980392156862745 0.09803921568627451 0.21568627450980393
0.11764705882352941 0.09803921568627451 0.21568627450980393
0.12941176470588237 0.09803921568627451 0.21568627450980393
0.1450980392156863 0.09803921568627451 0.21568627450980393
0.16862745098039217 0.09803921568627451 0.21568627450980393
0.19607843137254902 0.09803921568627451 0.21568627450980393
0.22745098039215686 0.09803921568627451 0.21568627450980393
0.27058823529411763 0.09803921568627451 0.2196078431372549
0.3176470588235294 0.09803921568627451 0.2196078431372549
0.3686274509803922 0.09803921568627451 0.2196078431372549
0.4117647058823529 0.09803921568627451 0.2235294117647059
0.4470588235294118 0.09803921568627451 0.22745098039215686
0.47843137254901963 0.09803921568627451 0.22745098039215686
0.5098039215686274 0.09803921568627451 0.23137254901960785
0.5333333333333333 0.09803921568627451 0.23137254901960785
0.5568627450980392 0.09803921568627451 0.23137254901960785
0.5803921568627451 0.09803921568627451 0.23529411764705882
0.6 0.09803921568627451 0.23921568627450981
0.6196078431372549 0.09803921568627451 0.23921568627450981
0.6431372549019608 0.09803921568627451 0.23921568627450981
0.6666666666666666 0.09803921568627451 0.24313725490196078
0.6862745098039216 0.09803921568627451 0.24313725490196078
0.7058823529411765 0.09803921568627451 0.24313725490196078
0.7333333333333333 0.09803921568627451 0.24705882352941178
0.7607843137254902 0.09803921568627451 0.25098039215686274
0.788235294117647 0.09803921568627451 0.25098039215686274
0.8196078431372549 0.09803921568627451 0.25098039215686274
0.8549019607843137 0.09803921568627451 0.25098039215686274
0.8980392156862745 0.09803921568627451 0.2549019607843137
0.9294117647058824 0.09803921568627451 0.2549019607843137
0.9372549019607843 0.09803921568627451 0.2549019607843137
0.09411764705882353 0.09803921568627451 0.21568627450980393
0.10196078431372549 0.09803921568627451 0.21568627450980393
0.10980392156862745 0.09803921568627451 0.21568627450980393
0.11764705882352941 0.09803921568627451 0.21568627450980393
0.12941176470588237 0.10196078431372549 0.21568627450980393
0.1450980392156863 0.09803921568627451 0.21568627450980393
0.16862745098039217 0.09803921568627451 0.21568627450980393
0.19607843137254902 0.09803921568627451 0.21568627450980393
0.2235294117647059 0.09803921568627451 0.21568627450980393
0.27058823529411763 0.09803921568627451 0.21568627450980393
0.3176470588235294 0.09803921568627451 0.2196078431372549
0.3686274509803922 0.09803921568627451 0.2196078431372549
0.4117647058823529 0.09803921568627451 0.2235294117647059
0.4470588235294118 0.09803921568627451 0.22745098039215686
0.47843137254901963 0.09803921568627451 0.22745098039215686
0.5098039215686274 0.09803921568627451 0.23137254901960785
0.5333333333333333 0.09803921568627451 0.23137254901960785
0.5568627450980392 0.09803921568627451 0.23529411764705882
0.5803921568627451 0.09803921568627451 0.23529411764705882
0.6 0.09803921568627451 0.23921568627450981
0.6196078431372549 0.09803921568627451 0.23921568627450981
0.6431372549019608 0.09803921568627451 0.23921568627450981
0.6627450980392157 0.09803921568627451 0.23921568627450981
0.6862745098039216 0.09803921568627451 0.24313725490196078
0.7058823529411765 0.09803921568627451 0.24313725490196078
0.7294117647058823 0.09803921568627451 0.24705882352941178
0.7607843137254902 0.09803921568627451 0.25098039215686274
0.788235294117647 0.09803921568627451 0.25098039215686274
0.8196078431372549 0.09803921568627451 0.25098039215686274
0.8588235294117647 0.09803921568627451 0.25098039215686274
0.8980392156862745 0.09803921568627451 0.2549019607843137
0.9333333333333333 0.09803921568627451 0.2549019607843137
0.9372549019607843 0.09803921568627451 0.2549019607843137
0.09411764705882353 0.11372549019607843 0.21568627450980393
0.10196078431372549 0.11372549019607843 0.21568627450980393
0.10980392156862745 0.10980392156862745 0.21568627450980393
0.11764705882352941 0.10980392156862745 0.21568627450980393
0.12941176470588237 0.10588235294117647 0.21568627450980393
0.1450980392156863 0.10588235294117647 0.21568627450980393
0.16862745098039217 0.10588235294117647 0.21568627450980393
0.19607843137254902 0.10196078431372549 0.21568627450980393
0.22745098039215686 0.10196078431372549 0.21568627450980393
0.27058823529411763 0.10196078431372549 0.21568627450980393
0.3176470588235294 0.09803921568627451 0.21568627450980393
0.3686274509803922 0.09803921568627451 0.2196078431372549
0.4117647058823529 0.09803921568627451 0.2196078431372549
0.45098039215686275 0.09803921568627451 0.2235294117647059
0.47843137254901963 0.09803921568627451 0.22745098039215686
0.5098039215686274 0.09803921568627451 0.22745098039215686
0.5333333333333333 0.09803921568627451 0.23137254901960785
0.5568627450980392 0.09803921568627451 0.23137254901960785
0.5803921568627451 0.09803921568627451 0.23529411764705882
0.6 0.09803921568627451 0.23529411764705882
0.6196078431372549 0.09803921568627451 0.23921568627450981
0.6431372549019608 0.09803921568627451 0.23921568627450981
0.6666666666666666 0.09803921568627451 0.24313725490196078
0.6862745098039216 0.09803921568627451 0.24313725490196078
0.7098039215686275 0.09803921568627451 0.24313725490196078
0.7333333333333333 0.09803921568627451 0.24313725490196078
0.7607843137254902 0.09803921568627451 0.24705882352941178
0.796078431372549 0.09803921568627451 0.25098039215686274
0.8235294117647058 0.09803921568627451 0.25098039215686274
0.8588235294117647 0.09803921568627451 0.25098039215686274
0.8980392156862745 0.09803921568627451 0.2549019607843137
0.9333333333333333 0.09803921568627451 0.2549019607843137
0.9372549019607843 0.09803921568627451 0.2549019607843137
0.09411764705882353 0.12549019607843137 0.21568627450980393
0.09803921568627451 0.12549019607843137 0.21568627450980393
0.10588235294117647 0.12941176470588237 0.21568627450980393
0.11764705882352941 0.12549019607843137 0.21568627450980393
0.12941176470588237 0.12156862745098039 0.21568627450980393
0.14901960784313725 0.11764705882352941 0.21568627450980393
0.16862745098039217 0.11372549019607843 0.21568627450980393
0.2 0.11372549019607843 0.21568627450980393
0.22745098039215686 0.11372549019607843 0.21568627450980393
0.27450980392156865 0.11372549019607843 0.21568627450980393
0.3176470588235294 0.11372549019607843 0.21568627450980393
0.3686274509803922 0.10980392156862745 0.21568627450980393
0.41568627450980394 0.10980392156862745 0.2196078431372549
0.45098039215686275 0.10588235294117647 0.2196078431372549
0.4823529411764706 0.10588235294117647 0.2235294117647059
0.5098039215686274 0.10196078431372549 0.22745098039215686
0.5333333333333333 0.10196078431372549 0.22745098039215686
0.5568627450980392 0.09803921568627451 0.23137254901960785
0.5803921568627451 0.09803921568627451 0.23137254901960785
0.6 0.09803921568627451 0.23529411764705882
0.6196078431372549 0.09803921568627451 0.23529411764705882
0.6431372549019608 0.09803921568627451 0.23921568627450981
0.6666666666666666 0.09803921568627451 0.23921568627450981
0.6862745098039216 0.09803921568627451 0.23921568627450981
0.7098039215686275 0.09803921568627451 0.24313725490196078
0.7333333333333333 0.09803921568627451 0.24313725490196078
0.7607843137254902 0.09803921568627451 0.24705882352941178
0.796078431372549 0.09803921568627451 0.25098039215686274
0.8235294117647058 0.09803921568627451 0.25098039215686274
0.8588235294117647 0.09803921568627451 0.25098039215686274
0.8980392156862745 0.09803921568627451 0.25098039215686274
0.9333333333333333 0.09803921568627451 0.2549019607843137
0.9372549019607843 0.09803921568627451 0.2549019607843137
0.08627450980392157 0.13725490196078433 0.21568627450980393
0.09803921568627451 0.1411764705882353 0.21568627450980393
0.10588235294117647 0.1411764705882353 0.21568627450980393
0.11764705882352941 0.1411764705882353 0.21568627450980393
0.13333333333333333 0.13725490196078433 0.21568627450980393
0.15294117647058825 0.13333333333333333 0.21568627450980393
0.17254901960784313 0.12549019607843137 0.21568627450980393
0.2 0.12549019607843137 0.21568627450980393
0.23529411764705882 0.12156862745098039 0.21568627450980393
0.27450980392156865 0.12156862745098039 0.21568627450980393
0.3215686274509804 0.12156862745098039 0.21568627450980393
0.3686274509803922 0.12156862745098039 0.21568627450980393
0.41568627450980394 0.12156862745098039 0.21568627450980393
0.45098039215686275 0.12156862745098039 0.2196078431372549
0.4823529411764706 0.12156862745098039 0.2196078431372549
0.5137254901960784 0.11764705882352941 0.2196078431372549
0.5333333333333333 0.12156862745098039 0.22745098039215686
0.5568627450980392 0.11764705882352941 0.22745098039215686
0.5803921568627451 0.11372549019607843 0.23137254901960785
0.6039215686274509 0.10980392156862745 0.23137254901960785
0.6235294117647059 0.11372549019607843 0.23137254901960785
0.6431372549019608 0.11372549019607843 0.23529411764705882
0.6666666666666666 0.10980392156862745 0.23921568627450981
0.6862745098039216 0.10980392156862745 0.23921568627450981
0.7098039215686275 0.10980392156862745 0.23921568627450981
0.7333333333333333 0.10588235294117647 0.24313725490196078
0.7607843137254902 0.10196078431372549 0.24313725490196078
0.796078431372549 0.10588235294117647 0.24313725490196078
0.8235294117647058 0.10980392156862745 0.24705882352941178
0.8627450980392157 0.10980392156862745 0.25098039215686274
0.9019607843137255 0.10588235294117647 0.25098039215686274
0.9372549019607843 0.10980392156862745 0.25098039215686274
0.9372549019607843 0.11372549019607843 0.2549019607843137
0.08627450980392157 0.15294117647058825 0.21568627450980393
0.09411764705882353 0.1568627450980392 0.21568627450980393
0.10588235294117647 0.1568627450980392 0.21568627450980393
0.11764705882352941 0.1607843137254902 0.21568627450980393
0.13725490196078433 0.1607843137254902 0.21568627450980393
0.15294117647058825 0.14901960784313725 0.21568627450980393
0.17647058823529413 0.1450980392156863 0.21568627450980393
0.20784313725490197 0.13725490196078433 0.21568627450980393
0.23921568627450981 0.13725490196078433 0.21568627450980393
0.27450980392156865 0.13725490196078433 0.21568627450980393
0.3254901960784314 0.13333333333333333 0.21568627450980393
0.3764705882352941 0.13333333333333333 0.21568627450980393
0.41568627450980394 0.13333333333333333 0.21568627450980393
0.4549019607843137 0.13333333333333333 0.21568627450980393
0.48627450980392156 0.13333333333333333 0.21568627450980393
0.5137254901960784 0.13333333333333333 0.21568627450980393
0.5372549019607843 0.13333333333333333 0.2196078431372549
0.5607843137254902 0.12941176470588237 0.2196078431372549
0.5843137254901961 0.12549019607843137 0.2235294117647059
0.6039215686274509 0.12941176470588237 0.22745098039215686
0.6235294117647059 0.12549019607843137 0.23137254901960785
0.6470588235294118 0.12549019607843137 0.23137254901960785
0.6705882352941176 0.12549019607843137 0.23529411764705882
0.6901960784313725 0.12549019607843137 0.23529411764705882
0.7137254901960784 0.12549019607843137 0.23921568627450981
0.7372549019607844 0.12549019607843137 0.23921568627450981
0.7607843137254902 0.12549019607843137 0.23921568627450981
0.796078431372549 0.12549019607843137 0.24313725490196078
0.8274509803921568 0.13333333333333333 0.24705882352941178
0.8666666666666667 0.12549019607843137 0.24705882352941178
0.9019607843137255 0.13333333333333333 0.25098039215686274
0.9372549019607843 0.12549019607843137 0.25098039215686274
0.9372549019607843 0.13333333333333333 0.25098039215686274
0.08627450980392157 0.17254901960784313 0.21568627450980393
0.09411764705882353 0.17254901960784313 0.21568627450980393
0.10588235294117647 0.17647058823529413 0.21568627450980393
0.11764705882352941 0.1803921568627451 0.21568627450980393
0.13725490196078433 0.1803921568627451 0.21568627450980393
0.16470588235294117 0.1803921568627451 0.21568627450980393
0.17647058823529413 0.16470588235294117 0.21568627450980393
0.20392156862745098 0.1568627450980392 0.21568627450980393
0.24313725490196078 0.15294117647058825 0.21568627450980393
0.28627450980392155 0.1450980392156863 0.21568627450980393
0.32941176470588235 0.1450980392156863 0.21568627450980393
0.3803921568627451 0.1411764705882353 0.21568627450980393
0.4235294117647059 0.1411764705882353 0.21568627450980393
0.4588235294117647 0.1411764705882353 0.21568627450980393
0.48627450980392156 0.1411764705882353 0.21568627450980393
0.5137254901960784 0.1411764705882353 0.2196078431372549
0.5372549019607843 0.1411764705882353 0.21568627450980393
0.5607843137254902 0.1411764705882353 0.2196078431372549
0.5843137254901961 0.1411764705882353 0.2196078431372549
0.6039215686274509 0.1411764705882353 0.2196078431372549
0.6274509803921569 0.13725490196078433 0.2235294117647059
0.6470588235294118 0.1411764705882353 0.22745098039215686
0.6705882352941176 0.1411764705882353 0.23137254901960785
0.6901960784313725 0.1411764705882353 0.23137254901960785
0.7137254901960784 0.1411764705882353 0.23529411764705882
0.7411764705882353 0.1411764705882353 0.23529411764705882
0.7647058823529411 0.1411764705882353 0.23921568627450981
0.796078431372549 0.1450980392156863 0.24313725490196078
0.8274509803921568 0.1450980392156863 0.24313725490196078
0.8666666666666667 0.1411764705882353 0.24313725490196078
0.9058823529411765 0.1411764705882353 0.24313725490196078
0.9372549019607843 0.1450980392156863 0.24705882352941178
0.9372549019607843 0.1450980392156863 0.25098039215686274
0.08627450980392157 0.19215686274509805 0.21568627450980393
0.09411764705882353 0.19607843137254902 0.21568627450980393
0.10588235294117647 0.2 0.21568627450980393
0.11764705882352941 0.20392156862745098 0.21568627450980393
0.13725490196078433 0.20784313725490197 0.21568627450980393
0.16470588235294117 0.20784313725490197 0.21568627450980393
0.19607843137254902 0.20784313725490197 0.21568627450980393
0.20784313725490197 0.1843137254901961 0.21568627450980393
0.24313725490196078 0.17647058823529413 0.21568627450980393
0.28627450980392155 0.17254901960784313 0.21568627450980393
0.33725490196078434 0.16470588235294117 0.21568627450980393
0.3843137254901961 0.1568627450980392 0.21568627450980393
0.42745098039215684 0.1568627450980392 0.21568627450980393
0.4627450980392157 0.15294117647058825 0.21568627450980393
0.49019607843137253 0.15294117647058825 0.21568627450980393
0.5176470588235295 0.15294117647058825 0.21568627450980393
0.5372549019607843 0.15294117647058825 0.2196078431372549
0.5607843137254902 0.15294117647058825 0.2196078431372549
0.5843137254901961 0.15294117647058825 0.2196078431372549
0.6078431372549019 0.14901960784313725 0.2196078431372549
0.6274509803921569 0.15294117647058825 0.2196078431372549
0.6509803921568628 0.15294117647058825 0.2196078431372549
0.6705882352941176 0.15294117647058825 0.22745098039215686
0.6901960784313725 0.15294117647058825 0.22745098039215686
0.7137254901960784 0.1568627450980392 0.23137254901960785
0.7411764705882353 0.15294117647058825 0.23137254901960785
0.7686274509803922 0.1568627450980392 0.23921568627450981
0.8 0.1568627450980392 0.23921568627450981
0.8313725490196079 0.15294117647058825 0.23921568627450981
0.8666666666666667 0.1568627450980392 0.23921568627450981
0.9098039215686274 0.1607843137254902 0.24313725490196078
0.9372549019607843 0.1607843137254902 0.24313725490196078
0.9372549019607843 0.16470588235294117 0.24705882352941178
0.08627450980392157 0.21568627450980393 0.21568627450980393
0.09019607843137255 0.2235294117647059 0.21568627450980393
0.10196078431372549 0.23137254901960785 0.21568627450980393
0.11372549019607843 0.23529411764705882 0.21568627450980393
0.13333333333333333 0.24313725490196078 0.21568627450980393
0.1607843137254902 0.24313725490196078 0.21568627450980393
0.19607843137254902 0.24313725490196078 0.21568627450980393
0.23529411764705882 0.24313725490196078 0.21568627450980393
0.24705882352941178 0.20784313725490197 0.21568627450980393
0.29411764705882354 0.2 0.21568627450980393
0.33725490196078434 0.19215686274509805 0.21568627450980393
0.39215686274509803 0.1803921568627451 0.21568627450980393
0.43137254901960786 0.17647058823529413 0.21568627450980393
0.4627450980392157 0.17254901960784313 0.21568627450980393
0.49411764705882355 0.16862745098039217 0.21568627450980393
0.5215686274509804 0.16470588235294117 0.21568627450980393
0.5450980392156862 0.16470588235294117 0.2196078431372549
0.5647058823529412 0.16470588235294117 0.2196078431372549
0.5882352941176471 0.16470588235294117 0.2196078431372549
0.6078431372549019 0.16470588235294117 0.2196078431372549
0.6313725490196078 0.16470588235294117 0.2196078431372549
0.6509803921568628 0.16470588235294117 0.2196078431372549
0.6705882352941176 0.16862745098039217 0.2235294117647059
0.6941176470588235 0.16470588235294117 0.2196078431372549
0.7176470588235294 0.16470588235294117 0.2235294117647059
0.7411764705882353 0.17254901960784313 0.22745098039215686
0.7686274509803922 0.17254901960784313 0.23137254901960785
0.8 0.17254901960784313 0.23137254901960785
0.8352941176470589 0.17254901960784313 0.23529411764705882
0.8745098039215686 0.17254901960784313 0.23921568627450981
0.9098039215686274 0.17647058823529413 0.23921568627450981
0.9372549019607843 0.1803921568627451 0.24313725490196078
0.9372549019607843 0.17647058823529413 0.24313725490196078
0.08627450980392157 0.25098039215686274 0.21568627450980393
0.09019607843137255 0.2627450980392157 0.21568627450980393
0.10196078431372549 0.26666666666666666 0.21568627450980393
0.11372549019607843 0.27450980392156865 0.21568627450980393
0.13333333333333333 0.2823529411764706 0.21568627450980393
0.1568627450980392 0.28627450980392155 0.21568627450980393
0.18823529411764706 0.28627450980392155 0.21568627450980393
0.23529411764705882 0.28627450980392155 0.21568627450980393
0.2823529411764706 0.28627450980392155 0.21568627450980393
0.29411764705882354 0.23921568627450981 0.21568627450980393
0.33725490196078434 0.22745098039215686 0.21568627450980393
0.39215686274509803 0.21568627450980393 0.21568627450980393
0.43529411764705883 0.20392156862745098 0.21568627450980393
0.4666666666666667 0.2 0.21568627450980393
0.4980392156862745 0.19215686274509805 0.21568627450980393
0.5215686274509804 0.18823529411764706 0.2196078431372549
0.5450980392156862 0.1803921568627451 0.2196078431372549
0.5686274509803921 0.1803921568627451 0.2196078431372549
0.5882352941176471 0.1803921568627451 0.2196078431372549
0.611764705882353 0.17647058823529413 0.2196078431372549
0.6313725490196078 0.17647058823529413 0.2196078431372549
0.6509803921568628 0.1803921568627451 0.2235294117647059
0.6745098039215687 0.1803921568627451 0.22745098039215686
0.6941176470588235 0.1803921568627451 0.2235294117647059
0.7215686274509804 0.1803921568627451 0.22745098039215686
0.7411764705882353 0.1843137254901961 0.22745098039215686
0.7764705882352941 0.1843137254901961 0.22745098039215686
0.803921568627451 0.1843137254901961 0.22745098039215686
0.8392156862745098 0.18823529411764706 0.23137254901960785
0.8745098039215686 0.19215686274509805 0.23137254901960785
0.9098039215686274 0.19215686274509805 0.23529411764705882
0.9372549019607843 0.2 0.23921568627450981
0.9372549019607843 0.2 0.23921568627450981
0.08627450980392157 0.29411764705882354 0.21568627450980393
0.08627450980392157 0.30196078431372547 0.21568627450980393
0.09803921568627451 0.3176470588235294 0.21568627450980393
0.10980392156862745 0.3254901960784314 0.21568627450980393
0.13333333333333333 0.32941176470588235 0.21568627450980393
0.1568627450980392 0.3333333333333333 0.21568627450980393
0.1843137254901961 0.33725490196078434 0.21568627450980393
0.22745098039215686 0.33725490196078434 0.21568627450980393
0.2784313725490196 0.33725490196078434 0.21568627450980393
0.3411764705882353 0.3333333333333333 0.21568627450980393
0.3411764705882353 0.27450980392156865 0.21568627450980393
0.39215686274509803 0.26666666666666666 0.21568627450980393
0.43529411764705883 0.25098039215686274 0.21568627450980393
0.47058823529411764 0.23529411764705882 0.21568627450980393
0.5019607843137255 0.22745098039215686 0.21568627450980393
0.5254901960784314 0.21568627450980393 0.2196078431372549
0.5490196078431373 0.21176470588235294 0.2196078431372549
0.5725490196078431 0.20392156862745098 0.2196078431372549
0.592156862745098 0.2 0.2196078431372549
0.615686274509804 0.2 0.2196078431372549
0.6352941176470588 0.2 0.2196078431372549
0.6549019607843137 0.2 0.2235294117647059
0.6745098039215687 0.2 0.2196078431372549
0.6980392156862745 0.2 0.2235294117647059
0.7215686274509804 0.2 0.22745098039215686
0.7490196078431373 0.20392156862745098 0.22745098039215686
0.7764705882352941 0.20392156862745098 0.22745098039215686
0.807843137254902 0.20392156862745098 0.22745098039215686
0.8470588235294118 0.20784313725490197 0.23137254901960785
0.8784313725490196 0.21176470588235294 0.22745098039215686
0.9176470588235294 0.20784313725490197 0.23137254901960785
0.9372549019607843 0.21568627450980393 0.23137254901960785
0.9372549019607843 0.2235294117647059 0.23529411764705882
0.08627450980392157 0.33725490196078434 0.21568627450980393
0.08627450980392157 0.35294117647058826 0.21568627450980393
0.09803921568627451 0.36470588235294116 0.21568627450980393
0.11372549019607843 0.3686274509803922 0.21568627450980393
0.12941176470588237 0.3803921568627451 0.21568627450980393
0.15294117647058825 0.38823529411764707 0.21568627450980393
0.1843137254901961 0.38823529411764707 0.21568627450980393
0.2235294117647059 0.39215686274509803 0.21568627450980393
0.2784313725490196 0.39215686274509803 0.21568627450980393
0.3333333333333333 0.39215686274509803 0.21568627450980393
0.3843137254901961 0.38823529411764707 0.21568627450980393
0.396078431372549 0.3215686274509804 0.21568627450980393
0.43529411764705883 0.30196078431372547 0.21568627450980393
0.47058823529411764 0.28627450980392155 0.21568627450980393
0.5019607843137255 0.27058823529411763 0.21568627450980393
0.5294117647058824 0.2627450980392157 0.2196078431372549
0.5490196078431373 0.25098039215686274 0.2196078431372549
0.5725490196078431 0.24313725490196078 0.2196078431372549
0.592156862745098 0.23529411764705882 0.2196078431372549
0.615686274509804 0.22745098039215686 0.2196078431372549
0.6352941176470588 0.22745098039215686 0.2235294117647059
0.6549019607843137 0.2235294117647059 0.2235294117647059
0.6784313725490196 0.2235294117647059 0.2235294117647059
0.7019607843137254 0.2235294117647059 0.2235294117647059
0.7254901960784313 0.2235294117647059 0.22745098039215686
0.7529411764705882 0.2235294117647059 0.22745098039215686
0.7764705882352941 0.22745098039215686 0.22745098039215686
0.8117647058823529 0.22745098039215686 0.22745098039215686
0.8509803921568627 0.22745098039215686 0.22745098039215686
0.8823529411764706 0.23529411764705882 0.23137254901960785
0.9254901960784314 0.23529411764705882 0.23137254901960785
0.9372549019607843 0.24313725490196078 0.23137254901960785
0.9372549019607843 0.24313725490196078 0.23137254901960785
0.08235294117647059 0.38823529411764707 0.21568627450980393
0.08627450980392157 0.396078431372549 0.21568627450980393
0.09803921568627451 0.41568627450980394 0.21568627450980393
0.10980392156862745 0.4235294117647059 0.21568627450980393
0.12549019607843137 0.43137254901960786 0.21568627450980393
0.14901960784313725 0.4392156862745098 0.21568627450980393
0.17647058823529413 0.44313725490196076 0.21568627450980393
0.2235294117647059 0.4470588235294118 0.21568627450980393
0.27450980392156865 0.4470588235294118 0.21568627450980393
0.3333333333333333 0.4470588235294118 0.21568627450980393
0.396078431372549 0.4470588235294118 0.21568627450980393
0.43137254901960786 0.43529411764705883 0.2196078431372549
0.43529411764705883 0.3686274509803922 0.21568627450980393
0.47058823529411764 0.35294117647058826 0.2196078431372549
0.5019607843137255 0.3333333333333333 0.21568627450980393
0.5294117647058824 0.3176470588235294 0.2196078431372549
