cubelut/FILM-VVC_VIVID_CLASSIC_LUT.cube
TITLE "Photo Curves LUT"
LUT_3D_SIZE 33
0.12941176470588237 0.12549019607843137 0.12549019607843137
0.13725490196078433 0.12549019607843137 0.12549019607843137
0.1450980392156863 0.12941176470588237 0.12941176470588237
0.15294117647058825 0.12941176470588237 0.12941176470588237
0.16470588235294117 0.13333333333333333 0.13333333333333333
0.17647058823529413 0.13725490196078433 0.13725490196078433
0.19215686274509805 0.13725490196078433 0.1411764705882353
0.21568627450980393 0.1411764705882353 0.1450980392156863
0.24313725490196078 0.1450980392156863 0.14901960784313725
0.2901960784313726 0.14901960784313725 0.1568627450980392
0.32941176470588235 0.15294117647058825 0.1607843137254902
0.37254901960784315 0.1568627450980392 0.16862745098039217
0.4196078431372549 0.1607843137254902 0.17254901960784313
0.4588235294117647 0.16470588235294117 0.1803921568627451
0.5019607843137255 0.16862745098039217 0.18823529411764706
0.5333333333333333 0.17254901960784313 0.19607843137254902
0.5686274509803921 0.17647058823529413 0.20392156862745098
0.6039215686274509 0.17647058823529413 0.21568627450980393
0.6313725490196078 0.1803921568627451 0.2235294117647059
0.6627450980392157 0.1843137254901961 0.23529411764705882
0.6862745098039216 0.18823529411764706 0.24313725490196078
0.7137254901960784 0.18823529411764706 0.2549019607843137
0.7411764705882353 0.19215686274509805 0.2627450980392157
0.7647058823529411 0.19607843137254902 0.27450980392156865
0.788235294117647 0.2 0.2823529411764706
0.8117647058823529 0.2 0.2980392156862745
0.8313725490196079 0.20392156862745098 0.30980392156862746
0.8470588235294118 0.20784313725490197 0.3215686274509804
0.8627450980392157 0.21176470588235294 0.32941176470588235
0.8784313725490196 0.21568627450980393 0.3411764705882353
0.8941176470588236 0.2196078431372549 0.34901960784313724
0.8980392156862745 0.2196078431372549 0.3607843137254902
0.8980392156862745 0.2196078431372549 0.36470588235294116
0.12549019607843137 0.12549019607843137 0.13333333333333333
0.13333333333333333 0.12549019607843137 0.12549019607843137
0.13725490196078433 0.12549019607843137 0.12549019607843137
0.14901960784313725 0.12941176470588237 0.12941176470588237
0.1607843137254902 0.13333333333333333 0.13333333333333333
0.17254901960784313 0.13333333333333333 0.13333333333333333
0.19215686274509805 0.13725490196078433 0.13725490196078433
0.21568627450980393 0.1411764705882353 0.1411764705882353
0.24313725490196078 0.1450980392156863 0.1450980392156863
0.2784313725490196 0.14901960784313725 0.14901960784313725
0.3215686274509804 0.15294117647058825 0.1568627450980392
0.37254901960784315 0.1568627450980392 0.1607843137254902
0.41568627450980394 0.1607843137254902 0.16862745098039217
0.4588235294117647 0.16470588235294117 0.17647058823529413
0.4980392156862745 0.16862745098039217 0.1803921568627451
0.5372549019607843 0.17254901960784313 0.19215686274509805
0.5686274509803921 0.17647058823529413 0.19607843137254902
0.6 0.17647058823529413 0.20392156862745098
0.6313725490196078 0.1803921568627451 0.21176470588235294
0.6588235294117647 0.1843137254901961 0.2196078431372549
0.6901960784313725 0.18823529411764706 0.23137254901960785
0.7137254901960784 0.18823529411764706 0.23921568627450981
0.7372549019607844 0.19215686274509805 0.25098039215686274
0.7647058823529411 0.19607843137254902 0.25882352941176473
0.788235294117647 0.2 0.27450980392156865
0.807843137254902 0.2 0.2823529411764706
0.8313725490196079 0.20784313725490197 0.29411764705882354
0.8470588235294118 0.20784313725490197 0.3058823529411765
0.8627450980392157 0.21176470588235294 0.3137254901960784
0.8784313725490196 0.21568627450980393 0.3254901960784314
0.8941176470588236 0.2196078431372549 0.33725490196078434
0.8980392156862745 0.2196078431372549 0.34509803921568627
0.8980392156862745 0.2196078431372549 0.34901960784313724
0.12549019607843137 0.13333333333333333 0.1411764705882353
0.12549019607843137 0.13333333333333333 0.13725490196078433
0.13333333333333333 0.12941176470588237 0.12549019607843137
0.1411764705882353 0.12941176470588237 0.12549019607843137
0.15294117647058825 0.12941176470588237 0.12941176470588237
0.16862745098039217 0.13333333333333333 0.13333333333333333
0.1843137254901961 0.13725490196078433 0.13725490196078433
0.20784313725490197 0.1411764705882353 0.1411764705882353
0.23529411764705882 0.1450980392156863 0.1450980392156863
0.27450980392156865 0.14901960784313725 0.14901960784313725
0.3215686274509804 0.15294117647058825 0.1568627450980392
0.36470588235294116 0.1568627450980392 0.1607843137254902
0.41568627450980394 0.1607843137254902 0.16862745098039217
0.4588235294117647 0.16470588235294117 0.17647058823529413
0.5019607843137255 0.16862745098039217 0.1843137254901961
0.5372549019607843 0.17254901960784313 0.19215686274509805
0.5686274509803921 0.17647058823529413 0.19607843137254902
0.6 0.17647058823529413 0.20392156862745098
0.6313725490196078 0.1803921568627451 0.21176470588235294
0.6588235294117647 0.1843137254901961 0.2196078431372549
0.6941176470588235 0.18823529411764706 0.23137254901960785
0.7137254901960784 0.18823529411764706 0.23921568627450981
0.7411764705882353 0.19215686274509805 0.25098039215686274
0.7686274509803922 0.19607843137254902 0.2549019607843137
0.788235294117647 0.2 0.26666666666666666
0.807843137254902 0.2 0.2784313725490196
0.8274509803921568 0.20392156862745098 0.28627450980392155
0.8470588235294118 0.20784313725490197 0.29411764705882354
0.8627450980392157 0.21176470588235294 0.3058823529411765
0.8823529411764706 0.21568627450980393 0.3176470588235294
0.8941176470588236 0.2196078431372549 0.32941176470588235
0.8980392156862745 0.2196078431372549 0.32941176470588235
0.8980392156862745 0.2196078431372549 0.3333333333333333
0.12549019607843137 0.13725490196078433 0.14901960784313725
0.12549019607843137 0.1411764705882353 0.1450980392156863
0.12549019607843137 0.1411764705882353 0.13333333333333333
0.13725490196078433 0.13725490196078433 0.12549019607843137
0.14901960784313725 0.13725490196078433 0.12941176470588237
0.1607843137254902 0.13725490196078433 0.12941176470588237
0.17647058823529413 0.1411764705882353 0.13333333333333333
0.2 0.1450980392156863 0.13725490196078433
0.22745098039215686 0.1450980392156863 0.1411764705882353
0.26666666666666666 0.15294117647058825 0.14901960784313725
0.3176470588235294 0.1568627450980392 0.1568627450980392
0.3607843137254902 0.1568627450980392 0.16470588235294117
0.41568627450980394 0.1607843137254902 0.17254901960784313
0.4549019607843137 0.16470588235294117 0.17647058823529413
0.5019607843137255 0.16862745098039217 0.18823529411764706
0.5411764705882353 0.17254901960784313 0.19607843137254902
0.5764705882352941 0.17647058823529413 0.2
0.6039215686274509 0.17647058823529413 0.20784313725490197
0.6352941176470588 0.1803921568627451 0.21568627450980393
0.6666666666666666 0.1843137254901961 0.22745098039215686
0.6901960784313725 0.18823529411764706 0.23137254901960785
0.7176470588235294 0.18823529411764706 0.24313725490196078
0.7411764705882353 0.19215686274509805 0.25098039215686274
0.7686274509803922 0.19607843137254902 0.25882352941176473
0.788235294117647 0.2 0.27058823529411763
0.8117647058823529 0.2 0.2784313725490196
0.8313725490196079 0.20784313725490197 0.2901960784313726
0.8470588235294118 0.20784313725490197 0.30196078431372547
0.8627450980392157 0.21176470588235294 0.30980392156862746
0.8823529411764706 0.21568627450980393 0.3215686274509804
0.8941176470588236 0.2196078431372549 0.32941176470588235
0.8980392156862745 0.2196078431372549 0.33725490196078434
0.8980392156862745 0.2196078431372549 0.3411764705882353
0.12549019607843137 0.14901960784313725 0.1607843137254902
0.12549019607843137 0.14901960784313725 0.1568627450980392
0.12549019607843137 0.14901960784313725 0.14901960784313725
0.12549019607843137 0.14901960784313725 0.12549019607843137
0.1411764705882353 0.1411764705882353 0.12549019607843137
0.15294117647058825 0.1450980392156863 0.12941176470588237
0.17254901960784313 0.14901960784313725 0.13333333333333333
0.19607843137254902 0.15294117647058825 0.13725490196078433
0.22745098039215686 0.1568627450980392 0.1411764705882353
0.25882352941176473 0.16470588235294117 0.14901960784313725
0.3137254901960784 0.16470588235294117 0.1568627450980392
0.3607843137254902 0.17254901960784313 0.16470588235294117
0.4117647058823529 0.17647058823529413 0.17254901960784313
0.4588235294117647 0.1803921568627451 0.1803921568627451
0.5019607843137255 0.1843137254901961 0.18823529411764706
0.5411764705882353 0.18823529411764706 0.2
0.5803921568627451 0.18823529411764706 0.20784313725490197
0.611764705882353 0.19215686274509805 0.21568627450980393
0.6431372549019608 0.19607843137254902 0.2196078431372549
0.6705882352941176 0.2 0.23529411764705882
0.7019607843137254 0.2 0.24313725490196078
0.7254901960784313 0.20392156862745098 0.25098039215686274
0.7529411764705882 0.20784313725490197 0.25882352941176473
0.7725490196078432 0.21176470588235294 0.27058823529411763
0.8 0.21176470588235294 0.2823529411764706
0.8196078431372549 0.2196078431372549 0.2901960784313726
0.8352941176470589 0.2235294117647059 0.2980392156862745
0.8549019607843137 0.22745098039215686 0.30980392156862746
0.8705882352941177 0.23529411764705882 0.3215686274509804
0.8862745098039215 0.24313725490196078 0.3333333333333333
0.9019607843137255 0.2549019607843137 0.34509803921568627
0.9058823529411765 0.2549019607843137 0.34901960784313724
0.9058823529411765 0.2627450980392157 0.35294117647058826
0.12549019607843137 0.1568627450980392 0.17254901960784313
0.12549019607843137 0.1568627450980392 0.16862745098039217
0.12549019607843137 0.1568627450980392 0.1568627450980392
0.12549019607843137 0.1607843137254902 0.14901960784313725
0.12549019607843137 0.1607843137254902 0.12549019607843137
0.14901960784313725 0.15294117647058825 0.12549019607843137
0.16862745098039217 0.1568627450980392 0.12941176470588237
0.18823529411764706 0.1607843137254902 0.13725490196078433
0.2196078431372549 0.16862745098039217 0.1411764705882353
0.25882352941176473 0.17254901960784313 0.14901960784313725
0.30196078431372547 0.1803921568627451 0.1568627450980392
0.35294117647058826 0.18823529411764706 0.16470588235294117
0.403921568627451 0.19215686274509805 0.17254901960784313
0.4588235294117647 0.2 0.1843137254901961
0.5058823529411764 0.20784313725490197 0.19215686274509805
0.5450980392156862 0.20784313725490197 0.2
0.5843137254901961 0.21568627450980393 0.21176470588235294
0.615686274509804 0.21568627450980393 0.2196078431372549
0.6470588235294118 0.2235294117647059 0.22745098039215686
0.6784313725490196 0.22745098039215686 0.23921568627450981
0.7058823529411765 0.23529411764705882 0.24705882352941178
0.7294117647058823 0.23529411764705882 0.25882352941176473
0.7568627450980392 0.24313725490196078 0.26666666666666666
0.7803921568627451 0.24313725490196078 0.2784313725490196
0.803921568627451 0.25098039215686274 0.28627450980392155
0.8274509803921568 0.2549019607843137 0.30196078431372547
0.8431372549019608 0.26666666666666666 0.30980392156862746
0.8627450980392157 0.27450980392156865 0.3215686274509804
0.8784313725490196 0.2784313725490196 0.3333333333333333
0.8941176470588236 0.28627450980392155 0.34509803921568627
0.9058823529411765 0.29411764705882354 0.35294117647058826
0.9098039215686274 0.30196078431372547 0.3607843137254902
0.9098039215686274 0.30196078431372547 0.36470588235294116
0.12549019607843137 0.16862745098039217 0.18823529411764706
0.12549019607843137 0.16862745098039217 0.1843137254901961
0.12549019607843137 0.16862745098039217 0.16862745098039217
0.12549019607843137 0.16862745098039217 0.16470588235294117
0.12549019607843137 0.17254901960784313 0.14901960784313725
0.12549019607843137 0.16862745098039217 0.12549019607843137
0.16470588235294117 0.16470588235294117 0.12941176470588237
0.1843137254901961 0.17254901960784313 0.13333333333333333
0.21176470588235294 0.17647058823529413 0.13725490196078433
0.25098039215686274 0.1843137254901961 0.14901960784313725
0.2980392156862745 0.19215686274509805 0.1568627450980392
0.35294117647058826 0.20392156862745098 0.16470588235294117
0.4 0.20784313725490197 0.17647058823529413
0.45098039215686275 0.21568627450980393 0.1843137254901961
0.5019607843137255 0.22745098039215686 0.19607843137254902
0.5411764705882353 0.23137254901960785 0.20392156862745098
0.5843137254901961 0.23921568627450981 0.21176470588235294
0.615686274509804 0.24313725490196078 0.2235294117647059
0.6509803921568628 0.24705882352941178 0.22745098039215686
0.6823529411764706 0.2549019607843137 0.24313725490196078
0.7098039215686275 0.25882352941176473 0.25098039215686274
0.7372549019607844 0.27058823529411763 0.2627450980392157
0.7607843137254902 0.27450980392156865 0.27450980392156865
0.788235294117647 0.2784313725490196 0.2823529411764706
0.8117647058823529 0.2901960784313726 0.2980392156862745
0.8313725490196079 0.29411764705882354 0.30980392156862746
0.8470588235294118 0.30196078431372547 0.3176470588235294
0.8666666666666667 0.3058823529411765 0.32941176470588235
0.8784313725490196 0.3137254901960784 0.33725490196078434
0.8980392156862745 0.32941176470588235 0.34901960784313724
0.9137254901960784 0.3333333333333333 0.3607843137254902
0.9137254901960784 0.3333333333333333 0.3686274509803922
0.9137254901960784 0.33725490196078434 0.37254901960784315
0.12549019607843137 0.1843137254901961 0.2
0.12549019607843137 0.1843137254901961 0.19607843137254902
0.12549019607843137 0.1843137254901961 0.18823529411764706
0.12549019607843137 0.1843137254901961 0.1803921568627451
0.12549019607843137 0.1843137254901961 0.16862745098039217
0.12549019607843137 0.1843137254901961 0.1411764705882353
0.1411764705882353 0.1843137254901961 0.12549019607843137
0.1803921568627451 0.1843137254901961 0.12941176470588237
0.20784313725490197 0.18823529411764706 0.13725490196078433
0.24313725490196078 0.19607843137254902 0.1450980392156863
0.2901960784313726 0.20784313725490197 0.1568627450980392
0.3411764705882353 0.21568627450980393 0.16470588235294117
0.4 0.22745098039215686 0.17647058823529413
0.45098039215686275 0.23921568627450981 0.18823529411764706
0.4980392156862745 0.24705882352941178 0.19607843137254902
0.5450980392156862 0.25882352941176473 0.20784313725490197
0.5843137254901961 0.2627450980392157 0.21568627450980393
0.615686274509804 0.27450980392156865 0.22745098039215686
0.6509803921568628 0.2784313725490196 0.23529411764705882
0.6901960784313725 0.2901960784313726 0.25098039215686274
0.7137254901960784 0.2901960784313726 0.25882352941176473
0.7411764705882353 0.2980392156862745 0.27058823529411763
0.7686274509803922 0.3058823529411765 0.27450980392156865
0.796078431372549 0.3176470588235294 0.29411764705882354
0.8156862745098039 0.3215686274509804 0.3058823529411765
0.8352941176470589 0.32941176470588235 0.3176470588235294
0.8509803921568627 0.3333333333333333 0.3215686274509804
0.8666666666666667 0.3411764705882353 0.3333333333333333
0.8862745098039215 0.3568627450980392 0.34901960784313724
0.8980392156862745 0.3607843137254902 0.3568627450980392
0.9137254901960784 0.37254901960784315 0.3686274509803922
0.9137254901960784 0.37254901960784315 0.37254901960784315
0.9137254901960784 0.3764705882352941 0.3764705882352941
0.12549019607843137 0.20392156862745098 0.21568627450980393
0.12549019607843137 0.20392156862745098 0.21568627450980393
0.12549019607843137 0.2 0.2
0.12549019607843137 0.2 0.19607843137254902
0.12549019607843137 0.20392156862745098 0.1843137254901961
0.12549019607843137 0.20392156862745098 0.17647058823529413
0.12549019607843137 0.20392156862745098 0.13333333333333333
0.1607843137254902 0.20392156862745098 0.12941176470588237
0.19607843137254902 0.2 0.13725490196078433
0.23529411764705882 0.20784313725490197 0.1450980392156863
0.2823529411764706 0.2235294117647059 0.1568627450980392
0.3333333333333333 0.23529411764705882 0.16470588235294117
0.38823529411764707 0.24705882352941178 0.17647058823529413
0.4470588235294118 0.25882352941176473 0.1843137254901961
0.49411764705882355 0.27450980392156865 0.19607843137254902
0.5372549019607843 0.2784313725490196 0.20784313725490197
0.5803921568627451 0.29411764705882354 0.21568627450980393
0.6196078431372549 0.30196078431372547 0.22745098039215686
0.6549019607843137 0.3137254901960784 0.23921568627450981
0.6901960784313725 0.3176470588235294 0.2549019607843137
0.7137254901960784 0.3254901960784314 0.25882352941176473
0.7450980392156863 0.33725490196078434 0.27450980392156865
0.7725490196078432 0.3411764705882353 0.2823529411764706
0.796078431372549 0.34509803921568627 0.2980392156862745
0.8196078431372549 0.3568627450980392 0.3058823529411765
0.8392156862745098 0.36470588235294116 0.3176470588235294
0.8549019607843137 0.37254901960784315 0.3254901960784314
0.8705882352941177 0.3764705882352941 0.33725490196078434
0.8862745098039215 0.3843137254901961 0.35294117647058826
0.9058823529411765 0.4 0.36470588235294116
0.9176470588235294 0.4 0.37254901960784315
0.9176470588235294 0.40784313725490196 0.3764705882352941
0.9176470588235294 0.41568627450980394 0.3843137254901961
0.12549019607843137 0.22745098039215686 0.23529411764705882
0.12549019607843137 0.22745098039215686 0.23529411764705882
0.12549019607843137 0.22745098039215686 0.2196078431372549
0.12549019607843137 0.22745098039215686 0.20784313725490197
0.12549019607843137 0.22745098039215686 0.2
0.12549019607843137 0.22745098039215686 0.19215686274509805
0.12549019607843137 0.22745098039215686 0.17647058823529413
0.12549019607843137 0.22745098039215686 0.13333333333333333
0.1803921568627451 0.22745098039215686 0.13725490196078433
0.22745098039215686 0.22745098039215686 0.1411764705882353
0.27450980392156865 0.23921568627450981 0.1568627450980392
0.32941176470588235 0.25098039215686274 0.16470588235294117
0.3843137254901961 0.26666666666666666 0.17254901960784313
0.44313725490196076 0.2823529411764706 0.1843137254901961
0.49411764705882355 0.2980392156862745 0.2
0.5372549019607843 0.30980392156862746 0.20784313725490197
0.5803921568627451 0.3215686274509804 0.2196078431372549
0.615686274509804 0.3333333333333333 0.23137254901960785
0.6549019607843137 0.34509803921568627 0.24313725490196078
0.6862745098039216 0.34901960784313724 0.2549019607843137
0.7176470588235294 0.3607843137254902 0.2627450980392157
0.7450980392156863 0.36470588235294116 0.27450980392156865
0.7725490196078432 0.3764705882352941 0.2901960784313726
0.8 0.3843137254901961 0.3058823529411765
0.8235294117647058 0.38823529411764707 0.3137254901960784
0.8392156862745098 0.396078431372549 0.3215686274509804
0.8588235294117647 0.403921568627451 0.3333333333333333
0.8745098039215686 0.4117647058823529 0.34901960784313724
0.8901960784313725 0.4235294117647059 0.3568627450980392
0.9098039215686274 0.43137254901960786 0.37254901960784315
0.9215686274509803 0.44313725490196076 0.3803921568627451
0.9215686274509803 0.44313725490196076 0.3843137254901961
0.9215686274509803 0.45098039215686275 0.39215686274509803
0.12549019607843137 0.2549019607843137 0.24313725490196078
0.12549019607843137 0.2549019607843137 0.24313725490196078
0.12549019607843137 0.2549019607843137 0.23921568627450981
0.12549019607843137 0.25882352941176473 0.23137254901960785
0.12549019607843137 0.25882352941176473 0.2196078431372549
0.12549019607843137 0.2549019607843137 0.20784313725490197
0.12549019607843137 0.2549019607843137 0.19607843137254902
0.12549019607843137 0.2549019607843137 0.17254901960784313
0.12549019607843137 0.2549019607843137 0.1411764705882353
0.21176470588235294 0.25882352941176473 0.1450980392156863
0.25882352941176473 0.25882352941176473 0.14901960784313725
0.3176470588235294 0.27450980392156865 0.1607843137254902
0.37254901960784315 0.2901960784313726 0.17254901960784313
0.42745098039215684 0.3058823529411765 0.1843137254901961
0.47843137254901963 0.3215686274509804 0.19215686274509805
0.5372549019607843 0.33725490196078434 0.20784313725490197
0.5803921568627451 0.34901960784313724 0.2196078431372549
0.615686274509804 0.3607843137254902 0.22745098039215686
0.6509803921568628 0.37254901960784315 0.24313725490196078
0.6862745098039216 0.3803921568627451 0.25882352941176473
0.7176470588235294 0.39215686274509803 0.26666666666666666
0.7490196078431373 0.4 0.2784313725490196
0.7764705882352941 0.40784313725490196 0.29411764705882354
0.8 0.41568627450980394 0.3058823529411765
0.8235294117647058 0.4235294117647059 0.3176470588235294
0.8470588235294118 0.43529411764705883 0.32941176470588235
0.8627450980392157 0.44313725490196076 0.3411764705882353
0.8784313725490196 0.45098039215686275 0.35294117647058826
0.8941176470588236 0.4627450980392157 0.36470588235294116
0.9098039215686274 0.4666666666666667 0.37254901960784315
0.9215686274509803 0.47843137254901963 0.3843137254901961
0.9215686274509803 0.4823529411764706 0.38823529411764707
0.9215686274509803 0.48627450980392156 0.39215686274509803
0.12549019607843137 0.2901960784313726 0.2627450980392157
0.12549019607843137 0.2901960784313726 0.2627450980392157
0.12549019607843137 0.2901960784313726 0.2549019607843137
0.12549019607843137 0.2901960784313726 0.24705882352941178
0.12549019607843137 0.2901960784313726 0.23529411764705882
0.12549019607843137 0.2901960784313726 0.22745098039215686
0.12549019607843137 0.2901960784313726 0.21568627450980393
0.12549019607843137 0.2901960784313726 0.20784313725490197
0.12549019607843137 0.2901960784313726 0.1607843137254902
0.13725490196078433 0.2901960784313726 0.1450980392156863
0.24705882352941178 0.2980392156862745 0.15294117647058825
0.3058823529411765 0.2980392156862745 0.1607843137254902
0.3607843137254902 0.3137254901960784 0.17254901960784313
0.4235294117647059 0.32941176470588235 0.1843137254901961
0.47843137254901963 0.34509803921568627 0.19607843137254902
0.5254901960784314 0.3607843137254902 0.20784313725490197
0.5764705882352941 0.3764705882352941 0.2196078431372549
0.615686274509804 0.38823529411764707 0.23137254901960785
0.6509803921568628 0.4 0.24313725490196078
0.6823529411764706 0.4117647058823529 0.2549019607843137
0.7137254901960784 0.4196078431372549 0.27450980392156865
0.7490196078431373 0.42745098039215684 0.2784313725490196
0.7764705882352941 0.4392156862745098 0.29411764705882354
0.803921568627451 0.4470588235294118 0.3058823529411765
0.8235294117647058 0.4588235294117647 0.3215686274509804
0.8431372549019608 0.4666666666666667 0.3333333333333333
0.8627450980392157 0.4745098039215686 0.34509803921568627
0.8784313725490196 0.4823529411764706 0.3568627450980392
0.8941176470588236 0.49019607843137253 0.36470588235294116
0.9098039215686274 0.5019607843137255 0.3764705882352941
0.9215686274509803 0.5058823529411764 0.3843137254901961
0.9254901960784314 0.5098039215686274 0.39215686274509803
0.9254901960784314 0.5137254901960784 0.396078431372549
0.12549019607843137 0.32941176470588235 0.2901960784313726
0.12549019607843137 0.32941176470588235 0.2823529411764706
0.12549019607843137 0.32941176470588235 0.2784313725490196
0.12549019607843137 0.32941176470588235 0.26666666666666666
0.12549019607843137 0.32941176470588235 0.25882352941176473
0.12549019607843137 0.32941176470588235 0.24705882352941178
0.12549019607843137 0.32941176470588235 0.23921568627450981
0.12549019607843137 0.32941176470588235 0.22745098039215686
0.12549019607843137 0.3215686274509804 0.20784313725490197
0.12549019607843137 0.3215686274509804 0.1568627450980392
0.1568627450980392 0.3333333333333333 0.15294117647058825
0.2823529411764706 0.3333333333333333 0.1607843137254902
0.34509803921568627 0.3333333333333333 0.16862745098039217
0.41568627450980394 0.3568627450980392 0.1803921568627451
0.4666666666666667 0.37254901960784315 0.19607843137254902
0.5215686274509804 0.38823529411764707 0.20784313725490197
0.5725490196078431 0.403921568627451 0.2196078431372549
0.611764705882353 0.41568627450980394 0.23529411764705882
0.6470588235294118 0.42745098039215684 0.24313725490196078
0.6823529411764706 0.4470588235294118 0.25882352941176473
0.7137254901960784 0.45098039215686275 0.27058823529411763
0.7450980392156863 0.4627450980392157 0.2823529411764706
