cubelut/FILM-35P_35mm_Film_Pro_V2_LUT.cube
TITLE "Photo Curves LUT"
LUT_3D_SIZE 33
0.08235294117647059 0.08627450980392157 0.08235294117647059
0.09803921568627451 0.08627450980392157 0.0784313725490196
0.11764705882352941 0.09019607843137255 0.08627450980392157
0.13333333333333333 0.09803921568627451 0.09411764705882353
0.1568627450980392 0.10196078431372549 0.09019607843137255
0.1843137254901961 0.10588235294117647 0.09411764705882353
0.21176470588235294 0.10980392156862745 0.10588235294117647
0.23137254901960785 0.11372549019607843 0.11372549019607843
0.2549019607843137 0.11764705882352941 0.11764705882352941
0.2823529411764706 0.12549019607843137 0.11764705882352941
0.30980392156862746 0.13333333333333333 0.12941176470588237
0.33725490196078434 0.1411764705882353 0.13333333333333333
0.3764705882352941 0.14901960784313725 0.14901960784313725
0.41568627450980394 0.1607843137254902 0.1607843137254902
0.4745098039215686 0.16470588235294117 0.16470588235294117
0.5333333333333333 0.17647058823529413 0.16470588235294117
0.5882352941176471 0.1843137254901961 0.17254901960784313
0.6549019607843137 0.18823529411764706 0.1803921568627451
0.7019607843137254 0.2 0.1843137254901961
0.7490196078431373 0.20784313725490197 0.18823529411764706
0.7803921568627451 0.21568627450980393 0.2
0.8117647058823529 0.22745098039215686 0.21176470588235294
0.8352941176470589 0.23529411764705882 0.21568627450980393
0.8588235294117647 0.23921568627450981 0.22745098039215686
0.8823529411764706 0.23921568627450981 0.23529411764705882
0.9058823529411765 0.23529411764705882 0.25098039215686274
0.9254901960784314 0.23137254901960785 0.2627450980392157
0.9490196078431372 0.22745098039215686 0.26666666666666666
0.9647058823529412 0.2235294117647059 0.2901960784313726
0.984313725490196 0.2235294117647059 0.30196078431372547
1.0 0.22745098039215686 0.3215686274509804
1.0 0.23137254901960785 0.34509803921568627
1.0 0.23137254901960785 0.36470588235294116
0.08235294117647059 0.10196078431372549 0.08235294117647059
0.09803921568627451 0.09803921568627451 0.0784313725490196
0.11764705882352941 0.10588235294117647 0.08235294117647059
0.13725490196078433 0.10980392156862745 0.08627450980392157
0.1568627450980392 0.11372549019607843 0.09019607843137255
0.18823529411764706 0.11764705882352941 0.09411764705882353
0.20784313725490197 0.12156862745098039 0.09411764705882353
0.23137254901960785 0.12941176470588237 0.10588235294117647
0.25098039215686274 0.13333333333333333 0.11372549019607843
0.2784313725490196 0.13725490196078433 0.10980392156862745
0.30196078431372547 0.1450980392156863 0.12156862745098039
0.3333333333333333 0.15294117647058825 0.13333333333333333
0.3764705882352941 0.1568627450980392 0.1411764705882353
0.4196078431372549 0.16862745098039217 0.14901960784313725
0.47058823529411764 0.17647058823529413 0.1607843137254902
0.5372549019607843 0.1843137254901961 0.16470588235294117
0.596078431372549 0.19607843137254902 0.16862745098039217
0.6588235294117647 0.2 0.17647058823529413
0.7098039215686275 0.20784313725490197 0.1803921568627451
0.7529411764705882 0.21568627450980393 0.19215686274509805
0.7843137254901961 0.22745098039215686 0.19607843137254902
0.8117647058823529 0.23921568627450981 0.20784313725490197
0.8392156862745098 0.23921568627450981 0.21568627450980393
0.8627450980392157 0.24313725490196078 0.21176470588235294
0.8823529411764706 0.23921568627450981 0.21568627450980393
0.9058823529411765 0.23529411764705882 0.2235294117647059
0.9294117647058824 0.23529411764705882 0.23137254901960785
0.9490196078431372 0.2235294117647059 0.24705882352941178
0.9686274509803922 0.2235294117647059 0.2627450980392157
0.984313725490196 0.2235294117647059 0.2784313725490196
1.0 0.22745098039215686 0.28627450980392155
1.0 0.22745098039215686 0.30196078431372547
1.0 0.23529411764705882 0.32941176470588235
0.08235294117647059 0.12549019607843137 0.0784313725490196
0.09411764705882353 0.12156862745098039 0.07450980392156863
0.11372549019607843 0.12156862745098039 0.0784313725490196
0.13725490196078433 0.12549019607843137 0.07450980392156863
0.1607843137254902 0.12549019607843137 0.08235294117647059
0.1843137254901961 0.13333333333333333 0.08627450980392157
0.21176470588235294 0.13333333333333333 0.08627450980392157
0.23529411764705882 0.13725490196078433 0.09803921568627451
0.2549019607843137 0.1411764705882353 0.10196078431372549
0.2784313725490196 0.14901960784313725 0.10980392156862745
0.30980392156862746 0.1568627450980392 0.12156862745098039
0.3411764705882353 0.16470588235294117 0.12156862745098039
0.3803921568627451 0.17254901960784313 0.13725490196078433
0.4196078431372549 0.1803921568627451 0.1411764705882353
0.4823529411764706 0.18823529411764706 0.15294117647058825
0.5490196078431373 0.19607843137254902 0.1568627450980392
0.6 0.2 0.1607843137254902
0.6666666666666666 0.20784313725490197 0.16862745098039217
0.7098039215686275 0.2196078431372549 0.17254901960784313
0.7568627450980392 0.22745098039215686 0.1843137254901961
0.788235294117647 0.24313725490196078 0.18823529411764706
0.8156862745098039 0.25098039215686274 0.2
0.8392156862745098 0.2549019607843137 0.20392156862745098
0.8627450980392157 0.2549019607843137 0.20784313725490197
0.8901960784313725 0.25098039215686274 0.21176470588235294
0.9137254901960784 0.23921568627450981 0.21176470588235294
0.9333333333333333 0.23137254901960785 0.21176470588235294
0.9529411764705882 0.22745098039215686 0.2235294117647059
0.9647058823529412 0.2235294117647059 0.22745098039215686
0.9882352941176471 0.2235294117647059 0.23921568627450981
1.0 0.2235294117647059 0.24705882352941178
1.0 0.22745098039215686 0.27058823529411763
1.0 0.23529411764705882 0.2823529411764706
0.07450980392156863 0.1450980392156863 0.0784313725490196
0.09803921568627451 0.1450980392156863 0.07450980392156863
0.11764705882352941 0.1450980392156863 0.07450980392156863
0.13725490196078433 0.1411764705882353 0.07450980392156863
0.16470588235294117 0.1411764705882353 0.07450980392156863
0.1843137254901961 0.14901960784313725 0.07450980392156863
0.21568627450980393 0.14901960784313725 0.08627450980392157
0.23529411764705882 0.15294117647058825 0.09411764705882353
0.25882352941176473 0.1607843137254902 0.10196078431372549
0.28627450980392155 0.1607843137254902 0.10196078431372549
0.3137254901960784 0.16862745098039217 0.10588235294117647
0.34509803921568627 0.17254901960784313 0.11764705882352941
0.3843137254901961 0.1843137254901961 0.13333333333333333
0.43137254901960786 0.19215686274509805 0.1411764705882353
0.48627450980392156 0.2 0.1450980392156863
0.5490196078431373 0.20784313725490197 0.1568627450980392
0.611764705882353 0.21568627450980393 0.1568627450980392
0.6666666666666666 0.2235294117647059 0.1607843137254902
0.7215686274509804 0.23137254901960785 0.16862745098039217
0.7529411764705882 0.24705882352941178 0.17647058823529413
0.792156862745098 0.2549019607843137 0.1843137254901961
0.8196078431372549 0.2627450980392157 0.19607843137254902
0.8431372549019608 0.26666666666666666 0.19607843137254902
0.8666666666666667 0.27058823529411763 0.20392156862745098
0.8901960784313725 0.2627450980392157 0.20784313725490197
0.9137254901960784 0.25098039215686274 0.2
0.9372549019607843 0.23921568627450981 0.19215686274509805
0.9568627450980393 0.22745098039215686 0.19215686274509805
0.9725490196078431 0.2196078431372549 0.20784313725490197
0.984313725490196 0.2196078431372549 0.21176470588235294
1.0 0.2235294117647059 0.2235294117647059
1.0 0.23137254901960785 0.23529411764705882
1.0 0.23137254901960785 0.25098039215686274
0.0784313725490196 0.16862745098039217 0.0784313725490196
0.09803921568627451 0.16862745098039217 0.07058823529411765
0.11764705882352941 0.16470588235294117 0.07058823529411765
0.1411764705882353 0.16470588235294117 0.07450980392156863
0.1568627450980392 0.1607843137254902 0.07450980392156863
0.18823529411764706 0.16470588235294117 0.07058823529411765
0.21176470588235294 0.16470588235294117 0.0784313725490196
0.23921568627450981 0.17254901960784313 0.09019607843137255
0.2627450980392157 0.17254901960784313 0.09411764705882353
0.28627450980392155 0.17647058823529413 0.09803921568627451
0.3215686274509804 0.1843137254901961 0.10980392156862745
0.35294117647058826 0.19215686274509805 0.11764705882352941
0.39215686274509803 0.19607843137254902 0.12549019607843137
0.4392156862745098 0.20392156862745098 0.13333333333333333
0.4980392156862745 0.20784313725490197 0.1411764705882353
0.5647058823529412 0.2196078431372549 0.1411764705882353
0.6196078431372549 0.22745098039215686 0.14901960784313725
0.6784313725490196 0.23529411764705882 0.1607843137254902
0.7254901960784313 0.24705882352941178 0.1607843137254902
0.7647058823529411 0.25882352941176473 0.17254901960784313
0.792156862745098 0.26666666666666666 0.17647058823529413
0.8196078431372549 0.2823529411764706 0.1803921568627451
0.8509803921568627 0.2823529411764706 0.18823529411764706
0.8666666666666667 0.2823529411764706 0.18823529411764706
0.8941176470588236 0.2784313725490196 0.2
0.9176470588235294 0.26666666666666666 0.19215686274509805
0.9411764705882353 0.24705882352941178 0.18823529411764706
0.9568627450980393 0.23529411764705882 0.1843137254901961
0.9725490196078431 0.2235294117647059 0.1803921568627451
0.9882352941176471 0.21568627450980393 0.1843137254901961
1.0 0.2235294117647059 0.19607843137254902
1.0 0.2235294117647059 0.20784313725490197
1.0 0.23529411764705882 0.2196078431372549
0.0784313725490196 0.2 0.0784313725490196
0.09803921568627451 0.19607843137254902 0.07450980392156863
0.11764705882352941 0.19607843137254902 0.07450980392156863
0.1411764705882353 0.19215686274509805 0.07058823529411765
0.16470588235294117 0.18823529411764706 0.07058823529411765
0.1843137254901961 0.1843137254901961 0.06666666666666667
0.21176470588235294 0.18823529411764706 0.07450980392156863
0.23529411764705882 0.18823529411764706 0.07450980392156863
0.2627450980392157 0.19215686274509805 0.08627450980392157
0.29411764705882354 0.19607843137254902 0.09803921568627451
0.3176470588235294 0.2 0.10196078431372549
0.3568627450980392 0.20784313725490197 0.10588235294117647
0.396078431372549 0.21176470588235294 0.11764705882352941
0.45098039215686275 0.2196078431372549 0.12156862745098039
0.5058823529411764 0.2235294117647059 0.13725490196078433
0.5686274509803921 0.23137254901960785 0.13725490196078433
0.6313725490196078 0.23921568627450981 0.1450980392156863
0.6862745098039216 0.25098039215686274 0.15294117647058825
0.7294117647058823 0.25882352941176473 0.16470588235294117
0.7647058823529411 0.27450980392156865 0.16862745098039217
0.796078431372549 0.28627450980392155 0.17254901960784313
0.8235294117647058 0.30196078431372547 0.1843137254901961
0.8509803921568627 0.30196078431372547 0.18823529411764706
0.8705882352941177 0.30196078431372547 0.18823529411764706
0.8980392156862745 0.2980392156862745 0.18823529411764706
0.9254901960784314 0.2784313725490196 0.18823529411764706
0.9411764705882353 0.25882352941176473 0.17647058823529413
0.9607843137254902 0.24313725490196078 0.17647058823529413
0.9764705882352941 0.23137254901960785 0.17254901960784313
0.9921568627450981 0.2235294117647059 0.17254901960784313
1.0 0.2235294117647059 0.16862745098039217
1.0 0.2235294117647059 0.1803921568627451
1.0 0.23137254901960785 0.19607843137254902
0.08235294117647059 0.2235294117647059 0.07450980392156863
0.10588235294117647 0.2196078431372549 0.0784313725490196
0.12156862745098039 0.2196078431372549 0.07450980392156863
0.14901960784313725 0.2196078431372549 0.07450980392156863
0.16470588235294117 0.21568627450980393 0.06666666666666667
0.18823529411764706 0.21176470588235294 0.07058823529411765
0.21176470588235294 0.20392156862745098 0.06666666666666667
0.23137254901960785 0.20784313725490197 0.07058823529411765
0.26666666666666666 0.20784313725490197 0.0784313725490196
0.29411764705882354 0.21176470588235294 0.08627450980392157
0.3176470588235294 0.2196078431372549 0.09411764705882353
0.36470588235294116 0.2196078431372549 0.10196078431372549
0.403921568627451 0.2235294117647059 0.10980392156862745
0.4588235294117647 0.23529411764705882 0.11764705882352941
0.5254901960784314 0.24313725490196078 0.12549019607843137
0.5803921568627451 0.25098039215686274 0.13333333333333333
0.6431372549019608 0.25882352941176473 0.1411764705882353
0.6901960784313725 0.27058823529411763 0.1450980392156863
0.7333333333333333 0.2823529411764706 0.14901960784313725
0.7725490196078432 0.29411764705882354 0.1607843137254902
0.8 0.3058823529411765 0.1607843137254902
0.8235294117647058 0.3215686274509804 0.17254901960784313
0.8549019607843137 0.3254901960784314 0.1803921568627451
0.8745098039215686 0.3254901960784314 0.17647058823529413
0.9019607843137255 0.3176470588235294 0.1803921568627451
0.9254901960784314 0.30196078431372547 0.17647058823529413
0.9490196078431372 0.2823529411764706 0.17254901960784313
0.9647058823529412 0.25882352941176473 0.16862745098039217
0.9803921568627451 0.24705882352941178 0.16470588235294117
0.996078431372549 0.23529411764705882 0.16470588235294117
1.0 0.23137254901960785 0.1607843137254902
1.0 0.23137254901960785 0.16862745098039217
1.0 0.23137254901960785 0.17254901960784313
0.08627450980392157 0.24705882352941178 0.0784313725490196
0.10196078431372549 0.24313725490196078 0.07450980392156863
0.12941176470588237 0.24313725490196078 0.07450980392156863
0.15294117647058825 0.23921568627450981 0.07058823529411765
0.17254901960784313 0.23921568627450981 0.07058823529411765
0.19607843137254902 0.23921568627450981 0.06666666666666667
0.21568627450980393 0.23529411764705882 0.06666666666666667
0.23529411764705882 0.22745098039215686 0.07058823529411765
0.25882352941176473 0.22745098039215686 0.07058823529411765
0.2901960784313726 0.23137254901960785 0.08235294117647059
0.3215686274509804 0.23529411764705882 0.09019607843137255
0.3686274509803922 0.23921568627450981 0.09803921568627451
0.41568627450980394 0.24705882352941178 0.10588235294117647
0.4666666666666667 0.25098039215686274 0.11764705882352941
0.5294117647058824 0.2549019607843137 0.11764705882352941
0.592156862745098 0.26666666666666666 0.12549019607843137
0.6509803921568628 0.27450980392156865 0.13333333333333333
0.7019607843137254 0.2901960784313726 0.13725490196078433
0.7411764705882353 0.3058823529411765 0.1450980392156863
0.7803921568627451 0.3176470588235294 0.14901960784313725
0.803921568627451 0.3333333333333333 0.1568627450980392
0.8313725490196079 0.34509803921568627 0.16470588235294117
0.8588235294117647 0.35294117647058826 0.17254901960784313
0.8784313725490196 0.35294117647058826 0.17254901960784313
0.9019607843137255 0.34509803921568627 0.17254901960784313
0.9254901960784314 0.3215686274509804 0.16470588235294117
0.9529411764705882 0.30196078431372547 0.1607843137254902
0.9686274509803922 0.2784313725490196 0.1607843137254902
0.9882352941176471 0.2627450980392157 0.1568627450980392
1.0 0.25098039215686274 0.15294117647058825
1.0 0.24313725490196078 0.15294117647058825
1.0 0.24705882352941178 0.1607843137254902
1.0 0.24705882352941178 0.16470588235294117
0.08627450980392157 0.27058823529411763 0.0784313725490196
0.10980392156862745 0.27058823529411763 0.0784313725490196
0.13333333333333333 0.27058823529411763 0.07450980392156863
0.1568627450980392 0.26666666666666666 0.07450980392156863
0.1803921568627451 0.26666666666666666 0.07450980392156863
0.20392156862745098 0.26666666666666666 0.07058823529411765
0.2235294117647059 0.2627450980392157 0.07058823529411765
0.24705882352941178 0.2627450980392157 0.06274509803921569
0.25882352941176473 0.24313725490196078 0.07058823529411765
0.29411764705882354 0.24705882352941178 0.07058823529411765
0.32941176470588235 0.2549019607843137 0.08627450980392157
0.3686274509803922 0.25882352941176473 0.09411764705882353
0.4196078431372549 0.2627450980392157 0.10588235294117647
0.47843137254901963 0.26666666666666666 0.10588235294117647
0.5372549019607843 0.27450980392156865 0.11372549019607843
0.6 0.28627450980392155 0.11764705882352941
0.6588235294117647 0.2980392156862745 0.12941176470588237
0.7098039215686275 0.3137254901960784 0.13725490196078433
0.7490196078431373 0.3254901960784314 0.1411764705882353
0.7843137254901961 0.34509803921568627 0.1450980392156863
0.807843137254902 0.36470588235294116 0.15294117647058825
0.8274509803921568 0.3764705882352941 0.14901960784313725
0.8549019607843137 0.3843137254901961 0.1568627450980392
0.8823529411764706 0.3803921568627451 0.16470588235294117
0.9137254901960784 0.37254901960784315 0.16862745098039217
0.9333333333333333 0.35294117647058826 0.16470588235294117
0.9568627450980393 0.3215686274509804 0.1568627450980392
0.9686274509803922 0.2980392156862745 0.14901960784313725
0.9921568627450981 0.2784313725490196 0.15294117647058825
1.0 0.2627450980392157 0.14901960784313725
1.0 0.25882352941176473 0.1411764705882353
1.0 0.2549019607843137 0.14901960784313725
1.0 0.25882352941176473 0.1607843137254902
0.09411764705882353 0.3058823529411765 0.08235294117647059
0.11372549019607843 0.30196078431372547 0.08235294117647059
0.1411764705882353 0.2980392156862745 0.0784313725490196
0.16862745098039217 0.29411764705882354 0.0784313725490196
0.18823529411764706 0.2980392156862745 0.07450980392156863
0.21568627450980393 0.29411764705882354 0.07450980392156863
0.22745098039215686 0.29411764705882354 0.07058823529411765
0.2549019607843137 0.2901960784313726 0.07450980392156863
0.2823529411764706 0.28627450980392155 0.06666666666666667
0.28627450980392155 0.27058823529411763 0.07058823529411765
0.3254901960784314 0.27450980392156865 0.0784313725490196
0.36470588235294116 0.27450980392156865 0.08627450980392157
0.4196078431372549 0.2823529411764706 0.09019607843137255
0.4823529411764706 0.28627450980392155 0.10196078431372549
0.5411764705882353 0.2980392156862745 0.10588235294117647
0.6078431372549019 0.30980392156862746 0.11372549019607843
0.6666666666666666 0.3176470588235294 0.11764705882352941
0.7098039215686275 0.33725490196078434 0.12941176470588237
0.7490196078431373 0.3568627450980392 0.12941176470588237
0.7843137254901961 0.37254901960784315 0.13725490196078433
0.8117647058823529 0.396078431372549 0.14901960784313725
0.8352941176470589 0.41568627450980394 0.15294117647058825
0.8549019607843137 0.4235294117647059 0.15294117647058825
0.8862745098039215 0.4235294117647059 0.1607843137254902
0.9098039215686274 0.40784313725490196 0.1607843137254902
0.9333333333333333 0.3843137254901961 0.15294117647058825
0.9607843137254902 0.35294117647058826 0.15294117647058825
0.9803921568627451 0.3176470588235294 0.1411764705882353
0.996078431372549 0.2980392156862745 0.1450980392156863
1.0 0.2823529411764706 0.13725490196078433
1.0 0.27450980392156865 0.1411764705882353
1.0 0.27058823529411763 0.14901960784313725
1.0 0.27450980392156865 0.14901960784313725
0.10196078431372549 0.33725490196078434 0.08235294117647059
0.12156862745098039 0.33725490196078434 0.0784313725490196
0.1450980392156863 0.3333333333333333 0.0784313725490196
0.17647058823529413 0.3333333333333333 0.0784313725490196
0.19607843137254902 0.32941176470588235 0.0784313725490196
0.21568627450980393 0.32941176470588235 0.0784313725490196
0.23921568627450981 0.3254901960784314 0.07450980392156863
0.26666666666666666 0.3254901960784314 0.06666666666666667
0.2901960784313726 0.3215686274509804 0.06666666666666667
0.3176470588235294 0.3215686274509804 0.07450980392156863
0.3254901960784314 0.29411764705882354 0.07450980392156863
0.3686274509803922 0.2980392156862745 0.0784313725490196
0.4235294117647059 0.30196078431372547 0.09411764705882353
0.4823529411764706 0.30980392156862746 0.09411764705882353
0.5450980392156862 0.3254901960784314 0.10588235294117647
0.615686274509804 0.33725490196078434 0.10588235294117647
0.6705882352941176 0.34901960784313724 0.11764705882352941
0.7137254901960784 0.3686274509803922 0.11764705882352941
0.7529411764705882 0.39215686274509803 0.12549019607843137
0.7803921568627451 0.4117647058823529 0.13333333333333333
0.807843137254902 0.43529411764705883 0.13725490196078433
0.8313725490196079 0.45098039215686275 0.1450980392156863
0.8549019607843137 0.4588235294117647 0.1450980392156863
0.8823529411764706 0.4549019607843137 0.14901960784313725
0.9176470588235294 0.4470588235294118 0.14901960784313725
0.9372549019607843 0.4196078431372549 0.1450980392156863
0.9647058823529412 0.3803921568627451 0.1450980392156863
0.9882352941176471 0.35294117647058826 0.1411764705882353
1.0 0.3215686274509804 0.13725490196078433
1.0 0.3058823529411765 0.12941176470588237
1.0 0.29411764705882354 0.13333333333333333
1.0 0.29411764705882354 0.13725490196078433
1.0 0.29411764705882354 0.1411764705882353
0.10980392156862745 0.3803921568627451 0.08627450980392157
0.12941176470588237 0.3803921568627451 0.09019607843137255
0.15294117647058825 0.3803921568627451 0.08235294117647059
0.17647058823529413 0.37254901960784315 0.08235294117647059
0.20392156862745098 0.37254901960784315 0.07450980392156863
0.2235294117647059 0.37254901960784315 0.0784313725490196
0.24313725490196078 0.3686274509803922 0.0784313725490196
0.27058823529411763 0.3686274509803922 0.07058823529411765
0.2980392156862745 0.36470588235294116 0.07058823529411765
0.32941176470588235 0.3607843137254902 0.06666666666666667
0.3607843137254902 0.34901960784313724 0.06666666666666667
0.36470588235294116 0.3215686274509804 0.07058823529411765
0.41568627450980394 0.32941176470588235 0.0784313725490196
0.49019607843137253 0.3333333333333333 0.09411764705882353
0.5529411764705883 0.34901960784313724 0.09411764705882353
0.615686274509804 0.3607843137254902 0.10196078431372549
0.6705882352941176 0.3843137254901961 0.10196078431372549
0.7137254901960784 0.403921568627451 0.10980392156862745
0.7529411764705882 0.42745098039215684 0.11764705882352941
0.7843137254901961 0.4549019607843137 0.12549019607843137
0.807843137254902 0.47058823529411764 0.12941176470588237
0.8313725490196079 0.49019607843137253 0.13725490196078433
0.8549019607843137 0.4980392156862745 0.1411764705882353
0.8784313725490196 0.4980392156862745 0.1411764705882353
0.9098039215686274 0.4823529411764706 0.1411764705882353
0.9411764705882353 0.4588235294117647 0.13333333333333333
0.9686274509803922 0.4235294117647059 0.13725490196078433
0.9882352941176471 0.3764705882352941 0.13333333333333333
1.0 0.35294117647058826 0.12549019607843137
1.0 0.32941176470588235 0.12941176470588237
1.0 0.3215686274509804 0.12941176470588237
1.0 0.30980392156862746 0.13725490196078433
1.0 0.3176470588235294 0.1411764705882353
0.10980392156862745 0.43137254901960786 0.08627450980392157
0.13333333333333333 0.42745098039215684 0.08627450980392157
0.15294117647058825 0.43137254901960786 0.08627450980392157
0.17647058823529413 0.43137254901960786 0.0784313725490196
0.2 0.4235294117647059 0.08235294117647059
0.2235294117647059 0.4196078431372549 0.07058823529411765
0.24705882352941178 0.41568627450980394 0.07450980392156863
0.27450980392156865 0.41568627450980394 0.07450980392156863
0.30196078431372547 0.41568627450980394 0.07058823529411765
0.33725490196078434 0.4117647058823529 0.06666666666666667
0.3764705882352941 0.4117647058823529 0.06666666666666667
0.4117647058823529 0.39215686274509803 0.06274509803921569
0.41568627450980394 0.3568627450980392 0.0784313725490196
0.4823529411764706 0.37254901960784315 0.08235294117647059
0.5490196078431373 0.3843137254901961 0.09019607843137255
0.6196078431372549 0.396078431372549 0.09411764705882353
0.6666666666666666 0.4196078431372549 0.10196078431372549
0.7137254901960784 0.44313725490196076 0.10196078431372549
0.7490196078431373 0.4666666666666667 0.11372549019607843
0.7764705882352941 0.48627450980392156 0.11372549019607843
0.807843137254902 0.5098039215686274 0.12156862745098039
0.8274509803921568 0.5254901960784314 0.12941176470588237
0.8549019607843137 0.5372549019607843 0.12941176470588237
0.8823529411764706 0.5333333333333333 0.13725490196078433
0.9058823529411765 0.5137254901960784 0.13333333333333333
0.9372549019607843 0.49411764705882355 0.12941176470588237
0.9686274509803922 0.4549019607843137 0.12941176470588237
