cubelut/FILM-KPC_KODAK_PROFESSIONAL_COLD_LUT.cube
TITLE "Photo Curves LUT"
LUT_3D_SIZE 5
0.03137254901960784 0.050980392156862744 0.0
0.2235294117647059 0.050980392156862744 0.0
0.5176470588235295 0.050980392156862744 0.0
0.788235294117647 0.11372549019607843 0.12549019607843137
0.984313725490196 0.08235294117647059 0.09019607843137255
0.03137254901960784 0.20784313725490197 0.0
0.2 0.23137254901960785 0.0
0.5372549019607843 0.18823529411764706 0.0
0.807843137254902 0.30196078431372547 0.043137254901960784
0.9882352941176471 0.28627450980392155 0.01568627450980392
0.03137254901960784 0.5529411764705883 0.0
0.09803921568627451 0.6039215686274509 0.0
0.5647058823529412 0.615686274509804 0.0
0.8392156862745098 0.5882352941176471 0.0
1.0 0.5490196078431373 0.0
0.03137254901960784 0.7568627450980392 0.0
0.050980392156862744 0.796078431372549 0.0
0.4823529411764706 0.8196078431372549 0.0
0.8352941176470589 0.8196078431372549 0.0
1.0 0.7803921568627451 0.0
0.03137254901960784 0.9333333333333333 0.0
0.03137254901960784 0.9686274509803922 0.0
0.24705882352941178 0.9686274509803922 0.0
0.7176470588235294 0.9686274509803922 0.0
1.0 0.9725490196078431 0.0
0.03137254901960784 0.050980392156862744 0.25882352941176473
0.20392156862745098 0.050980392156862744 0.25882352941176473
0.5098039215686274 0.050980392156862744 0.27450980392156865
0.788235294117647 0.11372549019607843 0.4117647058823529
0.984313725490196 0.08235294117647059 0.403921568627451
0.03137254901960784 0.17254901960784313 0.22745098039215686
0.20392156862745098 0.21568627450980393 0.2549019607843137
0.5294117647058824 0.21176470588235294 0.2549019607843137
0.803921568627451 0.36470588235294116 0.4235294117647059
0.9882352941176471 0.33725490196078434 0.4
0.03137254901960784 0.5137254901960784 0.21176470588235294
0.09803921568627451 0.5647058823529412 0.15294117647058825
0.5647058823529412 0.6039215686274509 0.1411764705882353
0.8235294117647058 0.5882352941176471 0.26666666666666666
1.0 0.5882352941176471 0.27450980392156865
0.03137254901960784 0.7294117647058823 0.24313725490196078
0.11764705882352941 0.7647058823529411 0.21176470588235294
0.4745098039215686 0.8 0.1568627450980392
0.8313725490196079 0.807843137254902 0.16862745098039217
1.0 0.7686274509803922 0.03529411764705882
0.03137254901960784 0.9019607843137255 0.12549019607843137
0.03137254901960784 0.9372549019607843 0.08235294117647059
0.24705882352941178 0.9686274509803922 0.0
0.7137254901960784 0.9686274509803922 0.0
1.0 0.9725490196078431 0.0
0.03137254901960784 0.050980392156862744 0.5607843137254902
0.1843137254901961 0.050980392156862744 0.5607843137254902
0.49019607843137253 0.050980392156862744 0.5686274509803921
0.7803921568627451 0.11764705882352941 0.6392156862745098
0.9764705882352941 0.08627450980392157 0.6549019607843137
0.03137254901960784 0.14901960784313725 0.5490196078431373
0.13333333333333333 0.1568627450980392 0.5725490196078431
0.5176470588235295 0.20784313725490197 0.5882352941176471
0.8 0.36470588235294116 0.6470588235294118
0.984313725490196 0.3411764705882353 0.6549019607843137
0.03137254901960784 0.4588235294117647 0.5529411764705883
0.12156862745098039 0.5254901960784314 0.5882352941176471
0.5607843137254902 0.5882352941176471 0.6196078431372549
0.8117647058823529 0.596078431372549 0.6274509803921569
0.9921568627450981 0.596078431372549 0.6313725490196078
0.03137254901960784 0.7215686274509804 0.6078431372549019
0.12549019607843137 0.7450980392156863 0.6039215686274509
0.43529411764705883 0.7764705882352941 0.5529411764705883
0.8235294117647058 0.796078431372549 0.5372549019607843
1.0 0.7490196078431373 0.5058823529411764
0.03137254901960784 0.8823529411764706 0.5607843137254902
0.03137254901960784 0.9137254901960784 0.5372549019607843
0.25098039215686274 0.9490196078431372 0.4392156862745098
0.6823529411764706 0.9725490196078431 0.3568627450980392
1.0 0.9725490196078431 0.37254901960784315
0.03137254901960784 0.050980392156862744 0.7215686274509804
0.18823529411764706 0.050980392156862744 0.7215686274509804
0.5176470588235295 0.08235294117647059 0.7372549019607844
0.7607843137254902 0.11372549019607843 0.7647058823529411
0.9725490196078431 0.09019607843137255 0.796078431372549
0.03137254901960784 0.1568627450980392 0.7176470588235294
0.1568627450980392 0.19607843137254902 0.7411764705882353
0.5372549019607843 0.28627450980392155 0.7529411764705882
0.7803921568627451 0.35294117647058826 0.7764705882352941
0.9803921568627451 0.3411764705882353 0.803921568627451
0.03137254901960784 0.4470588235294118 0.7294117647058823
0.14901960784313725 0.5019607843137255 0.7490196078431373
0.4823529411764706 0.5215686274509804 0.7764705882352941
0.803921568627451 0.5882352941176471 0.788235294117647
0.9882352941176471 0.596078431372549 0.796078431372549
0.03137254901960784 0.6823529411764706 0.7450980392156863
0.15294117647058825 0.7137254901960784 0.7647058823529411
0.4588235294117647 0.7490196078431373 0.7803921568627451
0.8235294117647058 0.7843137254901961 0.803921568627451
1.0 0.7725490196078432 0.792156862745098
0.03137254901960784 0.8823529411764706 0.7764705882352941
0.03137254901960784 0.9058823529411765 0.7725490196078432
0.25882352941176473 0.9254901960784314 0.7529411764705882
0.6784313725490196 0.9607843137254902 0.7294117647058823
1.0 0.9725490196078431 0.7215686274509804
0.03137254901960784 0.050980392156862744 0.8588235294117647
0.0784313725490196 0.050980392156862744 0.8666666666666667
0.48627450980392156 0.050980392156862744 0.8823529411764706
0.7607843137254902 0.054901960784313725 0.9058823529411765
0.9568627450980393 0.08627450980392157 0.9254901960784314
0.03137254901960784 0.09411764705882353 0.8588235294117647
0.03137254901960784 0.13333333333333333 0.8862745098039215
0.4823529411764706 0.20392156862745098 0.8980392156862745
0.7764705882352941 0.28627450980392155 0.9176470588235294
0.9686274509803922 0.3333333333333333 0.9372549019607843
0.03137254901960784 0.35294117647058826 0.8745098039215686
0.03137254901960784 0.40784313725490196 0.8941176470588236
0.3843137254901961 0.43137254901960786 0.9176470588235294
0.7647058823529411 0.5411764705882353 0.9333333333333333
0.9764705882352941 0.5882352941176471 0.9529411764705882
0.03137254901960784 0.6431372549019608 0.8862745098039215
0.03529411764705882 0.6745098039215687 0.9058823529411765
0.32941176470588235 0.6901960784313725 0.9294117647058824
0.7294117647058823 0.7176470588235294 0.9450980392156862
0.9882352941176471 0.7686274509803922 0.9647058823529412
0.03137254901960784 0.8274509803921568 0.8941176470588236
0.050980392156862744 0.8588235294117647 0.9098039215686274
0.3215686274509804 0.8941176470588236 0.9333333333333333
0.7019607843137254 0.9333333333333333 0.9529411764705882
1.0 0.9764705882352941 0.9764705882352941
