cubelut/FILM-KDF_KODAK_FUNSAVER_LUT.cube
TITLE "Generated by LUMIX Lab"
#LUMIXPHOTOSTYLE STD
LUT_3D_SIZE 33
0.090196 0.082353 0.121569
0.094118 0.082353 0.121569
0.101961 0.078431 0.121569
0.109804 0.078431 0.113725
0.121569 0.078431 0.113725
0.133333 0.074510 0.113725
0.145098 0.074510 0.113725
0.156863 0.074510 0.113725
0.172549 0.074510 0.121569
0.184314 0.078431 0.125490
0.203922 0.078431 0.125490
0.223529 0.078431 0.137255
0.247059 0.078431 0.137255
0.266667 0.078431 0.141176
0.294118 0.078431 0.141176
0.317647 0.082353 0.149020
0.345098 0.086275 0.152941
0.376471 0.086275 0.156863
0.403922 0.086275 0.156863
0.443137 0.090196 0.168627
0.478431 0.094118 0.176471
0.505882 0.094118 0.180392
0.533333 0.094118 0.192157
0.560784 0.094118 0.196078
0.584314 0.098039 0.203922
0.611765 0.098039 0.211765
0.635294 0.101961 0.223529
0.662745 0.101961 0.235294
0.690196 0.105882 0.250980
0.713726 0.105882 0.270588
0.749020 0.105882 0.290196
0.772549 0.113725 0.329412
0.796078 0.113725 0.380392
0.090196 0.090196 0.121569
0.098039 0.090196 0.121569
0.105882 0.090196 0.121569
0.109804 0.086275 0.113725
0.117647 0.086275 0.113725
0.129412 0.082353 0.113725
0.145098 0.082353 0.121569
0.156863 0.082353 0.121569
0.172549 0.082353 0.121569
0.188235 0.082353 0.121569
0.203922 0.082353 0.125490
0.227451 0.082353 0.125490
0.250980 0.082353 0.129412
0.270588 0.078431 0.129412
0.298039 0.078431 0.137255
0.321569 0.086275 0.137255
0.356863 0.086275 0.149020
0.380392 0.086275 0.152941
0.411765 0.086275 0.156863
0.443137 0.086275 0.164706
0.478431 0.094118 0.168627
0.513726 0.094118 0.168627
0.533333 0.094118 0.180392
0.564706 0.094118 0.188235
0.588235 0.098039 0.196078
0.615686 0.098039 0.207843
0.635294 0.101961 0.215686
0.658824 0.105882 0.227451
0.694118 0.105882 0.247059
0.721569 0.105882 0.266667
0.745098 0.105882 0.290196
0.772549 0.113725 0.321569
0.792157 0.113725 0.376471
0.090196 0.094118 0.125490
0.098039 0.094118 0.125490
0.105882 0.098039 0.121569
0.109804 0.094118 0.121569
0.117647 0.094118 0.121569
0.129412 0.094118 0.121569
0.145098 0.090196 0.121569
0.156863 0.090196 0.121569
0.172549 0.090196 0.121569
0.188235 0.094118 0.125490
0.211765 0.094118 0.125490
0.231373 0.090196 0.125490
0.254902 0.090196 0.125490
0.278431 0.090196 0.125490
0.301961 0.086275 0.125490
0.329412 0.094118 0.141176
0.364706 0.090196 0.141176
0.396078 0.090196 0.141176
0.427451 0.090196 0.152941
0.454902 0.090196 0.152941
0.490196 0.094118 0.156863
0.517647 0.094118 0.168627
0.537255 0.094118 0.168627
0.568627 0.098039 0.176471
0.596078 0.098039 0.188235
0.619608 0.098039 0.196078
0.643137 0.101961 0.207843
0.666667 0.101961 0.215686
0.698039 0.105882 0.235294
0.717647 0.105882 0.254902
0.749020 0.105882 0.282353
0.772549 0.113725 0.313726
0.796078 0.113725 0.372549
0.090196 0.101961 0.129412
0.098039 0.101961 0.129412
0.101961 0.105882 0.129412
0.109804 0.105882 0.125490
0.121569 0.105882 0.125490
0.129412 0.105882 0.121569
0.145098 0.101961 0.121569
0.160784 0.101961 0.125490
0.172549 0.098039 0.125490
0.192157 0.101961 0.125490
0.211765 0.101961 0.125490
0.231373 0.101961 0.125490
0.254902 0.101961 0.125490
0.278431 0.098039 0.129412
0.305882 0.098039 0.137255
0.329412 0.101961 0.137255
0.368627 0.101961 0.141176
0.400000 0.098039 0.141176
0.431373 0.098039 0.149020
0.462745 0.098039 0.149020
0.494118 0.101961 0.152941
0.525490 0.098039 0.164706
0.549020 0.098039 0.168627
0.576471 0.101961 0.168627
0.600000 0.098039 0.176471
0.623529 0.098039 0.192157
0.647059 0.101961 0.203922
0.666667 0.105882 0.211765
0.698039 0.105882 0.231373
0.725490 0.105882 0.247059
0.745098 0.105882 0.270588
0.776471 0.113725 0.305882
0.792157 0.113725 0.360784
0.094118 0.113725 0.137255
0.098039 0.109804 0.137255
0.105882 0.109804 0.137255
0.109804 0.113725 0.137255
0.121569 0.113725 0.129412
0.133333 0.113725 0.125490
0.141176 0.113725 0.129412
0.160784 0.113725 0.125490
0.172549 0.109804 0.125490
0.192157 0.109804 0.125490
0.211765 0.113725 0.125490
0.231373 0.113725 0.129412
0.254902 0.113725 0.129412
0.282353 0.109804 0.137255
0.305882 0.109804 0.137255
0.337255 0.109804 0.137255
0.372549 0.113725 0.137255
0.400000 0.113725 0.141176
0.435294 0.109804 0.149020
0.466667 0.113725 0.152941
0.501961 0.113725 0.156863
0.529412 0.109804 0.156863
0.556863 0.109804 0.164706
0.584314 0.109804 0.164706
0.607843 0.105882 0.168627
0.631373 0.101961 0.176471
0.650980 0.101961 0.184314
0.674510 0.105882 0.196078
0.698039 0.105882 0.215686
0.729412 0.105882 0.235294
0.749020 0.105882 0.262745
0.780392 0.113725 0.298039
0.796078 0.113725 0.349020
0.094118 0.121569 0.141176
0.098039 0.121569 0.141176
0.105882 0.121569 0.145098
0.113725 0.121569 0.149020
0.121569 0.125490 0.141176
0.129412 0.125490 0.137255
0.145098 0.125490 0.137255
0.156863 0.125490 0.129412
0.172549 0.125490 0.129412
0.188235 0.125490 0.129412
0.215686 0.121569 0.129412
0.235294 0.125490 0.137255
0.258824 0.129412 0.137255
0.282353 0.125490 0.137255
0.309804 0.125490 0.137255
0.337255 0.125490 0.137255
0.372549 0.129412 0.149020
0.403922 0.129412 0.149020
0.435294 0.125490 0.149020
0.470588 0.125490 0.156863
0.509804 0.125490 0.156863
0.533333 0.125490 0.156863
0.560784 0.125490 0.164706
0.588235 0.121569 0.164706
0.607843 0.121569 0.168627
0.631373 0.117647 0.168627
0.654902 0.113725 0.168627
0.678431 0.113725 0.180392
0.705882 0.109804 0.196078
0.733333 0.105882 0.215686
0.752941 0.105882 0.247059
0.780392 0.113725 0.286275
0.800000 0.113725 0.341176
0.098039 0.129412 0.152941
0.101961 0.129412 0.152941
0.109804 0.133333 0.156863
0.113725 0.133333 0.156863
0.121569 0.137255 0.152941
0.133333 0.137255 0.149020
0.145098 0.141176 0.141176
0.156863 0.141176 0.141176
0.176471 0.141176 0.137255
0.192157 0.141176 0.137255
0.215686 0.137255 0.137255
0.235294 0.141176 0.137255
0.262745 0.141176 0.129412
0.286275 0.141176 0.129412
0.313726 0.141176 0.137255
0.341176 0.141176 0.149020
0.372549 0.137255 0.149020
0.407843 0.141176 0.149020
0.439216 0.141176 0.152941
0.474510 0.141176 0.152941
0.513726 0.137255 0.156863
0.537255 0.141176 0.160784
0.564706 0.141176 0.168627
0.588235 0.141176 0.164706
0.611765 0.141176 0.168627
0.631373 0.137255 0.176471
0.654902 0.129412 0.180392
0.682353 0.129412 0.188235
0.709804 0.121569 0.188235
0.737255 0.113725 0.203922
0.756863 0.105882 0.227451
0.780392 0.109804 0.266667
0.796078 0.113725 0.325490
0.098039 0.145098 0.156863
0.105882 0.141176 0.160784
0.113725 0.141176 0.160784
0.121569 0.145098 0.168627
0.125490 0.149020 0.164706
0.133333 0.152941 0.164706
0.141176 0.152941 0.152941
0.156863 0.156863 0.152941
0.176471 0.156863 0.152941
0.196078 0.156863 0.149020
0.215686 0.156863 0.141176
0.239216 0.156863 0.137255
0.262745 0.156863 0.141176
0.286275 0.156863 0.145098
0.317647 0.160784 0.141176
0.341176 0.160784 0.141176
0.376471 0.156863 0.149020
0.411765 0.160784 0.152941
0.443137 0.160784 0.156863
0.478431 0.160784 0.156863
0.509804 0.156863 0.160784
0.537255 0.160784 0.164706
0.564706 0.160784 0.168627
0.592157 0.160784 0.168627
0.615686 0.156863 0.168627
0.639216 0.156863 0.176471
0.662745 0.149020 0.176471
0.686275 0.149020 0.180392
0.713726 0.141176 0.192157
0.741176 0.133333 0.196078
0.760784 0.117647 0.207843
0.784314 0.113725 0.247059
0.803922 0.113725 0.305882
0.098039 0.156863 0.164706
0.105882 0.156863 0.164706
0.113725 0.156863 0.168627
0.121569 0.156863 0.168627
0.129412 0.156863 0.176471
0.137255 0.160784 0.168627
0.145098 0.164706 0.168627
0.160784 0.168627 0.168627
0.176471 0.172549 0.164706
0.192157 0.172549 0.156863
0.215686 0.176471 0.152941
0.239216 0.176471 0.152941
0.262745 0.176471 0.152941
0.290196 0.176471 0.152941
0.317647 0.176471 0.149020
0.345098 0.180392 0.152941
0.380392 0.176471 0.152941
0.415686 0.176471 0.152941
0.447059 0.180392 0.156863
0.490196 0.180392 0.160784
0.521569 0.180392 0.160784
0.545098 0.180392 0.168627
0.568627 0.180392 0.168627
0.596078 0.180392 0.176471
0.615686 0.176471 0.176471
0.639216 0.180392 0.180392
0.662745 0.176471 0.188235
0.690196 0.168627 0.192157
0.717647 0.164706 0.192157
0.745098 0.156863 0.203922
0.764706 0.141176 0.203922
0.792157 0.121569 0.227451
0.803922 0.113725 0.282353
0.105882 0.172549 0.168627
0.113725 0.172549 0.168627
0.113725 0.172549 0.176471
0.121569 0.172549 0.180392
0.133333 0.172549 0.188235
0.141176 0.176471 0.188235
0.152941 0.180392 0.188235
0.160784 0.184314 0.180392
0.176471 0.188235 0.176471
0.196078 0.192157 0.168627
0.219608 0.196078 0.164706
0.239216 0.196078 0.164706
0.262745 0.196078 0.164706
0.290196 0.196078 0.156863
0.317647 0.196078 0.160784
0.345098 0.200000 0.164706
0.384314 0.200000 0.156863
0.419608 0.196078 0.164706
0.450980 0.200000 0.156863
0.494118 0.203922 0.164706
0.525490 0.203922 0.164706
0.549020 0.203922 0.168627
0.576471 0.203922 0.168627
0.600000 0.203922 0.176471
0.623529 0.203922 0.176471
0.643137 0.203922 0.180392
0.666667 0.203922 0.180392
0.698039 0.200000 0.192157
0.721569 0.192157 0.196078
0.745098 0.184314 0.203922
0.772549 0.172549 0.207843
0.788235 0.141176 0.215686
0.800000 0.113725 0.254902
0.109804 0.192157 0.188235
0.117647 0.192157 0.188235
0.121569 0.192157 0.192157
0.125490 0.188235 0.192157
0.133333 0.188235 0.196078
0.145098 0.192157 0.203922
0.156863 0.196078 0.203922
0.168627 0.200000 0.203922
0.184314 0.203922 0.196078
0.196078 0.211765 0.188235
0.219608 0.211765 0.180392
0.239216 0.215686 0.176471
0.266667 0.219608 0.176471
0.290196 0.219608 0.176471
0.321569 0.219608 0.168627
0.349020 0.223529 0.168627
0.384314 0.227451 0.168627
0.419608 0.227451 0.168627
0.450980 0.227451 0.168627
0.494118 0.231373 0.168627
0.529412 0.231373 0.168627
0.556863 0.231373 0.176471
0.580392 0.231373 0.176471
0.603922 0.231373 0.180392
0.627451 0.231373 0.188235
0.647059 0.231373 0.188235
0.674510 0.231373 0.192157
0.698039 0.227451 0.192157
0.721569 0.223529 0.203922
0.752941 0.215686 0.207843
0.772549 0.203922 0.215686
0.796078 0.176471 0.211765
0.803922 0.133333 0.231373
0.113725 0.211765 0.196078
0.121569 0.211765 0.200000
0.129412 0.211765 0.203922
0.137255 0.207843 0.207843
0.145098 0.207843 0.207843
0.149020 0.207843 0.211765
0.160784 0.211765 0.223529
0.172549 0.215686 0.223529
0.188235 0.223529 0.211765
0.200000 0.227451 0.203922
0.219608 0.235294 0.203922
0.243137 0.239216 0.192157
0.266667 0.243137 0.192157
0.294118 0.247059 0.188235
0.321569 0.250980 0.188235
0.356863 0.250980 0.188235
0.384314 0.254902 0.184314
0.419608 0.258824 0.180392
0.454902 0.258824 0.180392
0.501961 0.258824 0.184314
0.529412 0.262745 0.180392
0.560784 0.266667 0.180392
0.588235 0.266667 0.180392
0.607843 0.262745 0.188235
0.635294 0.262745 0.192157
0.654902 0.266667 0.196078
0.674510 0.262745 0.196078
0.701961 0.262745 0.203922
0.725490 0.258824 0.211765
0.749020 0.250980 0.211765
0.780392 0.235294 0.211765
0.796078 0.211765 0.223529
0.815686 0.156863 0.227451
0.117647 0.235294 0.211765
0.125490 0.235294 0.215686
0.129412 0.235294 0.215686
0.137255 0.231373 0.219608
0.145098 0.231373 0.227451
0.156863 0.231373 0.231373
0.168627 0.235294 0.235294
0.176471 0.239216 0.235294
0.188235 0.243137 0.227451
0.203922 0.247059 0.227451
0.227451 0.254902 0.223529
0.247059 0.266667 0.215686
0.266667 0.270588 0.211765
0.298039 0.274510 0.203922
0.325490 0.282353 0.207843
0.352941 0.282353 0.203922
0.392157 0.286275 0.196078
0.427451 0.290196 0.200000
0.458824 0.294118 0.196078
0.505882 0.298039 0.196078
0.533333 0.298039 0.196078
0.564706 0.298039 0.196078
0.596078 0.305882 0.196078
0.615686 0.301961 0.192157
0.635294 0.301961 0.192157
0.662745 0.301961 0.203922
0.682353 0.305882 0.207843
0.713726 0.301961 0.207843
0.729412 0.298039 0.211765
0.752941 0.286275 0.211765
0.780392 0.274510 0.215686
0.796078 0.247059 0.227451
0.823529 0.196078 0.231373
0.121569 0.254902 0.223529
0.125490 0.254902 0.227451
0.137255 0.254902 0.227451
0.145098 0.254902 0.231373
0.149020 0.254902 0.235294
0.156863 0.254902 0.243137
0.168627 0.258824 0.250980
0.180392 0.258824 0.254902
0.196078 0.262745 0.250980
0.207843 0.274510 0.247059
0.231373 0.282353 0.247059
0.247059 0.290196 0.235294
0.270588 0.298039 0.227451
0.301961 0.305882 0.227451
0.329412 0.309804 0.223529
0.364706 0.313726 0.223529
0.396078 0.321569 0.219608
0.427451 0.325490 0.215686
0.462745 0.325490 0.211765
0.505882 0.333333 0.215686
0.533333 0.337255 0.211765
0.568627 0.337255 0.207843
0.596078 0.337255 0.211765
0.619608 0.337255 0.207843
0.643137 0.341176 0.203922
0.670588 0.345098 0.207843
0.690196 0.345098 0.207843
0.713726 0.341176 0.215686
0.741176 0.341176 0.215686
0.756863 0.333333 0.215686
0.788235 0.317647 0.223529
0.800000 0.286275 0.231373
0.823529 0.235294 0.231373
0.129412 0.282353 0.243137
0.133333 0.282353 0.247059
0.141176 0.282353 0.243137
0.145098 0.282353 0.247059
0.156863 0.282353 0.250980
0.168627 0.282353 0.254902
0.176471 0.282353 0.262745
0.188235 0.282353 0.270588
0.200000 0.286275 0.270588
0.215686 0.298039 0.266667
0.235294 0.305882 0.262745
0.254902 0.317647 0.262745
0.278431 0.329412 0.250980
0.305882 0.337255 0.250980
0.329412 0.345098 0.243137
0.368627 0.349020 0.247059
0.403922 0.352941 0.235294
0.435294 0.360784 0.239216
0.470588 0.364706 0.235294
0.509804 0.368627 0.227451
0.545098 0.376471 0.231373
0.572549 0.380392 0.231373
0.600000 0.384314 0.227451
0.631373 0.384314 0.227451
0.647059 0.388235 0.215686
0.666667 0.388235 0.215686
0.694118 0.388235 0.215686
0.717647 0.388235 0.215686
0.749020 0.384314 0.223529
0.768627 0.376471 0.223529
0.792157 0.356863 0.231373
0.811765 0.333333 0.235294
0.823529 0.270588 0.243137
0.129412 0.309804 0.250980
0.141176 0.309804 0.254902
0.149020 0.309804 0.254902
0.156863 0.309804 0.262745
0.164706 0.309804 0.266667
0.172549 0.309804 0.274510
0.184314 0.309804 0.274510
0.196078 0.309804 0.282353
0.211765 0.313726 0.286275
0.219608 0.321569 0.290196
0.243137 0.333333 0.286275
0.258824 0.345098 0.278431
0.286275 0.356863 0.278431
0.309804 0.368627 0.270588
0.341176 0.372549 0.266667
0.372549 0.384314 0.262745
0.407843 0.392157 0.262745
0.443137 0.396078 0.254902
0.482353 0.403922 0.254902
0.513726 0.415686 0.250980
0.549020 0.419608 0.250980
0.580392 0.423529 0.250980
0.607843 0.431373 0.247059
0.627451 0.431373 0.235294
0.654902 0.439216 0.235294
0.678431 0.439216 0.231373
0.705882 0.431373 0.227451
0.725490 0.431373 0.227451
0.749020 0.431373 0.227451
0.776471 0.427451 0.231373
0.796078 0.415686 0.235294
0.819608 0.376471 0.243137
0.831373 0.317647 0.247059
0.141176 0.337255 0.266667
0.145098 0.337255 0.270588
0.152941 0.341176 0.270588
0.160784 0.341176 0.274510
0.168627 0.345098 0.278431
0.184314 0.345098 0.286275
0.196078 0.345098 0.290196
0.207843 0.345098 0.298039
0.219608 0.349020 0.305882
0.231373 0.352941 0.305882
0.254902 0.364706 0.309804
0.266667 0.376471 0.301961
0.286275 0.392157 0.301961
0.313726 0.400000 0.290196
0.345098 0.411765 0.290196
0.380392 0.423529 0.278431
0.415686 0.427451 0.278431
0.443137 0.431373 0.270588
0.482353 0.443137 0.270588
0.517647 0.450980 0.270588
0.552941 0.458824 0.270588
0.584314 0.462745 0.262745
0.611765 0.466667 0.262745
0.635294 0.470588 0.258824
0.658824 0.482353 0.250980
0.678431 0.486275 0.250980
0.713726 0.482353 0.243137
0.729412 0.482353 0.235294
0.752941 0.482353 0.235294
0.784314 0.466667 0.235294
0.803922 0.454902 0.243137
0.823529 0.431373 0.250980
0.835294 0.376471 0.250980
0.145098 0.372549 0.286275
0.152941 0.372549 0.290196
0.156863 0.372549 0.290196
0.168627 0.372549 0.294118
0.180392 0.376471 0.298039
0.188235 0.376471 0.301961
0.196078 0.376471 0.309804
0.215686 0.376471 0.313726
0.231373 0.380392 0.321569
0.247059 0.384314 0.325490
0.258824 0.392157 0.333333
0.274510 0.415686 0.325490
0.298039 0.423529 0.325490
0.321569 0.439216 0.317647
0.356863 0.450980 0.313726
0.388235 0.458824 0.305882
0.415686 0.462745 0.301961
0.454902 0.470588 0.298039
0.494118 0.478431 0.294118
0.533333 0.494118 0.290196
0.560784 0.498039 0.286275
0.592157 0.501961 0.286275
0.623529 0.505882 0.274510
0.639216 0.517647 0.274510
0.662745 0.517647 0.266667
0.686275 0.521569 0.258824
0.721569 0.521569 0.254902
0.745098 0.525490 0.247059
0.764706 0.517647 0.243137
0.788235 0.513726 0.243137
0.807843 0.501961 0.243137
0.827451 0.478431 0.250980
0.843137 0.423529 0.254902
0.156863 0.411765 0.301961
0.164706 0.415686 0.305882
0.172549 0.415686 0.305882
0.172549 0.411765 0.309804
0.188235 0.415686 0.313726
0.192157 0.415686 0.317647
0.207843 0.411765 0.321569
0.223529 0.411765 0.329412
0.231373 0.419608 0.341176
0.254902 0.423529 0.349020
0.266667 0.423529 0.352941
0.290196 0.443137 0.352941
0.305882 0.454902 0.349020
0.333333 0.466667 0.345098
0.360784 0.482353 0.337255
0.388235 0.498039 0.333333
0.419608 0.501961 0.329412
0.458824 0.513726 0.317647
0.501961 0.517647 0.317647
0.533333 0.525490 0.309804
0.568627 0.529412 0.305882
0.603922 0.545098 0.301961
0.619608 0.549020 0.298039
0.647059 0.549020 0.290196
0.666667 0.556863 0.278431
0.690196 0.560784 0.278431
0.717647 0.560784 0.270588
0.745098 0.564706 0.258824
0.768627 0.556863 0.247059
0.792157 0.556863 0.247059
0.811765 0.549020 0.247059
0.835294 0.525490 0.250980
0.847059 0.482353 0.254902
0.164706 0.454902 0.321569
0.172549 0.454902 0.325490
0.176471 0.454902 0.329412
0.184314 0.454902 0.329412
0.192157 0.454902 0.333333
0.211765 0.458824 0.341176
0.219608 0.454902 0.345098
0.235294 0.458824 0.352941
0.243137 0.462745 0.356863
0.258824 0.458824 0.364706
0.282353 0.462745 0.376471
0.301961 0.470588 0.376471
0.317647 0.494118 0.372549
0.341176 0.501961 0.368627
0.368627 0.509804 0.364706
0.400000 0.525490 0.356863
0.431373 0.541176 0.352941
0.462745 0.549020 0.345098
0.505882 0.552941 0.341176
0.537255 0.564706 0.333333
0.576471 0.572549 0.321569
0.607843 0.580392 0.317647
0.631373 0.588235 0.313726
0.658824 0.592157 0.301961
0.674510 0.600000 0.298039
0.705882 0.603922 0.290196
0.725490 0.603922 0.278431
0.745098 0.603922 0.266667
0.776471 0.607843 0.262745
0.800000 0.600000 0.250980
0.815686 0.596078 0.254902
0.843137 0.576471 0.250980
0.858824 0.533333 0.262745
0.172549 0.490196 0.341176
0.176471 0.494118 0.345098
0.184314 0.498039 0.345098
0.196078 0.490196 0.349020
0.211765 0.490196 0.352941
0.215686 0.498039 0.356863
0.227451 0.498039 0.364706
0.243137 0.501961 0.372549
0.258824 0.501961 0.376471
0.270588 0.501961 0.380392
0.290196 0.505882 0.392157
0.313726 0.509804 0.396078
0.333333 0.521569 0.392157
0.360784 0.529412 0.392157
0.384314 0.541176 0.384314
0.411765 0.552941 0.376471
0.443137 0.568627 0.376471
0.470588 0.580392 0.372549
0.517647 0.588235 0.364706
0.545098 0.600000 0.352941
0.584314 0.603922 0.345098
0.611765 0.611765 0.341176
0.639216 0.619608 0.329412
0.654902 0.623529 0.325490
0.682353 0.627451 0.317647
0.705882 0.631373 0.305882
0.737255 0.631373 0.294118
0.752941 0.631373 0.278431
0.776471 0.627451 0.270588
0.800000 0.631373 0.250980
0.827451 0.623529 0.250980
0.843137 0.611765 0.250980
0.862745 0.580392 0.254902
0.188235 0.529412 0.360784
0.192157 0.529412 0.360784
0.196078 0.525490 0.364706
0.200000 0.525490 0.368627
0.215686 0.529412 0.372549
0.223529 0.529412 0.372549
0.239216 0.525490 0.376471
0.250980 0.529412 0.384314
0.266667 0.537255 0.392157
0.286275 0.541176 0.400000
0.301961 0.545098 0.411765
0.325490 0.545098 0.419608
0.345098 0.552941 0.419608
0.372549 0.556863 0.415686
0.392157 0.576471 0.411765
0.419608 0.584314 0.407843
0.450980 0.603922 0.400000
0.486275 0.615686 0.396078
0.521569 0.623529 0.380392
0.552941 0.623529 0.376471
0.588235 0.627451 0.368627
0.619608 0.631373 0.356863
0.643137 0.635294 0.349020
0.658824 0.647059 0.337255
0.682353 0.650980 0.325490
0.713726 0.650980 0.317647
0.733333 0.654902 0.313726
0.756863 0.658824 0.298039
0.780392 0.658824 0.286275
0.803922 0.658824 0.266667
0.827451 0.650980 0.258824
0.858824 0.639216 0.258824
0.866667 0.615686 0.250980
0.196078 0.572549 0.380392
0.211765 0.568627 0.384314
0.211765 0.568627 0.384314
0.215686 0.572549 0.384314
0.227451 0.572549 0.388235
0.239216 0.568627 0.392157
0.247059 0.572549 0.396078
0.266667 0.568627 0.403922
0.274510 0.576471 0.411765
0.290196 0.576471 0.419608
0.317647 0.576471 0.427451
0.337255 0.584314 0.439216
0.364706 0.584314 0.447059
0.384314 0.592157 0.447059
0.407843 0.607843 0.443137
0.439216 0.611765 0.435294
0.462745 0.623529 0.431373
0.498039 0.631373 0.423529
0.529412 0.639216 0.411765
0.556863 0.647059 0.403922
0.592157 0.658824 0.392157
0.615686 0.662745 0.376471
0.643137 0.662745 0.372549
0.666667 0.670588 0.360784
0.690196 0.666667 0.352941
0.713726 0.674510 0.341176
0.737255 0.674510 0.325490
0.760784 0.678431 0.313726
0.784314 0.690196 0.298039
0.811765 0.678431 0.278431
0.835294 0.678431 0.254902
0.858824 0.666667 0.254902
0.874510 0.650980 0.254902
0.207843 0.596078 0.403922
0.211765 0.603922 0.403922
0.215686 0.603922 0.407843
0.227451 0.603922 0.407843
0.239216 0.600000 0.415686
0.250980 0.607843 0.419608
0.258824 0.607843 0.419608
0.278431 0.603922 0.427451
0.290196 0.607843 0.435294
0.309804 0.603922 0.443137
0.329412 0.615686 0.450980
0.352941 0.619608 0.462745
0.376471 0.623529 0.466667
0.403922 0.623529 0.474510
0.431373 0.627451 0.474510
0.450980 0.639216 0.466667
0.482353 0.643137 0.462745
0.509804 0.650980 0.454902
0.533333 0.654902 0.439216
0.568627 0.670588 0.435294
0.600000 0.678431 0.419608
0.623529 0.678431 0.407843
0.643137 0.690196 0.396078
0.670588 0.686275 0.380392
0.698039 0.686275 0.372549
0.713726 0.701961 0.356863
0.745098 0.701961 0.349020
0.760784 0.705882 0.333333
0.792157 0.705882 0.313726
0.811765 0.709804 0.290196
0.835294 0.705882 0.266667
0.862745 0.698039 0.258824
0.878431 0.674510 0.258824
0.219608 0.627451 0.427451
0.219608 0.627451 0.427451
0.223529 0.627451 0.431373
0.235294 0.627451 0.435294
0.250980 0.627451 0.435294
0.254902 0.631373 0.439216
0.270588 0.639216 0.439216
0.282353 0.635294 0.450980
0.301961 0.639216 0.454902
0.325490 0.635294 0.466667
0.345098 0.635294 0.474510
0.372549 0.647059 0.486275
0.396078 0.647059 0.494118
0.419608 0.650980 0.505882
0.447059 0.650980 0.509804
0.462745 0.658824 0.501961
0.498039 0.670588 0.498039
0.525490 0.670588 0.494118
0.545098 0.682353 0.482353
0.576471 0.690196 0.466667
0.607843 0.694118 0.458824
0.631373 0.701961 0.443137
0.650980 0.709804 0.427451
0.678431 0.709804 0.411765
0.694118 0.717647 0.396078
0.713726 0.717647 0.380392
0.741176 0.725490 0.372549
0.756863 0.729412 0.349020
0.788235 0.729412 0.337255
0.819608 0.729412 0.313726
0.839216 0.725490 0.290196
0.866667 0.713726 0.262745
0.878431 0.705882 0.262745
0.227451 0.658824 0.450980
0.235294 0.658824 0.454902
0.243137 0.658824 0.454902
0.250980 0.658824 0.458824
0.258824 0.662745 0.462745
0.266667 0.658824 0.462745
0.278431 0.658824 0.470588
0.298039 0.658824 0.474510
0.321569 0.662745 0.482353
0.337255 0.662745 0.494118
0.364706 0.666667 0.501961
0.396078 0.674510 0.509804
0.415686 0.678431 0.521569
0.439216 0.678431 0.529412
0.466667 0.674510 0.541176
0.490196 0.678431 0.545098
0.513726 0.694118 0.541176
0.533333 0.705882 0.529412
0.556863 0.705882 0.521569
0.588235 0.713726 0.513726
0.615686 0.717647 0.501961
0.635294 0.725490 0.486275
0.650980 0.725490 0.462745
0.678431 0.729412 0.450980
0.698039 0.729412 0.431373
0.721569 0.741176 0.411765
0.741176 0.745098 0.396078
0.768627 0.737255 0.376471
0.800000 0.745098 0.360784
0.819608 0.752941 0.337255
0.843137 0.749020 0.309804
0.866667 0.745098 0.266667
0.882353 0.733333 0.262745
0.239216 0.682353 0.486275
0.243137 0.682353 0.486275
0.254902 0.686275 0.490196
0.262745 0.686275 0.494118
0.270588 0.698039 0.494118
0.282353 0.690196 0.498039
0.301961 0.686275 0.501961
0.309804 0.694118 0.509804
0.329412 0.701961 0.517647
0.356863 0.698039 0.525490
0.376471 0.701961 0.529412
0.407843 0.701961 0.537255
0.435294 0.705882 0.552941
0.454902 0.701961 0.564706
0.490196 0.709804 0.572549
0.509804 0.717647 0.576471
0.529412 0.721569 0.584314
0.560784 0.721569 0.580392
0.584314 0.725490 0.572549
0.607843 0.733333 0.564706
0.623529 0.737255 0.552941
0.647059 0.741176 0.537255
0.654902 0.752941 0.517647
0.678431 0.752941 0.501961
0.705882 0.752941 0.478431
0.729412 0.756863 0.454902
0.745098 0.764706 0.431373
0.776471 0.760784 0.407843
