cubelut/FILM-KGT_KODAK_GT24_PRO_LUT.cube
TITLE "Photo Curves LUT"
LUT_3D_SIZE 5
0.0 0.0 0.0
0.1803921568627451 0.00392156862745098 0.0
0.5333333333333333 0.00784313725490196 0.0
0.8549019607843137 0.00784313725490196 0.0
1.0 0.00784313725490196 0.0
0.0 0.17254901960784313 0.00784313725490196
0.17254901960784313 0.17647058823529413 0.0
0.5372549019607843 0.17647058823529413 0.0
0.8549019607843137 0.18823529411764706 0.0
1.0 0.18823529411764706 0.0
0.0 0.5215686274509804 0.01568627450980392
0.13725490196078433 0.5215686274509804 0.0
0.5372549019607843 0.5137254901960784 0.0
0.8509803921568627 0.4980392156862745 0.0
0.996078431372549 0.49411764705882355 0.0
0.0 0.8549019607843137 0.0196078431372549
0.11372549019607843 0.8549019607843137 0.0
0.5098039215686274 0.8470588235294118 0.0
0.8470588235294118 0.8274509803921568 0.0
0.9882352941176471 0.8196078431372549 0.0
0.0 0.996078431372549 0.01568627450980392
0.09019607843137255 0.996078431372549 0.0
0.4588235294117647 0.9921568627450981 0.0
0.8549019607843137 0.9921568627450981 0.0
0.9882352941176471 0.9764705882352941 0.0
0.0 0.0 0.1843137254901961
0.1803921568627451 0.0 0.16470588235294117
0.5372549019607843 0.0 0.15294117647058825
0.8549019607843137 0.00392156862745098 0.14901960784313725
1.0 0.00392156862745098 0.14901960784313725
0.0 0.15294117647058825 0.1843137254901961
0.17647058823529413 0.17254901960784313 0.1843137254901961
0.5372549019607843 0.18823529411764706 0.18823529411764706
0.8588235294117647 0.19607843137254902 0.19215686274509805
1.0 0.19607843137254902 0.18823529411764706
0.0 0.5215686274509804 0.2196078431372549
0.1803921568627451 0.5254901960784314 0.22745098039215686
0.5333333333333333 0.5176470588235295 0.1803921568627451
0.8509803921568627 0.5215686274509804 0.1843137254901961
0.9921568627450981 0.5215686274509804 0.1803921568627451
0.0 0.8549019607843137 0.25098039215686274
0.17647058823529413 0.8509803921568627 0.2549019607843137
0.48627450980392156 0.8509803921568627 0.1803921568627451
0.8470588235294118 0.8313725490196079 0.17647058823529413
0.9882352941176471 0.8274509803921568 0.1803921568627451
0.0 0.996078431372549 0.27058823529411763
0.17254901960784313 0.996078431372549 0.27450980392156865
0.4470588235294118 0.9921568627450981 0.1803921568627451
0.8392156862745098 0.9882352941176471 0.17647058823529413
0.9921568627450981 0.9764705882352941 0.17647058823529413
0.0 0.0 0.5607843137254902
0.17647058823529413 0.0 0.5568627450980392
0.5372549019607843 0.0 0.5411764705882353
0.8549019607843137 0.0 0.5294117647058824
0.996078431372549 0.0 0.5254901960784314
0.0 0.17647058823529413 0.5607843137254902
0.1803921568627451 0.17647058823529413 0.5647058823529412
0.5333333333333333 0.17254901960784313 0.5529411764705883
0.8549019607843137 0.17647058823529413 0.5411764705882353
0.996078431372549 0.17254901960784313 0.5372549019607843
0.0 0.5019607843137255 0.5607843137254902
0.1803921568627451 0.5215686274509804 0.5647058823529412
0.5333333333333333 0.5215686274509804 0.5607843137254902
0.8509803921568627 0.5333333333333333 0.5568627450980392
0.9921568627450981 0.5411764705882353 0.5529411764705883
0.0 0.8509803921568627 0.5803921568627451
0.17254901960784313 0.8509803921568627 0.5803921568627451
0.5294117647058824 0.8470588235294118 0.5843137254901961
0.8470588235294118 0.8392156862745098 0.5490196078431373
0.9882352941176471 0.8392156862745098 0.5490196078431373
0.0 0.9921568627450981 0.5882352941176471
0.17254901960784313 0.9921568627450981 0.596078431372549
0.5294117647058824 0.9921568627450981 0.6078431372549019
0.8274509803921568 0.9921568627450981 0.5529411764705883
0.9921568627450981 0.984313725490196 0.5568627450980392
0.0 0.00392156862745098 0.8784313725490196
0.16470588235294117 0.0 0.8784313725490196
0.5372549019607843 0.0 0.8784313725490196
0.8549019607843137 0.00392156862745098 0.8784313725490196
1.0 0.00392156862745098 0.8705882352941177
0.0 0.19607843137254902 0.8784313725490196
0.1803921568627451 0.18823529411764706 0.8784313725490196
0.5372549019607843 0.17647058823529413 0.8823529411764706
0.8549019607843137 0.17647058823529413 0.8784313725490196
0.996078431372549 0.17254901960784313 0.8666666666666667
0.0 0.5372549019607843 0.8823529411764706
0.1803921568627451 0.5372549019607843 0.8823529411764706
0.5333333333333333 0.5333333333333333 0.8784313725490196
0.8509803921568627 0.5176470588235295 0.8705882352941177
0.9921568627450981 0.5176470588235295 0.8666666666666667
0.0 0.8431372549019608 0.8784313725490196
0.17254901960784313 0.8470588235294118 0.8745098039215686
0.5294117647058824 0.8431372549019608 0.8705882352941177
0.8470588235294118 0.8431372549019608 0.8705882352941177
0.9921568627450981 0.8509803921568627 0.8745098039215686
0.0 0.9921568627450981 0.8784313725490196
0.16862745098039217 0.9921568627450981 0.8823529411764706
0.5294117647058824 0.9921568627450981 0.8823529411764706
0.8509803921568627 0.996078431372549 0.8941176470588236
1.0 0.9921568627450981 0.8823529411764706
0.0 0.00784313725490196 0.996078431372549
0.14901960784313725 0.0 0.996078431372549
0.5098039215686274 0.0 0.996078431372549
0.8509803921568627 0.00392156862745098 1.0
1.0 0.00392156862745098 0.996078431372549
0.0 0.21176470588235294 1.0
0.1803921568627451 0.2 1.0
0.5098039215686274 0.17647058823529413 1.0
0.8509803921568627 0.17254901960784313 1.0
1.0 0.17647058823529413 0.996078431372549
0.0 0.5647058823529412 1.0
0.1803921568627451 0.5607843137254902 0.996078431372549
0.5333333333333333 0.5411764705882353 0.996078431372549
0.8431372549019608 0.5176470588235295 0.996078431372549
0.9882352941176471 0.5137254901960784 0.9882352941176471
0.0 0.8627450980392157 0.9921568627450981
0.17647058823529413 0.8588235294117647 0.996078431372549
0.5254901960784314 0.8588235294117647 0.9882352941176471
0.8470588235294118 0.8549019607843137 0.9882352941176471
0.9882352941176471 0.8431372549019608 0.984313725490196
0.0 0.9921568627450981 0.9921568627450981
0.16862745098039217 0.9882352941176471 0.9882352941176471
0.5294117647058824 0.9882352941176471 0.9882352941176471
0.8549019607843137 0.996078431372549 0.996078431372549
0.996078431372549 1.0 0.996078431372549
