cubelut/FILM-VVM_VIVID_MODERN_LUT.cube
TITLE "Photo Curves LUT"
LUT_3D_SIZE 33
0.00392156862745098 0.0 0.0
0.023529411764705882 0.0 0.0
0.050980392156862744 0.00392156862745098 0.00392156862745098
0.07058823529411765 0.011764705882352941 0.011764705882352941
0.09803921568627451 0.01568627450980392 0.01568627450980392
0.12941176470588237 0.023529411764705882 0.023529411764705882
0.16470588235294117 0.027450980392156862 0.03529411764705882
0.20784313725490197 0.0392156862745098 0.043137254901960784
0.24705882352941178 0.047058823529411764 0.054901960784313725
0.30196078431372547 0.058823529411764705 0.07450980392156863
0.34509803921568627 0.07058823529411765 0.08627450980392157
0.39215686274509803 0.08235294117647059 0.10588235294117647
0.4392156862745098 0.09019607843137255 0.12549019607843137
0.47843137254901963 0.10196078431372549 0.1411764705882353
0.5215686274509804 0.10980392156862745 0.1607843137254902
0.5490196078431373 0.11764705882352941 0.17254901960784313
0.5803921568627451 0.12549019607843137 0.18823529411764706
0.611764705882353 0.13333333333333333 0.20784313725490197
0.6392156862745098 0.1411764705882353 0.2196078431372549
0.6705882352941176 0.1450980392156863 0.23529411764705882
0.6901960784313725 0.15294117647058825 0.24313725490196078
0.7176470588235294 0.1607843137254902 0.2627450980392157
0.7450980392156863 0.16470588235294117 0.27450980392156865
0.7647058823529411 0.16862745098039217 0.28627450980392155
0.788235294117647 0.17647058823529413 0.2980392156862745
0.8117647058823529 0.1803921568627451 0.3137254901960784
0.8313725490196079 0.18823529411764706 0.3254901960784314
0.8470588235294118 0.19215686274509805 0.33725490196078434
0.8627450980392157 0.2 0.34509803921568627
0.8784313725490196 0.20392156862745098 0.3568627450980392
0.8941176470588236 0.20784313725490197 0.36470588235294116
0.8980392156862745 0.21176470588235294 0.3803921568627451
0.8980392156862745 0.21176470588235294 0.3843137254901961
0.0 0.0 0.0196078431372549
0.01568627450980392 0.00392156862745098 0.0
0.03137254901960784 0.00392156862745098 0.00392156862745098
0.058823529411764705 0.00784313725490196 0.00784313725490196
0.09019607843137255 0.01568627450980392 0.01568627450980392
0.12156862745098039 0.0196078431372549 0.0196078431372549
0.1607843137254902 0.027450980392156862 0.027450980392156862
0.20392156862745098 0.0392156862745098 0.0392156862745098
0.24705882352941178 0.047058823529411764 0.047058823529411764
0.2901960784313726 0.054901960784313725 0.054901960784313725
0.3411764705882353 0.06666666666666667 0.0784313725490196
0.39215686274509803 0.08235294117647059 0.09411764705882353
0.43529411764705883 0.09019607843137255 0.10980392156862745
0.47843137254901963 0.10196078431372549 0.12941176470588237
0.5176470588235295 0.10980392156862745 0.1411764705882353
0.5529411764705883 0.11764705882352941 0.1607843137254902
0.5803921568627451 0.12549019607843137 0.16862745098039217
0.611764705882353 0.13333333333333333 0.1843137254901961
0.6392156862745098 0.1411764705882353 0.2
0.6666666666666666 0.1450980392156863 0.20784313725490197
0.6941176470588235 0.15294117647058825 0.23137254901960785
0.7176470588235294 0.1607843137254902 0.24313725490196078
0.7411764705882353 0.16470588235294117 0.2549019607843137
0.7647058823529411 0.16862745098039217 0.26666666666666666
0.788235294117647 0.17647058823529413 0.28627450980392155
0.807843137254902 0.1803921568627451 0.29411764705882354
0.8313725490196079 0.18823529411764706 0.30980392156862746
0.8470588235294118 0.19215686274509805 0.3215686274509804
0.8627450980392157 0.2 0.3333333333333333
0.8784313725490196 0.20784313725490197 0.34509803921568627
0.8941176470588236 0.20784313725490197 0.35294117647058826
0.8980392156862745 0.21176470588235294 0.36470588235294116
0.8980392156862745 0.21176470588235294 0.36470588235294116
0.0 0.01568627450980392 0.043137254901960784
0.0 0.0196078431372549 0.023529411764705882
0.01568627450980392 0.011764705882352941 0.0
0.03529411764705882 0.011764705882352941 0.00392156862745098
0.07058823529411765 0.011764705882352941 0.011764705882352941
0.10980392156862745 0.0196078431372549 0.0196078431372549
0.1450980392156863 0.023529411764705882 0.023529411764705882
0.19215686274509805 0.03529411764705882 0.03529411764705882
0.23529411764705882 0.047058823529411764 0.047058823529411764
0.28627450980392155 0.054901960784313725 0.058823529411764705
0.33725490196078434 0.06666666666666667 0.0784313725490196
0.3843137254901961 0.0784313725490196 0.09019607843137255
0.43529411764705883 0.09019607843137255 0.11372549019607843
0.47843137254901963 0.10196078431372549 0.12941176470588237
0.5215686274509804 0.10980392156862745 0.1450980392156863
0.5529411764705883 0.11764705882352941 0.1607843137254902
0.5803921568627451 0.12549019607843137 0.17254901960784313
0.611764705882353 0.13333333333333333 0.18823529411764706
0.6392156862745098 0.1411764705882353 0.2
0.6666666666666666 0.1450980392156863 0.20784313725490197
0.6980392156862745 0.15294117647058825 0.23137254901960785
0.7176470588235294 0.1607843137254902 0.24313725490196078
0.7450980392156863 0.16470588235294117 0.2549019607843137
0.7686274509803922 0.17254901960784313 0.2627450980392157
0.788235294117647 0.17647058823529413 0.27450980392156865
0.807843137254902 0.1803921568627451 0.2901960784313726
0.8274509803921568 0.18823529411764706 0.2980392156862745
0.8470588235294118 0.19215686274509805 0.3058823529411765
0.8627450980392157 0.2 0.3215686274509804
0.8823529411764706 0.20784313725490197 0.3333333333333333
0.8941176470588236 0.20784313725490197 0.34509803921568627
0.8980392156862745 0.21176470588235294 0.34509803921568627
0.8980392156862745 0.21176470588235294 0.34901960784313724
0.0 0.027450980392156862 0.06274509803921569
0.0 0.03529411764705882 0.050980392156862744
0.0 0.03529411764705882 0.0196078431372549
0.023529411764705882 0.023529411764705882 0.0
0.054901960784313725 0.027450980392156862 0.00392156862745098
0.08627450980392157 0.027450980392156862 0.011764705882352941
0.12941176470588237 0.03529411764705882 0.0196078431372549
0.17647058823529413 0.043137254901960784 0.03137254901960784
0.2235294117647059 0.050980392156862744 0.043137254901960784
0.2784313725490196 0.06666666666666667 0.06274509803921569
0.3333333333333333 0.07450980392156863 0.0784313725490196
0.3803921568627451 0.08235294117647059 0.09803921568627451
0.43529411764705883 0.09019607843137255 0.11764705882352941
0.4745098039215686 0.09803921568627451 0.13333333333333333
0.5215686274509804 0.10980392156862745 0.15294117647058825
0.5568627450980392 0.11764705882352941 0.16862745098039217
0.5882352941176471 0.12549019607843137 0.1803921568627451
0.611764705882353 0.13333333333333333 0.19607843137254902
0.6431372549019608 0.1411764705882353 0.20784313725490197
0.6745098039215687 0.14901960784313725 0.2235294117647059
0.6941176470588235 0.15294117647058825 0.23137254901960785
0.7215686274509804 0.1607843137254902 0.24705882352941178
0.7450980392156863 0.16470588235294117 0.2549019607843137
0.7686274509803922 0.17254901960784313 0.26666666666666666
0.788235294117647 0.17647058823529413 0.2784313725490196
0.8117647058823529 0.1803921568627451 0.2901960784313726
0.8313725490196079 0.18823529411764706 0.30196078431372547
0.8470588235294118 0.19215686274509805 0.3176470588235294
0.8627450980392157 0.2 0.3254901960784314
0.8823529411764706 0.20784313725490197 0.33725490196078434
0.8941176470588236 0.21176470588235294 0.34509803921568627
0.8980392156862745 0.21176470588235294 0.35294117647058826
0.8980392156862745 0.21176470588235294 0.3607843137254902
0.0 0.058823529411764705 0.08627450980392157
0.0 0.058823529411764705 0.08235294117647059
0.0 0.058823529411764705 0.054901960784313725
0.0 0.06274509803921569 0.0
0.03529411764705882 0.043137254901960784 0.0
0.07058823529411765 0.047058823529411764 0.00784313725490196
0.12156862745098039 0.054901960784313725 0.0196078431372549
0.16862745098039217 0.06666666666666667 0.027450980392156862
0.2235294117647059 0.0784313725490196 0.043137254901960784
0.26666666666666666 0.09803921568627451 0.054901960784313725
0.32941176470588235 0.10196078431372549 0.0784313725490196
0.3803921568627451 0.11764705882352941 0.10196078431372549
0.43137254901960786 0.12941176470588237 0.12156862745098039
0.47843137254901963 0.1411764705882353 0.1411764705882353
0.5215686274509804 0.14901960784313725 0.1607843137254902
0.5568627450980392 0.15294117647058825 0.17647058823529413
0.592156862745098 0.1607843137254902 0.19215686274509805
0.6196078431372549 0.16470588235294117 0.20784313725490197
0.6509803921568628 0.17254901960784313 0.21568627450980393
0.6784313725490196 0.1803921568627451 0.23137254901960785
0.7058823529411765 0.1803921568627451 0.24705882352941178
0.7294117647058823 0.1843137254901961 0.2549019607843137
0.7529411764705882 0.19607843137254902 0.26666666666666666
0.7725490196078432 0.19607843137254902 0.2784313725490196
0.8 0.2 0.29411764705882354
0.8196078431372549 0.21176470588235294 0.30196078431372547
0.8352941176470589 0.2196078431372549 0.3137254901960784
0.8549019607843137 0.22745098039215686 0.3254901960784314
0.8705882352941177 0.23137254901960785 0.33725490196078434
0.8862745098039215 0.24705882352941178 0.34901960784313724
0.9019607843137255 0.25882352941176473 0.36470588235294116
0.9058823529411765 0.25882352941176473 0.3686274509803922
0.9058823529411765 0.27058823529411763 0.37254901960784315
0.0 0.0784313725490196 0.11764705882352941
0.0 0.0784313725490196 0.10980392156862745
0.0 0.08235294117647059 0.08235294117647059
0.0 0.08627450980392157 0.058823529411764705
0.0 0.08627450980392157 0.0
0.06274509803921569 0.07058823529411765 0.0
0.10980392156862745 0.08235294117647059 0.011764705882352941
0.1568627450980392 0.09019607843137255 0.023529411764705882
0.21176470588235294 0.10588235294117647 0.0392156862745098
0.26666666666666666 0.11764705882352941 0.058823529411764705
0.3176470588235294 0.13333333333333333 0.0784313725490196
0.37254901960784315 0.15294117647058825 0.10196078431372549
0.4235294117647059 0.16470588235294117 0.12156862745098039
0.47843137254901963 0.17647058823529413 0.1450980392156863
0.5254901960784314 0.19215686274509805 0.16862745098039217
0.5607843137254902 0.19607843137254902 0.1803921568627451
0.596078431372549 0.20784313725490197 0.2
0.6274509803921569 0.20784313725490197 0.20784313725490197
0.6549019607843137 0.2196078431372549 0.2235294117647059
0.6862745098039216 0.2235294117647059 0.23921568627450981
0.7098039215686275 0.23529411764705882 0.2549019607843137
0.7333333333333333 0.23529411764705882 0.26666666666666666
0.7568627450980392 0.24313725490196078 0.2784313725490196
0.7803921568627451 0.24705882352941178 0.2901960784313726
0.8 0.2549019607843137 0.2980392156862745
0.8274509803921568 0.2627450980392157 0.3137254901960784
0.8431372549019608 0.27450980392156865 0.3254901960784314
0.8588235294117647 0.2823529411764706 0.33725490196078434
0.8784313725490196 0.2901960784313726 0.34901960784313724
0.8941176470588236 0.2980392156862745 0.36470588235294116
0.9058823529411765 0.30980392156862746 0.3686274509803922
0.9098039215686274 0.3176470588235294 0.3803921568627451
0.9098039215686274 0.3176470588235294 0.3843137254901961
0.0 0.11372549019607843 0.15294117647058825
0.0 0.11372549019607843 0.1450980392156863
0.0 0.10980392156862745 0.11372549019607843
0.0 0.11372549019607843 0.09803921568627451
0.0 0.11764705882352941 0.06274509803921569
0.0 0.11372549019607843 0.0
0.09803921568627451 0.10196078431372549 0.00392156862745098
0.14901960784313725 0.11764705882352941 0.01568627450980392
0.2 0.12941176470588237 0.03137254901960784
0.2549019607843137 0.1450980392156863 0.054901960784313725
0.3137254901960784 0.1607843137254902 0.08235294117647059
0.37254901960784315 0.1843137254901961 0.10196078431372549
0.4196078431372549 0.19607843137254902 0.12549019607843137
0.47058823529411764 0.20784313725490197 0.14901960784313725
0.5215686274509804 0.2235294117647059 0.17254901960784313
0.5568627450980392 0.23137254901960785 0.18823529411764706
0.596078431372549 0.24313725490196078 0.2
0.6274509803921569 0.24705882352941178 0.21568627450980393
0.6588235294117647 0.2549019607843137 0.22745098039215686
0.6862745098039216 0.2627450980392157 0.24705882352941178
0.7098039215686275 0.26666666666666666 0.2549019607843137
0.7411764705882353 0.2784313725490196 0.27450980392156865
0.7607843137254902 0.28627450980392155 0.28627450980392155
0.788235294117647 0.2901960784313726 0.2980392156862745
0.8117647058823529 0.30196078431372547 0.30980392156862746
0.8313725490196079 0.30980392156862746 0.3254901960784314
0.8470588235294118 0.3176470588235294 0.3333333333333333
0.8666666666666667 0.3215686274509804 0.34509803921568627
0.8784313725490196 0.3333333333333333 0.3568627450980392
0.8980392156862745 0.34509803921568627 0.3686274509803922
0.9098039215686274 0.35294117647058826 0.3803921568627451
0.9098039215686274 0.35294117647058826 0.38823529411764707
0.9098039215686274 0.3568627450980392 0.38823529411764707
0.0 0.1450980392156863 0.17647058823529413
0.0 0.1450980392156863 0.17254901960784313
0.0 0.14901960784313725 0.15294117647058825
0.0 0.14901960784313725 0.13333333333333333
0.0 0.14901960784313725 0.11372549019607843
0.0 0.14901960784313725 0.0392156862745098
0.0392156862745098 0.1450980392156863 0.0
0.13333333333333333 0.1450980392156863 0.00784313725490196
0.19215686274509805 0.15294117647058825 0.027450980392156862
0.24705882352941178 0.17254901960784313 0.050980392156862744
0.30196078431372547 0.18823529411764706 0.0784313725490196
0.3607843137254902 0.20784313725490197 0.10196078431372549
0.4196078431372549 0.2235294117647059 0.12549019607843137
0.47058823529411764 0.23921568627450981 0.15294117647058825
0.5176470588235295 0.2549019607843137 0.17254901960784313
0.5607843137254902 0.26666666666666666 0.19215686274509805
0.596078431372549 0.27058823529411763 0.20784313725490197
0.6274509803921569 0.2823529411764706 0.2235294117647059
0.6588235294117647 0.2901960784313726 0.23529411764705882
0.6941176470588235 0.30196078431372547 0.2549019607843137
0.7176470588235294 0.3058823529411765 0.26666666666666666
0.7450980392156863 0.30980392156862746 0.2784313725490196
0.7686274509803922 0.3215686274509804 0.28627450980392155
0.796078431372549 0.3333333333333333 0.3058823529411765
0.8156862745098039 0.33725490196078434 0.3176470588235294
0.8352941176470589 0.34509803921568627 0.3333333333333333
0.8509803921568627 0.35294117647058826 0.3411764705882353
0.8666666666666667 0.3607843137254902 0.35294117647058826
0.8862745098039215 0.37254901960784315 0.3686274509803922
0.8980392156862745 0.3803921568627451 0.3764705882352941
0.9137254901960784 0.38823529411764707 0.38823529411764707
0.9137254901960784 0.38823529411764707 0.38823529411764707
0.9137254901960784 0.396078431372549 0.396078431372549
0.0 0.18823529411764706 0.20784313725490197
0.0 0.18823529411764706 0.20392156862745098
0.0 0.1803921568627451 0.1803921568627451
0.0 0.1803921568627451 0.16862745098039217
0.0 0.18823529411764706 0.14901960784313725
0.0 0.18823529411764706 0.12549019607843137
0.0 0.18823529411764706 0.01568627450980392
0.09019607843137255 0.18823529411764706 0.011764705882352941
0.17254901960784313 0.1803921568627451 0.023529411764705882
0.23137254901960785 0.19607843137254902 0.047058823529411764
0.29411764705882354 0.21568627450980393 0.0784313725490196
0.35294117647058826 0.23137254901960785 0.10196078431372549
0.40784313725490196 0.25098039215686274 0.12941176470588237
0.4666666666666667 0.26666666666666666 0.14901960784313725
0.5137254901960784 0.2823529411764706 0.17254901960784313
0.5529411764705883 0.2901960784313726 0.18823529411764706
0.592156862745098 0.3058823529411765 0.20784313725490197
0.6313725490196078 0.3176470588235294 0.22745098039215686
0.6627450980392157 0.32941176470588235 0.23921568627450981
0.6941176470588235 0.3333333333333333 0.25882352941176473
0.7176470588235294 0.34509803921568627 0.26666666666666666
0.7490196078431373 0.35294117647058826 0.28627450980392155
0.7725490196078432 0.3568627450980392 0.2980392156862745
0.796078431372549 0.36470588235294116 0.30980392156862746
0.8196078431372549 0.3764705882352941 0.3215686274509804
0.8352941176470589 0.3843137254901961 0.3333333333333333
0.8549019607843137 0.38823529411764707 0.34509803921568627
0.8705882352941177 0.396078431372549 0.35294117647058826
0.8862745098039215 0.403921568627451 0.3686274509803922
0.9058823529411765 0.4196078431372549 0.3843137254901961
0.9137254901960784 0.4196078431372549 0.38823529411764707
0.9137254901960784 0.42745098039215684 0.396078431372549
0.9137254901960784 0.43529411764705883 0.403921568627451
0.0 0.2235294117647059 0.23137254901960785
0.0 0.2235294117647059 0.23137254901960785
0.0 0.2235294117647059 0.21176470588235294
0.0 0.2235294117647059 0.19607843137254902
0.0 0.2235294117647059 0.17647058823529413
0.0 0.2235294117647059 0.1607843137254902
0.0 0.2235294117647059 0.12549019607843137
0.0 0.2235294117647059 0.0196078431372549
0.1411764705882353 0.2235294117647059 0.023529411764705882
0.2235294117647059 0.2235294117647059 0.043137254901960784
0.28627450980392155 0.24313725490196078 0.0784313725490196
0.34509803921568627 0.2549019607843137 0.09803921568627451
0.403921568627451 0.2784313725490196 0.12549019607843137
0.4627450980392157 0.29411764705882354 0.14901960784313725
0.5137254901960784 0.3137254901960784 0.17647058823529413
0.5529411764705883 0.3254901960784314 0.19215686274509805
0.592156862745098 0.33725490196078434 0.21176470588235294
0.6274509803921569 0.34901960784313724 0.23137254901960785
0.6627450980392157 0.36470588235294116 0.24313725490196078
0.6901960784313725 0.3686274509803922 0.25882352941176473
0.7215686274509804 0.3803921568627451 0.27450980392156865
0.7490196078431373 0.3843137254901961 0.28627450980392155
0.7725490196078432 0.396078431372549 0.30196078431372547
0.8 0.403921568627451 0.3176470588235294
0.8196078431372549 0.40784313725490196 0.32941176470588235
0.8392156862745098 0.41568627450980394 0.3411764705882353
0.8588235294117647 0.4235294117647059 0.35294117647058826
0.8745098039215686 0.43137254901960786 0.3686274509803922
0.8901960784313725 0.44313725490196076 0.3764705882352941
0.9098039215686274 0.45098039215686275 0.38823529411764707
0.9215686274509803 0.4627450980392157 0.4
0.9215686274509803 0.4627450980392157 0.403921568627451
0.9215686274509803 0.47058823529411764 0.4117647058823529
0.0 0.2627450980392157 0.24705882352941178
0.0 0.2627450980392157 0.24705882352941178
0.0 0.2627450980392157 0.23921568627450981
0.0 0.26666666666666666 0.22745098039215686
0.0 0.26666666666666666 0.21176470588235294
0.0 0.2627450980392157 0.19607843137254902
0.0 0.2627450980392157 0.17254901960784313
0.0 0.2627450980392157 0.11764705882352941
0.00392156862745098 0.2627450980392157 0.03529411764705882
0.19607843137254902 0.26666666666666666 0.047058823529411764
0.26666666666666666 0.26666666666666666 0.06274509803921569
0.3333333333333333 0.28627450980392155 0.09411764705882353
0.39215686274509803 0.30196078431372547 0.12156862745098039
0.4470588235294118 0.3215686274509804 0.1450980392156863
0.4980392156862745 0.33725490196078434 0.16862745098039217
0.5529411764705883 0.3568627450980392 0.19607843137254902
0.592156862745098 0.36470588235294116 0.21176470588235294
0.6274509803921569 0.3803921568627451 0.22745098039215686
0.6588235294117647 0.39215686274509803 0.24705882352941178
0.6901960784313725 0.4 0.26666666666666666
0.7215686274509804 0.4117647058823529 0.2784313725490196
0.7529411764705882 0.4196078431372549 0.2901960784313726
0.7803921568627451 0.42745098039215684 0.3058823529411765
0.8 0.43529411764705883 0.3176470588235294
0.8235294117647058 0.44313725490196076 0.3333333333333333
0.8470588235294118 0.4549019607843137 0.34509803921568627
0.8627450980392157 0.4627450980392157 0.3568627450980392
0.8784313725490196 0.47058823529411764 0.3686274509803922
0.8941176470588236 0.47843137254901963 0.3843137254901961
0.9098039215686274 0.48627450980392156 0.39215686274509803
0.9215686274509803 0.49411764705882355 0.403921568627451
0.9215686274509803 0.4980392156862745 0.40784313725490196
0.9215686274509803 0.5019607843137255 0.4117647058823529
0.0 0.30196078431372547 0.27450980392156865
0.0 0.30196078431372547 0.27450980392156865
0.0 0.30196078431372547 0.2627450980392157
0.0 0.3058823529411765 0.2549019607843137
0.0 0.30196078431372547 0.23529411764705882
0.0 0.30196078431372547 0.2235294117647059
0.0 0.3058823529411765 0.20784313725490197
0.0 0.3058823529411765 0.19215686274509805
0.00392156862745098 0.30196078431372547 0.09411764705882353
0.023529411764705882 0.30196078431372547 0.047058823529411764
0.2549019607843137 0.3137254901960784 0.07058823529411765
0.3215686274509804 0.3137254901960784 0.08627450980392157
0.3803921568627451 0.32941176470588235 0.11764705882352941
0.44313725490196076 0.34509803921568627 0.14901960784313725
0.4980392156862745 0.36470588235294116 0.17254901960784313
0.5411764705882353 0.3803921568627451 0.18823529411764706
0.5882352941176471 0.396078431372549 0.21568627450980393
0.6274509803921569 0.40784313725490196 0.23137254901960785
0.6588235294117647 0.4196078431372549 0.24705882352941178
0.6862745098039216 0.43137254901960786 0.2627450980392157
0.7176470588235294 0.4392156862745098 0.2823529411764706
0.7529411764705882 0.4470588235294118 0.2901960784313726
0.7803921568627451 0.4588235294117647 0.30980392156862746
0.8 0.4666666666666667 0.3215686274509804
0.8235294117647058 0.47843137254901963 0.33725490196078434
0.8431372549019608 0.4823529411764706 0.34901960784313724
0.8627450980392157 0.49411764705882355 0.36470588235294116
0.8784313725490196 0.4980392156862745 0.37254901960784315
0.8941176470588236 0.5098039215686274 0.3843137254901961
0.9098039215686274 0.5176470588235295 0.396078431372549
0.9215686274509803 0.5215686274509804 0.403921568627451
0.9254901960784314 0.5254901960784314 0.4117647058823529
0.9254901960784314 0.5294117647058824 0.41568627450980394
0.0 0.34509803921568627 0.30196078431372547
0.0 0.34509803921568627 0.2980392156862745
0.0 0.34509803921568627 0.2901960784313726
0.0 0.34509803921568627 0.2784313725490196
0.0 0.34509803921568627 0.26666666666666666
0.0 0.34509803921568627 0.2549019607843137
0.0 0.34509803921568627 0.24313725490196078
0.0 0.34509803921568627 0.22745098039215686
0.00392156862745098 0.3411764705882353 0.18823529411764706
0.00392156862745098 0.3411764705882353 0.07450980392156863
0.0784313725490196 0.34901960784313724 0.06666666666666667
0.2980392156862745 0.35294117647058826 0.09019607843137255
0.36470588235294116 0.35294117647058826 0.10588235294117647
0.43529411764705883 0.37254901960784315 0.1411764705882353
0.48627450980392156 0.39215686274509803 0.16862745098039217
0.5372549019607843 0.40784313725490196 0.19607843137254902
0.5843137254901961 0.4235294117647059 0.20784313725490197
0.6196078431372549 0.43529411764705883 0.23137254901960785
0.6549019607843137 0.4470588235294118 0.24705882352941178
0.6862745098039216 0.4666666666666667 0.26666666666666666
0.7176470588235294 0.4666666666666667 0.2784313725490196
0.7490196078431373 0.4823529411764706 0.29411764705882354
0.7725490196078432 0.48627450980392156 0.3058823529411765
0.8 0.5019607843137255 0.3254901960784314
0.8274509803921568 0.5058823529411764 0.33725490196078434
0.8470588235294118 0.5176470588235295 0.34901960784313724
0.8627450980392157 0.5215686274509804 0.36470588235294116
0.8823529411764706 0.5294117647058824 0.3764705882352941
0.8980392156862745 0.5372549019607843 0.3843137254901961
0.9098039215686274 0.5450980392156862 0.396078431372549
0.9254901960784314 0.5490196078431373 0.403921568627451
0.9254901960784314 0.5490196078431373 0.40784313725490196
0.9254901960784314 0.5490196078431373 0.4117647058823529
0.0 0.3843137254901961 0.3215686274509804
0.0 0.3843137254901961 0.3215686274509804
0.0 0.3843137254901961 0.3137254901960784
0.0 0.38823529411764707 0.3058823529411765
0.0 0.38823529411764707 0.28627450980392155
0.0 0.3843137254901961 0.27450980392156865
0.00392156862745098 0.3843137254901961 0.26666666666666666
