cubelut/FILM-TLM_TEAL_MODERN_LUT.cube
TITLE "Photo Curves LUT"
LUT_3D_SIZE 5
0.0 0.00392156862745098 0.047058823529411764
0.11372549019607843 0.0 0.0
0.3254901960784314 0.10196078431372549 0.0
0.5058823529411764 0.21176470588235294 0.0
0.7686274509803922 0.32941176470588235 0.0
0.023529411764705882 0.12549019607843137 0.0
0.1607843137254902 0.1411764705882353 0.0
0.33725490196078434 0.19215686274509805 0.0
0.5294117647058824 0.2784313725490196 0.0
0.7843137254901961 0.37254901960784315 0.0
0.2627450980392157 0.3254901960784314 0.0
0.3176470588235294 0.3333333333333333 0.0
0.4235294117647059 0.35294117647058826 0.0
0.5686274509803921 0.39215686274509803 0.0
0.8313725490196079 0.47843137254901963 0.00392156862745098
0.4588235294117647 0.5294117647058824 0.0
0.49019607843137253 0.5372549019607843 0.0
0.5843137254901961 0.5647058823529412 0.0
0.6862745098039216 0.5764705882352941 0.00784313725490196
0.9019607843137255 0.6039215686274509 0.01568627450980392
0.6627450980392157 0.8862745098039215 0.027450980392156862
0.6862745098039216 0.8980392156862745 0.03137254901960784
0.7450980392156863 0.9254901960784314 0.03137254901960784
0.8823529411764706 0.9764705882352941 0.0392156862745098
1.0 0.9294117647058824 0.0392156862745098
0.0 0.023529411764705882 0.33725490196078434
0.0 0.043137254901960784 0.2980392156862745
0.3137254901960784 0.08235294117647059 0.2901960784313726
0.5058823529411764 0.16862745098039217 0.17647058823529413
0.7803921568627451 0.3333333333333333 0.13725490196078433
0.0 0.1607843137254902 0.27058823529411763
0.06274509803921569 0.16862745098039217 0.2784313725490196
0.32941176470588235 0.16862745098039217 0.21568627450980393
0.5372549019607843 0.2823529411764706 0.21176470588235294
0.792156862745098 0.3803921568627451 0.10980392156862745
0.24705882352941178 0.32941176470588235 0.22745098039215686
0.3176470588235294 0.33725490196078434 0.2196078431372549
0.4235294117647059 0.3607843137254902 0.1843137254901961
0.5686274509803921 0.4 0.11372549019607843
0.8313725490196079 0.47843137254901963 0.00392156862745098
0.4588235294117647 0.5294117647058824 0.0
0.49019607843137253 0.5372549019607843 0.0
0.5843137254901961 0.5607843137254902 0.0
0.6862745098039216 0.5725490196078431 0.00784313725490196
0.9019607843137255 0.6039215686274509 0.01568627450980392
0.6627450980392157 0.8862745098039215 0.03137254901960784
0.6862745098039216 0.8980392156862745 0.03137254901960784
0.7450980392156863 0.9254901960784314 0.03137254901960784
0.8745098039215686 0.9764705882352941 0.03529411764705882
1.0 0.9137254901960784 0.0392156862745098
0.0 0.12549019607843137 0.5215686274509804
0.0 0.1411764705882353 0.5176470588235295
0.1568627450980392 0.18823529411764706 0.5607843137254902
0.49411764705882355 0.19607843137254902 0.5490196078431373
0.7411764705882353 0.26666666666666666 0.4666666666666667
0.0 0.21176470588235294 0.4980392156862745
0.0 0.2196078431372549 0.49411764705882355
0.22745098039215686 0.25098039215686274 0.5411764705882353
0.5490196078431373 0.23137254901960785 0.5686274509803921
0.7647058823529411 0.3215686274509804 0.47058823529411764
0.0 0.36470588235294116 0.4823529411764706
0.011764705882352941 0.37254901960784315 0.49411764705882355
0.3137254901960784 0.39215686274509803 0.5333333333333333
0.5490196078431373 0.3607843137254902 0.47058823529411764
0.8235294117647058 0.4627450980392157 0.48627450980392156
0.34509803921568627 0.5411764705882353 0.4392156862745098
0.3843137254901961 0.5490196078431373 0.43529411764705883
0.5333333333333333 0.5686274509803921 0.4823529411764706
0.6941176470588235 0.6039215686274509 0.49411764705882355
0.9058823529411765 0.6235294117647059 0.49019607843137253
0.6509803921568628 0.9137254901960784 0.4823529411764706
0.6745098039215687 0.9137254901960784 0.47843137254901963
0.7411764705882353 0.9294117647058824 0.47843137254901963
0.8627450980392157 0.9803921568627451 0.4627450980392157
1.0 0.9568627450980393 0.4549019607843137
0.0 0.20392156862745098 0.6666666666666666
0.0 0.22745098039215686 0.6784313725490196
0.0 0.24313725490196078 0.6784313725490196
0.28627450980392155 0.21568627450980393 0.796078431372549
0.6588235294117647 0.29411764705882354 0.8
0.0 0.2784313725490196 0.6745098039215687
0.0 0.28627450980392155 0.6705882352941176
0.0 0.30196078431372547 0.6823529411764706
0.3607843137254902 0.3176470588235294 0.8117647058823529
0.6862745098039216 0.3411764705882353 0.792156862745098
0.0 0.396078431372549 0.6705882352941176
0.0 0.4 0.6627450980392157
0.0 0.40784313725490196 0.6588235294117647
0.4196078431372549 0.42745098039215684 0.7647058823529411
0.7215686274509804 0.4196078431372549 0.7176470588235294
0.0 0.5333333333333333 0.615686274509804
0.0784313725490196 0.5411764705882353 0.6313725490196078
0.3803921568627451 0.5803921568627451 0.6980392156862745
0.5490196078431373 0.6 0.7215686274509804
0.8392156862745098 0.6431372549019608 0.7411764705882353
0.47843137254901963 0.9254901960784314 0.6431372549019608
0.5058823529411764 0.9254901960784314 0.6392156862745098
0.5294117647058824 0.9450980392156862 0.6078431372549019
0.7568627450980392 0.9803921568627451 0.6627450980392157
0.9803921568627451 0.9882352941176471 0.6431372549019608
0.0 0.26666666666666666 0.8196078431372549
0.0 0.27450980392156865 0.8117647058823529
0.0 0.29411764705882354 0.8
0.23529411764705882 0.34901960784313724 0.9294117647058824
0.5137254901960784 0.3137254901960784 0.9803921568627451
0.0 0.3215686274509804 0.7803921568627451
0.0 0.3215686274509804 0.7803921568627451
0.0 0.3333333333333333 0.7764705882352941
0.21568627450980393 0.3803921568627451 0.8901960784313725
0.5294117647058824 0.36470588235294116 0.9882352941176471
0.0 0.43529411764705883 0.7647058823529411
0.0 0.43529411764705883 0.7607843137254902
0.0 0.4470588235294118 0.7647058823529411
0.25098039215686274 0.4823529411764706 0.8549019607843137
0.4980392156862745 0.41568627450980394 0.9921568627450981
0.0 0.6039215686274509 0.796078431372549
0.0 0.6078431372549019 0.796078431372549
0.0 0.6235294117647059 0.796078431372549
0.4196078431372549 0.6509803921568628 0.9019607843137255
0.6588235294117647 0.6509803921568628 1.0
0.09019607843137255 0.7843137254901961 0.7058823529411765
0.24313725490196078 0.8117647058823529 0.7411764705882353
0.43529411764705883 0.8705882352941177 0.807843137254902
0.5372549019607843 0.9098039215686274 0.8627450980392157
0.8352941176470589 0.9647058823529412 1.0
