cubelut/FILM-VVC_VIVID_CLASSIC_LUT.cube
TITLE "Photo Curves LUT"
LUT_3D_SIZE 5
0.12941176470588237 0.12549019607843137 0.12549019607843137
0.24313725490196078 0.1450980392156863 0.14901960784313725
0.5686274509803921 0.17647058823529413 0.20392156862745098
0.788235294117647 0.2 0.2823529411764706
0.8980392156862745 0.2196078431372549 0.36470588235294116
0.12549019607843137 0.20392156862745098 0.21568627450980393
0.19607843137254902 0.2 0.13725490196078433
0.5803921568627451 0.29411764705882354 0.21568627450980393
0.8196078431372549 0.3568627450980392 0.3058823529411765
0.9176470588235294 0.41568627450980394 0.3843137254901961
0.12549019607843137 0.4823529411764706 0.39215686274509803
0.12941176470588237 0.4823529411764706 0.30196078431372547
0.5294117647058824 0.5058823529411764 0.20784313725490197
0.8196078431372549 0.596078431372549 0.3176470588235294
0.9254901960784314 0.6470588235294118 0.39215686274509803
0.12549019607843137 0.7725490196078432 0.7058823529411765
0.12941176470588237 0.7725490196078432 0.5686274509803921
0.13333333333333333 0.7686274509803922 0.37254901960784315
0.7647058823529411 0.7686274509803922 0.27450980392156865
0.9254901960784314 0.8235294117647058 0.3686274509803922
0.12549019607843137 0.9254901960784314 0.9254901960784314
0.12941176470588237 0.9254901960784314 0.8549019607843137
0.13333333333333333 0.9254901960784314 0.7019607843137254
0.13725490196078433 0.9254901960784314 0.30980392156862746
0.9019607843137255 0.9254901960784314 0.3333333333333333
0.12549019607843137 0.12549019607843137 0.21568627450980393
0.22745098039215686 0.13725490196078433 0.2196078431372549
0.5803921568627451 0.17254901960784313 0.3137254901960784
0.796078431372549 0.19607843137254902 0.39215686274509803
0.9019607843137255 0.21568627450980393 0.4627450980392157
0.12549019607843137 0.19215686274509805 0.19607843137254902
0.21568627450980393 0.2 0.2235294117647059
0.596078431372549 0.2901960784313726 0.3333333333333333
0.8313725490196079 0.43529411764705883 0.4627450980392157
0.9254901960784314 0.5294117647058824 0.5529411764705883
0.12549019607843137 0.4823529411764706 0.37254901960784315
0.21176470588235294 0.49411764705882355 0.4
0.5490196078431373 0.5058823529411764 0.32941176470588235
0.8196078431372549 0.6235294117647059 0.4588235294117647
0.9254901960784314 0.6941176470588235 0.5372549019607843
0.12549019607843137 0.7098039215686275 0.7019607843137254
0.2549019607843137 0.7725490196078432 0.7098039215686275
0.2823529411764706 0.7725490196078432 0.5843137254901961
0.7725490196078432 0.7647058823529411 0.41568627450980394
0.9254901960784314 0.8392156862745098 0.5294117647058824
0.12941176470588237 0.8705882352941177 0.9215686274509803
0.20784313725490197 0.9254901960784314 0.9254901960784314
0.25882352941176473 0.9254901960784314 0.8509803921568627
0.27450980392156865 0.9254901960784314 0.6862745098039216
0.9058823529411765 0.9254901960784314 0.4980392156862745
0.1607843137254902 0.12549019607843137 0.30980392156862746
0.25882352941176473 0.1450980392156863 0.34901960784313724
0.5254901960784314 0.1607843137254902 0.38823529411764707
0.796078431372549 0.18823529411764706 0.5490196078431373
0.9058823529411765 0.20784313725490197 0.6392156862745098
0.12549019607843137 0.25882352941176473 0.2823529411764706
0.24313725490196078 0.23921568627450981 0.34901960784313724
0.5843137254901961 0.24705882352941178 0.4235294117647059
0.8352941176470589 0.4 0.596078431372549
0.9254901960784314 0.49411764705882355 0.7098039215686275
0.12549019607843137 0.4392156862745098 0.3254901960784314
0.1607843137254902 0.4666666666666667 0.36470588235294116
0.5882352941176471 0.5137254901960784 0.45098039215686275
0.8313725490196079 0.5764705882352941 0.5490196078431373
0.9254901960784314 0.6392156862745098 0.6470588235294118
0.12941176470588237 0.7725490196078432 0.44313725490196076
0.16862745098039217 0.7725490196078432 0.6901960784313725
0.5333333333333333 0.7725490196078432 0.7098039215686275
0.7803921568627451 0.7647058823529411 0.5058823529411764
0.9254901960784314 0.8156862745098039 0.6274509803921569
0.12941176470588237 0.9254901960784314 0.8980392156862745
0.17254901960784313 0.9058823529411765 0.9254901960784314
0.4823529411764706 0.9254901960784314 0.9254901960784314
0.5372549019607843 0.9254901960784314 0.8313725490196079
0.9098039215686274 0.9254901960784314 0.6039215686274509
0.2196078431372549 0.14901960784313725 0.5294117647058824
0.28627450980392155 0.13725490196078433 0.6235294117647059
0.5450980392156862 0.16470588235294117 0.6431372549019608
0.7294117647058823 0.17254901960784313 0.6666666666666666
0.9098039215686274 0.19215686274509805 0.8392156862745098
0.12549019607843137 0.32941176470588235 0.4549019607843137
0.39215686274509803 0.3803921568627451 0.615686274509804
0.6588235294117647 0.34509803921568627 0.6901960784313725
0.807843137254902 0.3607843137254902 0.7137254901960784
0.9254901960784314 0.45098039215686275 0.8549019607843137
0.12549019607843137 0.5686274509803921 0.5019607843137255
0.17254901960784313 0.5764705882352941 0.5529411764705883
0.5843137254901961 0.5372549019607843 0.6745098039215687
0.8274509803921568 0.5254901960784314 0.7294117647058823
0.9254901960784314 0.596078431372549 0.8235294117647058
0.12941176470588237 0.7254901960784313 0.5686274509803921
0.13725490196078433 0.7372549019607844 0.6196078431372549
0.44313725490196076 0.7568627450980392 0.6627450980392157
0.8 0.7607843137254902 0.7215686274509804
0.9254901960784314 0.796078431372549 0.796078431372549
0.13333333333333333 0.9254901960784314 0.7176470588235294
0.13333333333333333 0.9254901960784314 0.7725490196078432
0.36470588235294116 0.9254901960784314 0.9137254901960784
0.7686274509803922 0.9254901960784314 0.9254901960784314
0.9137254901960784 0.9254901960784314 0.7764705882352941
0.3137254901960784 0.1843137254901961 0.8
0.2901960784313726 0.13333333333333333 0.8627450980392157
0.5647058823529412 0.1607843137254902 0.8901960784313725
0.7568627450980392 0.1843137254901961 0.8941176470588236
0.8745098039215686 0.19215686274509805 0.9058823529411765
0.18823529411764706 0.40784313725490196 0.7254901960784313
0.4980392156862745 0.47843137254901963 0.8627450980392157
0.7058823529411765 0.38823529411764707 0.9137254901960784
0.8470588235294118 0.42745098039215684 0.9215686274509803
0.9254901960784314 0.4392156862745098 0.9215686274509803
0.12549019607843137 0.6431372549019608 0.7137254901960784
0.20784313725490197 0.6666666666666666 0.796078431372549
0.615686274509804 0.6 0.8823529411764706
0.8431372549019608 0.5607843137254902 0.9215686274509803
0.9254901960784314 0.5686274509803921 0.9254901960784314
0.12941176470588237 0.8313725490196079 0.788235294117647
0.12941176470588237 0.8313725490196079 0.8117647058823529
0.3058823529411765 0.8196078431372549 0.8470588235294118
0.7843137254901961 0.7764705882352941 0.9058823529411765
0.9215686274509803 0.7568627450980392 0.9215686274509803
0.12941176470588237 0.9058823529411765 0.8156862745098039
0.12941176470588237 0.9137254901960784 0.8509803921568627
0.30980392156862746 0.9215686274509803 0.8705882352941177
0.7137254901960784 0.9254901960784314 0.8980392156862745
0.9254901960784314 0.9254901960784314 0.9254901960784314
