cubelut/FILM-HOR_HORROR_v2_LUT.cube
TITLE "Photo Curves LUT"
LUT_3D_SIZE 33
0.0 0.01568627450980392 0.08627450980392157
0.0 0.01568627450980392 0.09019607843137255
0.0 0.0196078431372549 0.10196078431372549
0.0 0.0196078431372549 0.10196078431372549
0.0 0.023529411764705882 0.10980392156862745
0.0 0.027450980392156862 0.11372549019607843
0.0 0.03137254901960784 0.11764705882352941
0.0 0.03137254901960784 0.12549019607843137
0.0 0.03529411764705882 0.12941176470588237
0.00392156862745098 0.0392156862745098 0.13725490196078433
0.00784313725490196 0.047058823529411764 0.1450980392156863
0.01568627450980392 0.047058823529411764 0.15294117647058825
0.027450980392156862 0.054901960784313725 0.16862745098039217
0.03529411764705882 0.06274509803921569 0.17647058823529413
0.054901960784313725 0.0784313725490196 0.2
0.0784313725490196 0.09019607843137255 0.2196078431372549
0.11372549019607843 0.10980392156862745 0.23921568627450981
0.1568627450980392 0.12156862745098039 0.2549019607843137
0.20392156862745098 0.11764705882352941 0.25098039215686274
0.24313725490196078 0.11372549019607843 0.24313725490196078
0.27450980392156865 0.10980392156862745 0.23529411764705882
0.3058823529411765 0.09803921568627451 0.21568627450980393
0.3411764705882353 0.09411764705882353 0.20784313725490197
0.3607843137254902 0.09411764705882353 0.20392156862745098
0.3764705882352941 0.09019607843137255 0.19607843137254902
0.396078431372549 0.09411764705882353 0.19215686274509805
0.403921568627451 0.09803921568627451 0.19215686274509805
0.4196078431372549 0.10196078431372549 0.18823529411764706
0.43137254901960786 0.10980392156862745 0.19215686274509805
0.4470588235294118 0.12156862745098039 0.19215686274509805
0.4666666666666667 0.13333333333333333 0.19607843137254902
0.4823529411764706 0.1568627450980392 0.20392156862745098
0.48627450980392156 0.16862745098039217 0.20784313725490197
0.0 0.01568627450980392 0.08627450980392157
0.0 0.01568627450980392 0.09411764705882353
0.0 0.0196078431372549 0.10196078431372549
0.0 0.023529411764705882 0.10588235294117647
0.0 0.027450980392156862 0.10980392156862745
0.0 0.027450980392156862 0.11372549019607843
0.0 0.03137254901960784 0.12156862745098039
0.0 0.03137254901960784 0.12549019607843137
0.00392156862745098 0.0392156862745098 0.13333333333333333
0.00392156862745098 0.0392156862745098 0.13725490196078433
0.00784313725490196 0.047058823529411764 0.1450980392156863
0.01568627450980392 0.050980392156862744 0.1568627450980392
0.023529411764705882 0.054901960784313725 0.16470588235294117
0.0392156862745098 0.07058823529411765 0.18823529411764706
0.058823529411764705 0.08235294117647059 0.20392156862745098
0.08627450980392157 0.09803921568627451 0.2235294117647059
0.12156862745098039 0.11372549019607843 0.23921568627450981
0.1568627450980392 0.12156862745098039 0.25098039215686274
0.20784313725490197 0.12156862745098039 0.24705882352941178
0.24705882352941178 0.11764705882352941 0.24705882352941178
0.27450980392156865 0.10980392156862745 0.22745098039215686
0.3137254901960784 0.10588235294117647 0.2196078431372549
0.3411764705882353 0.09803921568627451 0.20784313725490197
0.36470588235294116 0.09803921568627451 0.20392156862745098
0.3764705882352941 0.09803921568627451 0.2
0.4 0.10196078431372549 0.19607843137254902
0.40784313725490196 0.10588235294117647 0.19215686274509805
0.4235294117647059 0.11372549019607843 0.18823529411764706
0.43137254901960786 0.12549019607843137 0.19215686274509805
0.4470588235294118 0.13725490196078433 0.19215686274509805
0.4627450980392157 0.1568627450980392 0.19607843137254902
0.47843137254901963 0.17647058823529413 0.20392156862745098
0.4823529411764706 0.18823529411764706 0.20392156862745098
0.0 0.01568627450980392 0.08627450980392157
0.0 0.0196078431372549 0.09019607843137255
0.0 0.023529411764705882 0.10196078431372549
0.0 0.023529411764705882 0.10196078431372549
0.0 0.027450980392156862 0.10980392156862745
0.0 0.03137254901960784 0.11372549019607843
0.0 0.03529411764705882 0.11764705882352941
0.0 0.03529411764705882 0.12941176470588237
0.00392156862745098 0.0392156862745098 0.13333333333333333
0.00784313725490196 0.043137254901960784 0.1411764705882353
0.011764705882352941 0.047058823529411764 0.1450980392156863
0.01568627450980392 0.050980392156862744 0.15294117647058825
0.027450980392156862 0.058823529411764705 0.17254901960784313
0.0392156862745098 0.06666666666666667 0.1843137254901961
0.06274509803921569 0.08627450980392157 0.20392156862745098
0.09019607843137255 0.10196078431372549 0.22745098039215686
0.12156862745098039 0.11764705882352941 0.24313725490196078
0.16862745098039217 0.12549019607843137 0.25098039215686274
0.20784313725490197 0.12941176470588237 0.24705882352941178
0.25098039215686274 0.12156862745098039 0.23921568627450981
0.2823529411764706 0.11764705882352941 0.22745098039215686
0.3215686274509804 0.10588235294117647 0.2196078431372549
0.34901960784313724 0.10196078431372549 0.21176470588235294
0.36470588235294116 0.09803921568627451 0.20392156862745098
0.3843137254901961 0.10588235294117647 0.2
0.396078431372549 0.10980392156862745 0.2
0.4117647058823529 0.11764705882352941 0.19607843137254902
0.4235294117647059 0.12941176470588237 0.19215686274509805
0.43529411764705883 0.1450980392156863 0.19215686274509805
0.4470588235294118 0.1568627450980392 0.19215686274509805
0.4666666666666667 0.1843137254901961 0.20392156862745098
0.47843137254901963 0.19607843137254902 0.20392156862745098
0.47843137254901963 0.21568627450980393 0.20784313725490197
0.0 0.0196078431372549 0.09019607843137255
0.0 0.0196078431372549 0.09019607843137255
0.0 0.027450980392156862 0.09803921568627451
0.0 0.023529411764705882 0.10196078431372549
0.0 0.027450980392156862 0.10980392156862745
0.0 0.03529411764705882 0.11764705882352941
0.0 0.03529411764705882 0.12156862745098039
0.0 0.03529411764705882 0.12941176470588237
0.00392156862745098 0.0392156862745098 0.13333333333333333
0.00784313725490196 0.047058823529411764 0.13725490196078433
0.011764705882352941 0.050980392156862744 0.14901960784313725
0.01568627450980392 0.054901960784313725 0.1568627450980392
0.027450980392156862 0.06274509803921569 0.17254901960784313
0.043137254901960784 0.07058823529411765 0.18823529411764706
0.06666666666666667 0.09019607843137255 0.21176470588235294
0.09411764705882353 0.10588235294117647 0.22745098039215686
0.13333333333333333 0.12549019607843137 0.24705882352941178
0.17647058823529413 0.13333333333333333 0.25098039215686274
0.21176470588235294 0.12941176470588237 0.24705882352941178
0.25098039215686274 0.12941176470588237 0.24313725490196078
0.2901960784313726 0.11764705882352941 0.22745098039215686
0.32941176470588235 0.10980392156862745 0.21176470588235294
0.34509803921568627 0.10980392156862745 0.20784313725490197
0.36470588235294116 0.10588235294117647 0.2
0.3803921568627451 0.11372549019607843 0.2
0.396078431372549 0.11764705882352941 0.19215686274509805
0.4117647058823529 0.13333333333333333 0.19215686274509805
0.4235294117647059 0.14901960784313725 0.19215686274509805
0.43137254901960786 0.16470588235294117 0.18823529411764706
0.4470588235294118 0.1843137254901961 0.19607843137254902
0.4549019607843137 0.20392156862745098 0.19607843137254902
0.47058823529411764 0.22745098039215686 0.20392156862745098
0.47058823529411764 0.24705882352941178 0.20784313725490197
0.0 0.0196078431372549 0.09019607843137255
0.0 0.023529411764705882 0.09411764705882353
0.0 0.023529411764705882 0.10196078431372549
0.0 0.027450980392156862 0.10588235294117647
0.0 0.027450980392156862 0.10588235294117647
0.0 0.03529411764705882 0.11372549019607843
0.0 0.03529411764705882 0.11764705882352941
0.0 0.043137254901960784 0.12941176470588237
0.00392156862745098 0.047058823529411764 0.13725490196078433
0.00784313725490196 0.047058823529411764 0.1450980392156863
0.011764705882352941 0.054901960784313725 0.14901960784313725
0.0196078431372549 0.058823529411764705 0.1607843137254902
0.03137254901960784 0.06666666666666667 0.17647058823529413
0.043137254901960784 0.0784313725490196 0.18823529411764706
0.07058823529411765 0.09803921568627451 0.21568627450980393
0.10588235294117647 0.11372549019607843 0.23529411764705882
0.1411764705882353 0.12941176470588237 0.25098039215686274
0.1843137254901961 0.13333333333333333 0.2549019607843137
0.2235294117647059 0.13333333333333333 0.25098039215686274
0.25882352941176473 0.13333333333333333 0.23921568627450981
0.2901960784313726 0.12156862745098039 0.22745098039215686
0.32941176470588235 0.11372549019607843 0.21176470588235294
0.34901960784313724 0.11372549019607843 0.20392156862745098
0.36470588235294116 0.11764705882352941 0.20392156862745098
0.3803921568627451 0.12549019607843137 0.19607843137254902
0.4 0.13725490196078433 0.19607843137254902
0.40784313725490196 0.14901960784313725 0.19215686274509805
0.4196078431372549 0.16470588235294117 0.19215686274509805
0.42745098039215684 0.18823529411764706 0.19607843137254902
0.4392156862745098 0.20784313725490197 0.19607843137254902
0.4549019607843137 0.23529411764705882 0.20392156862745098
0.4666666666666667 0.25882352941176473 0.20392156862745098
0.4666666666666667 0.27450980392156865 0.21176470588235294
0.0 0.023529411764705882 0.09019607843137255
0.0 0.027450980392156862 0.09803921568627451
0.0 0.027450980392156862 0.09803921568627451
0.0 0.03137254901960784 0.10588235294117647
0.0 0.03529411764705882 0.10980392156862745
0.0 0.03529411764705882 0.11372549019607843
0.0 0.0392156862745098 0.12156862745098039
0.0 0.043137254901960784 0.12549019607843137
0.00392156862745098 0.047058823529411764 0.13333333333333333
0.00784313725490196 0.050980392156862744 0.1450980392156863
0.01568627450980392 0.054901960784313725 0.15294117647058825
0.0196078431372549 0.058823529411764705 0.1607843137254902
0.03137254901960784 0.07058823529411765 0.1803921568627451
0.047058823529411764 0.08235294117647059 0.19215686274509805
0.07450980392156863 0.09803921568627451 0.21568627450980393
0.10588235294117647 0.11764705882352941 0.23529411764705882
0.15294117647058825 0.13333333333333333 0.25098039215686274
0.1843137254901961 0.1411764705882353 0.25098039215686274
0.22745098039215686 0.1411764705882353 0.24705882352941178
0.2627450980392157 0.13725490196078433 0.23921568627450981
0.30196078431372547 0.12549019607843137 0.2235294117647059
0.32941176470588235 0.12156862745098039 0.21568627450980393
0.3568627450980392 0.12156862745098039 0.20392156862745098
0.37254901960784315 0.12941176470588237 0.19607843137254902
0.3843137254901961 0.13333333333333333 0.19215686274509805
0.396078431372549 0.15294117647058825 0.19215686274509805
0.4117647058823529 0.17647058823529413 0.19215686274509805
0.4196078431372549 0.19215686274509805 0.19215686274509805
0.42745098039215684 0.21176470588235294 0.19215686274509805
0.43529411764705883 0.23921568627450981 0.19607843137254902
0.4549019607843137 0.2627450980392157 0.20392156862745098
0.4666666666666667 0.2823529411764706 0.20784313725490197
0.4588235294117647 0.29411764705882354 0.21176470588235294
0.0 0.027450980392156862 0.09803921568627451
0.0 0.027450980392156862 0.09803921568627451
0.0 0.027450980392156862 0.10196078431372549
0.0 0.03529411764705882 0.10980392156862745
0.0 0.03529411764705882 0.11372549019607843
0.0 0.03529411764705882 0.11764705882352941
0.0 0.03529411764705882 0.11764705882352941
0.0 0.043137254901960784 0.12941176470588237
0.00392156862745098 0.047058823529411764 0.13333333333333333
0.00784313725490196 0.050980392156862744 0.1450980392156863
0.011764705882352941 0.058823529411764705 0.14901960784313725
0.023529411764705882 0.06666666666666667 0.16470588235294117
0.03529411764705882 0.07450980392156863 0.1803921568627451
0.050980392156862744 0.08627450980392157 0.19607843137254902
0.08235294117647059 0.10980392156862745 0.2196078431372549
0.11372549019607843 0.12941176470588237 0.23921568627450981
0.1568627450980392 0.1411764705882353 0.25098039215686274
0.19607843137254902 0.1411764705882353 0.2549019607843137
0.23529411764705882 0.1450980392156863 0.24705882352941178
0.26666666666666666 0.13725490196078433 0.23529411764705882
0.3058823529411765 0.13333333333333333 0.2196078431372549
0.33725490196078434 0.12941176470588237 0.21176470588235294
0.3568627450980392 0.12941176470588237 0.2
0.3686274509803922 0.1411764705882353 0.2
0.38823529411764707 0.15294117647058825 0.19215686274509805
0.4 0.17647058823529413 0.19215686274509805
0.4117647058823529 0.19607843137254902 0.19215686274509805
0.41568627450980394 0.21568627450980393 0.19607843137254902
0.42745098039215684 0.24313725490196078 0.19607843137254902
0.4392156862745098 0.26666666666666666 0.2
0.45098039215686275 0.2901960784313726 0.2
0.4588235294117647 0.3058823529411765 0.21176470588235294
0.4588235294117647 0.3215686274509804 0.21568627450980393
0.0 0.027450980392156862 0.09411764705882353
0.0 0.027450980392156862 0.09803921568627451
0.0 0.03137254901960784 0.10588235294117647
0.0 0.03529411764705882 0.10980392156862745
0.0 0.0392156862745098 0.11372549019607843
0.0 0.0392156862745098 0.11764705882352941
0.0 0.043137254901960784 0.12156862745098039
0.0 0.043137254901960784 0.12549019607843137
0.00392156862745098 0.047058823529411764 0.13333333333333333
0.00784313725490196 0.050980392156862744 0.1411764705882353
0.011764705882352941 0.058823529411764705 0.15294117647058825
0.023529411764705882 0.07058823529411765 0.16862745098039217
0.03529411764705882 0.0784313725490196 0.1843137254901961
0.058823529411764705 0.09411764705882353 0.2
0.08627450980392157 0.11372549019607843 0.2235294117647059
0.11764705882352941 0.12941176470588237 0.23921568627450981
0.1607843137254902 0.1411764705882353 0.25098039215686274
0.20392156862745098 0.14901960784313725 0.25098039215686274
0.24705882352941178 0.14901960784313725 0.23921568627450981
0.2823529411764706 0.1450980392156863 0.22745098039215686
0.3176470588235294 0.13725490196078433 0.21568627450980393
0.3411764705882353 0.13725490196078433 0.20784313725490197
0.3568627450980392 0.1411764705882353 0.20392156862745098
0.36470588235294116 0.15294117647058825 0.19607843137254902
0.3843137254901961 0.17647058823529413 0.19607843137254902
0.39215686274509803 0.19607843137254902 0.19215686274509805
0.4 0.2196078431372549 0.19215686274509805
0.40784313725490196 0.24313725490196078 0.18823529411764706
0.4235294117647059 0.27058823529411763 0.2
0.4392156862745098 0.2901960784313726 0.20392156862745098
0.4470588235294118 0.30196078431372547 0.2
0.45098039215686275 0.3215686274509804 0.20784313725490197
0.45098039215686275 0.33725490196078434 0.21568627450980393
0.0 0.027450980392156862 0.10196078431372549
0.0 0.027450980392156862 0.10196078431372549
0.0 0.03529411764705882 0.10980392156862745
0.0 0.03529411764705882 0.10980392156862745
0.0 0.03529411764705882 0.11764705882352941
0.0 0.043137254901960784 0.11764705882352941
0.0 0.047058823529411764 0.12549019607843137
0.0 0.050980392156862744 0.12941176470588237
0.00392156862745098 0.047058823529411764 0.13333333333333333
0.00784313725490196 0.054901960784313725 0.1411764705882353
0.011764705882352941 0.06274509803921569 0.15294117647058825
0.023529411764705882 0.07058823529411765 0.16470588235294117
0.03529411764705882 0.0784313725490196 0.1843137254901961
0.058823529411764705 0.09803921568627451 0.20392156862745098
0.08627450980392157 0.11764705882352941 0.22745098039215686
0.12941176470588237 0.13725490196078433 0.24313725490196078
0.16862745098039217 0.14901960784313725 0.25098039215686274
0.20784313725490197 0.15294117647058825 0.24705882352941178
0.25098039215686274 0.14901960784313725 0.23529411764705882
0.2823529411764706 0.14901960784313725 0.23137254901960785
0.30980392156862746 0.1450980392156863 0.21176470588235294
0.3411764705882353 0.1450980392156863 0.20392156862745098
0.34901960784313724 0.1568627450980392 0.2
0.3686274509803922 0.17647058823529413 0.19607843137254902
0.3803921568627451 0.19215686274509805 0.18823529411764706
0.38823529411764707 0.2196078431372549 0.19607843137254902
0.4 0.24313725490196078 0.18823529411764706
0.40784313725490196 0.2627450980392157 0.19215686274509805
0.4235294117647059 0.2901960784313726 0.19607843137254902
0.43137254901960786 0.30980392156862746 0.19607843137254902
0.45098039215686275 0.32941176470588235 0.20784313725490197
0.4470588235294118 0.3411764705882353 0.21176470588235294
0.45098039215686275 0.3568627450980392 0.2196078431372549
0.0 0.03137254901960784 0.10588235294117647
0.0 0.03529411764705882 0.10980392156862745
0.0 0.03529411764705882 0.10980392156862745
0.0 0.03529411764705882 0.11764705882352941
0.0 0.043137254901960784 0.11372549019607843
0.0 0.047058823529411764 0.12549019607843137
0.0 0.047058823529411764 0.12156862745098039
0.0 0.050980392156862744 0.13333333333333333
0.00392156862745098 0.054901960784313725 0.13333333333333333
0.00392156862745098 0.054901960784313725 0.13725490196078433
0.011764705882352941 0.06274509803921569 0.15294117647058825
0.023529411764705882 0.07058823529411765 0.16470588235294117
0.03529411764705882 0.08235294117647059 0.18823529411764706
0.06274509803921569 0.09803921568627451 0.20784313725490197
0.09019607843137255 0.12156862745098039 0.22745098039215686
0.13333333333333333 0.1450980392156863 0.24705882352941178
0.17647058823529413 0.15294117647058825 0.25098039215686274
0.21176470588235294 0.1568627450980392 0.24705882352941178
0.2549019607843137 0.1568627450980392 0.23137254901960785
0.28627450980392155 0.15294117647058825 0.2196078431372549
0.3137254901960784 0.1568627450980392 0.21176470588235294
0.33725490196078434 0.1568627450980392 0.2
0.34901960784313724 0.17647058823529413 0.19607843137254902
0.3686274509803922 0.19607843137254902 0.19215686274509805
0.3803921568627451 0.2196078431372549 0.18823529411764706
0.3803921568627451 0.23921568627450981 0.18823529411764706
0.396078431372549 0.26666666666666666 0.19215686274509805
0.4117647058823529 0.2901960784313726 0.19607843137254902
0.4196078431372549 0.30980392156862746 0.19607843137254902
0.43529411764705883 0.3333333333333333 0.20392156862745098
0.4470588235294118 0.34901960784313724 0.20784313725490197
0.4470588235294118 0.3568627450980392 0.21176470588235294
0.44313725490196076 0.3686274509803922 0.21568627450980393
0.0 0.03529411764705882 0.10980392156862745
0.0 0.03529411764705882 0.10980392156862745
0.0 0.0392156862745098 0.11372549019607843
0.0 0.0392156862745098 0.11764705882352941
0.0 0.047058823529411764 0.12156862745098039
0.0 0.047058823529411764 0.12549019607843137
0.0 0.050980392156862744 0.13333333333333333
0.0 0.054901960784313725 0.13725490196078433
0.00392156862745098 0.058823529411764705 0.1411764705882353
0.00784313725490196 0.058823529411764705 0.1450980392156863
0.011764705882352941 0.06274509803921569 0.14901960784313725
0.0196078431372549 0.07058823529411765 0.16470588235294117
0.03529411764705882 0.08627450980392157 0.1843137254901961
0.058823529411764705 0.10196078431372549 0.20392156862745098
0.09411764705882353 0.12549019607843137 0.22745098039215686
0.13333333333333333 0.1450980392156863 0.24313725490196078
0.17254901960784313 0.1568627450980392 0.25098039215686274
0.2196078431372549 0.16470588235294117 0.23921568627450981
0.2549019607843137 0.16470588235294117 0.23137254901960785
0.2823529411764706 0.16470588235294117 0.21568627450980393
0.30980392156862746 0.16862745098039217 0.20784313725490197
0.3411764705882353 0.1803921568627451 0.2
0.35294117647058826 0.19607843137254902 0.19215686274509805
0.3568627450980392 0.21568627450980393 0.18823529411764706
0.3686274509803922 0.23921568627450981 0.18823529411764706
0.38823529411764707 0.27058823529411763 0.19215686274509805
0.396078431372549 0.28627450980392155 0.19215686274509805
0.40784313725490196 0.30980392156862746 0.19215686274509805
0.41568627450980394 0.32941176470588235 0.2
0.43529411764705883 0.34901960784313724 0.20784313725490197
0.4392156862745098 0.3568627450980392 0.20392156862745098
0.44313725490196076 0.37254901960784315 0.21568627450980393
0.44313725490196076 0.38823529411764707 0.2196078431372549
0.0 0.0392156862745098 0.11372549019607843
0.0 0.03529411764705882 0.11764705882352941
0.0 0.0392156862745098 0.11764705882352941
0.0 0.047058823529411764 0.12156862745098039
0.0 0.047058823529411764 0.12549019607843137
0.0 0.047058823529411764 0.12941176470588237
0.0 0.054901960784313725 0.13333333333333333
0.0 0.058823529411764705 0.1411764705882353
0.00784313725490196 0.06274509803921569 0.1450980392156863
0.01568627450980392 0.07058823529411765 0.15294117647058825
0.01568627450980392 0.07058823529411765 0.1568627450980392
0.01568627450980392 0.07058823529411765 0.1607843137254902
0.03529411764705882 0.08627450980392157 0.1843137254901961
0.058823529411764705 0.10588235294117647 0.20784313725490197
0.09411764705882353 0.13333333333333333 0.22745098039215686
0.13725490196078433 0.15294117647058825 0.24705882352941178
0.1843137254901961 0.16470588235294117 0.24705882352941178
0.21176470588235294 0.17254901960784313 0.23921568627450981
0.24705882352941178 0.17647058823529413 0.23137254901960785
0.2784313725490196 0.17647058823529413 0.21568627450980393
0.3058823529411765 0.1843137254901961 0.20392156862745098
0.32941176470588235 0.19607843137254902 0.19607843137254902
0.33725490196078434 0.21568627450980393 0.19215686274509805
0.3568627450980392 0.23921568627450981 0.19215686274509805
0.36470588235294116 0.2627450980392157 0.18823529411764706
0.3803921568627451 0.28627450980392155 0.18823529411764706
0.39215686274509803 0.30196078431372547 0.19215686274509805
0.403921568627451 0.3254901960784314 0.19607843137254902
0.4196078431372549 0.34509803921568627 0.2
0.43137254901960786 0.3607843137254902 0.20392156862745098
0.4392156862745098 0.3764705882352941 0.20784313725490197
0.44313725490196076 0.39215686274509803 0.21568627450980393
0.4392156862745098 0.403921568627451 0.2235294117647059
0.0 0.0392156862745098 0.11764705882352941
0.0 0.043137254901960784 0.11764705882352941
0.0 0.047058823529411764 0.12549019607843137
0.0 0.047058823529411764 0.12941176470588237
0.0 0.050980392156862744 0.13333333333333333
0.0 0.054901960784313725 0.13725490196078433
0.0 0.054901960784313725 0.1411764705882353
0.0 0.058823529411764705 0.14901960784313725
0.00784313725490196 0.06666666666666667 0.15294117647058825
0.01568627450980392 0.07450980392156863 0.16470588235294117
0.0196078431372549 0.08235294117647059 0.16862745098039217
0.023529411764705882 0.08627450980392157 0.17254901960784313
0.03137254901960784 0.08627450980392157 0.17647058823529413
0.054901960784313725 0.10588235294117647 0.20392156862745098
0.09019607843137255 0.13333333333333333 0.22745098039215686
0.13333333333333333 0.1568627450980392 0.23921568627450981
0.17647058823529413 0.17254901960784313 0.24313725490196078
0.21176470588235294 0.17647058823529413 0.23921568627450981
0.24705882352941178 0.1843137254901961 0.2235294117647059
0.27058823529411763 0.18823529411764706 0.21176470588235294
0.2980392156862745 0.20392156862745098 0.2
0.3215686274509804 0.21568627450980393 0.19215686274509805
0.33725490196078434 0.23137254901960785 0.18823529411764706
0.34901960784313724 0.2549019607843137 0.18823529411764706
0.3686274509803922 0.2784313725490196 0.1803921568627451
0.3803921568627451 0.2980392156862745 0.18823529411764706
0.39215686274509803 0.3215686274509804 0.19215686274509805
0.40784313725490196 0.3411764705882353 0.19607843137254902
0.4196078431372549 0.3568627450980392 0.2
0.43137254901960786 0.3764705882352941 0.20392156862745098
0.43529411764705883 0.38823529411764707 0.20784313725490197
0.43529411764705883 0.4 0.21568627450980393
0.4392156862745098 0.41568627450980394 0.2235294117647059
0.0 0.0392156862745098 0.12156862745098039
0.0 0.047058823529411764 0.12549019607843137
0.0 0.047058823529411764 0.12941176470588237
0.0 0.050980392156862744 0.13725490196078433
0.0 0.054901960784313725 0.13725490196078433
0.0 0.054901960784313725 0.1411764705882353
0.0 0.058823529411764705 0.14901960784313725
0.0 0.06274509803921569 0.15294117647058825
0.00784313725490196 0.07058823529411765 0.1607843137254902
