cubelut/FILM-KCP_KONICA_CENTURIA_200_LUT.cube
TITLE "Photo Curves LUT"
LUT_3D_SIZE 33
0.09019607843137255 0.1450980392156863 0.11372549019607843
0.10196078431372549 0.1450980392156863 0.11764705882352941
0.10980392156862745 0.14901960784313725 0.11764705882352941
0.11764705882352941 0.14901960784313725 0.12156862745098039
0.12941176470588237 0.14901960784313725 0.12156862745098039
0.15294117647058825 0.14901960784313725 0.12549019607843137
0.17254901960784313 0.14901960784313725 0.12549019607843137
0.2 0.14901960784313725 0.12941176470588237
0.23137254901960785 0.14901960784313725 0.12941176470588237
0.26666666666666666 0.14901960784313725 0.12941176470588237
0.2980392156862745 0.14901960784313725 0.13333333333333333
0.3333333333333333 0.14901960784313725 0.13333333333333333
0.36470588235294116 0.15294117647058825 0.13333333333333333
0.4 0.15294117647058825 0.13725490196078433
0.4392156862745098 0.15294117647058825 0.13725490196078433
0.47058823529411764 0.15294117647058825 0.13725490196078433
0.5058823529411764 0.15294117647058825 0.13725490196078433
0.5450980392156862 0.15294117647058825 0.13725490196078433
0.5803921568627451 0.1568627450980392 0.13725490196078433
0.6196078431372549 0.1568627450980392 0.1411764705882353
0.6549019607843137 0.1607843137254902 0.1411764705882353
0.6901960784313725 0.16470588235294117 0.1411764705882353
0.7254901960784313 0.17254901960784313 0.1450980392156863
0.7647058823529411 0.17254901960784313 0.14901960784313725
0.8 0.19215686274509805 0.1568627450980392
0.8235294117647058 0.20784313725490197 0.16470588235294117
0.8509803921568627 0.2235294117647059 0.17647058823529413
0.8745098039215686 0.23921568627450981 0.1843137254901961
0.8941176470588236 0.25882352941176473 0.19215686274509805
0.9137254901960784 0.27058823529411763 0.19607843137254902
0.9294117647058824 0.2784313725490196 0.2
0.9450980392156862 0.2901960784313726 0.20784313725490197
0.9529411764705882 0.2980392156862745 0.21176470588235294
0.09411764705882353 0.1568627450980392 0.11764705882352941
0.10196078431372549 0.1568627450980392 0.11764705882352941
0.11372549019607843 0.1568627450980392 0.11764705882352941
0.11764705882352941 0.15294117647058825 0.11764705882352941
0.13725490196078433 0.15294117647058825 0.11764705882352941
0.15294117647058825 0.15294117647058825 0.11764705882352941
0.17647058823529413 0.14901960784313725 0.11764705882352941
0.20392156862745098 0.14901960784313725 0.11764705882352941
0.23529411764705882 0.14901960784313725 0.12156862745098039
0.27058823529411763 0.14901960784313725 0.12156862745098039
0.30196078431372547 0.15294117647058825 0.12549019607843137
0.3333333333333333 0.15294117647058825 0.12549019607843137
0.37254901960784315 0.15294117647058825 0.12941176470588237
0.40784313725490196 0.15294117647058825 0.12941176470588237
0.44313725490196076 0.15294117647058825 0.12941176470588237
0.47843137254901963 0.15294117647058825 0.12941176470588237
0.5137254901960784 0.15294117647058825 0.12941176470588237
0.5450980392156862 0.15294117647058825 0.12941176470588237
0.5843137254901961 0.1568627450980392 0.13333333333333333
0.6196078431372549 0.1568627450980392 0.13333333333333333
0.6549019607843137 0.1607843137254902 0.13333333333333333
0.6941176470588235 0.16470588235294117 0.13333333333333333
0.7294117647058823 0.17254901960784313 0.1411764705882353
0.7686274509803922 0.1843137254901961 0.14901960784313725
0.8 0.20392156862745098 0.1568627450980392
0.8313725490196079 0.2235294117647059 0.16470588235294117
0.8549019607843137 0.23921568627450981 0.17647058823529413
0.8745098039215686 0.2627450980392157 0.1843137254901961
0.8980392156862745 0.27450980392156865 0.19215686274509805
0.9137254901960784 0.28627450980392155 0.19607843137254902
0.9333333333333333 0.30196078431372547 0.2
0.9490196078431372 0.3058823529411765 0.20784313725490197
0.9529411764705882 0.3176470588235294 0.21176470588235294
0.09803921568627451 0.16862745098039217 0.12156862745098039
0.10588235294117647 0.16862745098039217 0.12156862745098039
0.11372549019607843 0.16470588235294117 0.12156862745098039
0.12549019607843137 0.16470588235294117 0.12156862745098039
0.13725490196078433 0.16470588235294117 0.12156862745098039
0.1568627450980392 0.16470588235294117 0.12156862745098039
0.1803921568627451 0.1607843137254902 0.12156862745098039
0.20784313725490197 0.1607843137254902 0.12156862745098039
0.23921568627450981 0.1607843137254902 0.12156862745098039
0.27450980392156865 0.1607843137254902 0.12156862745098039
0.30196078431372547 0.1568627450980392 0.12156862745098039
0.3411764705882353 0.1568627450980392 0.12156862745098039
0.3764705882352941 0.1568627450980392 0.12156862745098039
0.40784313725490196 0.15294117647058825 0.12156862745098039
0.4470588235294118 0.15294117647058825 0.12156862745098039
0.4823529411764706 0.15294117647058825 0.12156862745098039
0.5176470588235295 0.15294117647058825 0.12156862745098039
0.5568627450980392 0.1568627450980392 0.12156862745098039
0.5882352941176471 0.1568627450980392 0.12549019607843137
0.6235294117647059 0.1607843137254902 0.12941176470588237
0.6627450980392157 0.16862745098039217 0.12941176470588237
0.6980392156862745 0.17254901960784313 0.13333333333333333
0.7333333333333333 0.1843137254901961 0.1411764705882353
0.7686274509803922 0.20392156862745098 0.14901960784313725
0.803921568627451 0.2235294117647059 0.1568627450980392
0.8313725490196079 0.24313725490196078 0.16470588235294117
0.8588235294117647 0.26666666666666666 0.17647058823529413
0.8784313725490196 0.2823529411764706 0.1843137254901961
0.8980392156862745 0.2980392156862745 0.19215686274509805
0.9176470588235294 0.30980392156862746 0.2
0.9333333333333333 0.3254901960784314 0.20392156862745098
0.9490196078431372 0.32941176470588235 0.21176470588235294
0.9529411764705882 0.3411764705882353 0.21568627450980393
0.10588235294117647 0.1803921568627451 0.12549019607843137
0.10980392156862745 0.1803921568627451 0.12549019607843137
0.11764705882352941 0.1803921568627451 0.12549019607843137
0.12549019607843137 0.17254901960784313 0.12549019607843137
0.1411764705882353 0.17254901960784313 0.12549019607843137
0.1607843137254902 0.17254901960784313 0.12156862745098039
0.18823529411764706 0.17254901960784313 0.12156862745098039
0.2196078431372549 0.17254901960784313 0.12156862745098039
0.24705882352941178 0.16862745098039217 0.12156862745098039
0.2784313725490196 0.16862745098039217 0.12156862745098039
0.30980392156862746 0.16862745098039217 0.12156862745098039
0.34509803921568627 0.16862745098039217 0.12156862745098039
0.3843137254901961 0.16470588235294117 0.12156862745098039
0.41568627450980394 0.16470588235294117 0.12156862745098039
0.45098039215686275 0.16470588235294117 0.12156862745098039
0.4823529411764706 0.16470588235294117 0.12156862745098039
0.5215686274509804 0.16470588235294117 0.12549019607843137
0.5568627450980392 0.16470588235294117 0.12549019607843137
0.592156862745098 0.16862745098039217 0.12549019607843137
0.6274509803921569 0.17254901960784313 0.12941176470588237
0.6666666666666666 0.17254901960784313 0.13333333333333333
0.7019607843137254 0.1843137254901961 0.13725490196078433
0.7411764705882353 0.20392156862745098 0.1411764705882353
0.7764705882352941 0.2235294117647059 0.14901960784313725
0.807843137254902 0.24313725490196078 0.1607843137254902
0.8313725490196079 0.27058823529411763 0.16862745098039217
0.8588235294117647 0.28627450980392155 0.1803921568627451
0.8823529411764706 0.3058823529411765 0.18823529411764706
0.9019607843137255 0.3254901960784314 0.19607843137254902
0.9176470588235294 0.3333333333333333 0.2
0.9372549019607843 0.34901960784313724 0.20784313725490197
0.9529411764705882 0.3568627450980392 0.21176470588235294
0.9529411764705882 0.36470588235294116 0.21568627450980393
0.10588235294117647 0.19607843137254902 0.12549019607843137
0.11372549019607843 0.19607843137254902 0.12549019607843137
0.11764705882352941 0.19607843137254902 0.12549019607843137
0.13725490196078433 0.19607843137254902 0.12549019607843137
0.1411764705882353 0.1843137254901961 0.12549019607843137
0.16470588235294117 0.19215686274509805 0.12549019607843137
0.19215686274509805 0.1843137254901961 0.12549019607843137
0.2235294117647059 0.1843137254901961 0.12549019607843137
0.25098039215686274 0.1843137254901961 0.12549019607843137
0.28627450980392155 0.1843137254901961 0.12549019607843137
0.3176470588235294 0.1803921568627451 0.12549019607843137
0.35294117647058826 0.1803921568627451 0.12549019607843137
0.38823529411764707 0.17254901960784313 0.12549019607843137
0.4196078431372549 0.17254901960784313 0.12549019607843137
0.4588235294117647 0.17254901960784313 0.12549019607843137
0.49019607843137253 0.17254901960784313 0.12549019607843137
0.5254901960784314 0.17254901960784313 0.12549019607843137
0.5607843137254902 0.17254901960784313 0.12549019607843137
0.6 0.1803921568627451 0.12941176470588237
0.6392156862745098 0.1843137254901961 0.12941176470588237
0.6705882352941176 0.19215686274509805 0.13333333333333333
0.7098039215686275 0.20392156862745098 0.13725490196078433
0.7450980392156863 0.2235294117647059 0.1450980392156863
0.7764705882352941 0.24313725490196078 0.15294117647058825
0.8117647058823529 0.27058823529411763 0.1607843137254902
0.8352941176470589 0.29411764705882354 0.17254901960784313
0.8627450980392157 0.3137254901960784 0.1803921568627451
0.8862745098039215 0.32941176470588235 0.19215686274509805
0.9058823529411765 0.34901960784313724 0.19607843137254902
0.9215686274509803 0.3607843137254902 0.20392156862745098
0.9372549019607843 0.37254901960784315 0.21176470588235294
0.9529411764705882 0.3843137254901961 0.21176470588235294
0.9529411764705882 0.396078431372549 0.2196078431372549
0.10980392156862745 0.21568627450980393 0.12941176470588237
0.11764705882352941 0.21568627450980393 0.12941176470588237
0.12941176470588237 0.21568627450980393 0.12941176470588237
0.1411764705882353 0.2196078431372549 0.12941176470588237
0.1607843137254902 0.2196078431372549 0.12941176470588237
0.16862745098039217 0.20392156862745098 0.12941176470588237
0.19215686274509805 0.20784313725490197 0.12941176470588237
0.22745098039215686 0.20392156862745098 0.12941176470588237
0.25882352941176473 0.20392156862745098 0.12941176470588237
0.29411764705882354 0.20392156862745098 0.12941176470588237
0.3215686274509804 0.19607843137254902 0.12941176470588237
0.3607843137254902 0.19607843137254902 0.12941176470588237
0.396078431372549 0.19607843137254902 0.12549019607843137
0.42745098039215684 0.19215686274509805 0.12549019607843137
0.4627450980392157 0.19215686274509805 0.12549019607843137
0.5019607843137255 0.19215686274509805 0.12549019607843137
0.5333333333333333 0.19215686274509805 0.12549019607843137
0.5686274509803921 0.19215686274509805 0.12941176470588237
0.6078431372549019 0.19607843137254902 0.12941176470588237
0.6431372549019608 0.20392156862745098 0.12941176470588237
0.6784313725490196 0.21176470588235294 0.13333333333333333
0.7137254901960784 0.22745098039215686 0.13725490196078433
0.7529411764705882 0.24313725490196078 0.1450980392156863
0.7843137254901961 0.27058823529411763 0.15294117647058825
0.8156862745098039 0.2980392156862745 0.16470588235294117
0.8431372549019608 0.3176470588235294 0.17254901960784313
0.8666666666666667 0.33725490196078434 0.1843137254901961
0.8862745098039215 0.3568627450980392 0.19215686274509805
0.9058823529411765 0.37254901960784315 0.2
0.9254901960784314 0.39215686274509803 0.20784313725490197
0.9372549019607843 0.4 0.21176470588235294
0.9529411764705882 0.4117647058823529 0.21568627450980393
0.9529411764705882 0.4235294117647059 0.2235294117647059
0.11372549019607843 0.24313725490196078 0.13333333333333333
0.11764705882352941 0.24313725490196078 0.13333333333333333
0.12941176470588237 0.24313725490196078 0.13333333333333333
0.14901960784313725 0.24313725490196078 0.13333333333333333
0.16862745098039217 0.24313725490196078 0.13333333333333333
0.18823529411764706 0.24313725490196078 0.13333333333333333
0.2 0.22745098039215686 0.12941176470588237
0.23137254901960785 0.22745098039215686 0.12941176470588237
0.25882352941176473 0.22745098039215686 0.12941176470588237
0.2980392156862745 0.22745098039215686 0.12941176470588237
0.3333333333333333 0.2235294117647059 0.12941176470588237
0.37254901960784315 0.2196078431372549 0.12941176470588237
0.403921568627451 0.21568627450980393 0.12941176470588237
0.4392156862745098 0.21176470588235294 0.12941176470588237
0.4745098039215686 0.21176470588235294 0.12941176470588237
0.5058823529411764 0.20784313725490197 0.12941176470588237
0.5411764705882353 0.20784313725490197 0.12941176470588237
0.5764705882352941 0.21176470588235294 0.12941176470588237
0.615686274509804 0.21568627450980393 0.12941176470588237
0.6509803921568628 0.2235294117647059 0.13333333333333333
0.6862745098039216 0.23529411764705882 0.13725490196078433
0.7215686274509804 0.25098039215686274 0.1411764705882353
0.7568627450980392 0.27058823529411763 0.1450980392156863
0.788235294117647 0.2980392156862745 0.1568627450980392
0.8196078431372549 0.3254901960784314 0.16470588235294117
0.8470588235294118 0.34509803921568627 0.17647058823529413
0.8705882352941177 0.36470588235294116 0.1843137254901961
0.8901960784313725 0.38823529411764707 0.19607843137254902
0.9098039215686274 0.403921568627451 0.20392156862745098
0.9294117647058824 0.4196078431372549 0.21176470588235294
0.9411764705882353 0.42745098039215684 0.21568627450980393
0.9529411764705882 0.4392156862745098 0.2196078431372549
0.9529411764705882 0.45098039215686275 0.2235294117647059
0.11764705882352941 0.27058823529411763 0.13333333333333333
0.12941176470588237 0.27058823529411763 0.13333333333333333
0.1411764705882353 0.27058823529411763 0.13333333333333333
0.1568627450980392 0.27058823529411763 0.13333333333333333
0.17647058823529413 0.27058823529411763 0.13333333333333333
0.2 0.27058823529411763 0.13333333333333333
0.23137254901960785 0.27058823529411763 0.13333333333333333
0.23137254901960785 0.25098039215686274 0.13333333333333333
0.26666666666666666 0.25098039215686274 0.13333333333333333
0.30196078431372547 0.25098039215686274 0.13333333333333333
0.33725490196078434 0.25098039215686274 0.13333333333333333
0.3764705882352941 0.24705882352941178 0.13333333333333333
0.40784313725490196 0.24313725490196078 0.13333333333333333
0.4470588235294118 0.23921568627450981 0.13333333333333333
0.4823529411764706 0.23921568627450981 0.13333333333333333
0.5176470588235295 0.23529411764705882 0.12941176470588237
0.5490196078431373 0.23529411764705882 0.12941176470588237
0.5843137254901961 0.23529411764705882 0.12941176470588237
0.6235294117647059 0.24313725490196078 0.13333333333333333
0.6588235294117647 0.25098039215686274 0.13333333333333333
0.6941176470588235 0.26666666666666666 0.13725490196078433
0.7294117647058823 0.2823529411764706 0.1411764705882353
0.7647058823529411 0.30196078431372547 0.14901960784313725
0.8 0.3254901960784314 0.1568627450980392
0.8235294117647058 0.35294117647058826 0.16862745098039217
0.8549019607843137 0.37254901960784315 0.1803921568627451
0.8745098039215686 0.396078431372549 0.19215686274509805
0.8941176470588236 0.4196078431372549 0.2
0.9137254901960784 0.43137254901960786 0.20784313725490197
0.9294117647058824 0.4470588235294118 0.21568627450980393
0.9450980392156862 0.4588235294117647 0.2196078431372549
0.9529411764705882 0.47058823529411764 0.2235294117647059
0.9529411764705882 0.4823529411764706 0.22745098039215686
0.11764705882352941 0.30196078431372547 0.13725490196078433
0.12941176470588237 0.30196078431372547 0.13725490196078433
0.14901960784313725 0.30196078431372547 0.13725490196078433
0.16862745098039217 0.30196078431372547 0.13725490196078433
0.18823529411764706 0.30196078431372547 0.13725490196078433
0.21568627450980393 0.30196078431372547 0.13725490196078433
0.23921568627450981 0.30196078431372547 0.13725490196078433
0.27058823529411763 0.30196078431372547 0.13725490196078433
0.27058823529411763 0.27450980392156865 0.13725490196078433
0.30196078431372547 0.2784313725490196 0.13725490196078433
0.3411764705882353 0.2784313725490196 0.13725490196078433
0.3803921568627451 0.27450980392156865 0.13725490196078433
0.4117647058823529 0.27450980392156865 0.13725490196078433
0.45098039215686275 0.27058823529411763 0.13333333333333333
0.4823529411764706 0.27058823529411763 0.13333333333333333
0.5215686274509804 0.27058823529411763 0.13333333333333333
0.5568627450980392 0.27058823529411763 0.13333333333333333
0.592156862745098 0.27058823529411763 0.13333333333333333
0.6352941176470588 0.27450980392156865 0.13333333333333333
0.6666666666666666 0.2823529411764706 0.13725490196078433
0.7019607843137254 0.2980392156862745 0.1411764705882353
0.7411764705882353 0.3137254901960784 0.1450980392156863
0.7725490196078432 0.32941176470588235 0.15294117647058825
0.803921568627451 0.3568627450980392 0.1607843137254902
0.8313725490196079 0.3803921568627451 0.17254901960784313
0.8588235294117647 0.403921568627451 0.1843137254901961
0.8784313725490196 0.4235294117647059 0.19607843137254902
0.8980392156862745 0.4470588235294118 0.20392156862745098
0.9176470588235294 0.4666666666666667 0.21176470588235294
0.9333333333333333 0.4823529411764706 0.2196078431372549
0.9490196078431372 0.49019607843137253 0.2235294117647059
0.9529411764705882 0.4980392156862745 0.22745098039215686
0.9529411764705882 0.5098039215686274 0.23529411764705882
0.12941176470588237 0.32941176470588235 0.13725490196078433
0.13725490196078433 0.32941176470588235 0.13725490196078433
0.1568627450980392 0.32941176470588235 0.13725490196078433
0.17647058823529413 0.32941176470588235 0.1411764705882353
0.2 0.32941176470588235 0.1411764705882353
0.22745098039215686 0.32941176470588235 0.1411764705882353
0.25098039215686274 0.32941176470588235 0.1411764705882353
0.2823529411764706 0.32941176470588235 0.1411764705882353
0.30196078431372547 0.32941176470588235 0.13725490196078433
0.30196078431372547 0.30196078431372547 0.13725490196078433
0.3411764705882353 0.3058823529411765 0.13725490196078433
0.3843137254901961 0.3058823529411765 0.13725490196078433
0.41568627450980394 0.3058823529411765 0.13725490196078433
0.4549019607843137 0.30196078431372547 0.13725490196078433
0.49019607843137253 0.30196078431372547 0.13725490196078433
0.5254901960784314 0.30196078431372547 0.13725490196078433
0.5607843137254902 0.30196078431372547 0.13725490196078433
0.6 0.30196078431372547 0.13725490196078433
0.6392156862745098 0.3058823529411765 0.13725490196078433
0.6705882352941176 0.3176470588235294 0.1411764705882353
0.7137254901960784 0.3254901960784314 0.1450980392156863
0.7450980392156863 0.34509803921568627 0.14901960784313725
0.7764705882352941 0.36470588235294116 0.1568627450980392
0.8117647058823529 0.39215686274509803 0.16470588235294117
0.8352941176470589 0.41568627450980394 0.17647058823529413
0.8627450980392157 0.43529411764705883 0.18823529411764706
0.8823529411764706 0.4588235294117647 0.2
0.9019607843137255 0.4823529411764706 0.21176470588235294
0.9215686274509803 0.49411764705882355 0.2196078431372549
0.9372549019607843 0.5098039215686274 0.2235294117647059
0.9529411764705882 0.5215686274509804 0.22745098039215686
0.9529411764705882 0.5294117647058824 0.23529411764705882
0.9529411764705882 0.5372549019607843 0.23921568627450981
0.12941176470588237 0.3607843137254902 0.1411764705882353
0.1450980392156863 0.3607843137254902 0.1411764705882353
0.16470588235294117 0.3607843137254902 0.1411764705882353
0.1843137254901961 0.3607843137254902 0.1411764705882353
0.21568627450980393 0.36470588235294116 0.1411764705882353
0.23921568627450981 0.36470588235294116 0.1411764705882353
0.26666666666666666 0.36470588235294116 0.1411764705882353
0.29411764705882354 0.36470588235294116 0.1411764705882353
0.3215686274509804 0.36470588235294116 0.1411764705882353
0.34509803921568627 0.3568627450980392 0.1411764705882353
0.34509803921568627 0.32941176470588235 0.1411764705882353
0.3843137254901961 0.3333333333333333 0.1411764705882353
0.4196078431372549 0.3333333333333333 0.1411764705882353
0.4588235294117647 0.3333333333333333 0.1411764705882353
0.49411764705882355 0.32941176470588235 0.1411764705882353
0.5333333333333333 0.32941176470588235 0.1411764705882353
0.5647058823529412 0.32941176470588235 0.1411764705882353
0.6078431372549019 0.3333333333333333 0.1411764705882353
0.6470588235294118 0.3411764705882353 0.1411764705882353
0.6823529411764706 0.34901960784313724 0.1411764705882353
0.7176470588235294 0.3568627450980392 0.1450980392156863
0.7529411764705882 0.3764705882352941 0.15294117647058825
0.788235294117647 0.4 0.1607843137254902
0.8156862745098039 0.4235294117647059 0.16862745098039217
0.8431372549019608 0.4470588235294118 0.1803921568627451
0.8666666666666667 0.47058823529411764 0.19215686274509805
0.8862745098039215 0.49019607843137253 0.20392156862745098
0.9058823529411765 0.5098039215686274 0.21568627450980393
0.9215686274509803 0.5294117647058824 0.2235294117647059
0.9372549019607843 0.5411764705882353 0.22745098039215686
0.9529411764705882 0.5490196078431373 0.23529411764705882
0.9529411764705882 0.5607843137254902 0.23921568627450981
0.9529411764705882 0.5686274509803921 0.24705882352941178
0.1411764705882353 0.396078431372549 0.1450980392156863
0.15294117647058825 0.396078431372549 0.1450980392156863
0.17254901960784313 0.396078431372549 0.1450980392156863
0.2 0.396078431372549 0.1450980392156863
0.2235294117647059 0.396078431372549 0.1450980392156863
0.24705882352941178 0.396078431372549 0.1450980392156863
0.2823529411764706 0.4 0.1450980392156863
0.3058823529411765 0.4 0.1450980392156863
0.33725490196078434 0.4 0.1450980392156863
0.37254901960784315 0.4 0.1450980392156863
0.38823529411764707 0.38823529411764707 0.1450980392156863
0.38823529411764707 0.3607843137254902 0.1450980392156863
0.4235294117647059 0.3607843137254902 0.1450980392156863
0.4627450980392157 0.3607843137254902 0.1450980392156863
0.5019607843137255 0.3607843137254902 0.1450980392156863
0.5372549019607843 0.36470588235294116 0.1450980392156863
0.5764705882352941 0.36470588235294116 0.1450980392156863
0.611764705882353 0.3686274509803922 0.1450980392156863
0.6509803921568628 0.37254901960784315 0.1450980392156863
0.6862745098039216 0.3843137254901961 0.1450980392156863
0.7215686274509804 0.396078431372549 0.14901960784313725
0.7647058823529411 0.4117647058823529 0.1568627450980392
0.796078431372549 0.43137254901960786 0.16470588235294117
0.8196078431372549 0.4549019607843137 0.17647058823529413
0.8470588235294118 0.4823529411764706 0.18823529411764706
0.8745098039215686 0.5058823529411764 0.2
0.8941176470588236 0.5254901960784314 0.21176470588235294
0.9098039215686274 0.5411764705882353 0.2235294117647059
0.9294117647058824 0.5568627450980392 0.23137254901960785
0.9411764705882353 0.5686274509803921 0.23921568627450981
0.9529411764705882 0.5803921568627451 0.24313725490196078
0.9529411764705882 0.5882352941176471 0.24705882352941178
0.9529411764705882 0.596078431372549 0.25098039215686274
0.1450980392156863 0.42745098039215684 0.14901960784313725
0.1607843137254902 0.42745098039215684 0.14901960784313725
0.1843137254901961 0.43137254901960786 0.14901960784313725
0.20392156862745098 0.43137254901960786 0.14901960784313725
0.23529411764705882 0.43137254901960786 0.14901960784313725
0.26666666666666666 0.43137254901960786 0.14901960784313725
0.29411764705882354 0.43137254901960786 0.14901960784313725
0.3176470588235294 0.43137254901960786 0.14901960784313725
0.35294117647058826 0.43137254901960786 0.14901960784313725
0.3843137254901961 0.43137254901960786 0.14901960784313725
0.4117647058823529 0.43137254901960786 0.14901960784313725
0.4235294117647059 0.4196078431372549 0.14901960784313725
0.4235294117647059 0.39215686274509803 0.1450980392156863
0.4627450980392157 0.396078431372549 0.1450980392156863
0.5019607843137255 0.396078431372549 0.14901960784313725
0.5372549019607843 0.396078431372549 0.14901960784313725
0.5803921568627451 0.4 0.1450980392156863
0.615686274509804 0.403921568627451 0.1450980392156863
0.6549019607843137 0.40784313725490196 0.14901960784313725
