cubelut/FILM-KCS_KONICA_CENTURIA__400_SUPER.cube
TITLE "Photo Curves LUT"
LUT_3D_SIZE 5
0.12941176470588237 0.10588235294117647 0.09411764705882353
0.3176470588235294 0.03529411764705882 0.043137254901960784
0.6352941176470588 0.027450980392156862 0.027450980392156862
0.8509803921568627 0.1411764705882353 0.13725490196078433
0.9921568627450981 0.21176470588235294 0.20392156862745098
0.050980392156862744 0.23529411764705882 0.03137254901960784
0.23921568627450981 0.25098039215686274 0.027450980392156862
0.615686274509804 0.2823529411764706 0.01568627450980392
0.8274509803921568 0.3803921568627451 0.10196078431372549
0.984313725490196 0.4588235294117647 0.16862745098039217
0.06666666666666667 0.5372549019607843 0.027450980392156862
0.25882352941176473 0.5333333333333333 0.011764705882352941
0.5058823529411764 0.5529411764705883 0.00392156862745098
0.8196078431372549 0.6274509803921569 0.10588235294117647
0.9764705882352941 0.6666666666666666 0.17647058823529413
0.21568627450980393 0.6941176470588235 0.12941176470588237
0.41568627450980394 0.6941176470588235 0.11764705882352941
0.5882352941176471 0.7019607843137254 0.11372549019607843
0.7490196078431373 0.7019607843137254 0.10980392156862745
0.9647058823529412 0.7843137254901961 0.16862745098039217
0.30980392156862746 0.8274509803921568 0.18823529411764706
0.5411764705882353 0.8274509803921568 0.1843137254901961
0.6823529411764706 0.8352941176470589 0.17254901960784313
0.7803921568627451 0.8470588235294118 0.16862745098039217
0.8980392156862745 0.8431372549019608 0.1568627450980392
0.08627450980392157 0.08627450980392157 0.30196078431372547
0.2980392156862745 0.027450980392156862 0.23921568627450981
0.6392156862745098 0.027450980392156862 0.23137254901960785
0.8431372549019608 0.1411764705882353 0.37254901960784315
0.9921568627450981 0.21176470588235294 0.4666666666666667
0.03529411764705882 0.25882352941176473 0.23529411764705882
0.30196078431372547 0.28627450980392155 0.25098039215686274
0.6392156862745098 0.29411764705882354 0.25882352941176473
0.8431372549019608 0.39215686274509803 0.37254901960784315
0.9882352941176471 0.47843137254901963 0.4627450980392157
0.0392156862745098 0.5411764705882353 0.18823529411764706
0.3215686274509804 0.5647058823529412 0.23921568627450981
0.5843137254901961 0.5764705882352941 0.23529411764705882
0.8392156862745098 0.6235294117647059 0.34901960784313724
0.9882352941176471 0.6509803921568628 0.44313725490196076
0.1803921568627451 0.6980392156862745 0.2784313725490196
0.45098039215686275 0.7137254901960784 0.34509803921568627
0.6509803921568628 0.7215686274509804 0.33725490196078434
0.7843137254901961 0.7137254901960784 0.3411764705882353
0.9764705882352941 0.7843137254901961 0.4235294117647059
0.25098039215686274 0.8274509803921568 0.34901960784313724
0.5529411764705883 0.8588235294117647 0.43529411764705883
0.7176470588235294 0.8627450980392157 0.4235294117647059
0.8156862745098039 0.8666666666666667 0.4117647058823529
0.9254901960784314 0.8588235294117647 0.40784313725490196
0.027450980392156862 0.0196078431372549 0.5607843137254902
0.30980392156862746 0.03529411764705882 0.5647058823529412
0.6352941176470588 0.023529411764705882 0.592156862745098
0.8431372549019608 0.15294117647058825 0.6
0.9882352941176471 0.2235294117647059 0.6352941176470588
0.03529411764705882 0.25098039215686274 0.5647058823529412
0.3333333333333333 0.3058823529411765 0.5647058823529412
0.6313725490196078 0.30980392156862746 0.596078431372549
0.8392156862745098 0.396078431372549 0.596078431372549
0.9921568627450981 0.47843137254901963 0.6392156862745098
0.03529411764705882 0.5647058823529412 0.5529411764705883
0.3176470588235294 0.5764705882352941 0.5607843137254902
0.6352941176470588 0.5764705882352941 0.6
0.8509803921568627 0.6431372549019608 0.6352941176470588
1.0 0.6862745098039216 0.6705882352941176
0.1843137254901961 0.7098039215686275 0.5568627450980392
0.42745098039215684 0.7215686274509804 0.5647058823529412
0.7176470588235294 0.7411764705882353 0.6588235294117647
0.8274509803921568 0.7215686274509804 0.6196078431372549
0.9882352941176471 0.788235294117647 0.6549019607843137
0.2627450980392157 0.8392156862745098 0.5764705882352941
0.5098039215686274 0.8627450980392157 0.5882352941176471
0.7647058823529411 0.8823529411764706 0.6509803921568628
0.8666666666666667 0.8862745098039215 0.6431372549019608
0.9490196078431372 0.8705882352941177 0.6352941176470588
0.19215686274509805 0.16862745098039217 0.7450980392156863
0.47058823529411764 0.19215686274509805 0.7372549019607844
0.6941176470588235 0.1803921568627451 0.7372549019607844
0.8392156862745098 0.16862745098039217 0.7764705882352941
0.9882352941176471 0.24313725490196078 0.7764705882352941
0.1568627450980392 0.3764705882352941 0.7372549019607844
0.4470588235294118 0.41568627450980394 0.7333333333333333
0.6901960784313725 0.43137254901960786 0.7294117647058823
0.8392156862745098 0.4235294117647059 0.7764705882352941
0.9921568627450981 0.5019607843137255 0.788235294117647
0.16862745098039217 0.596078431372549 0.7215686274509804
0.4196078431372549 0.596078431372549 0.7294117647058823
0.7294117647058823 0.6352941176470588 0.7450980392156863
0.8509803921568627 0.6509803921568628 0.792156862745098
1.0 0.6901960784313725 0.8196078431372549
0.19607843137254902 0.7254901960784313 0.7176470588235294
0.45098039215686275 0.7372549019607844 0.7294117647058823
0.7254901960784313 0.7529411764705882 0.7450980392156863
0.8666666666666667 0.7411764705882353 0.807843137254902
1.0 0.796078431372549 0.8470588235294118
0.27058823529411763 0.8627450980392157 0.7647058823529411
0.5215686274509804 0.8784313725490196 0.7843137254901961
0.7529411764705882 0.8901960784313725 0.796078431372549
0.9058823529411765 0.9058823529411765 0.8431372549019608
0.9686274509803922 0.8823529411764706 0.8156862745098039
0.28627450980392155 0.24705882352941178 0.9294117647058824
0.5764705882352941 0.2784313725490196 0.9254901960784314
0.7529411764705882 0.2784313725490196 0.9215686274509803
0.8862745098039215 0.27450980392156865 0.9176470588235294
0.984313725490196 0.25882352941176473 0.9529411764705882
0.23137254901960785 0.4588235294117647 0.9215686274509803
0.5450980392156862 0.5019607843137255 0.9294117647058824
0.7568627450980392 0.5372549019607843 0.9372549019607843
0.8941176470588236 0.5333333333333333 0.9333333333333333
0.9921568627450981 0.5215686274509804 0.9647058823529412
0.23921568627450981 0.6392156862745098 0.9176470588235294
0.5098039215686274 0.6431372549019608 0.9333333333333333
0.788235294117647 0.6901960784313725 0.9490196078431372
0.9137254901960784 0.6980392156862745 0.9490196078431372
1.0 0.6980392156862745 0.9725490196078431
0.27058823529411763 0.7450980392156863 0.9058823529411765
0.5333333333333333 0.7568627450980392 0.9254901960784314
0.7686274509803922 0.7725490196078432 0.9372549019607843
0.9215686274509803 0.796078431372549 0.9450980392156862
0.9921568627450981 0.8 0.9686274509803922
0.27058823529411763 0.8784313725490196 0.8784313725490196
0.5333333333333333 0.8941176470588236 0.8980392156862745
0.7686274509803922 0.9058823529411765 0.9058823529411765
0.9058823529411765 0.9176470588235294 0.9137254901960784
0.984313725490196 0.9019607843137255 0.9568627450980393
