cubelut/FILM-FJK_FUJIFILM_KLASSE_W_LUT.cube
TITLE "Photo Curves LUT"
LUT_3D_SIZE 5
0.0784313725490196 0.08627450980392157 0.047058823529411764
0.3333333333333333 0.11372549019607843 0.058823529411764705
0.6549019607843137 0.12156862745098039 0.0392156862745098
0.8784313725490196 0.2196078431372549 0.09019607843137255
1.0 0.36470588235294116 0.23921568627450981
0.054901960784313725 0.30980392156862746 0.0392156862745098
0.23529411764705882 0.23529411764705882 0.03529411764705882
0.6431372549019608 0.36470588235294116 0.03529411764705882
0.8901960784313725 0.5176470588235295 0.10588235294117647
1.0 0.6705882352941176 0.27058823529411763
0.01568627450980392 0.6901960784313725 0.00784313725490196
0.2823529411764706 0.5764705882352941 0.01568627450980392
0.5843137254901961 0.5764705882352941 0.03529411764705882
0.9098039215686274 0.7686274509803922 0.13333333333333333
1.0 0.8431372549019608 0.27058823529411763
0.01568627450980392 0.8980392156862745 0.0196078431372549
0.3686274509803922 0.8627450980392157 0.03529411764705882
0.6980392156862745 0.8431372549019608 0.0784313725490196
0.8705882352941177 0.8588235294117647 0.10588235294117647
1.0 0.9215686274509803 0.25098039215686274
0.0196078431372549 0.996078431372549 0.0196078431372549
0.4196078431372549 1.0 0.054901960784313725
0.7725490196078432 0.9725490196078431 0.08235294117647059
0.8980392156862745 0.9568627450980393 0.13333333333333333
0.9725490196078431 0.9529411764705882 0.1803921568627451
0.09411764705882353 0.09411764705882353 0.20392156862745098
0.3176470588235294 0.09411764705882353 0.17647058823529413
0.6509803921568628 0.10196078431372549 0.23137254901960785
0.8705882352941177 0.2 0.41568627450980394
1.0 0.35294117647058826 0.615686274509804
0.054901960784313725 0.28627450980392155 0.14901960784313725
0.24313725490196078 0.2627450980392157 0.11372549019607843
0.6352941176470588 0.3686274509803922 0.23137254901960785
0.8901960784313725 0.5294117647058824 0.45098039215686275
1.0 0.6745098039215687 0.6470588235294118
0.00392156862745098 0.7333333333333333 0.14901960784313725
0.27058823529411763 0.6705882352941176 0.12549019607843137
0.611764705882353 0.6196078431372549 0.2196078431372549
0.9098039215686274 0.7803921568627451 0.47058823529411764
1.0 0.8352941176470589 0.6392156862745098
0.011764705882352941 0.9294117647058824 0.1568627450980392
0.3333333333333333 0.9098039215686274 0.19215686274509805
0.7176470588235294 0.8784313725490196 0.2901960784313726
0.8823529411764706 0.8705882352941177 0.41568627450980394
0.9921568627450981 0.9098039215686274 0.615686274509804
0.0196078431372549 0.9921568627450981 0.1450980392156863
0.36470588235294116 1.0 0.20784313725490197
0.7490196078431373 0.9921568627450981 0.2823529411764706
0.8941176470588236 0.9568627450980393 0.43137254901960786
0.9607843137254902 0.9490196078431372 0.5294117647058824
0.11372549019607843 0.10588235294117647 0.6862745098039216
0.3176470588235294 0.0784313725490196 0.6313725490196078
0.6235294117647059 0.058823529411764705 0.611764705882353
0.8705882352941177 0.15294117647058825 0.7294117647058823
1.0 0.3176470588235294 0.8313725490196079
0.050980392156862744 0.24705882352941178 0.611764705882353
0.2784313725490196 0.2823529411764706 0.596078431372549
0.6196078431372549 0.3058823529411765 0.6078431372549019
0.8941176470588236 0.5058823529411764 0.7607843137254902
1.0 0.6588235294117647 0.8509803921568627
0.00784313725490196 0.6509803921568628 0.6588235294117647
0.26666666666666666 0.6549019607843137 0.6392156862745098
0.6509803921568628 0.6627450980392157 0.6352941176470588
0.9058823529411765 0.7764705882352941 0.7764705882352941
1.0 0.8274509803921568 0.8352941176470589
0.027450980392156862 0.9411764705882353 0.7607843137254902
0.3254901960784314 0.9411764705882353 0.7411764705882353
0.7098039215686275 0.9098039215686274 0.6980392156862745
0.8823529411764706 0.8745098039215686 0.7490196078431373
0.984313725490196 0.9019607843137255 0.8156862745098039
0.0392156862745098 1.0 0.7686274509803922
0.30980392156862746 1.0 0.7333333333333333
0.7137254901960784 0.9921568627450981 0.7019607843137254
0.8823529411764706 0.9607843137254902 0.7333333333333333
0.9568627450980393 0.9490196078431372 0.7803921568627451
0.12156862745098039 0.10196078431372549 0.8941176470588236
0.3411764705882353 0.0784313725490196 0.8666666666666667
0.6470588235294118 0.06274509803921569 0.8470588235294118
0.8588235294117647 0.08235294117647059 0.8588235294117647
0.996078431372549 0.23529411764705882 0.9137254901960784
0.050980392156862744 0.25882352941176473 0.8588235294117647
0.33725490196078434 0.32941176470588235 0.8588235294117647
0.6549019607843137 0.3333333333333333 0.8627450980392157
0.8745098039215686 0.396078431372549 0.8784313725490196
1.0 0.611764705882353 0.9450980392156862
0.011764705882352941 0.596078431372549 0.8549019607843137
0.29411764705882354 0.6235294117647059 0.8588235294117647
0.7098039215686275 0.7137254901960784 0.8941176470588236
0.9019607843137255 0.7372549019607844 0.9058823529411765
1.0 0.8156862745098039 0.9215686274509803
0.023529411764705882 0.8862745098039215 0.9058823529411765
0.33725490196078434 0.9058823529411765 0.9215686274509803
0.7019607843137254 0.8980392156862745 0.9058823529411765
0.8784313725490196 0.8823529411764706 0.8862745098039215
0.9803921568627451 0.9019607843137255 0.9058823529411765
0.0392156862745098 1.0 0.9490196078431372
0.3254901960784314 1.0 0.9411764705882353
0.7019607843137254 0.984313725490196 0.9019607843137255
0.8745098039215686 0.9686274509803922 0.8666666666666667
0.9607843137254902 0.9529411764705882 0.8862745098039215
0.12549019607843137 0.10588235294117647 0.9882352941176471
0.40784313725490196 0.09019607843137255 0.9647058823529412
0.6823529411764706 0.07450980392156863 0.9607843137254902
0.8705882352941177 0.09019607843137255 0.9725490196078431
0.9803921568627451 0.12549019607843137 0.9803921568627451
0.03529411764705882 0.2784313725490196 0.9607843137254902
0.40784313725490196 0.3843137254901961 0.9725490196078431
0.7098039215686275 0.4 0.9803921568627451
0.8901960784313725 0.41568627450980394 0.9882352941176471
1.0 0.5058823529411764 1.0
0.050980392156862744 0.615686274509804 0.9607843137254902
0.35294117647058826 0.6627450980392157 0.984313725490196
0.7647058823529411 0.7568627450980392 1.0
0.9098039215686274 0.7490196078431373 1.0
1.0 0.7725490196078432 1.0
0.03137254901960784 0.8588235294117647 0.9921568627450981
0.38823529411764707 0.8862745098039215 1.0
0.7215686274509804 0.8862745098039215 1.0
0.8941176470588236 0.8862745098039215 0.984313725490196
0.9803921568627451 0.8862745098039215 0.9764705882352941
0.0392156862745098 1.0 1.0
0.3137254901960784 1.0 1.0
0.6823529411764706 0.984313725490196 0.984313725490196
0.8627450980392157 0.9647058823529412 0.9686274509803922
0.9607843137254902 0.9568627450980393 0.9607843137254902
