cubelut/FILM-KCL_KODAK_PROFFESSIONAL_CLASSIC_LUT.cube
TITLE "Photo Curves LUT"
LUT_3D_SIZE 5
0.0 0.0 0.0
0.19215686274509805 0.0 0.0
0.4196078431372549 0.0 0.0
0.6313725490196078 0.0 0.0
0.8431372549019608 0.0 0.0
0.0 0.29411764705882354 0.0
0.27058823529411763 0.29411764705882354 0.0
0.48627450980392156 0.14901960784313725 0.0
0.6745098039215687 0.07450980392156863 0.0
0.8705882352941177 0.03529411764705882 0.0
0.0 0.5803921568627451 0.0
0.09411764705882353 0.5803921568627451 0.0
0.5568627450980392 0.5803921568627451 0.0
0.792156862745098 0.4549019607843137 0.0
0.9607843137254902 0.3568627450980392 0.0
0.0 0.796078431372549 0.0
0.0 0.792156862745098 0.0
0.40784313725490196 0.792156862745098 0.0
0.8352941176470589 0.792156862745098 0.0
1.0 0.6941176470588235 0.0
0.0 0.9764705882352941 0.0
0.0 0.9764705882352941 0.0
0.2549019607843137 0.9764705882352941 0.0
0.6862745098039216 0.9764705882352941 0.0
1.0 0.9764705882352941 0.0
0.0 0.0 0.23137254901960785
0.21568627450980393 0.0 0.19215686274509805
0.42745098039215684 0.0 0.10980392156862745
0.6352941176470588 0.0 0.058823529411764705
0.8470588235294118 0.0 0.027450980392156862
0.0 0.28627450980392155 0.23921568627450981
0.25098039215686274 0.27058823529411763 0.2235294117647059
0.47058823529411764 0.2 0.1607843137254902
0.6784313725490196 0.12549019607843137 0.09803921568627451
0.8862745098039215 0.07058823529411765 0.050980392156862744
0.0 0.5803921568627451 0.13725490196078433
0.1607843137254902 0.5607843137254902 0.1411764705882353
0.5372549019607843 0.5607843137254902 0.12156862745098039
0.7490196078431373 0.4627450980392157 0.07450980392156863
0.9254901960784314 0.39215686274509803 0.0392156862745098
0.0 0.796078431372549 0.03529411764705882
0.050980392156862744 0.7803921568627451 0.043137254901960784
0.4235294117647059 0.7764705882352941 0.011764705882352941
0.8156862745098039 0.7764705882352941 0.0196078431372549
1.0 0.6941176470588235 0.0
0.0 0.9764705882352941 0.0
0.0 0.9764705882352941 0.0
0.2980392156862745 0.9764705882352941 0.0
0.6941176470588235 0.9764705882352941 0.0
1.0 0.9764705882352941 0.0
0.0 0.0 0.49019607843137253
0.12941176470588237 0.0 0.4627450980392157
0.4549019607843137 0.0 0.4196078431372549
0.6549019607843137 0.0 0.3411764705882353
0.8588235294117647 0.0 0.2823529411764706
0.0 0.15294117647058825 0.49411764705882355
0.17647058823529413 0.1843137254901961 0.48627450980392156
0.48627450980392156 0.1803921568627451 0.45098039215686275
0.6862745098039216 0.11764705882352941 0.3803921568627451
0.8901960784313725 0.06274509803921569 0.3254901960784314
0.0 0.5647058823529412 0.5019607843137255
0.17647058823529413 0.5568627450980392 0.49411764705882355
0.5176470588235295 0.5450980392156862 0.4823529411764706
0.7294117647058823 0.48627450980392156 0.4235294117647059
0.9294117647058824 0.43137254901960786 0.37254901960784315
0.0 0.792156862745098 0.4196078431372549
0.0784313725490196 0.7764705882352941 0.43137254901960786
0.4588235294117647 0.7647058823529411 0.4235294117647059
0.8 0.7647058823529411 0.40784313725490196
0.984313725490196 0.6901960784313725 0.36470588235294116
0.0 0.9764705882352941 0.32941176470588235
0.00392156862745098 0.9764705882352941 0.34509803921568627
0.37254901960784315 0.9764705882352941 0.3411764705882353
0.6980392156862745 0.9764705882352941 0.2901960784313726
1.0 0.9764705882352941 0.3058823529411765
0.0 0.0 0.7176470588235294
0.043137254901960784 0.0 0.6980392156862745
0.403921568627451 0.0 0.6666666666666666
0.6862745098039216 0.0 0.6274509803921569
0.8784313725490196 0.0 0.5490196078431373
0.0 0.050980392156862744 0.7254901960784313
0.07450980392156863 0.08235294117647059 0.7137254901960784
0.43529411764705883 0.0784313725490196 0.6901960784313725
0.7137254901960784 0.09019607843137255 0.6509803921568628
0.9098039215686274 0.050980392156862744 0.5803921568627451
0.0 0.4627450980392157 0.7294117647058823
0.07450980392156863 0.47843137254901963 0.7215686274509804
0.4666666666666667 0.49411764705882355 0.7098039215686275
0.7490196078431373 0.47843137254901963 0.6784313725490196
0.9372549019607843 0.4235294117647059 0.615686274509804
0.0 0.7725490196078432 0.7372549019607844
0.07450980392156863 0.7647058823529411 0.7294117647058823
0.47058823529411764 0.7568627450980392 0.7176470588235294
0.7803921568627451 0.7490196078431373 0.7058823529411765
0.9686274509803922 0.7019607843137254 0.6549019607843137
0.0 0.9764705882352941 0.6705882352941176
0.00784313725490196 0.9764705882352941 0.6705882352941176
0.403921568627451 0.9764705882352941 0.6745098039215687
0.7254901960784313 0.9764705882352941 0.6588235294117647
1.0 0.9764705882352941 0.6470588235294118
0.0 0.0 0.9764705882352941
0.0 0.0 0.9647058823529412
0.3254901960784314 0.0 0.9294117647058824
0.6392156862745098 0.0 0.8823529411764706
0.9098039215686274 0.0 0.8352941176470589
0.0 0.0 0.9764705882352941
0.011764705882352941 0.011764705882352941 0.9764705882352941
0.3568627450980392 0.011764705882352941 0.9607843137254902
0.6705882352941176 0.0196078431372549 0.9176470588235294
0.9333333333333333 0.03137254901960784 0.8666666666666667
0.0 0.36470588235294116 0.9764705882352941
0.00784313725490196 0.39215686274509803 0.9764705882352941
0.39215686274509803 0.41568627450980394 0.9764705882352941
0.7019607843137254 0.40784313725490196 0.9529411764705882
0.9568627450980393 0.40784313725490196 0.9019607843137255
0.0 0.6941176470588235 0.9764705882352941
0.00784313725490196 0.7019607843137254 0.9764705882352941
0.39215686274509803 0.7058823529411765 0.9764705882352941
0.7333333333333333 0.7098039215686275 0.9764705882352941
0.9803921568627451 0.7019607843137254 0.9372549019607843
0.0 0.9764705882352941 0.9764705882352941
0.00784313725490196 0.9764705882352941 0.9764705882352941
0.396078431372549 0.9764705882352941 0.9764705882352941
0.7372549019607844 0.9764705882352941 0.9764705882352941
1.0 0.9764705882352941 0.9764705882352941
