cubelut/FILM-KPW_KODAK_PROFESSIONAL_WARM_LUT.cube
TITLE "Photo Curves LUT"
LUT_3D_SIZE 5
0.0392156862745098 0.047058823529411764 0.12156862745098039
0.25098039215686274 0.047058823529411764 0.12156862745098039
0.5607843137254902 0.047058823529411764 0.12156862745098039
0.807843137254902 0.10588235294117647 0.17254901960784313
0.984313725490196 0.07450980392156863 0.1607843137254902
0.0392156862745098 0.19607843137254902 0.12156862745098039
0.22745098039215686 0.2196078431372549 0.12156862745098039
0.5803921568627451 0.17647058823529413 0.12156862745098039
0.8274509803921568 0.28627450980392155 0.1411764705882353
0.9921568627450981 0.27058823529411763 0.12941176470588237
0.0392156862745098 0.5333333333333333 0.12156862745098039
0.11372549019607843 0.592156862745098 0.12156862745098039
0.6078431372549019 0.611764705882353 0.12156862745098039
0.8549019607843137 0.5764705882352941 0.12156862745098039
0.996078431372549 0.5294117647058824 0.12156862745098039
0.0392156862745098 0.7843137254901961 0.12156862745098039
0.06274509803921569 0.8274509803921568 0.12156862745098039
0.5254901960784314 0.8549019607843137 0.12156862745098039
0.8509803921568627 0.8549019607843137 0.12156862745098039
1.0 0.8117647058823529 0.12156862745098039
0.0392156862745098 0.9607843137254902 0.12156862745098039
0.0392156862745098 0.9921568627450981 0.12156862745098039
0.2784313725490196 0.9921568627450981 0.12156862745098039
0.7490196078431373 0.9921568627450981 0.12156862745098039
1.0 0.996078431372549 0.12156862745098039
0.0392156862745098 0.047058823529411764 0.23921568627450981
0.23137254901960785 0.047058823529411764 0.23921568627450981
0.5529411764705883 0.047058823529411764 0.25098039215686274
0.807843137254902 0.10588235294117647 0.3607843137254902
0.984313725490196 0.0784313725490196 0.35294117647058826
0.0392156862745098 0.1607843137254902 0.2196078431372549
0.23137254901960785 0.20392156862745098 0.23921568627450981
0.5725490196078431 0.2 0.23921568627450981
0.8235294117647058 0.34901960784313724 0.37254901960784315
0.9882352941176471 0.3215686274509804 0.34901960784313724
0.0392156862745098 0.49411764705882355 0.21176470588235294
0.11372549019607843 0.5529411764705883 0.18823529411764706
0.6039215686274509 0.592156862745098 0.1803921568627451
0.8392156862745098 0.5764705882352941 0.23921568627450981
0.996078431372549 0.5764705882352941 0.25098039215686274
0.0392156862745098 0.7490196078431373 0.23137254901960785
0.13725490196078433 0.792156862745098 0.21176470588235294
0.5215686274509804 0.8352941176470589 0.18823529411764706
0.8509803921568627 0.8431372549019608 0.19215686274509805
1.0 0.796078431372549 0.1411764705882353
0.0392156862745098 0.9333333333333333 0.17647058823529413
0.0392156862745098 0.9647058823529412 0.1568627450980392
0.2784313725490196 0.9921568627450981 0.12156862745098039
0.7450980392156863 0.9921568627450981 0.12156862745098039
1.0 0.996078431372549 0.12156862745098039
0.0392156862745098 0.047058823529411764 0.5215686274509804
0.20784313725490197 0.047058823529411764 0.5176470588235295
0.5333333333333333 0.047058823529411764 0.5254901960784314
0.8 0.10980392156862745 0.6039215686274509
0.9803921568627451 0.08235294117647059 0.615686274509804
0.0392156862745098 0.13725490196078433 0.5058823529411764
0.15294117647058825 0.14901960784313725 0.5294117647058824
0.5607843137254902 0.19607843137254902 0.5490196078431373
0.8196078431372549 0.34509803921568627 0.6078431372549019
0.9882352941176471 0.3254901960784314 0.615686274509804
0.0392156862745098 0.4392156862745098 0.5098039215686274
0.1411764705882353 0.5058823529411764 0.5450980392156862
0.6039215686274509 0.5764705882352941 0.5803921568627451
0.8313725490196079 0.5843137254901961 0.5882352941176471
0.9921568627450981 0.5843137254901961 0.592156862745098
0.0392156862745098 0.7372549019607844 0.5686274509803921
0.1450980392156863 0.7686274509803922 0.5647058823529412
0.47843137254901963 0.807843137254902 0.5098039215686274
0.8431372549019608 0.8274509803921568 0.49411764705882355
1.0 0.7725490196078432 0.4588235294117647
0.0392156862745098 0.9215686274509803 0.5176470588235295
0.0392156862745098 0.9450980392156862 0.49019607843137253
0.2823529411764706 0.9764705882352941 0.38823529411764707
0.7137254901960784 0.996078431372549 0.30980392156862746
1.0 0.996078431372549 0.3254901960784314
0.0392156862745098 0.047058823529411764 0.6941176470588235
0.21568627450980393 0.047058823529411764 0.6941176470588235
0.5607843137254902 0.0784313725490196 0.7098039215686275
0.7843137254901961 0.10588235294117647 0.7411764705882353
0.9725490196078431 0.08235294117647059 0.7803921568627451
0.0392156862745098 0.14901960784313725 0.6901960784313725
0.1803921568627451 0.1843137254901961 0.7137254901960784
0.5803921568627451 0.27058823529411763 0.7294117647058823
0.803921568627451 0.33725490196078434 0.7529411764705882
0.984313725490196 0.3254901960784314 0.788235294117647
0.0392156862745098 0.42745098039215684 0.7019607843137254
0.17254901960784313 0.4823529411764706 0.7254901960784313
0.5294117647058824 0.5019607843137255 0.7529411764705882
0.8235294117647058 0.5764705882352941 0.7686274509803922
0.9921568627450981 0.5843137254901961 0.7803921568627451
0.0392156862745098 0.6901960784313725 0.7176470588235294
0.17254901960784313 0.7294117647058823 0.7411764705882353
0.5019607843137255 0.7725490196078432 0.7607843137254902
0.8392156862745098 0.8156862745098039 0.7843137254901961
1.0 0.803921568627451 0.7725490196078432
0.0392156862745098 0.9215686274509803 0.7529411764705882
0.0392156862745098 0.9372549019607843 0.7529411764705882
0.29411764705882354 0.9568627450980393 0.7294117647058823
0.7098039215686275 0.984313725490196 0.7019607843137254
1.0 0.996078431372549 0.6901960784313725
0.0392156862745098 0.047058823529411764 0.8509803921568627
0.09019607843137255 0.047058823529411764 0.8549019607843137
0.5333333333333333 0.047058823529411764 0.8745098039215686
0.788235294117647 0.050980392156862744 0.9019607843137255
0.9607843137254902 0.0784313725490196 0.9215686274509803
0.0392156862745098 0.08627450980392157 0.8509803921568627
0.0392156862745098 0.12549019607843137 0.8784313725490196
0.5294117647058824 0.19215686274509805 0.8941176470588236
0.8 0.27058823529411763 0.9137254901960784
0.9686274509803922 0.3176470588235294 0.9333333333333333
0.0392156862745098 0.33725490196078434 0.8666666666666667
0.0392156862745098 0.39215686274509803 0.8862745098039215
0.42745098039215684 0.41568627450980394 0.9137254901960784
0.788235294117647 0.5254901960784314 0.9294117647058824
0.9803921568627451 0.5764705882352941 0.9490196078431372
0.0392156862745098 0.6431372549019608 0.8784313725490196
0.043137254901960784 0.6784313725490196 0.9019607843137255
0.3686274509803922 0.6980392156862745 0.9254901960784314
0.7568627450980392 0.7333333333333333 0.9450980392156862
0.9921568627450981 0.796078431372549 0.9647058823529412
0.0392156862745098 0.8627450980392157 0.8862745098039215
0.058823529411764705 0.8941176470588236 0.9058823529411765
0.3607843137254902 0.9294117647058824 0.9294117647058824
0.7333333333333333 0.9607843137254902 0.9529411764705882
1.0 1.0 0.9764705882352941
