cubelut/FILM-TLC_TEAL_CLASSIC_LUT.v2.cube
TITLE "Photo Curves LUT"
LUT_3D_SIZE 33
0.14901960784313725 0.11372549019607843 0.1568627450980392
0.14901960784313725 0.11372549019607843 0.1568627450980392
0.14901960784313725 0.12156862745098039 0.1450980392156863
0.14901960784313725 0.12156862745098039 0.13333333333333333
0.14901960784313725 0.12156862745098039 0.12549019607843137
0.19215686274509805 0.10980392156862745 0.10980392156862745
0.24705882352941178 0.11372549019607843 0.10980392156862745
0.2784313725490196 0.10980392156862745 0.10588235294117647
0.30980392156862746 0.11372549019607843 0.10980392156862745
0.3333333333333333 0.10980392156862745 0.10980392156862745
0.3607843137254902 0.11372549019607843 0.10980392156862745
0.3843137254901961 0.11372549019607843 0.10588235294117647
0.41568627450980394 0.11372549019607843 0.10980392156862745
0.44313725490196076 0.12941176470588237 0.10980392156862745
0.4745098039215686 0.13333333333333333 0.10588235294117647
0.5058823529411764 0.1450980392156863 0.10588235294117647
0.5411764705882353 0.1568627450980392 0.10980392156862745
0.5647058823529412 0.16470588235294117 0.10588235294117647
0.5882352941176471 0.17647058823529413 0.10588235294117647
0.6196078431372549 0.1843137254901961 0.10196078431372549
0.6666666666666666 0.20392156862745098 0.10196078431372549
0.6980392156862745 0.20784313725490197 0.10196078431372549
0.7529411764705882 0.2235294117647059 0.09803921568627451
0.788235294117647 0.23529411764705882 0.09803921568627451
0.8313725490196079 0.24705882352941178 0.09803921568627451
0.8784313725490196 0.25882352941176473 0.09411764705882353
0.9176470588235294 0.27450980392156865 0.09019607843137255
0.9450980392156862 0.28627450980392155 0.09019607843137255
0.9686274509803922 0.3058823529411765 0.09019607843137255
0.9686274509803922 0.3215686274509804 0.09019607843137255
0.9686274509803922 0.3411764705882353 0.09019607843137255
0.9647058823529412 0.3568627450980392 0.08627450980392157
0.9686274509803922 0.3843137254901961 0.09019607843137255
0.14901960784313725 0.12941176470588237 0.11764705882352941
0.14901960784313725 0.12941176470588237 0.11764705882352941
0.14901960784313725 0.12941176470588237 0.10588235294117647
0.14901960784313725 0.13333333333333333 0.10980392156862745
0.14901960784313725 0.13333333333333333 0.10980392156862745
0.19215686274509805 0.10980392156862745 0.10980392156862745
0.24705882352941178 0.11372549019607843 0.10980392156862745
0.27450980392156865 0.11372549019607843 0.10980392156862745
0.3058823529411765 0.10980392156862745 0.10980392156862745
0.33725490196078434 0.10980392156862745 0.10980392156862745
0.3568627450980392 0.11372549019607843 0.10980392156862745
0.38823529411764707 0.12156862745098039 0.10980392156862745
0.4117647058823529 0.12156862745098039 0.10980392156862745
0.4470588235294118 0.13333333333333333 0.10980392156862745
0.47843137254901963 0.13725490196078433 0.10588235294117647
0.5019607843137255 0.14901960784313725 0.10588235294117647
0.5411764705882353 0.1568627450980392 0.10980392156862745
0.5647058823529412 0.16470588235294117 0.10588235294117647
0.5882352941176471 0.17647058823529413 0.10588235294117647
0.6235294117647059 0.19215686274509805 0.10588235294117647
0.6666666666666666 0.20392156862745098 0.10196078431372549
0.6980392156862745 0.20784313725490197 0.10196078431372549
0.7529411764705882 0.2235294117647059 0.09803921568627451
0.788235294117647 0.23529411764705882 0.09803921568627451
0.8352941176470589 0.24705882352941178 0.09803921568627451
0.8784313725490196 0.25882352941176473 0.09411764705882353
0.9176470588235294 0.27450980392156865 0.09019607843137255
0.9450980392156862 0.28627450980392155 0.09019607843137255
0.9686274509803922 0.3058823529411765 0.09019607843137255
0.9686274509803922 0.3215686274509804 0.09019607843137255
0.9686274509803922 0.3411764705882353 0.09019607843137255
0.9647058823529412 0.3568627450980392 0.08627450980392157
0.9686274509803922 0.3843137254901961 0.09019607843137255
0.14901960784313725 0.13725490196078433 0.10980392156862745
0.15294117647058825 0.1411764705882353 0.10980392156862745
0.15294117647058825 0.1411764705882353 0.10980392156862745
0.15294117647058825 0.1411764705882353 0.10980392156862745
0.14901960784313725 0.13333333333333333 0.10980392156862745
0.2 0.12156862745098039 0.10980392156862745
0.23921568627450981 0.10980392156862745 0.10980392156862745
0.27450980392156865 0.11372549019607843 0.10980392156862745
0.3058823529411765 0.10980392156862745 0.10980392156862745
0.3333333333333333 0.10980392156862745 0.10980392156862745
0.3607843137254902 0.12156862745098039 0.10980392156862745
0.3843137254901961 0.12549019607843137 0.10980392156862745
0.41568627450980394 0.13333333333333333 0.10588235294117647
0.44313725490196076 0.13725490196078433 0.10588235294117647
0.47843137254901963 0.14901960784313725 0.10980392156862745
0.5058823529411764 0.1568627450980392 0.10588235294117647
0.5372549019607843 0.16862745098039217 0.10588235294117647
0.5647058823529412 0.16470588235294117 0.10196078431372549
0.592156862745098 0.1803921568627451 0.10588235294117647
0.6235294117647059 0.19215686274509805 0.10588235294117647
0.6666666666666666 0.20392156862745098 0.10196078431372549
0.6980392156862745 0.20784313725490197 0.10196078431372549
0.7529411764705882 0.2235294117647059 0.09803921568627451
0.788235294117647 0.23529411764705882 0.09803921568627451
0.8313725490196079 0.24705882352941178 0.09803921568627451
0.8784313725490196 0.25882352941176473 0.09411764705882353
0.9176470588235294 0.27450980392156865 0.09019607843137255
0.9450980392156862 0.28627450980392155 0.09019607843137255
0.9686274509803922 0.3058823529411765 0.09019607843137255
0.9686274509803922 0.3215686274509804 0.09019607843137255
0.9686274509803922 0.33725490196078434 0.09019607843137255
0.9647058823529412 0.3568627450980392 0.08627450980392157
0.9686274509803922 0.3843137254901961 0.09019607843137255
0.15294117647058825 0.14901960784313725 0.10980392156862745
0.15294117647058825 0.14901960784313725 0.10980392156862745
0.14901960784313725 0.15294117647058825 0.10980392156862745
0.14901960784313725 0.15294117647058825 0.10980392156862745
0.16470588235294117 0.13725490196078433 0.10980392156862745
0.20784313725490197 0.13725490196078433 0.10980392156862745
0.23137254901960785 0.12549019607843137 0.10980392156862745
0.27450980392156865 0.12156862745098039 0.10980392156862745
0.30196078431372547 0.12941176470588237 0.10588235294117647
0.3333333333333333 0.12941176470588237 0.10980392156862745
0.36470588235294116 0.13725490196078433 0.10980392156862745
0.39215686274509803 0.13725490196078433 0.10588235294117647
0.41568627450980394 0.14901960784313725 0.10588235294117647
0.45098039215686275 0.15294117647058825 0.10588235294117647
0.4823529411764706 0.1568627450980392 0.10588235294117647
0.5137254901960784 0.17254901960784313 0.10980392156862745
0.5411764705882353 0.17647058823529413 0.10588235294117647
0.5647058823529412 0.1803921568627451 0.10588235294117647
0.592156862745098 0.19607843137254902 0.10588235294117647
0.6235294117647059 0.20392156862745098 0.10588235294117647
0.6627450980392157 0.21176470588235294 0.10196078431372549
0.7019607843137254 0.21176470588235294 0.10196078431372549
0.7490196078431373 0.2235294117647059 0.10196078431372549
0.8 0.23921568627450981 0.09803921568627451
0.8313725490196079 0.24705882352941178 0.09803921568627451
0.8784313725490196 0.25882352941176473 0.09411764705882353
0.9176470588235294 0.27450980392156865 0.09019607843137255
0.9450980392156862 0.28627450980392155 0.09019607843137255
0.9686274509803922 0.3058823529411765 0.09019607843137255
0.9686274509803922 0.3215686274509804 0.09019607843137255
0.9686274509803922 0.3411764705882353 0.09019607843137255
0.9647058823529412 0.3568627450980392 0.08627450980392157
0.9686274509803922 0.3843137254901961 0.09019607843137255
0.14901960784313725 0.1607843137254902 0.11372549019607843
0.14901960784313725 0.1607843137254902 0.11372549019607843
0.14901960784313725 0.1607843137254902 0.10980392156862745
0.14901960784313725 0.15294117647058825 0.10980392156862745
0.1803921568627451 0.14901960784313725 0.10980392156862745
0.21568627450980393 0.15294117647058825 0.10980392156862745
0.2549019607843137 0.14901960784313725 0.10980392156862745
0.27058823529411763 0.13725490196078433 0.10980392156862745
0.30196078431372547 0.1450980392156863 0.10980392156862745
0.33725490196078434 0.14901960784313725 0.10980392156862745
0.37254901960784315 0.1568627450980392 0.10980392156862745
0.39215686274509803 0.1568627450980392 0.10980392156862745
0.42745098039215684 0.16470588235294117 0.10588235294117647
0.45098039215686275 0.17254901960784313 0.10980392156862745
0.48627450980392156 0.1803921568627451 0.10588235294117647
0.5098039215686274 0.1803921568627451 0.10588235294117647
0.5411764705882353 0.19215686274509805 0.10196078431372549
0.5725490196078431 0.2 0.10588235294117647
0.592156862745098 0.20392156862745098 0.10196078431372549
0.6235294117647059 0.20784313725490197 0.10588235294117647
0.6666666666666666 0.2196078431372549 0.10196078431372549
0.7098039215686275 0.22745098039215686 0.09803921568627451
0.7529411764705882 0.23921568627450981 0.09803921568627451
0.796078431372549 0.24313725490196078 0.09803921568627451
0.8431372549019608 0.2549019607843137 0.09411764705882353
0.8784313725490196 0.2627450980392157 0.09803921568627451
0.9176470588235294 0.27450980392156865 0.09019607843137255
0.9490196078431372 0.2901960784313726 0.09019607843137255
0.9686274509803922 0.3058823529411765 0.09019607843137255
0.9686274509803922 0.3215686274509804 0.09019607843137255
0.9686274509803922 0.3411764705882353 0.09019607843137255
0.9647058823529412 0.3568627450980392 0.08627450980392157
0.9686274509803922 0.3843137254901961 0.09019607843137255
0.14901960784313725 0.17647058823529413 0.10980392156862745
0.14901960784313725 0.17647058823529413 0.10980392156862745
0.14901960784313725 0.16862745098039217 0.10980392156862745
0.14901960784313725 0.16470588235294117 0.10980392156862745
0.18823529411764706 0.16862745098039217 0.10980392156862745
0.2235294117647059 0.16862745098039217 0.10980392156862745
0.25882352941176473 0.17254901960784313 0.10980392156862745
0.2901960784313726 0.17647058823529413 0.10980392156862745
0.30980392156862746 0.16862745098039217 0.10980392156862745
0.34509803921568627 0.17254901960784313 0.10980392156862745
0.3686274509803922 0.17254901960784313 0.10588235294117647
0.39215686274509803 0.17647058823529413 0.10588235294117647
0.42745098039215684 0.1843137254901961 0.10980392156862745
0.4588235294117647 0.19215686274509805 0.10588235294117647
0.4823529411764706 0.19607843137254902 0.10588235294117647
0.5137254901960784 0.20392156862745098 0.10588235294117647
0.5450980392156862 0.21176470588235294 0.10588235294117647
0.5607843137254902 0.21568627450980393 0.10196078431372549
0.6078431372549019 0.2196078431372549 0.10196078431372549
0.6313725490196078 0.22745098039215686 0.10196078431372549
0.6666666666666666 0.23137254901960785 0.09803921568627451
0.7098039215686275 0.24313725490196078 0.09803921568627451
0.7568627450980392 0.25098039215686274 0.09803921568627451
0.8117647058823529 0.2549019607843137 0.09803921568627451
0.8470588235294118 0.27450980392156865 0.09411764705882353
0.8862745098039215 0.2784313725490196 0.09411764705882353
0.9137254901960784 0.2901960784313726 0.09411764705882353
0.9529411764705882 0.3058823529411765 0.09019607843137255
0.9686274509803922 0.3176470588235294 0.09019607843137255
0.9686274509803922 0.32941176470588235 0.09019607843137255
0.9686274509803922 0.3411764705882353 0.09019607843137255
0.9647058823529412 0.3568627450980392 0.08627450980392157
0.9686274509803922 0.39215686274509803 0.09019607843137255
0.14901960784313725 0.19215686274509805 0.10980392156862745
0.14901960784313725 0.19215686274509805 0.10980392156862745
0.15294117647058825 0.18823529411764706 0.10980392156862745
0.16862745098039217 0.19215686274509805 0.10980392156862745
0.21176470588235294 0.18823529411764706 0.10980392156862745
0.23921568627450981 0.19607843137254902 0.10980392156862745
0.27058823529411763 0.19215686274509805 0.10980392156862745
0.3058823529411765 0.2 0.10980392156862745
0.32941176470588235 0.19607843137254902 0.10588235294117647
0.3411764705882353 0.18823529411764706 0.10980392156862745
0.37254901960784315 0.19215686274509805 0.10588235294117647
0.4 0.19607843137254902 0.10588235294117647
0.43137254901960786 0.20392156862745098 0.10588235294117647
0.4588235294117647 0.20784313725490197 0.10588235294117647
0.48627450980392156 0.20784313725490197 0.10588235294117647
0.5176470588235295 0.2235294117647059 0.10588235294117647
0.5450980392156862 0.2235294117647059 0.10588235294117647
0.5803921568627451 0.23137254901960785 0.10588235294117647
0.6078431372549019 0.23529411764705882 0.10196078431372549
0.6392156862745098 0.23921568627450981 0.09803921568627451
0.6784313725490196 0.24705882352941178 0.10196078431372549
0.7137254901960784 0.25882352941176473 0.10196078431372549
0.7607843137254902 0.26666666666666666 0.09803921568627451
0.803921568627451 0.2784313725490196 0.09411764705882353
0.8588235294117647 0.28627450980392155 0.09411764705882353
0.8862745098039215 0.2901960784313726 0.09019607843137255
0.9176470588235294 0.30196078431372547 0.09019607843137255
0.9529411764705882 0.3137254901960784 0.09019607843137255
0.9686274509803922 0.32941176470588235 0.09019607843137255
0.9686274509803922 0.3411764705882353 0.09019607843137255
0.9686274509803922 0.36470588235294116 0.09019607843137255
0.9686274509803922 0.3803921568627451 0.09019607843137255
0.9686274509803922 0.396078431372549 0.08627450980392157
0.15294117647058825 0.21176470588235294 0.10980392156862745
0.14901960784313725 0.21568627450980393 0.10980392156862745
0.1568627450980392 0.21568627450980393 0.10980392156862745
0.2 0.21176470588235294 0.10980392156862745
0.2235294117647059 0.21176470588235294 0.10980392156862745
0.2627450980392157 0.21568627450980393 0.10588235294117647
0.29411764705882354 0.2235294117647059 0.10980392156862745
0.30980392156862746 0.21568627450980393 0.10588235294117647
0.3411764705882353 0.22745098039215686 0.10588235294117647
0.3607843137254902 0.21568627450980393 0.10980392156862745
0.3764705882352941 0.21176470588235294 0.10588235294117647
0.403921568627451 0.2196078431372549 0.10588235294117647
0.43137254901960786 0.2235294117647059 0.10588235294117647
0.4666666666666667 0.22745098039215686 0.10588235294117647
0.49019607843137253 0.23137254901960785 0.10196078431372549
0.5215686274509804 0.23529411764705882 0.10196078431372549
0.5529411764705883 0.24313725490196078 0.10196078431372549
0.5764705882352941 0.24705882352941178 0.10196078431372549
0.6039215686274509 0.2549019607843137 0.09803921568627451
0.6431372549019608 0.25882352941176473 0.09803921568627451
0.6745098039215687 0.2627450980392157 0.09803921568627451
0.7294117647058823 0.27450980392156865 0.09803921568627451
0.7568627450980392 0.2823529411764706 0.09411764705882353
0.8117647058823529 0.2980392156862745 0.09411764705882353
0.8549019607843137 0.3058823529411765 0.09411764705882353
0.8862745098039215 0.3058823529411765 0.09019607843137255
0.9254901960784314 0.3176470588235294 0.09019607843137255
0.9529411764705882 0.33725490196078434 0.09019607843137255
0.9647058823529412 0.34509803921568627 0.08627450980392157
0.9725490196078431 0.37254901960784315 0.09019607843137255
0.9686274509803922 0.3843137254901961 0.09019607843137255
0.9686274509803922 0.39215686274509803 0.09019607843137255
0.9647058823529412 0.41568627450980394 0.08627450980392157
0.15294117647058825 0.23529411764705882 0.10980392156862745
0.16862745098039217 0.23921568627450981 0.10980392156862745
0.2 0.24313725490196078 0.10980392156862745
0.2235294117647059 0.24313725490196078 0.10980392156862745
0.24705882352941178 0.23921568627450981 0.10588235294117647
0.2823529411764706 0.23921568627450981 0.10588235294117647
0.30980392156862746 0.24313725490196078 0.10588235294117647
0.3333333333333333 0.24313725490196078 0.10588235294117647
0.34901960784313724 0.25098039215686274 0.10588235294117647
0.3843137254901961 0.2549019607843137 0.10980392156862745
0.4 0.24705882352941178 0.10980392156862745
0.41568627450980394 0.23921568627450981 0.10588235294117647
0.44313725490196076 0.24313725490196078 0.10588235294117647
0.47058823529411764 0.25098039215686274 0.10196078431372549
0.5058823529411764 0.2549019607843137 0.10196078431372549
0.5254901960784314 0.25882352941176473 0.10196078431372549
0.5529411764705883 0.2627450980392157 0.10196078431372549
0.5764705882352941 0.26666666666666666 0.10196078431372549
0.611764705882353 0.27450980392156865 0.09803921568627451
0.6549019607843137 0.28627450980392155 0.10196078431372549
0.6862745098039216 0.28627450980392155 0.09803921568627451
0.7254901960784313 0.2980392156862745 0.09803921568627451
0.7725490196078432 0.3058823529411765 0.09803921568627451
0.8196078431372549 0.3137254901960784 0.09411764705882353
0.8588235294117647 0.3215686274509804 0.09019607843137255
0.8901960784313725 0.32941176470588235 0.09019607843137255
0.9254901960784314 0.34509803921568627 0.09019607843137255
0.9490196078431372 0.35294117647058826 0.08627450980392157
0.9686274509803922 0.36470588235294116 0.09019607843137255
0.9686274509803922 0.3843137254901961 0.09019607843137255
0.9686274509803922 0.396078431372549 0.08627450980392157
0.9686274509803922 0.4117647058823529 0.09019607843137255
0.9686274509803922 0.43137254901960786 0.09019607843137255
0.19607843137254902 0.2627450980392157 0.10588235294117647
0.21568627450980393 0.26666666666666666 0.10980392156862745
0.23529411764705882 0.26666666666666666 0.10588235294117647
0.2549019607843137 0.26666666666666666 0.10588235294117647
0.27058823529411763 0.2627450980392157 0.10980392156862745
0.30196078431372547 0.26666666666666666 0.10980392156862745
0.32941176470588235 0.27058823529411763 0.10588235294117647
0.34509803921568627 0.27450980392156865 0.10588235294117647
0.3686274509803922 0.27450980392156865 0.10588235294117647
0.4 0.2784313725490196 0.10196078431372549
0.4235294117647059 0.28627450980392155 0.10196078431372549
0.43137254901960786 0.2823529411764706 0.10588235294117647
0.4470588235294118 0.2627450980392157 0.10196078431372549
0.4823529411764706 0.27450980392156865 0.10196078431372549
0.5058823529411764 0.2823529411764706 0.10196078431372549
0.5333333333333333 0.2823529411764706 0.09803921568627451
0.5607843137254902 0.28627450980392155 0.09803921568627451
0.5882352941176471 0.29411764705882354 0.10196078431372549
0.6196078431372549 0.30196078431372547 0.09803921568627451
0.6549019607843137 0.3058823529411765 0.09803921568627451
0.6823529411764706 0.30980392156862746 0.09411764705882353
0.7333333333333333 0.3254901960784314 0.09803921568627451
0.796078431372549 0.3254901960784314 0.09411764705882353
0.8196078431372549 0.33725490196078434 0.09411764705882353
0.8549019607843137 0.34509803921568627 0.09019607843137255
0.9019607843137255 0.35294117647058826 0.09019607843137255
0.9254901960784314 0.3686274509803922 0.08627450980392157
0.9607843137254902 0.3803921568627451 0.08627450980392157
0.9686274509803922 0.396078431372549 0.08627450980392157
0.9686274509803922 0.4117647058823529 0.09019607843137255
0.9686274509803922 0.4235294117647059 0.09019607843137255
0.9647058823529412 0.43529411764705883 0.08627450980392157
0.9686274509803922 0.4627450980392157 0.09019607843137255
0.2235294117647059 0.28627450980392155 0.10588235294117647
0.25098039215686274 0.29411764705882354 0.10980392156862745
0.26666666666666666 0.2901960784313726 0.10588235294117647
0.2823529411764706 0.29411764705882354 0.10980392156862745
0.30196078431372547 0.29411764705882354 0.10980392156862745
0.3254901960784314 0.2980392156862745 0.10588235294117647
0.33725490196078434 0.2980392156862745 0.10588235294117647
0.3686274509803922 0.30196078431372547 0.10588235294117647
0.38823529411764707 0.3058823529411765 0.10588235294117647
0.4196078431372549 0.30980392156862746 0.10196078431372549
0.43529411764705883 0.3176470588235294 0.10588235294117647
0.4627450980392157 0.3215686274509804 0.09803921568627451
0.47058823529411764 0.2980392156862745 0.10196078431372549
0.49411764705882355 0.30196078431372547 0.09803921568627451
0.5137254901960784 0.30196078431372547 0.10196078431372549
0.5411764705882353 0.30980392156862746 0.09803921568627451
0.5686274509803921 0.3137254901960784 0.10196078431372549
0.596078431372549 0.3137254901960784 0.09803921568627451
0.6274509803921569 0.3215686274509804 0.09803921568627451
0.6627450980392157 0.3215686274509804 0.09803921568627451
0.7058823529411765 0.34509803921568627 0.09411764705882353
0.7411764705882353 0.34509803921568627 0.09411764705882353
0.7764705882352941 0.34509803921568627 0.09411764705882353
0.8235294117647058 0.3607843137254902 0.09019607843137255
0.8705882352941177 0.36470588235294116 0.08627450980392157
0.9058823529411765 0.3843137254901961 0.09019607843137255
0.9411764705882353 0.4 0.08627450980392157
0.9647058823529412 0.403921568627451 0.08627450980392157
0.9686274509803922 0.4235294117647059 0.09019607843137255
0.9686274509803922 0.43137254901960786 0.09019607843137255
0.9647058823529412 0.45098039215686275 0.08627450980392157
0.9647058823529412 0.4627450980392157 0.08627450980392157
0.9647058823529412 0.4745098039215686 0.08627450980392157
0.27058823529411763 0.3176470588235294 0.10588235294117647
0.2784313725490196 0.3254901960784314 0.10588235294117647
0.2980392156862745 0.3215686274509804 0.10588235294117647
0.30980392156862746 0.32941176470588235 0.10588235294117647
0.3254901960784314 0.3254901960784314 0.10588235294117647
0.33725490196078434 0.3254901960784314 0.10588235294117647
0.3607843137254902 0.3333333333333333 0.10196078431372549
0.3803921568627451 0.3333333333333333 0.10196078431372549
0.403921568627451 0.3411764705882353 0.10196078431372549
0.4235294117647059 0.33725490196078434 0.09803921568627451
0.4549019607843137 0.34509803921568627 0.09803921568627451
0.4823529411764706 0.3568627450980392 0.09803921568627451
0.5058823529411764 0.35294117647058826 0.09803921568627451
0.5137254901960784 0.3411764705882353 0.09803921568627451
0.5215686274509804 0.32941176470588235 0.09803921568627451
0.5529411764705883 0.32941176470588235 0.09803921568627451
0.5764705882352941 0.33725490196078434 0.09803921568627451
0.6039215686274509 0.34509803921568627 0.09803921568627451
0.6313725490196078 0.34901960784313724 0.09803921568627451
0.6705882352941176 0.3607843137254902 0.09411764705882353
0.7098039215686275 0.36470588235294116 0.09411764705882353
0.7529411764705882 0.37254901960784315 0.09411764705882353
0.788235294117647 0.3803921568627451 0.09019607843137255
0.8392156862745098 0.38823529411764707 0.09019607843137255
0.8745098039215686 0.40784313725490196 0.09019607843137255
0.9137254901960784 0.41568627450980394 0.09019607843137255
0.9411764705882353 0.42745098039215684 0.09019607843137255
0.9647058823529412 0.4470588235294118 0.08627450980392157
0.9647058823529412 0.45098039215686275 0.08627450980392157
0.9647058823529412 0.4627450980392157 0.08627450980392157
0.9647058823529412 0.4745098039215686 0.08627450980392157
0.9607843137254902 0.49411764705882355 0.08235294117647059
0.9647058823529412 0.5058823529411764 0.08235294117647059
0.30196078431372547 0.34901960784313724 0.10196078431372549
0.3137254901960784 0.3568627450980392 0.10196078431372549
0.32941176470588235 0.3568627450980392 0.10196078431372549
0.3411764705882353 0.3607843137254902 0.10588235294117647
0.35294117647058826 0.3686274509803922 0.10196078431372549
0.3607843137254902 0.3686274509803922 0.10196078431372549
0.3803921568627451 0.3686274509803922 0.09803921568627451
0.396078431372549 0.3686274509803922 0.09803921568627451
0.42745098039215684 0.3686274509803922 0.10196078431372549
0.4470588235294118 0.3764705882352941 0.10196078431372549
0.47058823529411764 0.3803921568627451 0.10196078431372549
0.4980392156862745 0.38823529411764707 0.09803921568627451
0.5137254901960784 0.3764705882352941 0.09803921568627451
