cubelut/FILM-S90's_SUMMER_90's_LUT.cube
TITLE "Photo Curves LUT"
LUT_3D_SIZE 5
0.07450980392156863 0.08235294117647059 0.03529411764705882
0.2823529411764706 0.08235294117647059 0.00392156862745098
0.5607843137254902 0.0784313725490196 0.0
0.8 0.06666666666666667 0.0
1.0 0.1843137254901961 0.06274509803921569
0.00392156862745098 0.21568627450980393 0.00392156862745098
0.21176470588235294 0.18823529411764706 0.0
0.5176470588235295 0.2196078431372549 0.0
0.7803921568627451 0.20392156862745098 0.0
0.9921568627450981 0.3607843137254902 0.043137254901960784
0.0 0.44313725490196076 0.0
0.25098039215686274 0.4392156862745098 0.0
0.4470588235294118 0.3764705882352941 0.0
0.7372549019607844 0.403921568627451 0.0
0.9803921568627451 0.5372549019607843 0.06666666666666667
0.0 0.6745098039215687 0.0
0.22745098039215686 0.6705882352941176 0.0
0.5411764705882353 0.6627450980392157 0.0
0.6862745098039216 0.5725490196078431 0.0
0.9607843137254902 0.7019607843137254 0.12156862745098039
0.10196078431372549 0.9137254901960784 0.01568627450980392
0.40784313725490196 0.9215686274509803 0.050980392156862744
0.6549019607843137 0.9294117647058824 0.10980392156862745
0.8588235294117647 0.9568627450980393 0.1607843137254902
0.9372549019607843 0.8431372549019608 0.15294117647058825
0.03137254901960784 0.10196078431372549 0.27058823529411763
0.24313725490196078 0.09803921568627451 0.22745098039215686
0.5529411764705883 0.09019607843137255 0.21568627450980393
0.8 0.07058823529411765 0.1568627450980392
1.0 0.19215686274509805 0.29411764705882354
0.00392156862745098 0.19215686274509805 0.12549019607843137
0.20392156862745098 0.21176470588235294 0.1568627450980392
0.5137254901960784 0.24313725490196078 0.1568627450980392
0.7764705882352941 0.24313725490196078 0.12941176470588237
1.0 0.38823529411764707 0.2823529411764706
0.0 0.43529411764705883 0.0784313725490196
0.2 0.4470588235294118 0.11372549019607843
0.45098039215686275 0.40784313725490196 0.12941176470588237
0.7372549019607844 0.45098039215686275 0.12156862745098039
0.9882352941176471 0.5725490196078431 0.2823529411764706
0.0 0.6705882352941176 0.0
0.17647058823529413 0.6862745098039216 0.07450980392156863
0.5215686274509804 0.6745098039215687 0.11764705882352941
0.6901960784313725 0.611764705882353 0.1411764705882353
0.9647058823529412 0.7529411764705882 0.32941176470588235
0.03529411764705882 0.9019607843137255 0.12549019607843137
0.3686274509803922 0.9372549019607843 0.24313725490196078
0.6431372549019608 0.9490196078431372 0.29411764705882354
0.8549019607843137 0.9686274509803922 0.34509803921568627
0.9490196078431372 0.8980392156862745 0.3607843137254902
0.0 0.1411764705882353 0.5843137254901961
0.2196078431372549 0.12549019607843137 0.5529411764705883
0.48627450980392156 0.11372549019607843 0.5098039215686274
0.7686274509803922 0.08627450980392157 0.5294117647058824
0.9921568627450981 0.2235294117647059 0.5882352941176471
0.0 0.24313725490196078 0.4
0.19215686274509805 0.27450980392156865 0.49019607843137253
0.4745098039215686 0.26666666666666666 0.44313725490196076
0.7686274509803922 0.26666666666666666 0.47058823529411764
0.996078431372549 0.403921568627451 0.5411764705882353
0.0 0.3803921568627451 0.25882352941176473
0.13725490196078433 0.41568627450980394 0.32941176470588235
0.4470588235294118 0.43529411764705883 0.37254901960784315
0.7411764705882353 0.42745098039215684 0.3411764705882353
0.9921568627450981 0.592156862745098 0.4980392156862745
0.0 0.6509803921568628 0.2235294117647059
0.10588235294117647 0.6745098039215687 0.2901960784313726
0.43137254901960786 0.6862745098039216 0.2980392156862745
0.6980392156862745 0.6509803921568628 0.3411764705882353
0.9764705882352941 0.788235294117647 0.5058823529411764
0.00392156862745098 0.8941176470588236 0.34509803921568627
0.28627450980392155 0.9294117647058824 0.38823529411764707
0.5882352941176471 0.9607843137254902 0.4588235294117647
0.8392156862745098 0.9764705882352941 0.5098039215686274
0.9647058823529412 0.9411764705882353 0.5294117647058824
0.0 0.1607843137254902 0.796078431372549
0.08235294117647059 0.1450980392156863 0.803921568627451
0.4666666666666667 0.13725490196078433 0.7843137254901961
0.7137254901960784 0.11764705882352941 0.7686274509803922
0.9647058823529412 0.27450980392156865 0.8117647058823529
0.0 0.2901960784313726 0.7058823529411765
0.08235294117647059 0.3411764705882353 0.7764705882352941
0.4549019607843137 0.3137254901960784 0.7450980392156863
0.6980392156862745 0.30980392156862746 0.7098039215686275
0.9725490196078431 0.4549019607843137 0.7803921568627451
0.0 0.4470588235294118 0.5686274509803921
0.0 0.4823529411764706 0.6431372549019608
0.4 0.4666666666666667 0.7019607843137254
0.6980392156862745 0.4666666666666667 0.6666666666666666
0.9803921568627451 0.6196078431372549 0.7333333333333333
0.0 0.5764705882352941 0.44313725490196076
0.047058823529411764 0.6235294117647059 0.5176470588235295
0.32941176470588235 0.6549019607843137 0.5568627450980392
0.6980392156862745 0.6980392156862745 0.6078431372549019
0.9764705882352941 0.7568627450980392 0.6392156862745098
0.0 0.8588235294117647 0.5215686274509804
0.24705882352941178 0.9176470588235294 0.5647058823529412
0.5254901960784314 0.9607843137254902 0.6078431372549019
0.7647058823529411 0.9882352941176471 0.6196078431372549
0.9725490196078431 0.9725490196078431 0.6666666666666666
0.0 0.33725490196078434 0.9882352941176471
0.1843137254901961 0.2901960784313726 0.996078431372549
0.5215686274509804 0.2980392156862745 0.9882352941176471
0.7333333333333333 0.3058823529411765 0.9882352941176471
0.9137254901960784 0.2980392156862745 0.9921568627450981
0.0 0.44313725490196076 0.9098039215686274
0.1607843137254902 0.48627450980392156 0.9921568627450981
0.5098039215686274 0.4588235294117647 0.984313725490196
0.7490196078431373 0.47058823529411764 0.9607843137254902
0.9215686274509803 0.47843137254901963 0.9647058823529412
0.0 0.5411764705882353 0.803921568627451
0.08235294117647059 0.5882352941176471 0.8745098039215686
0.5019607843137255 0.6313725490196078 0.9529411764705882
0.7529411764705882 0.6313725490196078 0.9294117647058824
0.9372549019607843 0.6549019607843137 0.9176470588235294
0.0 0.6705882352941176 0.7215686274509804
0.08627450980392157 0.7058823529411765 0.7647058823529411
0.43137254901960786 0.7529411764705882 0.8156862745098039
0.7137254901960784 0.7803921568627451 0.9176470588235294
0.9529411764705882 0.8 0.9019607843137255
0.0 0.7764705882352941 0.6352941176470588
0.16862745098039217 0.8313725490196079 0.6901960784313725
0.4470588235294118 0.8941176470588236 0.7411764705882353
0.6666666666666666 0.9568627450980393 0.8
0.9803921568627451 1.0 0.8901960784313725
