cubelut/FILM-VVM_VIVID_MODERN_LUT.cube
TITLE "Photo Curves LUT"
LUT_3D_SIZE 5
0.00392156862745098 0.0 0.0
0.24705882352941178 0.047058823529411764 0.054901960784313725
0.5803921568627451 0.12549019607843137 0.18823529411764706
0.788235294117647 0.17647058823529413 0.2980392156862745
0.8980392156862745 0.21176470588235294 0.3843137254901961
0.0 0.18823529411764706 0.20784313725490197
0.17254901960784313 0.1803921568627451 0.023529411764705882
0.592156862745098 0.3058823529411765 0.20784313725490197
0.8196078431372549 0.3764705882352941 0.3215686274509804
0.9137254901960784 0.43529411764705883 0.403921568627451
0.00392156862745098 0.5019607843137255 0.4117647058823529
0.00392156862745098 0.5019607843137255 0.3176470588235294
0.5450980392156862 0.5215686274509804 0.19607843137254902
0.8196078431372549 0.6 0.3333333333333333
0.9254901960784314 0.6431372549019608 0.4117647058823529
0.00392156862745098 0.7529411764705882 0.7215686274509804
0.00784313725490196 0.7490196078431373 0.5843137254901961
0.01568627450980392 0.7450980392156863 0.39215686274509803
0.7647058823529411 0.7450980392156863 0.2823529411764706
0.9254901960784314 0.796078431372549 0.38823529411764707
0.00392156862745098 0.9019607843137255 0.9411764705882353
0.011764705882352941 0.9019607843137255 0.8745098039215686
0.0196078431372549 0.9019607843137255 0.7176470588235294
0.023529411764705882 0.9019607843137255 0.3254901960784314
0.9019607843137255 0.9019607843137255 0.34901960784313724
0.0 0.0 0.20392156862745098
0.2235294117647059 0.03137254901960784 0.20784313725490197
0.592156862745098 0.11764705882352941 0.3333333333333333
0.796078431372549 0.17254901960784313 0.4117647058823529
0.9019607843137255 0.20784313725490197 0.4823529411764706
0.0 0.16470588235294117 0.17254901960784313
0.20784313725490197 0.1803921568627451 0.21568627450980393
0.6078431372549019 0.30196078431372547 0.34901960784313724
0.8313725490196079 0.4549019607843137 0.4823529411764706
0.9254901960784314 0.5450980392156862 0.5725490196078431
0.00392156862745098 0.5019607843137255 0.38823529411764707
0.2 0.5137254901960784 0.4196078431372549
0.5647058823529412 0.5215686274509804 0.34509803921568627
0.8196078431372549 0.6235294117647059 0.4745098039215686
0.9254901960784314 0.6823529411764706 0.5568627450980392
0.0 0.6941176470588235 0.7137254901960784
0.2627450980392157 0.7529411764705882 0.7294117647058823
0.29411764705882354 0.7529411764705882 0.6
0.7725490196078432 0.7450980392156863 0.43529411764705883
0.9254901960784314 0.8117647058823529 0.5450980392156862
0.00392156862745098 0.8431372549019608 0.9372549019607843
0.18823529411764706 0.9019607843137255 0.9411764705882353
0.26666666666666666 0.9019607843137255 0.8705882352941177
0.2823529411764706 0.9019607843137255 0.7019607843137254
0.9058823529411765 0.9019607843137255 0.5137254901960784
0.09019607843137255 0.00392156862745098 0.3254901960784314
0.26666666666666666 0.043137254901960784 0.3686274509803922
0.5411764705882353 0.09411764705882353 0.40784313725490196
0.796078431372549 0.15294117647058825 0.5647058823529412
0.9058823529411765 0.18823529411764706 0.6588235294117647
0.0 0.26666666666666666 0.2980392156862745
0.24705882352941178 0.24313725490196078 0.3686274509803922
0.596078431372549 0.2549019607843137 0.44313725490196076
0.8352941176470589 0.4196078431372549 0.615686274509804
0.9254901960784314 0.5137254901960784 0.7254901960784313
0.00392156862745098 0.4588235294117647 0.34509803921568627
0.09019607843137255 0.48627450980392156 0.3843137254901961
0.6 0.5294117647058824 0.47058823529411764
0.8313725490196079 0.5843137254901961 0.5647058823529412
0.9254901960784314 0.6392156862745098 0.6627450980392157
0.011764705882352941 0.7490196078431373 0.4627450980392157
0.11372549019607843 0.7529411764705882 0.7058823529411765
0.5490196078431373 0.7490196078431373 0.7294117647058823
0.7803921568627451 0.7411764705882353 0.5254901960784314
0.9254901960784314 0.788235294117647 0.6431372549019608
0.00392156862745098 0.9019607843137255 0.9176470588235294
0.11764705882352941 0.8784313725490196 0.9411764705882353
0.5019607843137255 0.9019607843137255 0.9411764705882353
0.5529411764705883 0.9019607843137255 0.8509803921568627
0.9098039215686274 0.9019607843137255 0.6196078431372549
0.21176470588235294 0.06274509803921569 0.5490196078431373
0.2980392156862745 0.027450980392156862 0.6392156862745098
0.5607843137254902 0.10196078431372549 0.6588235294117647
0.7333333333333333 0.12549019607843137 0.6823529411764706
0.9098039215686274 0.16862745098039217 0.8588235294117647
0.0 0.34509803921568627 0.4745098039215686
0.4117647058823529 0.4 0.6352941176470588
0.6666666666666666 0.36470588235294116 0.7058823529411765
0.807843137254902 0.3803921568627451 0.7294117647058823
0.9254901960784314 0.47058823529411764 0.8745098039215686
0.00392156862745098 0.5764705882352941 0.5215686274509804
0.12156862745098039 0.5803921568627451 0.5725490196078431
0.596078431372549 0.5490196078431373 0.6901960784313725
0.8274509803921568 0.5411764705882353 0.7450980392156863
0.9254901960784314 0.6039215686274509 0.8431372549019608
0.00392156862745098 0.7098039215686275 0.5882352941176471
0.027450980392156862 0.7215686274509804 0.6392156862745098
0.4627450980392157 0.7372549019607844 0.6784313725490196
0.8 0.7411764705882353 0.7372549019607844
0.9254901960784314 0.7725490196078432 0.8117647058823529
0.0196078431372549 0.9019607843137255 0.7333333333333333
0.0196078431372549 0.9019607843137255 0.788235294117647
0.3843137254901961 0.9019607843137255 0.9294117647058824
0.7686274509803922 0.9019607843137255 0.9411764705882353
0.9137254901960784 0.9019607843137255 0.796078431372549
0.32941176470588235 0.1450980392156863 0.8156862745098039
0.3058823529411765 0.01568627450980392 0.8823529411764706
0.5764705882352941 0.09019607843137255 0.9098039215686274
0.7568627450980392 0.1450980392156863 0.9137254901960784
0.8745098039215686 0.1607843137254902 0.9215686274509803
0.15294117647058825 0.42745098039215684 0.7411764705882353
0.5176470588235295 0.4980392156862745 0.8784313725490196
0.7098039215686275 0.40784313725490196 0.9294117647058824
0.8470588235294118 0.4470588235294118 0.9372549019607843
0.9254901960784314 0.4588235294117647 0.9372549019607843
0.0 0.6392156862745098 0.7294117647058823
0.19215686274509805 0.6588235294117647 0.8117647058823529
0.6274509803921569 0.6039215686274509 0.8980392156862745
0.8431372549019608 0.5686274509803921 0.9372549019607843
0.9254901960784314 0.5764705882352941 0.9372549019607843
0.00784313725490196 0.803921568627451 0.803921568627451
0.00784313725490196 0.803921568627451 0.8274509803921568
0.3215686274509804 0.792156862745098 0.8666666666666667
0.7843137254901961 0.7568627450980392 0.9215686274509803
0.9215686274509803 0.7372549019607844 0.9372549019607843
0.011764705882352941 0.8784313725490196 0.8313725490196079
0.011764705882352941 0.8862745098039215 0.8705882352941177
0.3254901960784314 0.8941176470588236 0.8862745098039215
0.7176470588235294 0.9019607843137255 0.9176470588235294
0.9254901960784314 0.8980392156862745 0.9411764705882353
