cubelut/FILM-KCS_KONICA_CENTURIA__400_SUPER.cube
TITLE "Photo Curves LUT"
LUT_3D_SIZE 33
0.12941176470588237 0.10588235294117647 0.09411764705882353
0.13725490196078433 0.10588235294117647 0.09019607843137255
0.1568627450980392 0.10588235294117647 0.09411764705882353
0.16862745098039217 0.09803921568627451 0.08627450980392157
0.19607843137254902 0.09019607843137255 0.08627450980392157
0.23137254901960785 0.0784313725490196 0.08235294117647059
0.2627450980392157 0.058823529411764705 0.06666666666666667
0.2901960784313726 0.047058823529411764 0.054901960784313725
0.3176470588235294 0.03529411764705882 0.043137254901960784
0.3411764705882353 0.023529411764705882 0.027450980392156862
0.3764705882352941 0.027450980392156862 0.027450980392156862
0.41568627450980394 0.027450980392156862 0.027450980392156862
0.4666666666666667 0.027450980392156862 0.03137254901960784
0.5137254901960784 0.027450980392156862 0.03137254901960784
0.5607843137254902 0.027450980392156862 0.03137254901960784
0.6039215686274509 0.03137254901960784 0.027450980392156862
0.6352941176470588 0.027450980392156862 0.027450980392156862
0.6705882352941176 0.027450980392156862 0.027450980392156862
0.7019607843137254 0.023529411764705882 0.03137254901960784
0.7254901960784313 0.023529411764705882 0.0392156862745098
0.7568627450980392 0.043137254901960784 0.06274509803921569
0.7843137254901961 0.07450980392156863 0.08627450980392157
0.807843137254902 0.09411764705882353 0.10196078431372549
0.8274509803921568 0.11764705882352941 0.12156862745098039
0.8509803921568627 0.1411764705882353 0.13725490196078433
0.8705882352941177 0.1607843137254902 0.15294117647058825
0.8901960784313725 0.17254901960784313 0.16862745098039217
0.9137254901960784 0.1803921568627451 0.17647058823529413
0.9333333333333333 0.18823529411764706 0.1803921568627451
0.9490196078431372 0.19607843137254902 0.1803921568627451
0.9647058823529412 0.20392156862745098 0.19215686274509805
0.9803921568627451 0.20392156862745098 0.18823529411764706
0.9921568627450981 0.21176470588235294 0.20392156862745098
0.12549019607843137 0.10980392156862745 0.09019607843137255
0.13333333333333333 0.10980392156862745 0.09019607843137255
0.1450980392156863 0.10980392156862745 0.08235294117647059
0.16862745098039217 0.10588235294117647 0.08235294117647059
0.19215686274509805 0.09803921568627451 0.0784313725490196
0.2235294117647059 0.08627450980392157 0.07058823529411765
0.25882352941176473 0.07058823529411765 0.058823529411764705
0.2823529411764706 0.050980392156862744 0.050980392156862744
0.30980392156862746 0.043137254901960784 0.03529411764705882
0.3411764705882353 0.03137254901960784 0.027450980392156862
0.37254901960784315 0.027450980392156862 0.027450980392156862
0.41568627450980394 0.027450980392156862 0.027450980392156862
0.4666666666666667 0.027450980392156862 0.03137254901960784
0.5137254901960784 0.027450980392156862 0.03137254901960784
0.5568627450980392 0.03137254901960784 0.03137254901960784
0.6039215686274509 0.03137254901960784 0.027450980392156862
0.6352941176470588 0.027450980392156862 0.027450980392156862
0.6705882352941176 0.027450980392156862 0.027450980392156862
0.7019607843137254 0.027450980392156862 0.023529411764705882
0.7254901960784313 0.027450980392156862 0.027450980392156862
0.7568627450980392 0.047058823529411764 0.047058823529411764
0.7843137254901961 0.0784313725490196 0.06666666666666667
0.803921568627451 0.10196078431372549 0.09019607843137255
0.8313725490196079 0.12549019607843137 0.10980392156862745
0.8470588235294118 0.1411764705882353 0.11764705882352941
0.8705882352941177 0.1607843137254902 0.13725490196078433
0.8901960784313725 0.17254901960784313 0.1450980392156863
0.9098039215686274 0.1843137254901961 0.15294117647058825
0.9333333333333333 0.18823529411764706 0.1568627450980392
0.9490196078431372 0.2 0.16470588235294117
0.9647058823529412 0.20784313725490197 0.17647058823529413
0.9803921568627451 0.20392156862745098 0.17647058823529413
1.0 0.21568627450980393 0.18823529411764706
0.11764705882352941 0.12549019607843137 0.08235294117647059
0.12941176470588237 0.11764705882352941 0.08235294117647059
0.13333333333333333 0.11372549019607843 0.0784313725490196
0.1568627450980392 0.11764705882352941 0.07058823529411765
0.1843137254901961 0.11372549019607843 0.06666666666666667
0.21176470588235294 0.10588235294117647 0.054901960784313725
0.24313725490196078 0.09411764705882353 0.047058823529411764
0.27058823529411763 0.08235294117647059 0.043137254901960784
0.30196078431372547 0.07058823529411765 0.027450980392156862
0.3333333333333333 0.058823529411764705 0.027450980392156862
0.3686274509803922 0.050980392156862744 0.027450980392156862
0.4196078431372549 0.047058823529411764 0.03137254901960784
0.47058823529411764 0.047058823529411764 0.03137254901960784
0.5137254901960784 0.043137254901960784 0.027450980392156862
0.5607843137254902 0.043137254901960784 0.027450980392156862
0.6 0.043137254901960784 0.027450980392156862
0.6392156862745098 0.043137254901960784 0.027450980392156862
0.6666666666666666 0.043137254901960784 0.023529411764705882
0.7019607843137254 0.047058823529411764 0.027450980392156862
0.7294117647058823 0.06274509803921569 0.027450980392156862
0.7568627450980392 0.08235294117647059 0.047058823529411764
0.7764705882352941 0.09803921568627451 0.058823529411764705
0.803921568627451 0.12549019607843137 0.08235294117647059
0.8235294117647058 0.14901960784313725 0.10196078431372549
0.8470588235294118 0.16862745098039217 0.11764705882352941
0.8666666666666667 0.1843137254901961 0.13333333333333333
0.8862745098039215 0.20392156862745098 0.14901960784313725
0.9098039215686274 0.20784313725490197 0.15294117647058825
0.9254901960784314 0.21568627450980393 0.15294117647058825
0.9450980392156862 0.2235294117647059 0.16470588235294117
0.9607843137254902 0.2235294117647059 0.16470588235294117
0.9803921568627451 0.23137254901960785 0.17647058823529413
0.9882352941176471 0.24313725490196078 0.17647058823529413
0.10588235294117647 0.13333333333333333 0.07450980392156863
0.11764705882352941 0.13333333333333333 0.07450980392156863
0.12156862745098039 0.12941176470588237 0.06666666666666667
0.13725490196078433 0.12156862745098039 0.06274509803921569
0.16862745098039217 0.12549019607843137 0.043137254901960784
0.19215686274509805 0.12156862745098039 0.0392156862745098
0.23137254901960785 0.11764705882352941 0.03137254901960784
0.25882352941176473 0.10980392156862745 0.027450980392156862
0.28627450980392155 0.10588235294117647 0.03137254901960784
0.3254901960784314 0.09411764705882353 0.03137254901960784
0.36470588235294116 0.09019607843137255 0.027450980392156862
0.4196078431372549 0.08627450980392157 0.027450980392156862
0.47058823529411764 0.08235294117647059 0.027450980392156862
0.5058823529411764 0.0784313725490196 0.027450980392156862
0.5529411764705883 0.0784313725490196 0.023529411764705882
0.596078431372549 0.07450980392156863 0.027450980392156862
0.6313725490196078 0.07450980392156863 0.027450980392156862
0.6666666666666666 0.0784313725490196 0.027450980392156862
0.6980392156862745 0.08235294117647059 0.023529411764705882
0.7294117647058823 0.09803921568627451 0.03137254901960784
0.7529411764705882 0.11372549019607843 0.0392156862745098
0.7803921568627451 0.13333333333333333 0.06274509803921569
0.8 0.1568627450980392 0.08235294117647059
0.8235294117647058 0.17647058823529413 0.09803921568627451
0.8431372549019608 0.19215686274509805 0.11764705882352941
0.8666666666666667 0.21568627450980393 0.13333333333333333
0.8862745098039215 0.23137254901960785 0.1450980392156863
0.9058823529411765 0.24313725490196078 0.15294117647058825
0.9294117647058824 0.24705882352941178 0.1568627450980392
0.9411764705882353 0.25098039215686274 0.1607843137254902
0.9607843137254902 0.2549019607843137 0.1607843137254902
0.9725490196078431 0.2627450980392157 0.16862745098039217
0.9882352941176471 0.27450980392156865 0.17254901960784313
0.08235294117647059 0.1411764705882353 0.054901960784313725
0.09803921568627451 0.1450980392156863 0.054901960784313725
0.11372549019607843 0.1411764705882353 0.047058823529411764
0.12156862745098039 0.1411764705882353 0.043137254901960784
0.1450980392156863 0.1411764705882353 0.0392156862745098
0.1843137254901961 0.1450980392156863 0.027450980392156862
0.21176470588235294 0.1450980392156863 0.027450980392156862
0.24705882352941178 0.1411764705882353 0.03137254901960784
0.2823529411764706 0.13725490196078433 0.027450980392156862
0.3176470588235294 0.13333333333333333 0.03137254901960784
0.36470588235294116 0.12941176470588237 0.03137254901960784
0.41568627450980394 0.12549019607843137 0.027450980392156862
0.4627450980392157 0.12156862745098039 0.027450980392156862
0.5137254901960784 0.11764705882352941 0.027450980392156862
0.5529411764705883 0.11372549019607843 0.027450980392156862
0.596078431372549 0.11372549019607843 0.027450980392156862
0.6235294117647059 0.10980392156862745 0.023529411764705882
0.6627450980392157 0.11372549019607843 0.027450980392156862
0.6941176470588235 0.11764705882352941 0.023529411764705882
0.7254901960784313 0.12941176470588237 0.027450980392156862
0.7490196078431373 0.1450980392156863 0.0392156862745098
0.7725490196078432 0.16470588235294117 0.06274509803921569
0.8 0.18823529411764706 0.08235294117647059
0.8196078431372549 0.20392156862745098 0.09803921568627451
0.8431372549019608 0.23529411764705882 0.11764705882352941
0.8627450980392157 0.25098039215686274 0.12941176470588237
0.8823529411764706 0.26666666666666666 0.13725490196078433
0.9058823529411765 0.27450980392156865 0.14901960784313725
0.9254901960784314 0.2784313725490196 0.1568627450980392
0.9411764705882353 0.2823529411764706 0.1607843137254902
0.9529411764705882 0.2901960784313726 0.1568627450980392
0.9725490196078431 0.2980392156862745 0.16862745098039217
0.9882352941176471 0.3058823529411765 0.17254901960784313
0.058823529411764705 0.1607843137254902 0.03137254901960784
0.0784313725490196 0.1568627450980392 0.03529411764705882
0.09803921568627451 0.1568627450980392 0.027450980392156862
0.11372549019607843 0.1568627450980392 0.027450980392156862
0.13333333333333333 0.1568627450980392 0.023529411764705882
0.16470588235294117 0.15294117647058825 0.027450980392156862
0.20784313725490197 0.17254901960784313 0.027450980392156862
0.24313725490196078 0.17254901960784313 0.027450980392156862
0.2784313725490196 0.17254901960784313 0.03137254901960784
0.3176470588235294 0.17647058823529413 0.03137254901960784
0.3607843137254902 0.17254901960784313 0.027450980392156862
0.41568627450980394 0.16470588235294117 0.03137254901960784
0.4627450980392157 0.1607843137254902 0.027450980392156862
0.5058823529411764 0.1607843137254902 0.027450980392156862
0.5529411764705883 0.1568627450980392 0.023529411764705882
0.596078431372549 0.15294117647058825 0.027450980392156862
0.6313725490196078 0.14901960784313725 0.023529411764705882
0.6588235294117647 0.14901960784313725 0.023529411764705882
0.6941176470588235 0.1568627450980392 0.023529411764705882
0.7215686274509804 0.16470588235294117 0.023529411764705882
0.7529411764705882 0.17647058823529413 0.0392156862745098
0.7725490196078432 0.2 0.06274509803921569
0.8 0.2196078431372549 0.0784313725490196
0.8196078431372549 0.23921568627450981 0.09803921568627451
0.8392156862745098 0.26666666666666666 0.11372549019607843
0.8588235294117647 0.2784313725490196 0.13333333333333333
0.8784313725490196 0.29411764705882354 0.13725490196078433
0.9019607843137255 0.30980392156862746 0.14901960784313725
0.9215686274509803 0.3137254901960784 0.15294117647058825
0.9411764705882353 0.3254901960784314 0.1607843137254902
0.9529411764705882 0.32941176470588235 0.1568627450980392
0.9725490196078431 0.33725490196078434 0.16862745098039217
0.984313725490196 0.34509803921568627 0.16862745098039217
0.047058823529411764 0.17254901960784313 0.027450980392156862
0.07058823529411765 0.17254901960784313 0.027450980392156862
0.09411764705882353 0.17647058823529413 0.027450980392156862
0.11764705882352941 0.17647058823529413 0.027450980392156862
0.13725490196078433 0.1803921568627451 0.03137254901960784
0.1568627450980392 0.1803921568627451 0.03137254901960784
0.1843137254901961 0.1803921568627451 0.027450980392156862
0.23921568627450981 0.20784313725490197 0.027450980392156862
0.27450980392156865 0.21568627450980393 0.027450980392156862
0.3137254901960784 0.21568627450980393 0.027450980392156862
0.3607843137254902 0.21176470588235294 0.027450980392156862
0.40784313725490196 0.20392156862745098 0.027450980392156862
0.4588235294117647 0.20392156862745098 0.027450980392156862
0.5019607843137255 0.19607843137254902 0.027450980392156862
0.5450980392156862 0.19607843137254902 0.023529411764705882
0.5843137254901961 0.19215686274509805 0.023529411764705882
0.6235294117647059 0.18823529411764706 0.027450980392156862
0.6549019607843137 0.18823529411764706 0.0196078431372549
0.6941176470588235 0.19607843137254902 0.0196078431372549
0.7176470588235294 0.20392156862745098 0.023529411764705882
0.7450980392156863 0.21176470588235294 0.03529411764705882
0.7725490196078432 0.23529411764705882 0.058823529411764705
0.792156862745098 0.2549019607843137 0.0784313725490196
0.8156862745098039 0.2823529411764706 0.09803921568627451
0.8352941176470589 0.30196078431372547 0.10980392156862745
0.8627450980392157 0.3254901960784314 0.12549019607843137
0.8784313725490196 0.3333333333333333 0.13725490196078433
0.8980392156862745 0.34509803921568627 0.1450980392156863
0.9215686274509803 0.3568627450980392 0.14901960784313725
0.9372549019607843 0.3686274509803922 0.1607843137254902
0.9529411764705882 0.37254901960784315 0.1607843137254902
0.9725490196078431 0.3803921568627451 0.16862745098039217
0.984313725490196 0.3803921568627451 0.16862745098039217
0.047058823529411764 0.2 0.023529411764705882
0.07450980392156863 0.20392156862745098 0.027450980392156862
0.09803921568627451 0.20392156862745098 0.027450980392156862
0.11764705882352941 0.20392156862745098 0.027450980392156862
0.1411764705882353 0.20392156862745098 0.027450980392156862
0.1568627450980392 0.21176470588235294 0.03137254901960784
0.1843137254901961 0.21568627450980393 0.03137254901960784
0.20784313725490197 0.2196078431372549 0.03137254901960784
0.27450980392156865 0.24313725490196078 0.023529411764705882
0.3137254901960784 0.25098039215686274 0.027450980392156862
0.3568627450980392 0.25098039215686274 0.023529411764705882
0.40784313725490196 0.25098039215686274 0.023529411764705882
0.4588235294117647 0.24705882352941178 0.027450980392156862
0.5019607843137255 0.23921568627450981 0.023529411764705882
0.5411764705882353 0.23921568627450981 0.023529411764705882
0.5803921568627451 0.23529411764705882 0.023529411764705882
0.6196078431372549 0.22745098039215686 0.0196078431372549
0.6549019607843137 0.23529411764705882 0.023529411764705882
0.6862745098039216 0.23529411764705882 0.01568627450980392
0.7098039215686275 0.23921568627450981 0.023529411764705882
0.7450980392156863 0.25098039215686274 0.0392156862745098
0.7647058823529411 0.27450980392156865 0.054901960784313725
0.792156862745098 0.29411764705882354 0.07450980392156863
0.8117647058823529 0.3176470588235294 0.09411764705882353
0.8352941176470589 0.3411764705882353 0.10980392156862745
0.8549019607843137 0.3607843137254902 0.12549019607843137
0.8745098039215686 0.3764705882352941 0.13333333333333333
0.8980392156862745 0.38823529411764707 0.1450980392156863
0.9176470588235294 0.396078431372549 0.1450980392156863
0.9333333333333333 0.4 0.1568627450980392
0.9490196078431372 0.40784313725490196 0.1568627450980392
0.9686274509803922 0.4117647058823529 0.16470588235294117
0.984313725490196 0.4235294117647059 0.16862745098039217
0.050980392156862744 0.23529411764705882 0.03137254901960784
0.07450980392156863 0.23529411764705882 0.027450980392156862
0.10196078431372549 0.23529411764705882 0.027450980392156862
0.12549019607843137 0.23529411764705882 0.027450980392156862
0.1450980392156863 0.23921568627450981 0.03137254901960784
0.16470588235294117 0.23921568627450981 0.027450980392156862
0.1843137254901961 0.25098039215686274 0.03137254901960784
0.20784313725490197 0.25098039215686274 0.03137254901960784
0.23921568627450981 0.25098039215686274 0.027450980392156862
0.30980392156862746 0.29411764705882354 0.027450980392156862
0.35294117647058826 0.2901960784313726 0.023529411764705882
0.396078431372549 0.29411764705882354 0.0196078431372549
0.44313725490196076 0.29411764705882354 0.0196078431372549
0.49019607843137253 0.29411764705882354 0.0196078431372549
0.5372549019607843 0.28627450980392155 0.01568627450980392
0.5764705882352941 0.2823529411764706 0.01568627450980392
0.615686274509804 0.2823529411764706 0.01568627450980392
0.6509803921568628 0.2784313725490196 0.01568627450980392
0.6823529411764706 0.28627450980392155 0.01568627450980392
0.7137254901960784 0.2901960784313726 0.01568627450980392
0.7372549019607844 0.30196078431372547 0.0392156862745098
0.7607843137254902 0.3176470588235294 0.054901960784313725
0.788235294117647 0.3411764705882353 0.07058823529411765
0.8117647058823529 0.3686274509803922 0.09019607843137255
0.8274509803921568 0.3803921568627451 0.10196078431372549
0.8509803921568627 0.4 0.12156862745098039
0.8745098039215686 0.4196078431372549 0.13725490196078433
0.8941176470588236 0.4235294117647059 0.1450980392156863
0.9176470588235294 0.43529411764705883 0.1568627450980392
0.9333333333333333 0.4392156862745098 0.1568627450980392
0.9490196078431372 0.4470588235294118 0.1568627450980392
0.9686274509803922 0.4470588235294118 0.1607843137254902
0.984313725490196 0.4588235294117647 0.16862745098039217
0.054901960784313725 0.27450980392156865 0.027450980392156862
0.07450980392156863 0.27450980392156865 0.027450980392156862
0.10588235294117647 0.27450980392156865 0.03137254901960784
0.12941176470588237 0.27058823529411763 0.027450980392156862
0.14901960784313725 0.27450980392156865 0.027450980392156862
0.16470588235294117 0.27450980392156865 0.023529411764705882
0.1843137254901961 0.2784313725490196 0.027450980392156862
0.20784313725490197 0.2823529411764706 0.027450980392156862
0.23529411764705882 0.2901960784313726 0.027450980392156862
0.26666666666666666 0.2901960784313726 0.027450980392156862
0.34509803921568627 0.32941176470588235 0.027450980392156862
0.396078431372549 0.3333333333333333 0.0196078431372549
0.4470588235294118 0.33725490196078434 0.0196078431372549
0.48627450980392156 0.33725490196078434 0.0196078431372549
0.5333333333333333 0.33725490196078434 0.01568627450980392
0.5725490196078431 0.3333333333333333 0.011764705882352941
0.611764705882353 0.3333333333333333 0.01568627450980392
0.6470588235294118 0.3333333333333333 0.011764705882352941
0.6784313725490196 0.3333333333333333 0.011764705882352941
0.7019607843137254 0.3411764705882353 0.011764705882352941
0.7333333333333333 0.3568627450980392 0.0392156862745098
0.7568627450980392 0.3686274509803922 0.050980392156862744
0.7843137254901961 0.38823529411764707 0.06666666666666667
0.807843137254902 0.4117647058823529 0.09019607843137255
0.8274509803921568 0.4235294117647059 0.10588235294117647
0.8470588235294118 0.44313725490196076 0.12156862745098039
0.8705882352941177 0.4549019607843137 0.13333333333333333
0.8941176470588236 0.4745098039215686 0.1411764705882353
0.9137254901960784 0.47058823529411764 0.1450980392156863
0.9333333333333333 0.47843137254901963 0.1568627450980392
0.9490196078431372 0.48627450980392156 0.1607843137254902
0.9607843137254902 0.49019607843137253 0.16470588235294117
0.984313725490196 0.4980392156862745 0.17254901960784313
0.054901960784313725 0.30980392156862746 0.027450980392156862
0.07450980392156863 0.30980392156862746 0.03137254901960784
0.10196078431372549 0.3058823529411765 0.023529411764705882
0.12941176470588237 0.30980392156862746 0.03137254901960784
0.15294117647058825 0.30980392156862746 0.027450980392156862
0.16862745098039217 0.30980392156862746 0.027450980392156862
0.18823529411764706 0.3137254901960784 0.027450980392156862
0.21176470588235294 0.3176470588235294 0.027450980392156862
0.23529411764705882 0.3215686274509804 0.027450980392156862
0.2627450980392157 0.3215686274509804 0.027450980392156862
0.2980392156862745 0.3333333333333333 0.027450980392156862
0.3764705882352941 0.37254901960784315 0.0196078431372549
0.43529411764705883 0.3764705882352941 0.01568627450980392
0.48627450980392156 0.3843137254901961 0.01568627450980392
0.5294117647058824 0.3843137254901961 0.01568627450980392
0.5725490196078431 0.38823529411764707 0.011764705882352941
0.6078431372549019 0.3843137254901961 0.011764705882352941
0.6431372549019608 0.3843137254901961 0.011764705882352941
0.6784313725490196 0.38823529411764707 0.00784313725490196
0.7019607843137254 0.39215686274509803 0.01568627450980392
0.7294117647058823 0.4 0.03137254901960784
0.7529411764705882 0.41568627450980394 0.043137254901960784
0.7764705882352941 0.43137254901960786 0.06666666666666667
0.803921568627451 0.45098039215686275 0.09019607843137255
0.8235294117647058 0.4666666666666667 0.10196078431372549
0.8470588235294118 0.4745098039215686 0.12156862745098039
0.8705882352941177 0.49411764705882355 0.13333333333333333
0.8941176470588236 0.5058823529411764 0.1450980392156863
0.9098039215686274 0.5098039215686274 0.15294117647058825
0.9294117647058824 0.5137254901960784 0.15294117647058825
0.9490196078431372 0.5176470588235295 0.1607843137254902
0.9647058823529412 0.5254901960784314 0.16470588235294117
0.9803921568627451 0.5254901960784314 0.16862745098039217
0.054901960784313725 0.34901960784313724 0.027450980392156862
0.07450980392156863 0.34901960784313724 0.027450980392156862
0.10588235294117647 0.34901960784313724 0.027450980392156862
0.12941176470588237 0.34901960784313724 0.027450980392156862
0.14901960784313725 0.34901960784313724 0.027450980392156862
0.17254901960784313 0.34901960784313724 0.023529411764705882
0.19215686274509805 0.34901960784313724 0.023529411764705882
0.21176470588235294 0.3568627450980392 0.023529411764705882
0.23137254901960785 0.3607843137254902 0.023529411764705882
0.25882352941176473 0.36470588235294116 0.023529411764705882
0.28627450980392155 0.36470588235294116 0.023529411764705882
0.3254901960784314 0.36470588235294116 0.0196078431372549
0.41568627450980394 0.41568627450980394 0.01568627450980392
0.47843137254901963 0.4235294117647059 0.011764705882352941
0.5215686274509804 0.4235294117647059 0.00784313725490196
0.5607843137254902 0.42745098039215684 0.00392156862745098
0.6 0.42745098039215684 0.00784313725490196
0.6392156862745098 0.43529411764705883 0.00784313725490196
0.6705882352941176 0.43529411764705883 0.00784313725490196
0.6941176470588235 0.44313725490196076 0.011764705882352941
0.7215686274509804 0.45098039215686275 0.027450980392156862
0.7529411764705882 0.4666666666666667 0.047058823529411764
0.7764705882352941 0.47843137254901963 0.06666666666666667
0.803921568627451 0.4980392156862745 0.09019607843137255
0.8235294117647058 0.5098039215686274 0.10588235294117647
0.8470588235294118 0.5176470588235295 0.12156862745098039
0.8666666666666667 0.5294117647058824 0.13333333333333333
0.8941176470588236 0.5372549019607843 0.1411764705882353
0.9137254901960784 0.5411764705882353 0.15294117647058825
0.9294117647058824 0.5450980392156862 0.1568627450980392
0.9490196078431372 0.5450980392156862 0.1607843137254902
0.9607843137254902 0.5490196078431373 0.1607843137254902
0.984313725490196 0.5607843137254902 0.16862745098039217
0.054901960784313725 0.38823529411764707 0.027450980392156862
0.07450980392156863 0.38823529411764707 0.027450980392156862
0.10980392156862745 0.38823529411764707 0.027450980392156862
0.12941176470588237 0.3843137254901961 0.027450980392156862
0.1607843137254902 0.38823529411764707 0.023529411764705882
0.1803921568627451 0.39215686274509803 0.027450980392156862
0.19607843137254902 0.39215686274509803 0.023529411764705882
0.2235294117647059 0.396078431372549 0.027450980392156862
0.23921568627450981 0.4 0.023529411764705882
0.25882352941176473 0.396078431372549 0.0196078431372549
0.28627450980392155 0.403921568627451 0.0196078431372549
