cubelut/FILM-KGT_KODAK_GT24_PRO_LUT.cube
TITLE "Photo Curves LUT"
LUT_3D_SIZE 33
0.0 0.0 0.0
0.00784313725490196 0.0 0.0
0.0196078431372549 0.0 0.0
0.03529411764705882 0.0 0.0
0.050980392156862744 0.0 0.0
0.0784313725490196 0.00392156862745098 0.0
0.10588235294117647 0.00392156862745098 0.0
0.1411764705882353 0.00392156862745098 0.0
0.1803921568627451 0.00392156862745098 0.0
0.21568627450980393 0.00784313725490196 0.0
0.2549019607843137 0.00784313725490196 0.0
0.2980392156862745 0.00784313725490196 0.0
0.3411764705882353 0.00784313725490196 0.0
0.38823529411764707 0.00784313725490196 0.0
0.43529411764705883 0.00784313725490196 0.0
0.49019607843137253 0.00784313725490196 0.0
0.5333333333333333 0.00784313725490196 0.0
0.5843137254901961 0.00784313725490196 0.0
0.6313725490196078 0.00784313725490196 0.0
0.6784313725490196 0.00784313725490196 0.0
0.7176470588235294 0.00784313725490196 0.0
0.7568627450980392 0.00784313725490196 0.0
0.792156862745098 0.011764705882352941 0.0
0.8274509803921568 0.011764705882352941 0.0
0.8549019607843137 0.00784313725490196 0.0
0.8823529411764706 0.00784313725490196 0.0
0.9019607843137255 0.00784313725490196 0.0
0.9254901960784314 0.00784313725490196 0.0
0.9411764705882353 0.011764705882352941 0.0
0.9529411764705882 0.00784313725490196 0.0
0.9686274509803922 0.00784313725490196 0.0
0.9803921568627451 0.011764705882352941 0.0
1.0 0.00784313725490196 0.0
0.0 0.00784313725490196 0.0
0.00784313725490196 0.00784313725490196 0.0
0.0196078431372549 0.00784313725490196 0.0
0.03529411764705882 0.011764705882352941 0.0
0.050980392156862744 0.00784313725490196 0.0
0.0784313725490196 0.011764705882352941 0.0
0.10980392156862745 0.01568627450980392 0.0
0.1411764705882353 0.01568627450980392 0.0
0.1803921568627451 0.01568627450980392 0.0
0.2196078431372549 0.01568627450980392 0.0
0.25098039215686274 0.0196078431372549 0.0
0.2980392156862745 0.01568627450980392 0.0
0.3411764705882353 0.0196078431372549 0.0
0.38823529411764707 0.0196078431372549 0.0
0.43529411764705883 0.0196078431372549 0.0
0.49019607843137253 0.01568627450980392 0.0
0.5372549019607843 0.01568627450980392 0.0
0.5843137254901961 0.01568627450980392 0.0
0.6313725490196078 0.01568627450980392 0.0
0.6784313725490196 0.0196078431372549 0.0
0.7176470588235294 0.0196078431372549 0.0
0.7607843137254902 0.0196078431372549 0.0
0.792156862745098 0.0196078431372549 0.0
0.8274509803921568 0.0196078431372549 0.0
0.8549019607843137 0.0196078431372549 0.0
0.8823529411764706 0.0196078431372549 0.0
0.9019607843137255 0.0196078431372549 0.0
0.9254901960784314 0.0196078431372549 0.0
0.9372549019607843 0.01568627450980392 0.0
0.9568627450980393 0.01568627450980392 0.0
0.9686274509803922 0.0196078431372549 0.0
0.9803921568627451 0.0196078431372549 0.0
0.996078431372549 0.0196078431372549 0.0
0.0 0.023529411764705882 0.0
0.00784313725490196 0.023529411764705882 0.0
0.0196078431372549 0.0196078431372549 0.0
0.03529411764705882 0.0196078431372549 0.0
0.050980392156862744 0.023529411764705882 0.0
0.0784313725490196 0.023529411764705882 0.0
0.10588235294117647 0.023529411764705882 0.0
0.1411764705882353 0.023529411764705882 0.0
0.1803921568627451 0.027450980392156862 0.0
0.21568627450980393 0.027450980392156862 0.0
0.2549019607843137 0.027450980392156862 0.0
0.2980392156862745 0.03137254901960784 0.0
0.3411764705882353 0.03137254901960784 0.0
0.38823529411764707 0.03137254901960784 0.0
0.43137254901960786 0.027450980392156862 0.0
0.49019607843137253 0.027450980392156862 0.0
0.5372549019607843 0.027450980392156862 0.0
0.5843137254901961 0.027450980392156862 0.0
0.6274509803921569 0.027450980392156862 0.0
0.6823529411764706 0.03137254901960784 0.0
0.7137254901960784 0.027450980392156862 0.0
0.7607843137254902 0.03137254901960784 0.0
0.796078431372549 0.03137254901960784 0.0
0.8274509803921568 0.027450980392156862 0.0
0.8549019607843137 0.03137254901960784 0.0
0.8823529411764706 0.03137254901960784 0.0
0.9019607843137255 0.03137254901960784 0.0
0.9254901960784314 0.027450980392156862 0.0
0.9372549019607843 0.027450980392156862 0.0
0.9568627450980393 0.027450980392156862 0.0
0.9686274509803922 0.027450980392156862 0.0
0.984313725490196 0.03137254901960784 0.0
1.0 0.03137254901960784 0.0
0.0 0.03529411764705882 0.0
0.00784313725490196 0.03137254901960784 0.0
0.0196078431372549 0.03529411764705882 0.0
0.03529411764705882 0.03529411764705882 0.0
0.050980392156862744 0.03137254901960784 0.0
0.0784313725490196 0.03529411764705882 0.0
0.10588235294117647 0.03529411764705882 0.0
0.1411764705882353 0.043137254901960784 0.0
0.1803921568627451 0.043137254901960784 0.0
0.2196078431372549 0.043137254901960784 0.0
0.2549019607843137 0.047058823529411764 0.0
0.29411764705882354 0.047058823529411764 0.0
0.3411764705882353 0.047058823529411764 0.0
0.38823529411764707 0.050980392156862744 0.0
0.43529411764705883 0.047058823529411764 0.0
0.49019607843137253 0.043137254901960784 0.0
0.5333333333333333 0.043137254901960784 0.0
0.5843137254901961 0.0392156862745098 0.0
0.6313725490196078 0.047058823529411764 0.0
0.6784313725490196 0.047058823529411764 0.0
0.7176470588235294 0.047058823529411764 0.0
0.7607843137254902 0.050980392156862744 0.0
0.796078431372549 0.050980392156862744 0.0
0.8274509803921568 0.047058823529411764 0.0
0.8509803921568627 0.043137254901960784 0.0
0.8823529411764706 0.047058823529411764 0.0
0.9019607843137255 0.047058823529411764 0.0
0.9254901960784314 0.047058823529411764 0.0
0.9372549019607843 0.047058823529411764 0.0
0.9568627450980393 0.047058823529411764 0.0
0.9686274509803922 0.047058823529411764 0.0
0.9803921568627451 0.047058823529411764 0.0
1.0 0.050980392156862744 0.0
0.0 0.054901960784313725 0.00392156862745098
0.00392156862745098 0.050980392156862744 0.0
0.01568627450980392 0.050980392156862744 0.0
0.03137254901960784 0.054901960784313725 0.0
0.054901960784313725 0.050980392156862744 0.0
0.07450980392156863 0.050980392156862744 0.0
0.10980392156862745 0.050980392156862744 0.0
0.1411764705882353 0.054901960784313725 0.0
0.1803921568627451 0.058823529411764705 0.0
0.2196078431372549 0.06274509803921569 0.0
0.2549019607843137 0.06274509803921569 0.0
0.2980392156862745 0.06666666666666667 0.0
0.34509803921568627 0.06666666666666667 0.0
0.3843137254901961 0.06666666666666667 0.0
0.43529411764705883 0.06666666666666667 0.0
0.49019607843137253 0.06274509803921569 0.0
0.5372549019607843 0.06274509803921569 0.0
0.5803921568627451 0.06274509803921569 0.0
0.6313725490196078 0.06666666666666667 0.0
0.6784313725490196 0.06666666666666667 0.0
0.7176470588235294 0.07058823529411765 0.0
0.7568627450980392 0.06666666666666667 0.0
0.792156862745098 0.06666666666666667 0.0
0.8313725490196079 0.06666666666666667 0.0
0.8549019607843137 0.06666666666666667 0.0
0.8823529411764706 0.06666666666666667 0.0
0.9019607843137255 0.06666666666666667 0.0
0.9254901960784314 0.07058823529411765 0.0
0.9411764705882353 0.06666666666666667 0.0
0.9529411764705882 0.06274509803921569 0.0
0.9686274509803922 0.06666666666666667 0.0
0.9803921568627451 0.06666666666666667 0.0
1.0 0.07058823529411765 0.00392156862745098
0.0 0.0784313725490196 0.00392156862745098
0.0 0.0784313725490196 0.0
0.01568627450980392 0.08235294117647059 0.0
0.03137254901960784 0.0784313725490196 0.0
0.047058823529411764 0.0784313725490196 0.0
0.0784313725490196 0.0784313725490196 0.0
0.10980392156862745 0.08235294117647059 0.0
0.1411764705882353 0.0784313725490196 0.0
0.17647058823529413 0.08235294117647059 0.0
0.2196078431372549 0.08627450980392157 0.0
0.25098039215686274 0.09019607843137255 0.0
0.2980392156862745 0.09019607843137255 0.0
0.34509803921568627 0.09411764705882353 0.0
0.38823529411764707 0.09803921568627451 0.0
0.43529411764705883 0.09019607843137255 0.0
0.48627450980392156 0.09019607843137255 0.0
0.5372549019607843 0.09019607843137255 0.0
0.5843137254901961 0.09019607843137255 0.0
0.6313725490196078 0.09411764705882353 0.0
0.6784313725490196 0.09019607843137255 0.0
0.7215686274509804 0.09411764705882353 0.0
0.7568627450980392 0.09411764705882353 0.0
0.796078431372549 0.09411764705882353 0.0
0.8313725490196079 0.09411764705882353 0.0
0.8549019607843137 0.09411764705882353 0.0
0.8823529411764706 0.09019607843137255 0.0
0.9019607843137255 0.09019607843137255 0.0
0.9215686274509803 0.09019607843137255 0.0
0.9372549019607843 0.09019607843137255 0.0
0.9568627450980393 0.09411764705882353 0.0
0.9647058823529412 0.09019607843137255 0.0
0.9803921568627451 0.09411764705882353 0.0
0.996078431372549 0.09411764705882353 0.0
0.0 0.10588235294117647 0.00392156862745098
0.0 0.10588235294117647 0.0
0.011764705882352941 0.10196078431372549 0.0
0.023529411764705882 0.10588235294117647 0.0
0.047058823529411764 0.10588235294117647 0.0
0.07058823529411765 0.10588235294117647 0.0
0.10588235294117647 0.10196078431372549 0.0
0.1411764705882353 0.10588235294117647 0.0
0.17254901960784313 0.10980392156862745 0.0
0.21568627450980393 0.11764705882352941 0.0
0.2549019607843137 0.11764705882352941 0.0
0.2980392156862745 0.12156862745098039 0.0
0.3411764705882353 0.12156862745098039 0.0
0.38823529411764707 0.11764705882352941 0.0
0.43137254901960786 0.11764705882352941 0.0
0.48627450980392156 0.11764705882352941 0.0
0.5333333333333333 0.11764705882352941 0.0
0.5843137254901961 0.11764705882352941 0.0
0.6274509803921569 0.11764705882352941 0.0
0.6784313725490196 0.12156862745098039 0.0
0.7215686274509804 0.12156862745098039 0.0
0.7607843137254902 0.12156862745098039 0.0
0.796078431372549 0.12549019607843137 0.0
0.8313725490196079 0.12549019607843137 0.0
0.8549019607843137 0.12156862745098039 0.0
0.8784313725490196 0.12156862745098039 0.0
0.9019607843137255 0.12156862745098039 0.0
0.9215686274509803 0.12156862745098039 0.0
0.9372549019607843 0.12156862745098039 0.0
0.9568627450980393 0.12156862745098039 0.0
0.9686274509803922 0.12156862745098039 0.0
0.9803921568627451 0.12156862745098039 0.0
0.996078431372549 0.12156862745098039 0.0
0.0 0.1411764705882353 0.00392156862745098
0.0 0.1411764705882353 0.0
0.011764705882352941 0.1411764705882353 0.0
0.023529411764705882 0.1450980392156863 0.0
0.043137254901960784 0.1411764705882353 0.0
0.07058823529411765 0.1411764705882353 0.0
0.10196078431372549 0.1411764705882353 0.0
0.1411764705882353 0.1411764705882353 0.0
0.17647058823529413 0.1411764705882353 0.0
0.21568627450980393 0.1450980392156863 0.0
0.2549019607843137 0.1450980392156863 0.0
0.2980392156862745 0.14901960784313725 0.0
0.34509803921568627 0.15294117647058825 0.0
0.38823529411764707 0.14901960784313725 0.0
0.43529411764705883 0.14901960784313725 0.0
0.48627450980392156 0.1450980392156863 0.0
0.5372549019607843 0.14901960784313725 0.0
0.5882352941176471 0.15294117647058825 0.0
0.6313725490196078 0.14901960784313725 0.0
0.6784313725490196 0.14901960784313725 0.0
0.7176470588235294 0.15294117647058825 0.0
0.7607843137254902 0.15294117647058825 0.0
0.792156862745098 0.15294117647058825 0.0
0.8274509803921568 0.15294117647058825 0.0
0.8549019607843137 0.15294117647058825 0.0
0.8823529411764706 0.15294117647058825 0.0
0.9019607843137255 0.1568627450980392 0.0
0.9254901960784314 0.15294117647058825 0.0
0.9411764705882353 0.14901960784313725 0.0
0.9568627450980393 0.15294117647058825 0.0
0.9686274509803922 0.1568627450980392 0.0
0.984313725490196 0.1568627450980392 0.0
1.0 0.1568627450980392 0.00392156862745098
0.0 0.17254901960784313 0.00784313725490196
0.0 0.17254901960784313 0.0
0.00784313725490196 0.17254901960784313 0.0
0.0196078431372549 0.17254901960784313 0.0
0.0392156862745098 0.17254901960784313 0.0
0.06274509803921569 0.17647058823529413 0.0
0.09411764705882353 0.17647058823529413 0.0
0.13333333333333333 0.17254901960784313 0.0
0.17254901960784313 0.17647058823529413 0.0
0.21568627450980393 0.1803921568627451 0.0
0.2549019607843137 0.1843137254901961 0.0
0.2980392156862745 0.1843137254901961 0.0
0.3411764705882353 0.1843137254901961 0.0
0.38823529411764707 0.1843137254901961 0.0
0.43137254901960786 0.1803921568627451 0.0
0.49019607843137253 0.17647058823529413 0.0
0.5372549019607843 0.17647058823529413 0.0
0.5882352941176471 0.1803921568627451 0.0
0.6313725490196078 0.1803921568627451 0.0
0.6784313725490196 0.1843137254901961 0.0
0.7137254901960784 0.1843137254901961 0.0
0.7568627450980392 0.1843137254901961 0.0
0.792156862745098 0.18823529411764706 0.0
0.8274509803921568 0.18823529411764706 0.0
0.8549019607843137 0.18823529411764706 0.0
0.8823529411764706 0.18823529411764706 0.0
0.9058823529411765 0.1843137254901961 0.0
0.9254901960784314 0.18823529411764706 0.0
0.9411764705882353 0.18823529411764706 0.00392156862745098
0.9568627450980393 0.1843137254901961 0.0
0.9686274509803922 0.18823529411764706 0.0
0.9803921568627451 0.18823529411764706 0.0
1.0 0.18823529411764706 0.0
0.0 0.21176470588235294 0.00784313725490196
0.0 0.20784313725490197 0.0
0.00392156862745098 0.21176470588235294 0.0
0.01568627450980392 0.20784313725490197 0.0
0.03137254901960784 0.21176470588235294 0.0
0.054901960784313725 0.21176470588235294 0.0
0.09019607843137255 0.21176470588235294 0.0
0.12549019607843137 0.20784313725490197 0.0
0.16470588235294117 0.21176470588235294 0.0
0.20392156862745098 0.21176470588235294 0.0
0.25098039215686274 0.21568627450980393 0.0
0.2980392156862745 0.2196078431372549 0.0
0.34509803921568627 0.21568627450980393 0.0
0.38823529411764707 0.2196078431372549 0.0
0.43529411764705883 0.21568627450980393 0.0
0.49019607843137253 0.21176470588235294 0.0
0.5372549019607843 0.21176470588235294 0.0
0.5882352941176471 0.21176470588235294 0.0
0.6352941176470588 0.2196078431372549 0.0
0.6784313725490196 0.21176470588235294 0.0
0.7176470588235294 0.21568627450980393 0.0
0.7607843137254902 0.21568627450980393 0.0
0.796078431372549 0.2196078431372549 0.0
0.8274509803921568 0.2196078431372549 0.0
0.8549019607843137 0.2196078431372549 0.0
0.8823529411764706 0.2196078431372549 0.0
0.9058823529411765 0.2196078431372549 0.00392156862745098
0.9254901960784314 0.2196078431372549 0.0
0.9411764705882353 0.2196078431372549 0.00392156862745098
0.9568627450980393 0.2196078431372549 0.0
0.9686274509803922 0.2196078431372549 0.0
0.9803921568627451 0.2196078431372549 0.0
1.0 0.2196078431372549 0.0
0.0 0.24705882352941178 0.011764705882352941
0.0 0.24705882352941178 0.0
0.00392156862745098 0.24705882352941178 0.0
0.01568627450980392 0.24313725490196078 0.0
0.027450980392156862 0.24705882352941178 0.0
0.047058823529411764 0.24705882352941178 0.0
0.08235294117647059 0.24705882352941178 0.0
0.11764705882352941 0.24705882352941178 0.0
0.1607843137254902 0.24705882352941178 0.0
0.20392156862745098 0.24313725490196078 0.0
0.24705882352941178 0.24705882352941178 0.0
0.2980392156862745 0.25882352941176473 0.0
0.34509803921568627 0.25882352941176473 0.0
0.38823529411764707 0.2549019607843137 0.0
0.43529411764705883 0.24705882352941178 0.0
0.49019607843137253 0.24313725490196078 0.0
0.5372549019607843 0.24705882352941178 0.0
0.5882352941176471 0.24705882352941178 0.0
0.6313725490196078 0.24705882352941178 0.0
0.6784313725490196 0.24705882352941178 0.0
0.7176470588235294 0.24705882352941178 0.0
0.7607843137254902 0.25098039215686274 0.0
0.796078431372549 0.2549019607843137 0.0
0.8313725490196079 0.2549019607843137 0.0
0.8549019607843137 0.25098039215686274 0.0
0.8823529411764706 0.2549019607843137 0.0
0.9019607843137255 0.25098039215686274 0.0
0.9254901960784314 0.25098039215686274 0.0
0.9372549019607843 0.2549019607843137 0.0
0.9568627450980393 0.25098039215686274 0.0
0.9686274509803922 0.25882352941176473 0.0
0.984313725490196 0.2549019607843137 0.0
0.996078431372549 0.25882352941176473 0.0
0.0 0.28627450980392155 0.011764705882352941
0.0 0.28627450980392155 0.00392156862745098
0.00392156862745098 0.28627450980392155 0.0
0.01568627450980392 0.28627450980392155 0.0
0.027450980392156862 0.28627450980392155 0.0
0.047058823529411764 0.2823529411764706 0.0
0.07450980392156863 0.28627450980392155 0.0
0.10980392156862745 0.28627450980392155 0.0
0.1568627450980392 0.28627450980392155 0.0
0.2 0.28627450980392155 0.0
0.24313725490196078 0.28627450980392155 0.0
0.28627450980392155 0.28627450980392155 0.0
0.3411764705882353 0.29411764705882354 0.0
0.38823529411764707 0.29411764705882354 0.0
0.43529411764705883 0.28627450980392155 0.0
0.49019607843137253 0.2823529411764706 0.0
0.5333333333333333 0.2823529411764706 0.0
0.5843137254901961 0.2823529411764706 0.0
0.6313725490196078 0.2823529411764706 0.0
0.6784313725490196 0.2823529411764706 0.0
0.7176470588235294 0.28627450980392155 0.0
0.7607843137254902 0.2901960784313726 0.0
0.792156862745098 0.28627450980392155 0.0
0.8274509803921568 0.28627450980392155 0.0
0.8549019607843137 0.28627450980392155 0.0
0.8784313725490196 0.28627450980392155 0.0
0.9058823529411765 0.2901960784313726 0.0
0.9254901960784314 0.2901960784313726 0.0
0.9372549019607843 0.28627450980392155 0.0
0.9568627450980393 0.2901960784313726 0.0
0.9686274509803922 0.2901960784313726 0.0
0.9803921568627451 0.28627450980392155 0.0
1.0 0.2901960784313726 0.0
0.0 0.32941176470588235 0.011764705882352941
0.0 0.3333333333333333 0.00392156862745098
0.0 0.3333333333333333 0.0
0.011764705882352941 0.3333333333333333 0.0
0.023529411764705882 0.32941176470588235 0.0
0.043137254901960784 0.3333333333333333 0.0
0.06666666666666667 0.3333333333333333 0.0
0.10588235294117647 0.3333333333333333 0.0
0.15294117647058825 0.3333333333333333 0.0
0.19607843137254902 0.3333333333333333 0.0
0.23921568627450981 0.3333333333333333 0.0
0.28627450980392155 0.3333333333333333 0.0
0.32941176470588235 0.3333333333333333 0.0
0.39215686274509803 0.33725490196078434 0.0
0.43137254901960786 0.32941176470588235 0.0
0.49019607843137253 0.3254901960784314 0.0
0.5372549019607843 0.3215686274509804 0.0
0.5843137254901961 0.3254901960784314 0.0
0.6313725490196078 0.3254901960784314 0.0
0.6823529411764706 0.3254901960784314 0.0
0.7176470588235294 0.3254901960784314 0.0
0.7568627450980392 0.3254901960784314 0.0
0.796078431372549 0.3254901960784314 0.0
0.8313725490196079 0.3254901960784314 0.0
0.8549019607843137 0.3254901960784314 0.0
0.8823529411764706 0.3215686274509804 0.0
0.9019607843137255 0.3215686274509804 0.0
0.9215686274509803 0.3215686274509804 0.0
0.9411764705882353 0.3215686274509804 0.0
0.9568627450980393 0.3215686274509804 0.0
0.9686274509803922 0.3254901960784314 0.0
0.9803921568627451 0.32941176470588235 0.0
0.996078431372549 0.3333333333333333 0.0
0.0 0.3764705882352941 0.01568627450980392
0.0 0.3764705882352941 0.00392156862745098
0.0 0.3764705882352941 0.0
0.011764705882352941 0.3764705882352941 0.0
0.023529411764705882 0.3764705882352941 0.0
0.043137254901960784 0.3764705882352941 0.0
0.06666666666666667 0.3764705882352941 0.0
0.10588235294117647 0.3803921568627451 0.0
0.1450980392156863 0.3764705882352941 0.0
0.19215686274509805 0.3764705882352941 0.0
0.23529411764705882 0.3803921568627451 0.0
0.28627450980392155 0.3764705882352941 0.0
0.33725490196078434 0.3764705882352941 0.0
0.3803921568627451 0.37254901960784315 0.0
0.43529411764705883 0.3764705882352941 0.0
0.48627450980392156 0.36470588235294116 0.0
0.5411764705882353 0.36470588235294116 0.0
0.5882352941176471 0.3686274509803922 0.00392156862745098
0.6313725490196078 0.36470588235294116 0.0
0.6784313725490196 0.36470588235294116 0.0
0.7176470588235294 0.36470588235294116 0.0
0.7607843137254902 0.3686274509803922 0.00392156862745098
0.792156862745098 0.36470588235294116 0.0
0.8274509803921568 0.36470588235294116 0.0
0.8549019607843137 0.36470588235294116 0.0
0.8784313725490196 0.3607843137254902 0.0
0.9019607843137255 0.3607843137254902 0.0
0.9215686274509803 0.36470588235294116 0.0
0.9372549019607843 0.3607843137254902 0.0
0.9568627450980393 0.36470588235294116 0.0
0.9686274509803922 0.3686274509803922 0.00392156862745098
0.984313725490196 0.3686274509803922 0.0
1.0 0.37254901960784315 0.0
0.0 0.4235294117647059 0.01568627450980392
0.0 0.4235294117647059 0.00392156862745098
0.0 0.4235294117647059 0.0
0.01568627450980392 0.4235294117647059 0.0
0.023529411764705882 0.4235294117647059 0.0
0.043137254901960784 0.4235294117647059 0.0
0.06666666666666667 0.4235294117647059 0.0
0.10196078431372549 0.4235294117647059 0.0
0.1450980392156863 0.42745098039215684 0.0
0.18823529411764706 0.4235294117647059 0.0
0.23529411764705882 0.42745098039215684 0.0
0.2823529411764706 0.4235294117647059 0.0
0.33725490196078434 0.4235294117647059 0.0
0.38823529411764707 0.4235294117647059 0.0
0.43529411764705883 0.4235294117647059 0.0
0.49411764705882355 0.41568627450980394 0.00392156862745098
0.5372549019607843 0.4117647058823529 0.0
0.5882352941176471 0.4117647058823529 0.0
0.6313725490196078 0.4117647058823529 0.0
0.6823529411764706 0.4117647058823529 0.0
0.7176470588235294 0.4117647058823529 0.0
0.7607843137254902 0.4117647058823529 0.0
0.796078431372549 0.40784313725490196 0.0
0.8274509803921568 0.40784313725490196 0.0
0.8549019607843137 0.40784313725490196 0.0
0.8784313725490196 0.403921568627451 0.0
0.9019607843137255 0.40784313725490196 0.0
0.9254901960784314 0.40784313725490196 0.0
0.9372549019607843 0.40784313725490196 0.0
0.9568627450980393 0.40784313725490196 0.0
0.9647058823529412 0.40784313725490196 0.0
0.9803921568627451 0.40784313725490196 0.0
0.996078431372549 0.4117647058823529 0.0
0.0 0.4745098039215686 0.01568627450980392
0.0 0.4745098039215686 0.00784313725490196
0.0 0.4745098039215686 0.0
0.011764705882352941 0.47058823529411764 0.0
0.027450980392156862 0.47843137254901963 0.0
0.043137254901960784 0.47843137254901963 0.0
0.07058823529411765 0.4745098039215686 0.0
0.10196078431372549 0.4745098039215686 0.0
0.1411764705882353 0.4745098039215686 0.0
0.1843137254901961 0.4745098039215686 0.0
0.23529411764705882 0.4745098039215686 0.0
0.2823529411764706 0.4745098039215686 0.00392156862745098
0.33725490196078434 0.4745098039215686 0.0
0.38823529411764707 0.4745098039215686 0.0
0.4392156862745098 0.4745098039215686 0.0
0.49019607843137253 0.47058823529411764 0.0
0.5372549019607843 0.4627450980392157 0.0
0.5843137254901961 0.4627450980392157 0.0
0.6313725490196078 0.4627450980392157 0.00392156862745098
0.6784313725490196 0.4627450980392157 0.0
0.7176470588235294 0.4627450980392157 0.0
0.7568627450980392 0.4588235294117647 0.0
0.796078431372549 0.4588235294117647 0.0
0.8274509803921568 0.4588235294117647 0.0
0.8549019607843137 0.45098039215686275 0.0
0.8823529411764706 0.45098039215686275 0.0
0.9058823529411765 0.45098039215686275 0.0
0.9215686274509803 0.45098039215686275 0.0
0.9411764705882353 0.45098039215686275 0.0
0.9529411764705882 0.45098039215686275 0.0
0.9647058823529412 0.45098039215686275 0.0
0.9803921568627451 0.4470588235294118 0.0
0.996078431372549 0.4549019607843137 0.0
0.0 0.5215686274509804 0.01568627450980392
0.0 0.5254901960784314 0.00392156862745098
0.00392156862745098 0.5254901960784314 0.0
0.01568627450980392 0.5254901960784314 0.0
0.023529411764705882 0.5215686274509804 0.0
0.043137254901960784 0.5215686274509804 0.0
0.06666666666666667 0.5215686274509804 0.0
0.09803921568627451 0.5215686274509804 0.0
0.13725490196078433 0.5215686274509804 0.0
0.1803921568627451 0.5215686274509804 0.0
0.23137254901960785 0.5215686274509804 0.0
0.2823529411764706 0.5254901960784314 0.0
0.32941176470588235 0.5215686274509804 0.0
0.38823529411764707 0.5254901960784314 0.0
0.44313725490196076 0.5254901960784314 0.0
0.4980392156862745 0.5215686274509804 0.0
0.5372549019607843 0.5137254901960784 0.0
0.5843137254901961 0.5098039215686274 0.0
0.6274509803921569 0.5058823529411764 0.0
0.6823529411764706 0.5137254901960784 0.0
0.7176470588235294 0.5019607843137255 0.0
0.7607843137254902 0.5058823529411764 0.0
0.792156862745098 0.5019607843137255 0.0
0.8274509803921568 0.4980392156862745 0.0
0.8509803921568627 0.4980392156862745 0.0
0.8784313725490196 0.4980392156862745 0.0
0.8980392156862745 0.4980392156862745 0.0
0.9215686274509803 0.4980392156862745 0.0
0.9372549019607843 0.49411764705882355 0.0
0.9529411764705882 0.4980392156862745 0.0
0.9647058823529412 0.4980392156862745 0.0
0.9764705882352941 0.4980392156862745 0.0
0.996078431372549 0.49411764705882355 0.0
0.0 0.5764705882352941 0.01568627450980392
