cubelut/FILM-KSU_KONICA_SUPER_100_LUT.cube
TITLE "Photo Curves LUT"
LUT_3D_SIZE 5
0.1411764705882353 0.08627450980392157 0.0784313725490196
0.24313725490196078 0.09411764705882353 0.09411764705882353
0.5450980392156862 0.11372549019607843 0.12549019607843137
0.8705882352941177 0.10196078431372549 0.11764705882352941
1.0 0.09803921568627451 0.11764705882352941
0.17254901960784313 0.20784313725490197 0.09411764705882353
0.21568627450980393 0.17254901960784313 0.10196078431372549
0.5215686274509804 0.18823529411764706 0.11372549019607843
0.8549019607843137 0.20392156862745098 0.09411764705882353
1.0 0.23137254901960785 0.0784313725490196
0.16862745098039217 0.4588235294117647 0.08627450980392157
0.3137254901960784 0.4588235294117647 0.08627450980392157
0.49411764705882355 0.37254901960784315 0.09019607843137255
0.807843137254902 0.40784313725490196 0.047058823529411764
0.9490196078431372 0.4549019607843137 0.043137254901960784
0.12156862745098039 0.7176470588235294 0.0392156862745098
0.3254901960784314 0.7137254901960784 0.023529411764705882
0.6313725490196078 0.6901960784313725 0.01568627450980392
0.7764705882352941 0.6 0.01568627450980392
0.9254901960784314 0.6862745098039216 0.043137254901960784
0.09803921568627451 0.9176470588235294 0.0
0.3803921568627451 0.9098039215686274 0.00392156862745098
0.7058823529411765 0.8980392156862745 0.027450980392156862
0.8745098039215686 0.8941176470588236 0.0392156862745098
0.9176470588235294 0.8666666666666667 0.050980392156862744
0.1568627450980392 0.10588235294117647 0.27058823529411763
0.2235294117647059 0.09803921568627451 0.2549019607843137
0.5490196078431373 0.11372549019607843 0.29411764705882354
0.8705882352941177 0.09803921568627451 0.29411764705882354
1.0 0.09019607843137255 0.3137254901960784
0.1568627450980392 0.17254901960784313 0.13725490196078433
0.23529411764705882 0.22745098039215686 0.21568627450980393
0.5568627450980392 0.23137254901960785 0.24705882352941178
0.8745098039215686 0.21568627450980393 0.23529411764705882
0.996078431372549 0.22745098039215686 0.25098039215686274
0.16470588235294117 0.4117647058823529 0.10588235294117647
0.2549019607843137 0.4823529411764706 0.1843137254901961
0.5176470588235295 0.4196078431372549 0.2
0.8235294117647058 0.4196078431372549 0.17647058823529413
0.9490196078431372 0.44313725490196076 0.19215686274509805
0.10980392156862745 0.6784313725490196 0.043137254901960784
0.23137254901960785 0.7333333333333333 0.11764705882352941
0.6039215686274509 0.7215686274509804 0.16470588235294117
0.803921568627451 0.6509803921568628 0.17647058823529413
0.9254901960784314 0.7137254901960784 0.21568627450980393
0.06274509803921569 0.9019607843137255 0.0
0.2823529411764706 0.9176470588235294 0.11764705882352941
0.6705882352941176 0.9098039215686274 0.1803921568627451
0.8784313725490196 0.9098039215686274 0.2235294117647059
0.9254901960784314 0.8823529411764706 0.23529411764705882
0.17254901960784313 0.11764705882352941 0.5176470588235295
0.21176470588235294 0.10980392156862745 0.5647058823529412
0.48627450980392156 0.10980392156862745 0.5137254901960784
0.8784313725490196 0.08627450980392157 0.5529411764705883
1.0 0.08235294117647059 0.5686274509803921
0.16862745098039217 0.21176470588235294 0.3607843137254902
0.22745098039215686 0.25098039215686274 0.49411764705882355
0.5254901960784314 0.22745098039215686 0.48627450980392156
0.8705882352941177 0.2 0.5058823529411764
0.9882352941176471 0.2196078431372549 0.5058823529411764
0.16470588235294117 0.36470588235294116 0.27450980392156865
0.1843137254901961 0.4392156862745098 0.3607843137254902
0.5333333333333333 0.47058823529411764 0.43529411764705883
0.8274509803921568 0.5137254901960784 0.4980392156862745
0.9490196078431372 0.49411764705882355 0.4823529411764706
0.12156862745098039 0.615686274509804 0.16470588235294117
0.12941176470588237 0.6980392156862745 0.20392156862745098
0.6196078431372549 0.7411764705882353 0.4549019607843137
0.8196078431372549 0.7176470588235294 0.5019607843137255
0.9333333333333333 0.7529411764705882 0.48627450980392156
0.058823529411764705 0.8705882352941177 0.0784313725490196
0.09411764705882353 0.9098039215686274 0.12941176470588237
0.6235294117647059 0.9176470588235294 0.40784313725490196
0.8784313725490196 0.9215686274509803 0.49019607843137253
0.9333333333333333 0.9058823529411765 0.5058823529411764
0.16470588235294117 0.11764705882352941 0.8117647058823529
0.21176470588235294 0.10588235294117647 0.9098039215686274
0.5450980392156862 0.10196078431372549 0.8901960784313725
0.8470588235294118 0.07450980392156863 0.8274509803921568
1.0 0.06666666666666667 0.8941176470588236
0.16862745098039217 0.21568627450980393 0.6235294117647059
0.20784313725490197 0.23529411764705882 0.8196078431372549
0.5176470588235295 0.20784313725490197 0.8705882352941177
0.8431372549019608 0.19215686274509805 0.807843137254902
0.9803921568627451 0.20784313725490197 0.8431372549019608
0.15294117647058825 0.38823529411764707 0.5490196078431373
0.16470588235294117 0.4235294117647059 0.6431372549019608
0.5647058823529412 0.5137254901960784 0.7490196078431373
0.8274509803921568 0.5254901960784314 0.7647058823529411
0.9450980392156862 0.49019607843137253 0.803921568627451
0.11764705882352941 0.5725490196078431 0.4666666666666667
0.11764705882352941 0.6431372549019608 0.5450980392156862
0.49411764705882355 0.6941176470588235 0.6431372549019608
0.8352941176470589 0.7686274509803922 0.7607843137254902
0.9450980392156862 0.8431372549019608 0.8509803921568627
0.058823529411764705 0.8196078431372549 0.3411764705882353
0.07450980392156863 0.8784313725490196 0.3843137254901961
0.4235294117647059 0.9058823529411765 0.49411764705882355
0.9019607843137255 0.9450980392156862 0.8352941176470589
0.9647058823529412 0.9490196078431372 0.8745098039215686
0.16862745098039217 0.11372549019607843 1.0
0.21176470588235294 0.10196078431372549 1.0
0.5686274509803921 0.09411764705882353 1.0
0.8862745098039215 0.06666666666666667 1.0
1.0 0.058823529411764705 1.0
0.16862745098039217 0.21568627450980393 0.9450980392156862
0.19607843137254902 0.23137254901960785 1.0
0.5176470588235295 0.20784313725490197 1.0
0.8627450980392157 0.19607843137254902 1.0
0.9725490196078431 0.2 0.984313725490196
0.1411764705882353 0.3843137254901961 0.8313725490196079
0.15294117647058825 0.4117647058823529 0.9411764705882353
0.49411764705882355 0.4666666666666667 0.9647058823529412
0.8392156862745098 0.49019607843137253 0.9568627450980393
0.9411764705882353 0.4980392156862745 0.9490196078431372
0.09803921568627451 0.5803921568627451 0.7843137254901961
0.10196078431372549 0.6196078431372549 0.8588235294117647
0.3764705882352941 0.6666666666666666 0.8980392156862745
0.8745098039215686 0.8313725490196079 0.9411764705882353
0.9568627450980393 0.8588235294117647 0.9607843137254902
0.054901960784313725 0.7843137254901961 0.6823529411764706
0.06666666666666667 0.8470588235294118 0.788235294117647
0.36470588235294116 0.8823529411764706 0.8627450980392157
0.8470588235294118 0.9215686274509803 0.9215686274509803
0.9803921568627451 0.9686274509803922 0.9764705882352941
