cubelut/FILM-TLC_TEAL_CLASSIC_LUT.v2.cube
TITLE "Photo Curves LUT"
LUT_3D_SIZE 5
0.14901960784313725 0.11372549019607843 0.1568627450980392
0.30980392156862746 0.11372549019607843 0.10980392156862745
0.5411764705882353 0.1568627450980392 0.10980392156862745
0.8313725490196079 0.24705882352941178 0.09803921568627451
0.9686274509803922 0.3843137254901961 0.09019607843137255
0.15294117647058825 0.23529411764705882 0.10980392156862745
0.34901960784313724 0.25098039215686274 0.10588235294117647
0.5529411764705883 0.2627450980392157 0.10196078431372549
0.8588235294117647 0.3215686274509804 0.09019607843137255
0.9686274509803922 0.43137254901960786 0.09019607843137255
0.42745098039215684 0.5098039215686274 0.09019607843137255
0.5098039215686274 0.5176470588235295 0.09019607843137255
0.6941176470588235 0.5568627450980392 0.09019607843137255
0.9176470588235294 0.5686274509803921 0.08235294117647059
0.9686274509803922 0.6470588235294118 0.08627450980392157
0.7019607843137254 0.8784313725490196 0.09019607843137255
0.792156862745098 0.8941176470588236 0.09019607843137255
0.9411764705882353 0.9215686274509803 0.09019607843137255
0.9647058823529412 0.8980392156862745 0.09019607843137255
0.9647058823529412 0.9058823529411765 0.09803921568627451
0.9686274509803922 0.9725490196078431 0.11764705882352941
0.9686274509803922 0.9725490196078431 0.11764705882352941
0.9686274509803922 0.9725490196078431 0.12156862745098039
0.9647058823529412 0.9725490196078431 0.12549019607843137
0.9686274509803922 0.9725490196078431 0.12156862745098039
0.14901960784313725 0.11372549019607843 0.5764705882352941
0.15294117647058825 0.12549019607843137 0.4980392156862745
0.49411764705882355 0.1411764705882353 0.36470588235294116
0.7803921568627451 0.21568627450980393 0.15294117647058825
0.9686274509803922 0.3843137254901961 0.09019607843137255
0.14901960784313725 0.25882352941176473 0.4196078431372549
0.1843137254901961 0.2823529411764706 0.43137254901960786
0.4627450980392157 0.23529411764705882 0.26666666666666666
0.8235294117647058 0.34901960784313724 0.15294117647058825
0.9647058823529412 0.4745098039215686 0.08627450980392157
0.33725490196078434 0.43137254901960786 0.20392156862745098
0.43529411764705883 0.45098039215686275 0.19607843137254902
0.6196078431372549 0.5294117647058824 0.14901960784313725
0.9098039215686274 0.596078431372549 0.08627450980392157
0.9647058823529412 0.6627450980392157 0.08627450980392157
0.7019607843137254 0.8784313725490196 0.09019607843137255
0.792156862745098 0.8941176470588236 0.09019607843137255
0.9450980392156862 0.9215686274509803 0.09019607843137255
0.9686274509803922 0.9058823529411765 0.09019607843137255
0.9647058823529412 0.9058823529411765 0.09803921568627451
0.9686274509803922 0.9725490196078431 0.11764705882352941
0.9686274509803922 0.9725490196078431 0.12156862745098039
0.9686274509803922 0.9725490196078431 0.12156862745098039
0.9647058823529412 0.9725490196078431 0.12549019607843137
0.9686274509803922 0.9725490196078431 0.12156862745098039
0.14901960784313725 0.14901960784313725 0.8823529411764706
0.14901960784313725 0.16470588235294117 0.8784313725490196
0.21568627450980393 0.2196078431372549 0.8823529411764706
0.7137254901960784 0.2196078431372549 0.8235294117647058
0.9686274509803922 0.24313725490196078 0.5568627450980392
0.14901960784313725 0.27058823529411763 0.8352941176470589
0.1450980392156863 0.28627450980392155 0.8156862745098039
0.30980392156862746 0.30196078431372547 0.803921568627451
0.7450980392156863 0.29411764705882354 0.7843137254901961
0.9647058823529412 0.30980392156862746 0.5450980392156862
0.13333333333333333 0.5764705882352941 0.803921568627451
0.13333333333333333 0.596078431372549 0.803921568627451
0.42745098039215684 0.4627450980392157 0.6627450980392157
0.6470588235294118 0.41568627450980394 0.5450980392156862
0.9686274509803922 0.5411764705882353 0.5176470588235295
0.37254901960784315 0.7176470588235294 0.4470588235294118
0.4196078431372549 0.6784313725490196 0.4196078431372549
0.5686274509803921 0.6235294117647059 0.49019607843137253
0.8392156862745098 0.7490196078431373 0.5058823529411764
0.9686274509803922 0.8352941176470589 0.4823529411764706
0.8235294117647058 0.9725490196078431 0.4549019607843137
0.8705882352941177 0.9725490196078431 0.45098039215686275
0.9529411764705882 0.9725490196078431 0.4470588235294118
0.9725490196078431 0.9725490196078431 0.4196078431372549
0.9686274509803922 0.9725490196078431 0.403921568627451
0.1450980392156863 0.19607843137254902 0.9882352941176471
0.14901960784313725 0.21568627450980393 0.9882352941176471
0.14901960784313725 0.2549019607843137 0.9882352941176471
0.3254901960784314 0.19607843137254902 0.984313725490196
0.9098039215686274 0.27058823529411763 0.9686274509803922
0.1411764705882353 0.30980392156862746 0.9803921568627451
0.1450980392156863 0.3176470588235294 0.9803921568627451
0.13725490196078433 0.35294117647058826 0.9803921568627451
0.396078431372549 0.3137254901960784 0.9725490196078431
0.9137254901960784 0.34901960784313724 0.9647058823529412
0.13333333333333333 0.5568627450980392 0.9686274509803922
0.13333333333333333 0.5686274509803921 0.9725490196078431
0.13333333333333333 0.5803921568627451 0.9686274509803922
0.5215686274509804 0.5254901960784314 0.9607843137254902
0.9058823529411765 0.5058823529411764 0.9058823529411765
0.12941176470588237 0.8823529411764706 0.9686274509803922
0.12941176470588237 0.8823529411764706 0.9686274509803922
0.42745098039215684 0.796078431372549 0.9254901960784314
0.6078431372549019 0.6823529411764706 0.8313725490196079
0.9490196078431372 0.7333333333333333 0.8549019607843137
0.5254901960784314 0.9725490196078431 0.807843137254902
0.5686274509803921 0.9725490196078431 0.8
0.6509803921568628 0.9725490196078431 0.7803921568627451
0.9137254901960784 0.9725490196078431 0.8156862745098039
0.9686274509803922 0.9725490196078431 0.796078431372549
0.1450980392156863 0.2549019607843137 0.984313725490196
0.1450980392156863 0.25882352941176473 0.9803921568627451
0.1450980392156863 0.30196078431372547 0.984313725490196
0.21176470588235294 0.3764705882352941 0.9764705882352941
0.6039215686274509 0.2784313725490196 0.9686274509803922
0.13725490196078433 0.35294117647058826 0.9803921568627451
0.13725490196078433 0.3568627450980392 0.9764705882352941
0.13725490196078433 0.39215686274509803 0.9803921568627451
0.17254901960784313 0.4666666666666667 0.9725490196078431
0.6078431372549019 0.34901960784313724 0.9686274509803922
0.12941176470588237 0.5803921568627451 0.9647058823529412
0.12941176470588237 0.6039215686274509 0.9686274509803922
0.13333333333333333 0.611764705882353 0.9686274509803922
0.23921568627450981 0.6627450980392157 0.9686274509803922
0.6549019607843137 0.5294117647058824 0.9647058823529412
0.12941176470588237 0.9294117647058824 0.9686274509803922
0.12941176470588237 0.9294117647058824 0.9686274509803922
0.12941176470588237 0.9450980392156862 0.9725490196078431
0.4627450980392157 0.8823529411764706 0.9686274509803922
0.803921568627451 0.803921568627451 0.9725490196078431
0.13333333333333333 0.9686274509803922 0.9686274509803922
0.20784313725490197 0.9725490196078431 0.9647058823529412
0.4745098039215686 0.9725490196078431 0.9725490196078431
0.6627450980392157 0.9725490196078431 0.9686274509803922
0.9058823529411765 0.9725490196078431 0.9725490196078431
