cubelut/FILM-GG1_GRAY_&_GREEN_V.1_LUT.cube
TITLE "Photo Curves LUT"
LUT_3D_SIZE 5
0.0 0.0 0.0
0.19607843137254902 0.19607843137254902 0.19215686274509805
0.5098039215686274 0.5137254901960784 0.5098039215686274
0.8274509803921568 0.8274509803921568 0.8274509803921568
0.996078431372549 1.0 0.996078431372549
0.33725490196078434 0.33725490196078434 0.33725490196078434
0.21176470588235294 0.21176470588235294 0.20784313725490197
0.5333333333333333 0.5372549019607843 0.5333333333333333
0.8470588235294118 0.8470588235294118 0.8431372549019608
0.996078431372549 1.0 0.996078431372549
0.8156862745098039 0.8196078431372549 0.8156862745098039
0.6705882352941176 0.6705882352941176 0.6666666666666666
0.5490196078431373 0.5529411764705883 0.5490196078431373
0.8666666666666667 0.8705882352941177 0.8666666666666667
0.996078431372549 1.0 0.996078431372549
0.996078431372549 1.0 0.996078431372549
0.996078431372549 1.0 0.996078431372549
0.9450980392156862 0.9450980392156862 0.9450980392156862
0.8745098039215686 0.8784313725490196 0.8745098039215686
0.996078431372549 1.0 0.996078431372549
0.996078431372549 1.0 0.996078431372549
0.996078431372549 1.0 0.996078431372549
0.996078431372549 1.0 0.996078431372549
0.996078431372549 1.0 0.996078431372549
0.996078431372549 1.0 0.996078431372549
0.03137254901960784 0.03529411764705882 0.03137254901960784
0.1803921568627451 0.1803921568627451 0.1803921568627451
0.5058823529411764 0.5098039215686274 0.5058823529411764
0.8274509803921568 0.8274509803921568 0.8274509803921568
0.996078431372549 1.0 0.996078431372549
0.1607843137254902 0.16470588235294117 0.1607843137254902
0.19607843137254902 0.19607843137254902 0.19215686274509805
0.4588235294117647 0.20784313725490197 0.2235294117647059
0.7294117647058823 0.22745098039215686 0.2549019607843137
1.0 0.5294117647058824 0.5607843137254902
0.7843137254901961 0.788235294117647 0.7843137254901961
0.2 0.615686274509804 0.20784313725490197
0.5098039215686274 0.4980392156862745 0.16862745098039217
0.792156862745098 0.4980392156862745 0.26666666666666666
1.0 0.7058823529411765 0.5568627450980392
0.996078431372549 1.0 0.996078431372549
0.1607843137254902 1.0 0.1803921568627451
0.49411764705882355 0.9215686274509803 0.06274509803921569
0.8470588235294118 0.8196078431372549 0.15294117647058825
1.0 0.8980392156862745 0.5333333333333333
0.996078431372549 1.0 0.996078431372549
0.49411764705882355 1.0 0.5215686274509804
0.6823529411764706 1.0 0.35294117647058826
0.9215686274509803 1.0 0.3215686274509804
1.0 1.0 0.3803921568627451
0.10588235294117647 0.10588235294117647 0.10588235294117647
0.2823529411764706 0.2823529411764706 0.2784313725490196
0.47843137254901963 0.4823529411764706 0.47843137254901963
0.8196078431372549 0.8235294117647058 0.8196078431372549
0.996078431372549 1.0 0.996078431372549
0.12549019607843137 0.12941176470588237 0.12549019607843137
0.25882352941176473 0.2627450980392157 0.2901960784313726
0.44313725490196076 0.20392156862745098 0.4470588235294118
0.7294117647058823 0.22745098039215686 0.5058823529411764
1.0 0.5372549019607843 0.7411764705882353
0.4392156862745098 0.44313725490196076 0.4392156862745098
0.30196078431372547 0.45098039215686275 0.4588235294117647
0.5098039215686274 0.5137254901960784 0.5098039215686274
0.788235294117647 0.5411764705882353 0.5529411764705883
1.0 0.7333333333333333 0.7529411764705882
0.996078431372549 1.0 0.996078431372549
0.49019607843137253 1.0 0.788235294117647
0.5568627450980392 0.9490196078431372 0.5647058823529412
0.8431372549019608 0.8274509803921568 0.4980392156862745
1.0 0.9019607843137255 0.7372549019607844
0.996078431372549 1.0 0.996078431372549
0.7215686274509804 1.0 0.9921568627450981
0.7529411764705882 1.0 0.7686274509803922
0.9098039215686274 1.0 0.6039215686274509
1.0 1.0 0.592156862745098
0.20392156862745098 0.20784313725490197 0.20392156862745098
0.35294117647058826 0.35294117647058826 0.35294117647058826
0.6352941176470588 0.6352941176470588 0.6313725490196078
0.788235294117647 0.792156862745098 0.788235294117647
0.996078431372549 1.0 0.996078431372549
0.1843137254901961 0.1843137254901961 0.1843137254901961
0.3411764705882353 0.33725490196078434 0.39215686274509803
0.3333333333333333 0.1411764705882353 0.5254901960784314
0.7019607843137254 0.22745098039215686 0.7137254901960784
1.0 0.5372549019607843 0.9098039215686274
0.3411764705882353 0.34509803921568627 0.3411764705882353
0.3568627450980392 0.3843137254901961 0.4117647058823529
0.5843137254901961 0.5843137254901961 0.615686274509804
0.7764705882352941 0.5333333333333333 0.7803921568627451
1.0 0.7372549019607844 0.9254901960784314
0.7294117647058823 0.7333333333333333 0.7294117647058823
0.43137254901960786 0.7254901960784313 0.7372549019607844
0.6313725490196078 0.7843137254901961 0.788235294117647
0.8313725490196079 0.8352941176470589 0.8313725490196079
1.0 0.9098039215686274 0.9215686274509803
0.996078431372549 1.0 0.996078431372549
0.807843137254902 1.0 1.0
0.8862745098039215 1.0 1.0
0.9098039215686274 1.0 0.9176470588235294
1.0 1.0 0.796078431372549
0.3058823529411765 0.30980392156862746 0.3058823529411765
0.4470588235294118 0.45098039215686275 0.4470588235294118
0.7098039215686275 0.7098039215686275 0.7058823529411765
0.9294117647058824 0.9294117647058824 0.9294117647058824
0.996078431372549 1.0 0.996078431372549
0.27058823529411763 0.27058823529411763 0.27058823529411763
0.4549019607843137 0.4549019607843137 0.5019607843137255
0.38823529411764707 0.27450980392156865 0.6039215686274509
0.7098039215686275 0.4196078431372549 0.8627450980392157
1.0 0.5215686274509804 1.0
0.35294117647058826 0.35294117647058826 0.35294117647058826
0.47843137254901963 0.4823529411764706 0.48627450980392156
0.6862745098039216 0.6862745098039216 0.7294117647058823
0.7294117647058823 0.5843137254901961 0.8745098039215686
1.0 0.7176470588235294 1.0
0.615686274509804 0.6196078431372549 0.615686274509804
0.5058823529411764 0.596078431372549 0.6549019607843137
0.7019607843137254 0.7215686274509804 0.7529411764705882
0.8980392156862745 0.8980392156862745 0.9254901960784314
1.0 0.9019607843137255 1.0
0.9764705882352941 0.9764705882352941 0.9725490196078431
0.6901960784313725 0.9882352941176471 1.0
0.8117647058823529 1.0 1.0
0.9215686274509803 1.0 1.0
0.996078431372549 1.0 0.996078431372549
