cubelut/FILM-FJN_FUJIFILM_NATURA_S_V3_LUT.cube
TITLE "Photo Curves LUT"
LUT_3D_SIZE 5
0.0 0.0 0.0
0.21568627450980393 0.08627450980392157 0.07450980392156863
0.6274509803921569 0.16862745098039217 0.14901960784313725
0.8509803921568627 0.20392156862745098 0.17254901960784313
0.9450980392156862 0.23921568627450981 0.18823529411764706
0.11764705882352941 0.24705882352941178 0.10588235294117647
0.27450980392156865 0.27058823529411763 0.13333333333333333
0.6588235294117647 0.36470588235294116 0.17647058823529413
0.8705882352941177 0.4392156862745098 0.19607843137254902
0.9647058823529412 0.5058823529411764 0.20392156862745098
0.20392156862745098 0.6588235294117647 0.1843137254901961
0.37254901960784315 0.6666666666666666 0.18823529411764706
0.6862745098039216 0.6784313725490196 0.20392156862745098
0.8941176470588236 0.7333333333333333 0.21568627450980393
0.9882352941176471 0.7803921568627451 0.22745098039215686
0.22745098039215686 0.8784313725490196 0.2
0.43137254901960786 0.8862745098039215 0.20784313725490197
0.7372549019607844 0.8980392156862745 0.2235294117647059
0.9019607843137255 0.9019607843137255 0.22745098039215686
0.9921568627450981 0.9215686274509803 0.22745098039215686
0.25882352941176473 0.9764705882352941 0.21176470588235294
0.49019607843137253 0.9882352941176471 0.2235294117647059
0.7725490196078432 0.9921568627450981 0.22745098039215686
0.9215686274509803 0.996078431372549 0.23137254901960785
0.996078431372549 0.996078431372549 0.23137254901960785
0.027450980392156862 0.027450980392156862 0.054901960784313725
0.2196078431372549 0.09019607843137255 0.11372549019607843
0.6313725490196078 0.17254901960784313 0.24313725490196078
0.8549019607843137 0.21176470588235294 0.3411764705882353
0.9529411764705882 0.24705882352941178 0.43529411764705883
0.13333333333333333 0.25098039215686274 0.14901960784313725
0.2784313725490196 0.27450980392156865 0.17254901960784313
0.6627450980392157 0.37254901960784315 0.27058823529411763
0.8745098039215686 0.4470588235294118 0.3607843137254902
0.9686274509803922 0.5137254901960784 0.4549019607843137
0.2196078431372549 0.6627450980392157 0.30980392156862746
0.3843137254901961 0.6666666666666666 0.27450980392156865
0.6862745098039216 0.6784313725490196 0.2784313725490196
0.8941176470588236 0.7411764705882353 0.3686274509803922
0.9882352941176471 0.788235294117647 0.4588235294117647
0.25882352941176473 0.8823529411764706 0.4117647058823529
0.4549019607843137 0.8901960784313725 0.3607843137254902
0.7372549019607844 0.8980392156862745 0.33725490196078434
0.9058823529411765 0.9019607843137255 0.34901960784313724
0.996078431372549 0.9215686274509803 0.43529411764705883
0.30196078431372547 0.984313725490196 0.5098039215686274
0.5215686274509804 0.9882352941176471 0.44313725490196076
0.7725490196078432 0.996078431372549 0.403921568627451
0.9215686274509803 0.996078431372549 0.403921568627451
0.996078431372549 1.0 0.41568627450980394
0.12156862745098039 0.12156862745098039 0.6039215686274509
0.3333333333333333 0.1568627450980392 0.6392156862745098
0.6509803921568628 0.18823529411764706 0.6705882352941176
0.8627450980392157 0.2196078431372549 0.7490196078431373
0.9568627450980393 0.2549019607843137 0.803921568627451
0.20784313725490197 0.4 0.6705882352941176
0.37254901960784315 0.3686274509803922 0.6745098039215687
0.6705882352941176 0.3843137254901961 0.6941176470588235
0.8784313725490196 0.4549019607843137 0.7647058823529411
0.9764705882352941 0.5254901960784314 0.8235294117647058
0.24705882352941178 0.6705882352941176 0.7019607843137254
0.45098039215686275 0.6784313725490196 0.7058823529411765
0.6941176470588235 0.6901960784313725 0.7176470588235294
0.9019607843137255 0.7490196078431373 0.788235294117647
0.9921568627450981 0.792156862745098 0.8352941176470589
0.30980392156862746 0.8901960784313725 0.807843137254902
0.5372549019607843 0.8980392156862745 0.807843137254902
0.7529411764705882 0.9058823529411765 0.788235294117647
0.9098039215686274 0.9058823529411765 0.7843137254901961
0.996078431372549 0.9254901960784314 0.8313725490196079
0.3686274509803922 0.9882352941176471 0.8627450980392157
0.596078431372549 0.9921568627450981 0.8549019607843137
0.796078431372549 0.996078431372549 0.8313725490196079
0.9215686274509803 1.0 0.8156862745098039
1.0 1.0 0.8274509803921568
0.1568627450980392 0.1568627450980392 0.8156862745098039
0.40784313725490196 0.18823529411764706 0.8470588235294118
0.7098039215686275 0.21176470588235294 0.8705882352941177
0.8627450980392157 0.2196078431372549 0.8784313725490196
0.9568627450980393 0.25098039215686274 0.9019607843137255
0.24313725490196078 0.4745098039215686 0.8745098039215686
0.4470588235294118 0.44313725490196076 0.8823529411764706
0.7294117647058823 0.45098039215686275 0.8941176470588236
0.8823529411764706 0.4549019607843137 0.8980392156862745
0.9764705882352941 0.5254901960784314 0.9176470588235294
0.3333333333333333 0.7686274509803922 0.9019607843137255
0.5529411764705883 0.7686274509803922 0.9098039215686274
0.7490196078431373 0.7450980392156863 0.9137254901960784
0.9019607843137255 0.7490196078431373 0.9215686274509803
0.9921568627450981 0.796078431372549 0.9333333333333333
0.34509803921568627 0.8941176470588236 0.9137254901960784
0.5843137254901961 0.9019607843137255 0.9176470588235294
0.796078431372549 0.9058823529411765 0.9215686274509803
0.9098039215686274 0.9058823529411765 0.9254901960784314
0.996078431372549 0.9254901960784314 0.9411764705882353
0.42745098039215684 0.9921568627450981 0.9411764705882353
0.6666666666666666 0.996078431372549 0.9450980392156862
0.8392156862745098 0.996078431372549 0.9450980392156862
0.9294117647058824 1.0 0.9411764705882353
1.0 1.0 0.9411764705882353
0.20392156862745098 0.20392156862745098 0.9058823529411765
0.48627450980392156 0.23137254901960785 0.9333333333333333
0.7607843137254902 0.24705882352941178 0.9490196078431372
0.8862745098039215 0.25098039215686274 0.9568627450980393
0.9607843137254902 0.2549019607843137 0.9607843137254902
0.28627450980392155 0.5450980392156862 0.9568627450980393
0.5176470588235295 0.5098039215686274 0.9607843137254902
0.7764705882352941 0.5176470588235295 0.9686274509803922
0.9019607843137255 0.5215686274509804 0.9725490196078431
0.9803921568627451 0.5294117647058824 0.9803921568627451
0.403921568627451 0.8313725490196079 0.9803921568627451
0.6039215686274509 0.8156862745098039 0.984313725490196
0.796078431372549 0.796078431372549 0.9882352941176471
0.9215686274509803 0.796078431372549 0.9921568627450981
0.9921568627450981 0.796078431372549 0.996078431372549
0.4627450980392157 0.9294117647058824 0.9882352941176471
0.6941176470588235 0.9372549019607843 0.996078431372549
0.8509803921568627 0.9372549019607843 0.996078431372549
0.9254901960784314 0.9254901960784314 0.996078431372549
0.996078431372549 0.9254901960784314 0.996078431372549
0.4627450980392157 0.9921568627450981 0.9882352941176471
0.7019607843137254 1.0 0.996078431372549
0.8666666666666667 1.0 0.996078431372549
0.9450980392156862 1.0 1.0
0.996078431372549 1.0 0.996078431372549
