cubelut/FILM-KCP_KONICA_CENTURIA_200_LUT.cube
TITLE "Photo Curves LUT"
LUT_3D_SIZE 5
0.09019607843137255 0.1450980392156863 0.11372549019607843
0.23137254901960785 0.14901960784313725 0.12941176470588237
0.5058823529411764 0.15294117647058825 0.13725490196078433
0.8 0.19215686274509805 0.1568627450980392
0.9529411764705882 0.2980392156862745 0.21176470588235294
0.11764705882352941 0.30196078431372547 0.13725490196078433
0.27058823529411763 0.27450980392156865 0.13725490196078433
0.5568627450980392 0.27058823529411763 0.13333333333333333
0.8313725490196079 0.3803921568627451 0.17254901960784313
0.9529411764705882 0.5098039215686274 0.23529411764705882
0.17647058823529413 0.5686274509803921 0.16470588235294117
0.4 0.5725490196078431 0.16470588235294117
0.5882352941176471 0.5254901960784314 0.1607843137254902
0.8705882352941177 0.6313725490196078 0.22745098039215686
0.9529411764705882 0.7254901960784313 0.2901960784313726
0.27450980392156865 0.7843137254901961 0.2980392156862745
0.47058823529411764 0.7843137254901961 0.2901960784313726
0.6901960784313725 0.788235294117647 0.2980392156862745
0.8745098039215686 0.788235294117647 0.2823529411764706
0.9529411764705882 0.8666666666666667 0.3607843137254902
0.4235294117647059 0.8666666666666667 0.4980392156862745
0.5568627450980392 0.8666666666666667 0.42745098039215684
0.7647058823529411 0.8666666666666667 0.43529411764705883
0.9098039215686274 0.8666666666666667 0.43529411764705883
0.9529411764705882 0.8666666666666667 0.41568627450980394
0.10588235294117647 0.17254901960784313 0.27058823529411763
0.22745098039215686 0.1607843137254902 0.27450980392156865
0.5019607843137255 0.1607843137254902 0.3137254901960784
0.7803921568627451 0.19215686274509805 0.3176470588235294
0.9529411764705882 0.23921568627450981 0.3254901960784314
0.17254901960784313 0.27058823529411763 0.24705882352941178
0.22745098039215686 0.27058823529411763 0.24705882352941178
0.5019607843137255 0.27450980392156865 0.2823529411764706
0.788235294117647 0.34509803921568627 0.3215686274509804
0.9529411764705882 0.4627450980392157 0.403921568627451
0.24313725490196078 0.5607843137254902 0.3686274509803922
0.3411764705882353 0.5294117647058824 0.3215686274509804
0.5411764705882353 0.5137254901960784 0.3215686274509804
0.8313725490196079 0.592156862745098 0.3803921568627451
0.9529411764705882 0.6705882352941176 0.4392156862745098
0.3568627450980392 0.7843137254901961 0.5490196078431373
0.4588235294117647 0.7607843137254902 0.4627450980392157
0.6588235294117647 0.7647058823529411 0.4588235294117647
0.8470588235294118 0.7647058823529411 0.45098039215686275
0.9529411764705882 0.8392156862745098 0.5254901960784314
0.49019607843137253 0.8666666666666667 0.7333333333333333
0.6078431372549019 0.8666666666666667 0.6509803921568628
0.7529411764705882 0.8666666666666667 0.6
0.8980392156862745 0.8666666666666667 0.6078431372549019
0.9529411764705882 0.8666666666666667 0.5882352941176471
0.11764705882352941 0.20392156862745098 0.5568627450980392
0.26666666666666666 0.17254901960784313 0.6
0.5019607843137255 0.17254901960784313 0.5607843137254902
0.803921568627451 0.2196078431372549 0.5686274509803921
0.9529411764705882 0.27058823529411763 0.5607843137254902
0.25098039215686274 0.4117647058823529 0.49019607843137253
0.2901960784313726 0.3411764705882353 0.5294117647058824
0.5019607843137255 0.3176470588235294 0.5294117647058824
0.7843137254901961 0.3568627450980392 0.5490196078431373
0.9529411764705882 0.41568627450980394 0.5568627450980392
0.3607843137254902 0.5098039215686274 0.49019607843137253
0.42745098039215684 0.5019607843137255 0.49411764705882355
0.49411764705882355 0.49411764705882355 0.49411764705882355
0.7843137254901961 0.5411764705882353 0.5450980392156862
0.9529411764705882 0.6235294117647059 0.615686274509804
0.5450980392156862 0.7647058823529411 0.7568627450980392
0.5647058823529412 0.7529411764705882 0.7098039215686275
0.6274509803921569 0.7372549019607844 0.6274509803921569
0.8156862745098039 0.7372549019607844 0.6235294117647059
0.9529411764705882 0.803921568627451 0.6745098039215687
0.6549019607843137 0.8666666666666667 0.8980392156862745
0.6862745098039216 0.8666666666666667 0.8549019607843137
0.7725490196078432 0.8666666666666667 0.7843137254901961
0.8862745098039215 0.8666666666666667 0.7607843137254902
0.9529411764705882 0.8666666666666667 0.7529411764705882
0.22745098039215686 0.2627450980392157 0.8392156862745098
0.4627450980392157 0.26666666666666666 0.8705882352941177
0.7098039215686275 0.2627450980392157 0.8745098039215686
0.8627450980392157 0.25098039215686274 0.8352941176470589
0.9529411764705882 0.3137254901960784 0.803921568627451
0.32941176470588235 0.4745098039215686 0.7764705882352941
0.41568627450980394 0.4196078431372549 0.8156862745098039
0.6627450980392157 0.43137254901960786 0.8431372549019608
0.8352941176470589 0.41568627450980394 0.8117647058823529
0.9529411764705882 0.4627450980392157 0.8
0.5372549019607843 0.6431372549019608 0.7607843137254902
0.5568627450980392 0.6235294117647059 0.7607843137254902
0.6078431372549019 0.5803921568627451 0.792156862745098
0.8117647058823529 0.5764705882352941 0.792156862745098
0.9529411764705882 0.6078431372549019 0.796078431372549
0.6078431372549019 0.7215686274509804 0.7803921568627451
0.6666666666666666 0.7176470588235294 0.7764705882352941
0.7254901960784313 0.7098039215686275 0.7725490196078432
0.7764705882352941 0.7019607843137254 0.7607843137254902
0.9529411764705882 0.7568627450980392 0.8117647058823529
0.8117647058823529 0.8666666666666667 0.9333333333333333
0.8431372549019608 0.8666666666666667 0.9333333333333333
0.8549019607843137 0.8666666666666667 0.9176470588235294
0.8862745098039215 0.8666666666666667 0.8745098039215686
0.9529411764705882 0.8666666666666667 0.8627450980392157
0.41568627450980394 0.3607843137254902 0.9333333333333333
0.6588235294117647 0.37254901960784315 0.9333333333333333
0.8745098039215686 0.3764705882352941 0.9333333333333333
0.9529411764705882 0.36470588235294116 0.9333333333333333
0.9529411764705882 0.35294117647058826 0.9333333333333333
0.42745098039215684 0.5254901960784314 0.9333333333333333
0.5882352941176471 0.5294117647058824 0.9333333333333333
0.8313725490196079 0.5450980392156862 0.9333333333333333
0.9490196078431372 0.5411764705882353 0.9333333333333333
0.9529411764705882 0.5215686274509804 0.9333333333333333
0.6431372549019608 0.7254901960784313 0.9294117647058824
0.6352941176470588 0.6784313725490196 0.9333333333333333
0.7647058823529411 0.6666666666666666 0.9333333333333333
0.9215686274509803 0.6823529411764706 0.9333333333333333
0.9529411764705882 0.6627450980392157 0.9333333333333333
0.8 0.8156862745098039 0.9294117647058824
0.8313725490196079 0.807843137254902 0.9294117647058824
0.8352941176470589 0.8 0.9333333333333333
0.8784313725490196 0.7764705882352941 0.9333333333333333
0.9529411764705882 0.7764705882352941 0.9333333333333333
0.8313725490196079 0.8666666666666667 0.9333333333333333
0.8705882352941177 0.8666666666666667 0.9333333333333333
0.9019607843137255 0.8666666666666667 0.9333333333333333
0.9294117647058824 0.8666666666666667 0.9333333333333333
0.9529411764705882 0.8666666666666667 0.9333333333333333
