cubelut/FILM-KDF_KODAK_FUNSAVER_LUT.cube
TITLE "Generated by LUMIX Lab"
#LUMIXPHOTOSTYLE STD
LUT_3D_SIZE 9
0.090196 0.082353 0.121569
0.121569 0.078431 0.113725
0.172549 0.074510 0.121569
0.247059 0.078431 0.137255
0.345098 0.086275 0.152941
0.478431 0.094118 0.176471
0.584314 0.098039 0.203922
0.690196 0.105882 0.250980
0.796078 0.113725 0.380392
0.094118 0.113725 0.137255
0.121569 0.113725 0.129412
0.172549 0.109804 0.125490
0.254902 0.113725 0.129412
0.372549 0.113725 0.137255
0.501961 0.113725 0.156863
0.607843 0.105882 0.168627
0.698039 0.105882 0.215686
0.796078 0.113725 0.349020
0.098039 0.156863 0.164706
0.129412 0.156863 0.176471
0.176471 0.172549 0.164706
0.262745 0.176471 0.152941
0.380392 0.176471 0.152941
0.521569 0.180392 0.160784
0.615686 0.176471 0.176471
0.717647 0.164706 0.192157
0.803922 0.113725 0.282353
0.117647 0.235294 0.211765
0.145098 0.231373 0.227451
0.188235 0.243137 0.227451
0.266667 0.270588 0.211765
0.392157 0.286275 0.196078
0.533333 0.298039 0.196078
0.635294 0.301961 0.192157
0.729412 0.298039 0.211765
0.823529 0.196078 0.231373
0.141176 0.337255 0.266667
0.168627 0.345098 0.278431
0.219608 0.349020 0.305882
0.286275 0.392157 0.301961
0.415686 0.427451 0.278431
0.552941 0.458824 0.270588
0.658824 0.482353 0.250980
0.752941 0.482353 0.235294
0.835294 0.376471 0.250980
0.172549 0.490196 0.341176
0.211765 0.490196 0.352941
0.258824 0.501961 0.376471
0.333333 0.521569 0.392157
0.443137 0.568627 0.376471
0.584314 0.603922 0.345098
0.682353 0.627451 0.317647
0.776471 0.627451 0.270588
0.862745 0.580392 0.254902
0.219608 0.627451 0.427451
0.250980 0.627451 0.435294
0.301961 0.639216 0.454902
0.396078 0.647059 0.494118
0.498039 0.670588 0.498039
0.607843 0.694118 0.458824
0.694118 0.717647 0.396078
0.788235 0.729412 0.337255
0.878431 0.705882 0.262745
0.258824 0.725490 0.600000
0.290196 0.729412 0.611765
0.360784 0.737255 0.631373
0.466667 0.749020 0.654902
0.572549 0.768627 0.654902
0.647059 0.784314 0.662745
0.709804 0.800000 0.611765
0.796078 0.819608 0.478431
0.894118 0.811765 0.286275
0.423529 0.866667 0.815686
0.462745 0.870588 0.815686
0.529412 0.870588 0.819608
0.611765 0.882353 0.819608
0.670588 0.890196 0.819608
0.713726 0.909804 0.807843
0.768627 0.905882 0.815686
0.819608 0.909804 0.815686
0.909804 0.921569 0.670588
0.082353 0.086275 0.168627
0.113725 0.082353 0.164706
0.164706 0.082353 0.164706
0.247059 0.078431 0.168627
0.349020 0.086275 0.188235
0.478431 0.094118 0.211765
0.584314 0.098039 0.243137
0.686275 0.105882 0.286275
0.800000 0.113725 0.407843
0.090196 0.121569 0.168627
0.121569 0.117647 0.168627
0.176471 0.109804 0.168627
0.254902 0.109804 0.168627
0.372549 0.113725 0.180392
0.505882 0.113725 0.200000
0.607843 0.101961 0.215686
0.694118 0.105882 0.262745
0.796078 0.113725 0.384314
0.094118 0.160784 0.188235
0.133333 0.164706 0.196078
0.176471 0.172549 0.192157
0.266667 0.172549 0.184314
0.380392 0.176471 0.196078
0.521569 0.180392 0.207843
0.619608 0.176471 0.227451
0.713726 0.168627 0.247059
0.803922 0.113725 0.317647
0.117647 0.239216 0.231373
0.149020 0.239216 0.243137
0.196078 0.243137 0.262745
0.274510 0.274510 0.243137
0.392157 0.286275 0.231373
0.533333 0.298039 0.239216
0.639216 0.301961 0.247059
0.733333 0.298039 0.262745
0.815686 0.192157 0.278431
0.145098 0.349020 0.286275
0.172549 0.352941 0.298039
0.219608 0.356863 0.317647
0.294118 0.392157 0.321569
0.415686 0.439216 0.305882
0.556863 0.466667 0.298039
0.662745 0.486275 0.290196
0.756863 0.470588 0.286275
0.835294 0.368627 0.294118
0.176471 0.501961 0.356863
0.207843 0.501961 0.368627
0.258824 0.505882 0.384314
0.333333 0.521569 0.415686
0.447059 0.568627 0.396078
0.584314 0.607843 0.372549
0.686275 0.623529 0.345098
0.776471 0.631373 0.309804
0.866667 0.572549 0.301961
0.223529 0.631373 0.439216
0.250980 0.635294 0.450980
0.301961 0.643137 0.470588
0.403922 0.650980 0.501961
0.513726 0.662745 0.521569
0.607843 0.698039 0.482353
0.698039 0.717647 0.419608
0.784314 0.729412 0.364706
0.878431 0.709804 0.294118
0.258824 0.733333 0.623529
0.298039 0.729412 0.631373
0.360784 0.737255 0.639216
0.466667 0.756863 0.662745
0.572549 0.776471 0.666667
0.658824 0.780392 0.674510
0.713726 0.803922 0.631373
0.800000 0.815686 0.509804
0.894118 0.807843 0.317647
0.431373 0.858824 0.819608
0.466667 0.862745 0.819608
0.529412 0.874510 0.819608
0.611765 0.886275 0.819608
0.662745 0.894118 0.823529
0.717647 0.901961 0.807843
0.768627 0.909804 0.823529
0.823529 0.909804 0.823529
0.905882 0.917647 0.682353
0.082353 0.094118 0.223529
0.117647 0.086275 0.227451
0.168627 0.094118 0.227451
0.243137 0.098039 0.239216
0.356863 0.094118 0.250980
0.490196 0.094118 0.274510
0.592157 0.101961 0.301961
0.686275 0.105882 0.352941
0.800000 0.113725 0.470588
0.082353 0.125490 0.219608
0.117647 0.125490 0.231373
0.176471 0.121569 0.235294
0.250980 0.125490 0.247059
0.364706 0.125490 0.262745
0.501961 0.121569 0.274510
0.607843 0.105882 0.294118
0.701961 0.105882 0.341176
0.796078 0.113725 0.450980
0.094118 0.172549 0.247059
0.129412 0.176471 0.247059
0.188235 0.180392 0.250980
0.270588 0.176471 0.262745
0.384314 0.176471 0.270588
0.525490 0.176471 0.286275
0.619608 0.180392 0.301961
0.717647 0.160784 0.321569
0.803922 0.113725 0.396078
0.105882 0.258824 0.282353
0.141176 0.258824 0.290196
0.200000 0.254902 0.294118
0.278431 0.282353 0.298039
0.407843 0.294118 0.294118
0.537255 0.298039 0.301961
0.643137 0.301961 0.321569
0.733333 0.298039 0.337255
0.815686 0.188235 0.356863
0.141176 0.380392 0.321569
0.172549 0.376471 0.329412
0.231373 0.380392 0.349020
0.305882 0.400000 0.376471
0.423529 0.443137 0.360784
0.564706 0.466667 0.352941
0.670588 0.482353 0.349020
0.760784 0.470588 0.352941
0.839216 0.360784 0.372549
0.176471 0.517647 0.388235
0.211765 0.517647 0.396078
0.262745 0.525490 0.415686
0.356863 0.533333 0.450980
0.454902 0.576471 0.443137
0.592157 0.615686 0.415686
0.686275 0.631373 0.392157
0.780392 0.635294 0.368627
0.866667 0.568627 0.372549
0.200000 0.623529 0.482353
0.235294 0.627451 0.498039
0.305882 0.650980 0.498039
0.415686 0.658824 0.533333
0.517647 0.670588 0.560784
0.615686 0.705882 0.537255
0.698039 0.721569 0.474510
0.788235 0.733333 0.411765
0.886275 0.709804 0.368627
0.258824 0.733333 0.647059
0.294118 0.733333 0.650980
0.360784 0.745098 0.658824
0.470588 0.756863 0.678431
0.588235 0.776471 0.678431
0.658824 0.784314 0.698039
0.717647 0.800000 0.670588
0.800000 0.819608 0.560784
0.894118 0.815686 0.376471
0.427451 0.866667 0.827451
0.466667 0.874510 0.831373
0.529412 0.874510 0.827451
0.615686 0.886275 0.831373
0.666667 0.886275 0.831373
0.725490 0.901961 0.815686
0.772549 0.909804 0.831373
0.823529 0.913725 0.835294
0.905882 0.921569 0.705882
0.082353 0.121569 0.294118
0.109804 0.098039 0.321569
0.172549 0.098039 0.317647
0.247059 0.109804 0.325490
0.345098 0.121569 0.345098
0.486275 0.121569 0.372549
0.600000 0.105882 0.396078
0.694118 0.109804 0.439216
0.796078 0.113725 0.549020
0.086275 0.145098 0.298039
0.113725 0.133333 0.325490
0.176471 0.133333 0.325490
0.254902 0.141176 0.337255
0.349020 0.149020 0.352941
0.498039 0.149020 0.380392
0.607843 0.137255 0.403922
0.705882 0.113725 0.435294
0.796078 0.113725 0.533333
0.098039 0.184314 0.317647
0.121569 0.196078 0.329412
0.180392 0.192157 0.349020
0.266667 0.200000 0.352941
0.376471 0.196078 0.372549
0.517647 0.196078 0.388235
0.623529 0.192157 0.411765
0.717647 0.168627 0.435294
0.803922 0.113725 0.501961
0.101961 0.282353 0.360784
0.141176 0.282353 0.364706
0.200000 0.282353 0.372549
0.298039 0.294118 0.380392
0.419608 0.298039 0.392157
0.545098 0.301961 0.403922
0.643137 0.301961 0.423529
0.737255 0.290196 0.447059
0.811765 0.192157 0.466667
0.117647 0.411765 0.407843
0.152941 0.419608 0.411765
0.219608 0.419608 0.419608
0.329412 0.427451 0.431373
0.447059 0.466667 0.439216
0.576471 0.474510 0.435294
0.670588 0.486275 0.439216
0.764706 0.474510 0.450980
0.839216 0.352941 0.474510
0.149020 0.537255 0.466667
0.188235 0.541176 0.470588
0.254902 0.545098 0.482353
0.372549 0.560784 0.498039
0.486275 0.584314 0.525490
0.603922 0.623529 0.498039
0.690196 0.635294 0.474510
0.788235 0.627451 0.462745
0.862745 0.572549 0.474510
0.188235 0.635294 0.541176
0.235294 0.643137 0.556863
0.294118 0.654902 0.572549
0.415686 0.658824 0.600000
0.533333 0.682353 0.619608
0.623529 0.701961 0.615686
0.701961 0.725490 0.560784
0.796078 0.733333 0.498039
0.886275 0.709804 0.458824
0.250980 0.737255 0.686275
0.290196 0.745098 0.694118
0.364706 0.745098 0.698039
0.490196 0.756863 0.705882
0.588235 0.772549 0.717647
0.674510 0.780392 0.717647
0.721569 0.803922 0.705882
0.811765 0.827451 0.635294
0.894118 0.811765 0.458824
0.419608 0.870588 0.847059
0.462745 0.870588 0.850980
0.529412 0.878431 0.850980
0.611765 0.890196 0.835294
0.670588 0.886275 0.839216
0.709804 0.898039 0.843137
0.768627 0.909804 0.835294
0.823529 0.913725 0.847059
0.909804 0.925490 0.733333
0.086275 0.125490 0.380392
0.105882 0.113725 0.419608
0.172549 0.109804 0.423529
0.258824 0.117647 0.427451
0.360784 0.133333 0.439216
0.490196 0.149020 0.462745
0.600000 0.149020 0.498039
0.698039 0.113725 0.541176
0.796078 0.117647 0.611765
0.090196 0.160784 0.380392
0.105882 0.149020 0.427451
0.172549 0.145098 0.431373
0.262745 0.149020 0.431373
0.364706 0.160784 0.450980
0.494118 0.184314 0.466667
0.607843 0.172549 0.505882
0.709804 0.149020 0.541176
0.796078 0.117647 0.607843
0.094118 0.215686 0.388235
0.105882 0.219608 0.423529
0.172549 0.207843 0.443137
0.278431 0.203922 0.447059
0.384314 0.219608 0.462745
0.509804 0.235294 0.486275
0.619608 0.227451 0.517647
0.717647 0.207843 0.552941
0.803922 0.117647 0.596078
0.109804 0.301961 0.435294
0.141176 0.309804 0.447059
0.200000 0.313726 0.458824
0.294118 0.317647 0.482353
0.415686 0.329412 0.494118
0.541176 0.341176 0.517647
0.647059 0.333333 0.541176
0.741176 0.309804 0.564706
0.811765 0.184314 0.576471
0.121569 0.431373 0.486275
0.164706 0.439216 0.490196
0.223529 0.450980 0.498039
0.325490 0.458824 0.513726
0.458824 0.474510 0.537255
0.588235 0.486275 0.549020
0.678431 0.478431 0.556863
0.764706 0.470588 0.572549
0.831373 0.352941 0.592157
0.133333 0.556863 0.541176
0.172549 0.568627 0.552941
0.239216 0.584314 0.564706
0.364706 0.588235 0.576471
0.505882 0.603922 0.603922
0.615686 0.627451 0.596078
0.694118 0.639216 0.580392
0.788235 0.635294 0.584314
0.862745 0.568627 0.600000
0.168627 0.643137 0.623529
0.219608 0.650980 0.627451
0.286275 0.658824 0.635294
0.411765 0.674510 0.650980
0.537255 0.698039 0.666667
0.635294 0.709804 0.682353
0.705882 0.733333 0.643137
0.803922 0.733333 0.607843
0.882353 0.705882 0.588235
0.239216 0.737255 0.725490
0.278431 0.745098 0.729412
0.356863 0.752941 0.729412
0.482353 0.768627 0.737255
0.592157 0.780392 0.749020
0.670588 0.792157 0.745098
0.725490 0.796078 0.741176
0.811765 0.823529 0.690196
0.898039 0.811765 0.576471
0.411765 0.866667 0.866667
0.450980 0.866667 0.858824
0.517647 0.878431 0.858824
0.615686 0.886275 0.850980
0.670588 0.894118 0.850980
0.721569 0.898039 0.847059
0.776471 0.909804 0.847059
0.823529 0.913725 0.854902
0.909804 0.921569 0.760784
0.086275 0.149020 0.462745
0.090196 0.133333 0.513726
0.160784 0.125490 0.529412
0.266667 0.129412 0.529412
0.380392 0.145098 0.541176
0.505882 0.164706 0.560784
0.603922 0.188235 0.596078
0.705882 0.168627 0.631373
0.800000 0.117647 0.666667
0.094118 0.184314 0.474510
0.094118 0.168627 0.517647
0.164706 0.164706 0.533333
0.274510 0.160784 0.537255
0.388235 0.172549 0.552941
0.509804 0.192157 0.568627
0.611765 0.219608 0.603922
0.709804 0.196078 0.639216
0.800000 0.117647 0.662745
0.101961 0.243137 0.482353
0.098039 0.243137 0.517647
0.164706 0.231373 0.541176
0.282353 0.219608 0.560784
0.403922 0.235294 0.564706
0.525490 0.254902 0.592157
0.623529 0.282353 0.623529
0.717647 0.258824 0.650980
0.800000 0.121569 0.654902
0.121569 0.333333 0.521569
0.129412 0.349020 0.552941
0.184314 0.376471 0.560784
0.294118 0.356863 0.592157
0.435294 0.356863 0.603922
0.556863 0.376471 0.623529
0.650980 0.403922 0.643137
0.737255 0.372549 0.666667
0.815686 0.203922 0.666667
0.133333 0.458824 0.580392
0.160784 0.466667 0.596078
0.223529 0.478431 0.607843
0.329412 0.498039 0.623529
0.462745 0.509804 0.639216
0.596078 0.525490 0.658824
0.674510 0.529412 0.670588
0.768627 0.501961 0.686275
0.827451 0.349020 0.678431
0.145098 0.576471 0.647059
0.180392 0.580392 0.647059
0.250980 0.592157 0.654902
0.364706 0.603922 0.670588
0.509804 0.619608 0.670588
0.627451 0.635294 0.682353
0.705882 0.639216 0.686275
0.792157 0.631373 0.690196
0.866667 0.556863 0.690196
0.156863 0.647059 0.701961
0.180392 0.662745 0.709804
0.262745 0.670588 0.705882
0.384314 0.686275 0.709804
0.533333 0.705882 0.709804
0.639216 0.717647 0.717647
0.717647 0.733333 0.709804
0.807843 0.729412 0.694118
0.886275 0.705882 0.690196
0.211765 0.745098 0.764706
0.254902 0.752941 0.772549
0.337255 0.760784 0.768627
0.466667 0.776471 0.764706
0.592157 0.792157 0.760784
0.674510 0.803922 0.760784
0.737255 0.807843 0.772549
0.811765 0.835294 0.741176
0.898039 0.811765 0.678431
0.400000 0.858824 0.874510
0.443137 0.866667 0.870588
0.517647 0.870588 0.866667
0.603922 0.890196 0.862745
0.666667 0.894118 0.858824
0.717647 0.905882 0.862745
0.780392 0.909804 0.850980
0.827451 0.909804 0.858824
0.913725 0.917647 0.780392
0.094118 0.188235 0.560784
0.094118 0.168627 0.600000
0.152941 0.156863 0.619608
0.262745 0.149020 0.631373
0.403922 0.160784 0.639216
0.533333 0.180392 0.654902
0.619608 0.203922 0.674510
0.709804 0.247059 0.709804
0.796078 0.117647 0.717647
0.098039 0.219608 0.576471
0.098039 0.207843 0.603922
0.152941 0.192157 0.627451
0.266667 0.184314 0.635294
0.415686 0.192157 0.647059
0.537255 0.211765 0.662745
0.623529 0.239216 0.686275
0.713726 0.274510 0.713726
0.796078 0.121569 0.721569
0.105882 0.290196 0.596078
0.105882 0.282353 0.615686
0.160784 0.266667 0.643137
0.274510 0.254902 0.654902
0.423529 0.258824 0.662745
0.549020 0.286275 0.682353
0.639216 0.313726 0.698039
0.725490 0.352941 0.725490
0.811765 0.172549 0.737255
0.129412 0.388235 0.627451
0.125490 0.431373 0.639216
0.168627 0.431373 0.666667
0.282353 0.403922 0.686275
0.443137 0.392157 0.698039
0.580392 0.415686 0.713726
0.670588 0.443137 0.729412
0.749020 0.462745 0.745098
0.823529 0.274510 0.749020
0.145098 0.501961 0.682353
0.141176 0.509804 0.698039
0.200000 0.529412 0.713726
0.313726 0.537255 0.729412
0.458824 0.556863 0.737255
0.611765 0.549020 0.737255
0.682353 0.572549 0.752941
0.764706 0.576471 0.760784
0.839216 0.419608 0.756863
0.152941 0.592157 0.725490
0.168627 0.600000 0.745098
0.247059 0.611765 0.745098
0.352941 0.627451 0.749020
0.494118 0.643137 0.756863
0.623529 0.662745 0.752941
0.705882 0.666667 0.760784
0.788235 0.662745 0.772549
0.862745 0.560784 0.764706
0.160784 0.654902 0.772549
0.192157 0.674510 0.772549
0.262745 0.678431 0.772549
0.380392 0.705882 0.768627
0.529412 0.721569 0.768627
0.647059 0.729412 0.772549
0.721569 0.737255 0.772549
0.803922 0.741176 0.764706
0.886275 0.701961 0.764706
0.164706 0.749020 0.811765
0.180392 0.749020 0.819608
0.266667 0.764706 0.815686
0.400000 0.776471 0.807843
0.560784 0.792157 0.800000
0.658824 0.807843 0.800000
0.745098 0.819608 0.803922
0.811765 0.831373 0.784314
0.905882 0.807843 0.760784
0.376471 0.854902 0.894118
0.415686 0.870588 0.894118
0.494118 0.874510 0.894118
0.600000 0.890196 0.886275
0.662745 0.894118 0.874510
0.717647 0.898039 0.874510
0.772549 0.901961 0.874510
0.839216 0.909804 0.870588
0.909804 0.921569 0.811765
0.101961 0.270588 0.678431
0.105882 0.250980 0.694118
0.121569 0.215686 0.721569
0.243137 0.203922 0.741176
0.407843 0.200000 0.749020
0.560784 0.207843 0.756863
0.639216 0.231373 0.772549
0.725490 0.278431 0.796078
0.811765 0.239216 0.811765
0.105882 0.305882 0.686275
0.109804 0.294118 0.709804
0.125490 0.262745 0.729412
0.250980 0.247059 0.745098
0.415686 0.243137 0.760784
0.564706 0.250980 0.768627
0.643137 0.274510 0.784314
0.733333 0.317647 0.803922
0.811765 0.262745 0.811765
0.121569 0.380392 0.709804
0.117647 0.384314 0.721569
0.133333 0.360784 0.749020
0.258824 0.341176 0.764706
0.419608 0.325490 0.780392
0.576471 0.329412 0.784314
0.662745 0.352941 0.796078
0.749020 0.400000 0.811765
0.827451 0.333333 0.835294
0.145098 0.466667 0.756863
0.145098 0.470588 0.764706
0.145098 0.505882 0.780392
0.270588 0.490196 0.792157
0.435294 0.478431 0.803922
0.600000 0.466667 0.811765
0.678431 0.486275 0.811765
0.756863 0.521569 0.835294
0.850980 0.443137 0.847059
0.149020 0.556863 0.776471
0.156863 0.568627 0.796078
0.164706 0.576471 0.831373
0.282353 0.580392 0.847059
0.439216 0.607843 0.819608
0.607843 0.600000 0.835294
0.709804 0.600000 0.843137
0.776471 0.623529 0.843137
0.870588 0.556863 0.854902
0.164706 0.623529 0.803922
0.156863 0.627451 0.823529
0.176471 0.643137 0.854902
0.278431 0.654902 0.854902
0.443137 0.662745 0.850980
0.619608 0.686275 0.850980
0.709804 0.682353 0.850980
0.788235 0.694118 0.847059
0.878431 0.650980 0.858824
0.164706 0.678431 0.847059
0.160784 0.682353 0.858824
0.231373 0.701961 0.858824
0.345098 0.709804 0.862745
0.486275 0.737255 0.858824
0.627451 0.752941 0.850980
0.717647 0.752941 0.854902
0.807843 0.752941 0.854902
0.890196 0.725490 0.858824
0.164706 0.756863 0.894118
0.188235 0.752941 0.890196
0.262745 0.764706 0.890196
0.396078 0.780392 0.882353
0.529412 0.807843 0.870588
0.654902 0.823529 0.866667
0.733333 0.835294 0.858824
0.819608 0.835294 0.858824
0.901961 0.811765 0.847059
0.270588 0.847059 0.949020
0.317647 0.858824 0.945098
0.400000 0.870588 0.929412
0.533333 0.878431 0.913725
0.639216 0.894118 0.909804
0.709804 0.898039 0.905882
0.768627 0.909804 0.901961
0.831373 0.913725 0.894118
0.905882 0.925490 0.862745
0.145098 0.576471 0.890196
0.145098 0.568627 0.890196
0.145098 0.556863 0.901961
0.141176 0.501961 0.905882
0.301961 0.482353 0.913725
0.517647 0.458824 0.925490
0.658824 0.423529 0.921569
0.756863 0.396078 0.921569
0.862745 0.525490 0.945098
0.164706 0.549020 0.917647
0.160784 0.545098 0.925490
0.145098 0.576471 0.901961
0.145098 0.541176 0.913725
0.298039 0.521569 0.917647
0.525490 0.505882 0.945098
0.658824 0.470588 0.945098
0.764706 0.443137 0.933333
0.862745 0.560784 0.952941
0.168627 0.572549 0.929412
0.164706 0.580392 0.952941
0.160784 0.564706 0.952941
0.149020 0.603922 0.925490
0.298039 0.592157 0.937255
0.517647 0.580392 0.945098
0.678431 0.545098 0.952941
0.776471 0.521569 0.949020
0.874510 0.607843 0.956863
0.168627 0.611765 0.949020
0.172549 0.607843 0.960784
0.164706 0.607843 0.964706
0.176471 0.600000 0.980392
0.290196 0.647059 0.952941
0.529412 0.647059 0.956863
0.682353 0.639216 0.960784
0.784314 0.619608 0.956863
0.874510 0.662745 0.960784
0.164706 0.643137 0.968627
0.168627 0.647059 0.964706
0.172549 0.643137 0.972549
0.168627 0.643137 0.984314
0.294118 0.650980 0.984314
0.509804 0.698039 0.960784
0.682353 0.698039 0.956863
0.800000 0.682353 0.956863
0.886275 0.709804 0.956863
0.168627 0.682353 0.964706
0.172549 0.678431 0.968627
0.172549 0.678431 0.976471
0.168627 0.682353 1.000000
0.270588 0.701961 0.992157
0.498039 0.741176 0.956863
0.678431 0.749020 0.960784
0.792157 0.737255 0.956863
0.890196 0.745098 0.952941
0.168627 0.721569 0.976471
0.172549 0.725490 0.980392
0.172549 0.729412 0.988235
0.172549 0.737255 1.000000
0.247059 0.745098 1.000000
0.474510 0.772549 0.980392
0.674510 0.796078 0.960784
0.803922 0.780392 0.960784
0.894118 0.792157 0.952941
0.168627 0.768627 0.992157
0.172549 0.768627 0.996078
0.168627 0.772549 1.000000
0.172549 0.780392 1.000000
0.250980 0.792157 1.000000
0.443137 0.815686 0.992157
0.670588 0.847059 0.976471
0.792157 0.862745 0.956863
0.901961 0.850980 0.945098
0.196078 0.827451 1.000000
0.223529 0.831373 1.000000
0.286275 0.847059 1.000000
0.356863 0.858824 1.000000
0.490196 0.874510 1.000000
0.631373 0.894118 0.972549
0.721569 0.913725 0.972549
0.815686 0.913725 0.956863
0.909804 0.929412 0.945098
