cubelut/FILM-FJC_FUJIFILM_CLEAR_M_LUT.cube
TITLE "Photo Curves LUT"
LUT_3D_SIZE 5
0.07058823529411765 0.058823529411764705 0.06274509803921569
0.19607843137254902 0.12941176470588237 0.12941176470588237
0.6745098039215687 0.2627450980392157 0.25098039215686274
0.8274509803921568 0.3137254901960784 0.2823529411764706
0.8666666666666667 0.34901960784313724 0.3058823529411765
0.17254901960784313 0.24313725490196078 0.15294117647058825
0.2627450980392157 0.27450980392156865 0.17254901960784313
0.6784313725490196 0.3686274509803922 0.24705882352941178
0.8156862745098039 0.43529411764705883 0.26666666666666666
0.8588235294117647 0.4823529411764706 0.27058823529411763
0.22745098039215686 0.6705882352941176 0.17647058823529413
0.3843137254901961 0.6862745098039216 0.1843137254901961
0.7098039215686275 0.6901960784313725 0.23137254901960785
0.8509803921568627 0.7215686274509804 0.27058823529411763
0.9019607843137255 0.7490196078431373 0.2823529411764706
0.2627450980392157 0.8392156862745098 0.1843137254901961
0.5098039215686274 0.8588235294117647 0.20392156862745098
0.8 0.8901960784313725 0.2549019607843137
0.8705882352941177 0.8431372549019608 0.27058823529411763
0.9176470588235294 0.8627450980392157 0.28627450980392155
0.30196078431372547 0.9215686274509803 0.2
0.592156862745098 0.9333333333333333 0.2235294117647059
0.8392156862745098 0.9490196078431372 0.27058823529411763
0.9411764705882353 0.9568627450980393 0.28627450980392155
0.9411764705882353 0.9215686274509803 0.29411764705882354
0.09803921568627451 0.08627450980392157 0.10588235294117647
0.18823529411764706 0.13333333333333333 0.1568627450980392
0.6784313725490196 0.27058823529411763 0.396078431372549
0.8352941176470589 0.3215686274509804 0.5450980392156862
0.8745098039215686 0.34509803921568627 0.6392156862745098
0.16862745098039217 0.23921568627450981 0.16470588235294117
0.24313725490196078 0.25882352941176473 0.18823529411764706
0.6509803921568628 0.4 0.34901960784313724
0.8196078431372549 0.5137254901960784 0.49411764705882355
0.8980392156862745 0.6039215686274509 0.6235294117647059
0.2196078431372549 0.6627450980392157 0.19215686274509805
0.3803921568627451 0.6627450980392157 0.24705882352941178
0.6862745098039216 0.6862745098039216 0.30980392156862746
0.8588235294117647 0.7333333333333333 0.45098039215686275
0.9176470588235294 0.7843137254901961 0.5450980392156862
0.2196078431372549 0.8392156862745098 0.20392156862745098
0.5333333333333333 0.8705882352941177 0.3568627450980392
0.7725490196078432 0.8901960784313725 0.4117647058823529
0.8745098039215686 0.8745098039215686 0.4627450980392157
0.9372549019607843 0.8980392156862745 0.5647058823529412
0.2196078431372549 0.9215686274509803 0.2235294117647059
0.6196078431372549 0.9607843137254902 0.49411764705882355
0.8196078431372549 0.9647058823529412 0.5098039215686274
0.9372549019607843 0.9725490196078431 0.5411764705882353
0.9607843137254902 0.9568627450980393 0.5725490196078431
0.20392156862745098 0.12549019607843137 0.5882352941176471
0.33725490196078434 0.15294117647058825 0.6352941176470588
0.6627450980392157 0.21568627450980393 0.6745098039215687
0.8352941176470589 0.27450980392156865 0.7529411764705882
0.8823529411764706 0.30196078431372547 0.788235294117647
0.17254901960784313 0.2235294117647059 0.6196078431372549
0.3058823529411765 0.2549019607843137 0.6352941176470588
0.6470588235294118 0.36470588235294116 0.6588235294117647
0.8431372549019608 0.5137254901960784 0.7647058823529411
0.9254901960784314 0.6039215686274509 0.8274509803921568
0.19215686274509805 0.6549019607843137 0.6431372549019608
0.3215686274509804 0.6627450980392157 0.6627450980392157
0.6549019607843137 0.6901960784313725 0.6627450980392157
0.8745098039215686 0.796078431372549 0.7803921568627451
0.9450980392156862 0.8588235294117647 0.8431372549019608
0.2196078431372549 0.8509803921568627 0.6705882352941176
0.45098039215686275 0.8823529411764706 0.6980392156862745
0.7568627450980392 0.9137254901960784 0.7372549019607844
0.8941176470588236 0.9137254901960784 0.7647058823529411
0.9607843137254902 0.9333333333333333 0.8235294117647058
0.23529411764705882 0.9490196078431372 0.7333333333333333
0.5098039215686274 0.9647058823529412 0.7411764705882353
0.8235294117647058 0.9803921568627451 0.796078431372549
0.9294117647058824 0.9921568627450981 0.8117647058823529
0.9803921568627451 0.996078431372549 0.8274509803921568
0.2196078431372549 0.12549019607843137 0.807843137254902
0.41568627450980394 0.16470588235294117 0.8196078431372549
0.7137254901960784 0.21176470588235294 0.8274509803921568
0.8235294117647058 0.2549019607843137 0.807843137254902
0.8901960784313725 0.2823529411764706 0.8352941176470589
0.16862745098039217 0.23529411764705882 0.8196078431372549
0.37254901960784315 0.30196078431372547 0.8196078431372549
0.7058823529411765 0.4117647058823529 0.8196078431372549
0.8352941176470589 0.49019607843137253 0.8352941176470589
0.9294117647058824 0.596078431372549 0.8901960784313725
0.20392156862745098 0.596078431372549 0.8196078431372549
0.4 0.6274509803921569 0.8431372549019608
0.7058823529411765 0.7137254901960784 0.8627450980392157
0.8705882352941177 0.792156862745098 0.8745098039215686
0.9568627450980393 0.8627450980392157 0.9215686274509803
0.24705882352941178 0.7294117647058823 0.8627450980392157
0.4823529411764706 0.803921568627451 0.8823529411764706
0.7372549019607844 0.8941176470588236 0.8980392156862745
0.8823529411764706 0.9215686274509803 0.8862745098039215
0.9686274509803922 0.9490196078431372 0.9254901960784314
0.29411764705882354 0.8941176470588236 0.9529411764705882
0.5568627450980392 0.9725490196078431 0.9686274509803922
0.792156862745098 0.9882352941176471 0.9019607843137255
0.9294117647058824 1.0 0.9098039215686274
0.9764705882352941 1.0 0.9215686274509803
0.16470588235294117 0.10980392156862745 0.8823529411764706
0.403921568627451 0.18823529411764706 0.8941176470588236
0.7450980392156863 0.23529411764705882 0.8862745098039215
0.8666666666666667 0.26666666666666666 0.8784313725490196
0.8941176470588236 0.2823529411764706 0.8509803921568627
0.16470588235294117 0.3215686274509804 0.8823529411764706
0.36470588235294116 0.36470588235294116 0.8745098039215686
0.7411764705882353 0.48627450980392156 0.8862745098039215
0.8745098039215686 0.5490196078431373 0.9098039215686274
0.9294117647058824 0.592156862745098 0.9058823529411765
0.2196078431372549 0.6196078431372549 0.8980392156862745
0.4980392156862745 0.6705882352941176 0.9215686274509803
0.7450980392156863 0.7607843137254902 0.9333333333333333
0.8980392156862745 0.8196078431372549 0.9450980392156862
0.9568627450980393 0.8509803921568627 0.9490196078431372
0.33725490196078434 0.7333333333333333 0.9254901960784314
0.5647058823529412 0.803921568627451 0.9333333333333333
0.7764705882352941 0.8901960784313725 0.9529411764705882
0.8980392156862745 0.9254901960784314 0.9568627450980393
0.9686274509803922 0.9490196078431372 0.9647058823529412
0.396078431372549 0.8392156862745098 0.9568627450980393
0.6 0.9215686274509803 0.9725490196078431
0.796078431372549 0.9921568627450981 0.9764705882352941
0.9137254901960784 1.0 0.9686274509803922
0.9803921568627451 1.0 0.9725490196078431
