cubelut/FILM-KSU_KONICA_SUPER_100_LUT.cube
TITLE "Photo Curves LUT"
LUT_3D_SIZE 33
0.1411764705882353 0.08627450980392157 0.0784313725490196
0.1411764705882353 0.08627450980392157 0.0784313725490196
0.15294117647058825 0.09019607843137255 0.08627450980392157
0.15294117647058825 0.09019607843137255 0.08627450980392157
0.1607843137254902 0.08627450980392157 0.08627450980392157
0.17647058823529413 0.09019607843137255 0.09019607843137255
0.2 0.09019607843137255 0.09019607843137255
0.2235294117647059 0.09411764705882353 0.09411764705882353
0.24313725490196078 0.09411764705882353 0.09411764705882353
0.2784313725490196 0.10196078431372549 0.10588235294117647
0.3058823529411765 0.10196078431372549 0.10588235294117647
0.3411764705882353 0.10980392156862745 0.11764705882352941
0.3803921568627451 0.11372549019607843 0.11764705882352941
0.41568627450980394 0.11372549019607843 0.12156862745098039
0.4588235294117647 0.11764705882352941 0.12549019607843137
0.5019607843137255 0.11764705882352941 0.12549019607843137
0.5450980392156862 0.11372549019607843 0.12549019607843137
0.5882352941176471 0.11764705882352941 0.12941176470588237
0.6352941176470588 0.11372549019607843 0.12549019607843137
0.6745098039215687 0.11372549019607843 0.12549019607843137
0.7137254901960784 0.10980392156862745 0.12549019607843137
0.7568627450980392 0.10980392156862745 0.12156862745098039
0.796078431372549 0.10980392156862745 0.12156862745098039
0.8313725490196079 0.10588235294117647 0.11764705882352941
0.8705882352941177 0.10196078431372549 0.11764705882352941
0.8980392156862745 0.10196078431372549 0.11372549019607843
0.9254901960784314 0.10196078431372549 0.11372549019607843
0.9529411764705882 0.10196078431372549 0.11764705882352941
0.9764705882352941 0.09803921568627451 0.11764705882352941
0.996078431372549 0.09803921568627451 0.11372549019607843
1.0 0.09803921568627451 0.11372549019607843
1.0 0.09803921568627451 0.11764705882352941
1.0 0.09803921568627451 0.11764705882352941
0.1450980392156863 0.09411764705882353 0.08627450980392157
0.1411764705882353 0.08627450980392157 0.0784313725490196
0.15294117647058825 0.09019607843137255 0.08627450980392157
0.15294117647058825 0.09019607843137255 0.08235294117647059
0.1607843137254902 0.09019607843137255 0.08627450980392157
0.17647058823529413 0.09019607843137255 0.08627450980392157
0.19607843137254902 0.09019607843137255 0.09019607843137255
0.2235294117647059 0.09411764705882353 0.09019607843137255
0.25098039215686274 0.09803921568627451 0.09803921568627451
0.2784313725490196 0.10196078431372549 0.10196078431372549
0.30980392156862746 0.10588235294117647 0.10196078431372549
0.34509803921568627 0.10980392156862745 0.10980392156862745
0.3803921568627451 0.11372549019607843 0.10980392156862745
0.41568627450980394 0.11372549019607843 0.11764705882352941
0.4627450980392157 0.11764705882352941 0.11764705882352941
0.5019607843137255 0.11764705882352941 0.12156862745098039
0.5450980392156862 0.11764705882352941 0.12156862745098039
0.5882352941176471 0.11372549019607843 0.12156862745098039
0.6352941176470588 0.11372549019607843 0.12156862745098039
0.6745098039215687 0.11764705882352941 0.12156862745098039
0.7137254901960784 0.11372549019607843 0.11764705882352941
0.7529411764705882 0.10980392156862745 0.11372549019607843
0.796078431372549 0.10980392156862745 0.11764705882352941
0.8392156862745098 0.10980392156862745 0.11372549019607843
0.8705882352941177 0.10196078431372549 0.10980392156862745
0.9019607843137255 0.10196078431372549 0.10588235294117647
0.9254901960784314 0.10196078431372549 0.10980392156862745
0.9568627450980393 0.10196078431372549 0.10588235294117647
0.9803921568627451 0.10196078431372549 0.10588235294117647
0.996078431372549 0.09803921568627451 0.10588235294117647
1.0 0.09803921568627451 0.10196078431372549
1.0 0.09803921568627451 0.10588235294117647
1.0 0.09803921568627451 0.10588235294117647
0.1450980392156863 0.10196078431372549 0.08235294117647059
0.1450980392156863 0.10196078431372549 0.08235294117647059
0.1450980392156863 0.09411764705882353 0.08235294117647059
0.15294117647058825 0.09411764705882353 0.08235294117647059
0.1607843137254902 0.09411764705882353 0.08235294117647059
0.17647058823529413 0.09803921568627451 0.09019607843137255
0.19215686274509805 0.09411764705882353 0.08627450980392157
0.21568627450980393 0.09803921568627451 0.09019607843137255
0.23921568627450981 0.09803921568627451 0.09019607843137255
0.2784313725490196 0.10196078431372549 0.09803921568627451
0.30980392156862746 0.10588235294117647 0.10196078431372549
0.3411764705882353 0.11372549019607843 0.10588235294117647
0.3843137254901961 0.11372549019607843 0.10588235294117647
0.4196078431372549 0.11372549019607843 0.10980392156862745
0.4627450980392157 0.11764705882352941 0.10980392156862745
0.5019607843137255 0.11764705882352941 0.11764705882352941
0.5450980392156862 0.11372549019607843 0.11372549019607843
0.5882352941176471 0.11372549019607843 0.11764705882352941
0.6352941176470588 0.11764705882352941 0.11372549019607843
0.6666666666666666 0.11372549019607843 0.11372549019607843
0.7137254901960784 0.11372549019607843 0.10980392156862745
0.7529411764705882 0.10980392156862745 0.10980392156862745
0.796078431372549 0.10980392156862745 0.10980392156862745
0.8313725490196079 0.10588235294117647 0.10588235294117647
0.8666666666666667 0.10588235294117647 0.10196078431372549
0.8980392156862745 0.10196078431372549 0.10196078431372549
0.9254901960784314 0.10196078431372549 0.10196078431372549
0.9490196078431372 0.10196078431372549 0.09803921568627451
0.9764705882352941 0.10196078431372549 0.09803921568627451
0.9921568627450981 0.10196078431372549 0.09803921568627451
1.0 0.10196078431372549 0.09803921568627451
1.0 0.10196078431372549 0.09803921568627451
1.0 0.10196078431372549 0.10196078431372549
0.1450980392156863 0.10588235294117647 0.08235294117647059
0.1450980392156863 0.10588235294117647 0.08235294117647059
0.1568627450980392 0.10980392156862745 0.09019607843137255
0.15294117647058825 0.10196078431372549 0.08235294117647059
0.16470588235294117 0.10588235294117647 0.09019607843137255
0.17647058823529413 0.10196078431372549 0.08627450980392157
0.1843137254901961 0.10196078431372549 0.08235294117647059
0.20392156862745098 0.10196078431372549 0.09019607843137255
0.22745098039215686 0.10196078431372549 0.09019607843137255
0.26666666666666666 0.10980392156862745 0.09803921568627451
0.29411764705882354 0.10980392156862745 0.09803921568627451
0.3333333333333333 0.11764705882352941 0.10588235294117647
0.37254901960784315 0.11764705882352941 0.10588235294117647
0.41568627450980394 0.12156862745098039 0.10980392156862745
0.4627450980392157 0.12549019607843137 0.11372549019607843
0.4980392156862745 0.12156862745098039 0.11372549019607843
0.5450980392156862 0.12156862745098039 0.11372549019607843
0.5882352941176471 0.12156862745098039 0.11764705882352941
0.6352941176470588 0.12156862745098039 0.11372549019607843
0.6705882352941176 0.12156862745098039 0.11372549019607843
0.7137254901960784 0.11764705882352941 0.10980392156862745
0.7490196078431373 0.11372549019607843 0.10980392156862745
0.796078431372549 0.11764705882352941 0.10980392156862745
0.8313725490196079 0.11372549019607843 0.10588235294117647
0.8705882352941177 0.11372549019607843 0.10588235294117647
0.8980392156862745 0.11372549019607843 0.10196078431372549
0.9254901960784314 0.10980392156862745 0.10196078431372549
0.9529411764705882 0.10980392156862745 0.10196078431372549
0.9686274509803922 0.11372549019607843 0.09411764705882353
0.9882352941176471 0.11372549019607843 0.09803921568627451
1.0 0.11372549019607843 0.09411764705882353
1.0 0.11372549019607843 0.09803921568627451
1.0 0.11764705882352941 0.10196078431372549
0.15294117647058825 0.12549019607843137 0.08627450980392157
0.15294117647058825 0.12549019607843137 0.08627450980392157
0.15294117647058825 0.12549019607843137 0.08627450980392157
0.1607843137254902 0.12156862745098039 0.08627450980392157
0.1568627450980392 0.10980392156862745 0.08235294117647059
0.16862745098039217 0.10980392156862745 0.08235294117647059
0.1843137254901961 0.11372549019607843 0.08627450980392157
0.20392156862745098 0.11764705882352941 0.09019607843137255
0.22745098039215686 0.11764705882352941 0.09411764705882353
0.2549019607843137 0.11372549019607843 0.09411764705882353
0.28627450980392155 0.11764705882352941 0.09803921568627451
0.32941176470588235 0.12549019607843137 0.10588235294117647
0.36470588235294116 0.12549019607843137 0.10588235294117647
0.403921568627451 0.12549019607843137 0.10980392156862745
0.4549019607843137 0.12941176470588237 0.10980392156862745
0.49019607843137253 0.12941176470588237 0.11372549019607843
0.5372549019607843 0.12941176470588237 0.11372549019607843
0.5843137254901961 0.12941176470588237 0.11372549019607843
0.6274509803921569 0.12549019607843137 0.11372549019607843
0.6666666666666666 0.12549019607843137 0.10980392156862745
0.7098039215686275 0.12549019607843137 0.10980392156862745
0.7529411764705882 0.12549019607843137 0.10980392156862745
0.796078431372549 0.12549019607843137 0.10588235294117647
0.8274509803921568 0.12549019607843137 0.10196078431372549
0.8666666666666667 0.12549019607843137 0.10196078431372549
0.8980392156862745 0.12549019607843137 0.10196078431372549
0.9254901960784314 0.12549019607843137 0.10196078431372549
0.9490196078431372 0.12549019607843137 0.09411764705882353
0.9725490196078431 0.12549019607843137 0.09803921568627451
0.9882352941176471 0.12549019607843137 0.09411764705882353
1.0 0.12941176470588237 0.09411764705882353
1.0 0.12549019607843137 0.09019607843137255
1.0 0.12941176470588237 0.09411764705882353
0.15294117647058825 0.13725490196078433 0.08235294117647059
0.1568627450980392 0.1411764705882353 0.09019607843137255
0.1607843137254902 0.13725490196078433 0.09019607843137255
0.16470588235294117 0.13725490196078433 0.09019607843137255
0.16862745098039217 0.13333333333333333 0.08627450980392157
0.16862745098039217 0.12156862745098039 0.08627450980392157
0.1803921568627451 0.12156862745098039 0.08627450980392157
0.2 0.12549019607843137 0.09019607843137255
0.2196078431372549 0.12549019607843137 0.09411764705882353
0.24313725490196078 0.12549019607843137 0.09411764705882353
0.28627450980392155 0.13333333333333333 0.10196078431372549
0.3176470588235294 0.13725490196078433 0.10588235294117647
0.3607843137254902 0.13725490196078433 0.10980392156862745
0.4 0.13725490196078433 0.10980392156862745
0.4470588235294118 0.1411764705882353 0.11372549019607843
0.49019607843137253 0.1411764705882353 0.11372549019607843
0.5333333333333333 0.1411764705882353 0.11764705882352941
0.5803921568627451 0.1411764705882353 0.11372549019607843
0.6274509803921569 0.1411764705882353 0.11372549019607843
0.6627450980392157 0.13725490196078433 0.10980392156862745
0.7098039215686275 0.13725490196078433 0.10980392156862745
0.7529411764705882 0.1411764705882353 0.10980392156862745
0.792156862745098 0.13725490196078433 0.10588235294117647
0.8313725490196079 0.13725490196078433 0.10196078431372549
0.8627450980392157 0.1411764705882353 0.10196078431372549
0.8941176470588236 0.13725490196078433 0.09411764705882353
0.9215686274509803 0.13725490196078433 0.09411764705882353
0.9450980392156862 0.1411764705882353 0.09411764705882353
0.9686274509803922 0.1450980392156863 0.09411764705882353
0.984313725490196 0.1450980392156863 0.09019607843137255
1.0 0.14901960784313725 0.09411764705882353
1.0 0.14901960784313725 0.09019607843137255
1.0 0.1568627450980392 0.09019607843137255
0.1568627450980392 0.1568627450980392 0.09019607843137255
0.1607843137254902 0.1568627450980392 0.09019607843137255
0.16862745098039217 0.1568627450980392 0.09411764705882353
0.16862745098039217 0.15294117647058825 0.09019607843137255
0.1803921568627451 0.15294117647058825 0.09411764705882353
0.1843137254901961 0.15294117647058825 0.09411764705882353
0.1843137254901961 0.13333333333333333 0.09019607843137255
0.19607843137254902 0.13725490196078433 0.09411764705882353
0.21568627450980393 0.1411764705882353 0.09411764705882353
0.24705882352941178 0.1450980392156863 0.10196078431372549
0.2784313725490196 0.1450980392156863 0.10588235294117647
0.3137254901960784 0.14901960784313725 0.10588235294117647
0.35294117647058826 0.14901960784313725 0.10980392156862745
0.403921568627451 0.15294117647058825 0.11372549019607843
0.44313725490196076 0.15294117647058825 0.11764705882352941
0.49019607843137253 0.15294117647058825 0.11372549019607843
0.5333333333333333 0.15294117647058825 0.11372549019607843
0.5843137254901961 0.15294117647058825 0.11372549019607843
0.6274509803921569 0.15294117647058825 0.11372549019607843
0.6627450980392157 0.15294117647058825 0.10980392156862745
0.7098039215686275 0.15294117647058825 0.10980392156862745
0.7490196078431373 0.1568627450980392 0.10588235294117647
0.788235294117647 0.1568627450980392 0.10588235294117647
0.8235294117647058 0.1568627450980392 0.10196078431372549
0.8588235294117647 0.1607843137254902 0.10196078431372549
0.8941176470588236 0.1607843137254902 0.09411764705882353
0.9176470588235294 0.1607843137254902 0.09019607843137255
0.9411764705882353 0.1607843137254902 0.09019607843137255
0.9647058823529412 0.16470588235294117 0.08627450980392157
0.9764705882352941 0.16862745098039217 0.08627450980392157
0.996078431372549 0.17254901960784313 0.09019607843137255
1.0 0.17647058823529413 0.09019607843137255
1.0 0.17647058823529413 0.09019607843137255
0.1607843137254902 0.17254901960784313 0.09019607843137255
0.16862745098039217 0.1803921568627451 0.09411764705882353
0.17254901960784313 0.17647058823529413 0.09411764705882353
0.1803921568627451 0.1803921568627451 0.10196078431372549
0.18823529411764706 0.17647058823529413 0.09803921568627451
0.19607843137254902 0.1803921568627451 0.10196078431372549
0.2 0.16862745098039217 0.10196078431372549
0.2 0.15294117647058825 0.09411764705882353
0.21568627450980393 0.15294117647058825 0.09803921568627451
0.24313725490196078 0.1607843137254902 0.10196078431372549
0.27058823529411763 0.1607843137254902 0.10588235294117647
0.3058823529411765 0.16470588235294117 0.10980392156862745
0.34901960784313724 0.16862745098039217 0.10980392156862745
0.39215686274509803 0.16470588235294117 0.11372549019607843
0.43529411764705883 0.16862745098039217 0.11372549019607843
0.48627450980392156 0.17254901960784313 0.11764705882352941
0.5333333333333333 0.17254901960784313 0.11372549019607843
0.5725490196078431 0.16862745098039217 0.11372549019607843
0.615686274509804 0.17254901960784313 0.11372549019607843
0.6627450980392157 0.17254901960784313 0.10980392156862745
0.7019607843137254 0.17254901960784313 0.10196078431372549
0.7450980392156863 0.17647058823529413 0.10196078431372549
0.7843137254901961 0.17254901960784313 0.09803921568627451
0.8196078431372549 0.17254901960784313 0.09411764705882353
0.8549019607843137 0.1803921568627451 0.09411764705882353
0.8862745098039215 0.1843137254901961 0.09411764705882353
0.9137254901960784 0.1843137254901961 0.09019607843137255
0.9372549019607843 0.18823529411764706 0.08627450980392157
0.9568627450980393 0.18823529411764706 0.08235294117647059
0.9725490196078431 0.19215686274509805 0.08235294117647059
0.9921568627450981 0.19607843137254902 0.08235294117647059
1.0 0.2 0.0784313725490196
1.0 0.2 0.08235294117647059
0.17254901960784313 0.20784313725490197 0.09411764705882353
0.17647058823529413 0.20784313725490197 0.10196078431372549
0.1803921568627451 0.20784313725490197 0.10196078431372549
0.1843137254901961 0.20784313725490197 0.09803921568627451
0.19215686274509805 0.20784313725490197 0.10196078431372549
0.20392156862745098 0.20392156862745098 0.10588235294117647
0.20784313725490197 0.20392156862745098 0.10588235294117647
0.21568627450980393 0.18823529411764706 0.10196078431372549
0.21568627450980393 0.17254901960784313 0.10196078431372549
0.23921568627450981 0.17647058823529413 0.10588235294117647
0.27058823529411763 0.1803921568627451 0.10588235294117647
0.30196078431372547 0.1843137254901961 0.10980392156862745
0.34509803921568627 0.18823529411764706 0.11372549019607843
0.38823529411764707 0.18823529411764706 0.11372549019607843
0.4392156862745098 0.18823529411764706 0.11372549019607843
0.4823529411764706 0.19215686274509805 0.11372549019607843
0.5215686274509804 0.18823529411764706 0.11372549019607843
0.5647058823529412 0.18823529411764706 0.10980392156862745
0.615686274509804 0.19215686274509805 0.10980392156862745
0.6509803921568628 0.19215686274509805 0.10588235294117647
0.6980392156862745 0.19215686274509805 0.10196078431372549
0.7411764705882353 0.19607843137254902 0.09803921568627451
0.7843137254901961 0.2 0.09803921568627451
0.8156862745098039 0.2 0.09411764705882353
0.8549019607843137 0.20392156862745098 0.09411764705882353
0.8823529411764706 0.20392156862745098 0.08627450980392157
0.9058823529411765 0.20784313725490197 0.08627450980392157
0.9333333333333333 0.21176470588235294 0.08235294117647059
0.9529411764705882 0.21568627450980393 0.0784313725490196
0.9686274509803922 0.2235294117647059 0.0784313725490196
0.9803921568627451 0.2196078431372549 0.0784313725490196
0.996078431372549 0.22745098039215686 0.08235294117647059
1.0 0.23137254901960785 0.0784313725490196
0.17647058823529413 0.23137254901960785 0.10196078431372549
0.1803921568627451 0.23137254901960785 0.10196078431372549
0.1843137254901961 0.23529411764705882 0.10196078431372549
0.18823529411764706 0.23529411764705882 0.10588235294117647
0.19607843137254902 0.23529411764705882 0.10980392156862745
0.20784313725490197 0.23137254901960785 0.10588235294117647
0.2196078431372549 0.23137254901960785 0.10980392156862745
0.23137254901960785 0.23137254901960785 0.10588235294117647
0.23529411764705882 0.21568627450980393 0.10980392156862745
0.23529411764705882 0.19215686274509805 0.10588235294117647
0.26666666666666666 0.19607843137254902 0.10980392156862745
0.30196078431372547 0.20392156862745098 0.11372549019607843
0.3411764705882353 0.20392156862745098 0.11372549019607843
0.38823529411764707 0.20784313725490197 0.11372549019607843
0.43529411764705883 0.21568627450980393 0.11372549019607843
0.4745098039215686 0.21176470588235294 0.11372549019607843
0.5176470588235295 0.21176470588235294 0.11372549019607843
0.5686274509803921 0.21568627450980393 0.10980392156862745
0.611764705882353 0.21176470588235294 0.10588235294117647
0.6509803921568628 0.21568627450980393 0.10196078431372549
0.6980392156862745 0.2196078431372549 0.09803921568627451
0.7372549019607844 0.2235294117647059 0.09803921568627451
0.7725490196078432 0.2235294117647059 0.09411764705882353
0.8156862745098039 0.22745098039215686 0.09019607843137255
0.8470588235294118 0.22745098039215686 0.08235294117647059
0.8784313725490196 0.23137254901960785 0.08627450980392157
0.9058823529411765 0.23529411764705882 0.0784313725490196
0.9254901960784314 0.23529411764705882 0.07450980392156863
0.9450980392156862 0.23921568627450981 0.07450980392156863
0.9647058823529412 0.24705882352941178 0.07450980392156863
0.9764705882352941 0.25098039215686274 0.07058823529411765
0.984313725490196 0.2549019607843137 0.07058823529411765
0.996078431372549 0.25882352941176473 0.07058823529411765
0.1803921568627451 0.25882352941176473 0.10196078431372549
0.1843137254901961 0.26666666666666666 0.10588235294117647
0.18823529411764706 0.26666666666666666 0.10588235294117647
0.19607843137254902 0.26666666666666666 0.10588235294117647
0.20392156862745098 0.26666666666666666 0.10980392156862745
0.21176470588235294 0.26666666666666666 0.10980392156862745
0.22745098039215686 0.26666666666666666 0.10980392156862745
0.24313725490196078 0.26666666666666666 0.10980392156862745
0.2627450980392157 0.26666666666666666 0.11372549019607843
0.2627450980392157 0.23921568627450981 0.11372549019607843
0.2627450980392157 0.2196078431372549 0.10980392156862745
0.2980392156862745 0.2235294117647059 0.11372549019607843
0.3333333333333333 0.2235294117647059 0.10980392156862745
0.3843137254901961 0.23137254901960785 0.11764705882352941
0.42745098039215684 0.23137254901960785 0.11764705882352941
0.47058823529411764 0.23529411764705882 0.11372549019607843
0.5137254901960784 0.23529411764705882 0.10980392156862745
0.5607843137254902 0.23529411764705882 0.10980392156862745
0.6078431372549019 0.23921568627450981 0.10196078431372549
0.6470588235294118 0.24313725490196078 0.09803921568627451
0.6901960784313725 0.23921568627450981 0.09411764705882353
0.7333333333333333 0.24705882352941178 0.09411764705882353
0.7686274509803922 0.25098039215686274 0.08627450980392157
0.8117647058823529 0.2549019607843137 0.08235294117647059
0.8431372549019608 0.2549019607843137 0.08235294117647059
0.8705882352941177 0.2627450980392157 0.0784313725490196
0.8980392156862745 0.2627450980392157 0.07450980392156863
0.9215686274509803 0.26666666666666666 0.07058823529411765
0.9411764705882353 0.27058823529411763 0.07058823529411765
0.9568627450980393 0.27450980392156865 0.06666666666666667
0.9647058823529412 0.2784313725490196 0.06666666666666667
0.9803921568627451 0.2823529411764706 0.07058823529411765
0.9882352941176471 0.28627450980392155 0.07058823529411765
0.1803921568627451 0.2901960784313726 0.10196078431372549
0.1843137254901961 0.2980392156862745 0.10588235294117647
0.18823529411764706 0.2980392156862745 0.10588235294117647
0.19607843137254902 0.30196078431372547 0.10588235294117647
0.20784313725490197 0.2980392156862745 0.10980392156862745
0.21568627450980393 0.30196078431372547 0.10980392156862745
0.23529411764705882 0.2980392156862745 0.10980392156862745
0.2549019607843137 0.2980392156862745 0.11372549019607843
0.27450980392156865 0.2980392156862745 0.11372549019607843
0.29411764705882354 0.2901960784313726 0.10980392156862745
0.2980392156862745 0.26666666666666666 0.11372549019607843
0.29411764705882354 0.24313725490196078 0.11372549019607843
0.3333333333333333 0.24705882352941178 0.11372549019607843
0.3803921568627451 0.25098039215686274 0.11372549019607843
0.42745098039215684 0.2549019607843137 0.11372549019607843
0.4666666666666667 0.25882352941176473 0.10980392156862745
0.5137254901960784 0.25882352941176473 0.10588235294117647
0.5568627450980392 0.2627450980392157 0.10588235294117647
0.6039215686274509 0.2627450980392157 0.10196078431372549
0.6431372549019608 0.26666666666666666 0.09803921568627451
0.6901960784313725 0.26666666666666666 0.09411764705882353
0.7254901960784313 0.27450980392156865 0.09019607843137255
0.7647058823529411 0.27058823529411763 0.08235294117647059
0.803921568627451 0.2784313725490196 0.08235294117647059
0.8392156862745098 0.2823529411764706 0.0784313725490196
0.8666666666666667 0.2901960784313726 0.07058823529411765
0.8901960784313725 0.28627450980392155 0.06666666666666667
0.9137254901960784 0.2901960784313726 0.06666666666666667
0.9294117647058824 0.2980392156862745 0.06274509803921569
0.9490196078431372 0.30196078431372547 0.058823529411764705
0.9607843137254902 0.3058823529411765 0.06274509803921569
0.9764705882352941 0.30980392156862746 0.06274509803921569
0.9803921568627451 0.3137254901960784 0.058823529411764705
0.1843137254901961 0.3254901960784314 0.10196078431372549
0.1843137254901961 0.32941176470588235 0.10196078431372549
0.18823529411764706 0.32941176470588235 0.10588235294117647
0.19607843137254902 0.32941176470588235 0.10588235294117647
0.20784313725490197 0.3333333333333333 0.10980392156862745
0.2196078431372549 0.3333333333333333 0.10980392156862745
0.23921568627450981 0.32941176470588235 0.10980392156862745
0.25882352941176473 0.32941176470588235 0.11372549019607843
0.2823529411764706 0.32941176470588235 0.10980392156862745
0.3058823529411765 0.3254901960784314 0.10980392156862745
0.3254901960784314 0.3137254901960784 0.10980392156862745
0.32941176470588235 0.29411764705882354 0.11372549019607843
0.3333333333333333 0.27058823529411763 0.11372549019607843
0.37254901960784315 0.27450980392156865 0.10980392156862745
0.4196078431372549 0.2784313725490196 0.10588235294117647
0.4666666666666667 0.2784313725490196 0.10980392156862745
0.5098039215686274 0.2823529411764706 0.10196078431372549
0.5529411764705883 0.28627450980392155 0.09803921568627451
