cubelut/FILM-SRV_KONICA_SRV_PRINT_LUT.cube
TITLE "Photo Curves LUT"
LUT_3D_SIZE 5
0.023529411764705882 0.043137254901960784 0.027450980392156862
0.2549019607843137 0.0 0.00392156862745098
0.5607843137254902 0.0 0.0
0.6862745098039216 0.0 0.00784313725490196
0.8274509803921568 0.0 0.03137254901960784
0.0 0.2235294117647059 0.0
0.1843137254901961 0.29411764705882354 0.0
0.5725490196078431 0.20784313725490197 0.0
0.7176470588235294 0.2549019607843137 0.0
0.9019607843137255 0.3215686274509804 0.0
0.0 0.4117647058823529 0.0
0.0 0.49019607843137253 0.0
0.5764705882352941 0.6313725490196078 0.0
0.8980392156862745 0.6901960784313725 0.0
0.9764705882352941 0.6666666666666666 0.0
0.0 0.6 0.0
0.0 0.6627450980392157 0.0
0.5411764705882353 0.8274509803921568 0.0
0.8274509803921568 0.9098039215686274 0.0
0.9647058823529412 0.9647058823529412 0.0
0.0 0.788235294117647 0.0
0.0 0.8392156862745098 0.0
0.5137254901960784 0.9686274509803922 0.0
0.7725490196078432 0.9725490196078431 0.0
0.9647058823529412 0.9647058823529412 0.0
0.03137254901960784 0.027450980392156862 0.23137254901960785
0.21568627450980393 0.0 0.20784313725490197
0.5450980392156862 0.0 0.12941176470588237
0.6901960784313725 0.0 0.1803921568627451
0.8274509803921568 0.0 0.23137254901960785
0.0 0.23921568627450981 0.15294117647058825
0.20392156862745098 0.24313725490196078 0.17647058823529413
0.5333333333333333 0.20784313725490197 0.16470588235294117
0.6941176470588235 0.25882352941176473 0.2196078431372549
0.8862745098039215 0.32941176470588235 0.2980392156862745
0.0 0.4235294117647059 0.0
0.0 0.45098039215686275 0.050980392156862744
0.5686274509803921 0.5764705882352941 0.12549019607843137
0.8235294117647058 0.6078431372549019 0.21176470588235294
0.9803921568627451 0.6235294117647059 0.3058823529411765
0.0 0.611764705882353 0.0
0.0 0.6509803921568628 0.058823529411764705
0.5568627450980392 0.7568627450980392 0.1411764705882353
0.8313725490196079 0.8666666666666667 0.17254901960784313
0.9764705882352941 0.8980392156862745 0.17254901960784313
0.0 0.788235294117647 0.0
0.0 0.8392156862745098 0.08627450980392157
0.5450980392156862 0.9254901960784314 0.13333333333333333
0.7725490196078432 0.9686274509803922 0.12156862745098039
0.9686274509803922 0.9607843137254902 0.09803921568627451
0.09803921568627451 0.0 0.5294117647058824
0.1411764705882353 0.0 0.5019607843137255
0.4980392156862745 0.0 0.4745098039215686
0.6823529411764706 0.0 0.4117647058823529
0.8156862745098039 0.0 0.43137254901960786
0.0196078431372549 0.20784313725490197 0.48627450980392156
0.17254901960784313 0.20784313725490197 0.48627450980392156
0.5176470588235295 0.0784313725490196 0.47843137254901963
0.6901960784313725 0.09411764705882353 0.4392156862745098
0.8745098039215686 0.2235294117647059 0.5019607843137255
0.0 0.4470588235294118 0.3607843137254902
0.0 0.4745098039215686 0.43529411764705883
0.5607843137254902 0.5176470588235295 0.5215686274509804
0.796078431372549 0.611764705882353 0.6235294117647059
0.984313725490196 0.6588235294117647 0.6784313725490196
0.0 0.6313725490196078 0.3058823529411765
0.0 0.6627450980392157 0.36470588235294116
0.615686274509804 0.7372549019607844 0.5490196078431373
0.8313725490196079 0.8196078431372549 0.6352941176470588
1.0 0.8392156862745098 0.6549019607843137
0.0 0.8117647058823529 0.2823529411764706
0.0 0.8470588235294118 0.33725490196078434
0.6039215686274509 0.9058823529411765 0.5372549019607843
0.8 0.9764705882352941 0.5764705882352941
0.9686274509803922 0.9607843137254902 0.596078431372549
0.10196078431372549 0.0 0.7411764705882353
0.1450980392156863 0.0 0.7254901960784313
0.40784313725490196 0.0 0.6705882352941176
0.6470588235294118 0.0 0.6352941176470588
0.803921568627451 0.0 0.6431372549019608
0.0 0.21176470588235294 0.6980392156862745
0.14901960784313725 0.18823529411764706 0.6980392156862745
0.45098039215686275 0.0196078431372549 0.6705882352941176
0.6666666666666666 0.0 0.6549019607843137
0.8313725490196079 0.0 0.6666666666666666
0.0 0.4980392156862745 0.6588235294117647
0.0 0.49019607843137253 0.6745098039215687
0.6274509803921569 0.5725490196078431 0.7490196078431373
0.7686274509803922 0.5294117647058824 0.7568627450980392
0.9725490196078431 0.6039215686274509 0.8392156862745098
0.0 0.6705882352941176 0.6509803921568628
0.0 0.7019607843137254 0.6941176470588235
0.6313725490196078 0.7529411764705882 0.7607843137254902
0.8352941176470589 0.7725490196078432 0.8235294117647058
0.996078431372549 0.8156862745098039 0.9333333333333333
0.0 0.8431372549019608 0.6078431372549019
0.0 0.8823529411764706 0.6588235294117647
0.5843137254901961 0.9176470588235294 0.7647058823529411
0.8352941176470589 0.9333333333333333 0.8745098039215686
0.9803921568627451 0.9490196078431372 0.9176470588235294
0.03137254901960784 0.0 0.9058823529411765
0.058823529411764705 0.0 0.8941176470588236
0.32941176470588235 0.0 0.8509803921568627
0.592156862745098 0.0 0.803921568627451
0.7647058823529411 0.0 0.796078431372549
0.0 0.18823529411764706 0.8627450980392157
0.08235294117647059 0.1568627450980392 0.8666666666666667
0.3843137254901961 0.0 0.8509803921568627
0.615686274509804 0.0 0.8156862745098039
0.796078431372549 0.0 0.8196078431372549
0.0 0.5019607843137255 0.8509803921568627
0.0 0.49411764705882355 0.8588235294117647
0.615686274509804 0.5764705882352941 0.9254901960784314
0.7607843137254902 0.5176470588235295 0.9176470588235294
0.9372549019607843 0.5137254901960784 0.9333333333333333
0.0 0.7254901960784313 0.8980392156862745
0.0 0.7333333333333333 0.9254901960784314
0.6470588235294118 0.7764705882352941 0.9686274509803922
0.8627450980392157 0.796078431372549 0.9803921568627451
0.984313725490196 0.7647058823529411 0.9803921568627451
0.0 0.8823529411764706 0.8705882352941177
0.0 0.9098039215686274 0.9019607843137255
0.6078431372549019 0.9411764705882353 0.9450980392156862
0.8392156862745098 0.9450980392156862 0.9686274509803922
0.9803921568627451 0.9411764705882353 0.9803921568627451
