cubelut/FILM-GG2_GRAY_&_GREEN_V.2_LUT.cube
TITLE "Photo Curves LUT"
LUT_3D_SIZE 5
0.0 0.0 0.0
0.19607843137254902 0.19607843137254902 0.19215686274509805
0.5098039215686274 0.5137254901960784 0.5098039215686274
0.8274509803921568 0.8274509803921568 0.8274509803921568
0.996078431372549 1.0 0.996078431372549
0.33725490196078434 0.33725490196078434 0.33725490196078434
0.21176470588235294 0.21176470588235294 0.20784313725490197
0.5333333333333333 0.5372549019607843 0.5333333333333333
0.8470588235294118 0.8470588235294118 0.8431372549019608
0.996078431372549 1.0 0.996078431372549
0.8156862745098039 0.8196078431372549 0.8156862745098039
0.6705882352941176 0.6705882352941176 0.6666666666666666
0.5490196078431373 0.5529411764705883 0.5490196078431373
0.8666666666666667 0.8705882352941177 0.8666666666666667
0.996078431372549 1.0 0.996078431372549
0.996078431372549 1.0 0.996078431372549
0.996078431372549 1.0 0.996078431372549
0.9450980392156862 0.9450980392156862 0.9450980392156862
0.8745098039215686 0.8784313725490196 0.8745098039215686
0.996078431372549 1.0 0.996078431372549
0.996078431372549 1.0 0.996078431372549
0.996078431372549 1.0 0.996078431372549
0.996078431372549 1.0 0.996078431372549
0.996078431372549 1.0 0.996078431372549
0.996078431372549 1.0 0.996078431372549
0.09803921568627451 0.10196078431372549 0.09803921568627451
0.20392156862745098 0.20784313725490197 0.20392156862745098
0.5215686274509804 0.5254901960784314 0.5215686274509804
0.8352941176470589 0.8352941176470589 0.8352941176470589
0.996078431372549 1.0 0.996078431372549
0.19215686274509805 0.19215686274509805 0.19215686274509805
0.19607843137254902 0.19607843137254902 0.19215686274509805
0.4588235294117647 0.20784313725490197 0.2235294117647059
0.7294117647058823 0.22745098039215686 0.2549019607843137
1.0 0.5529411764705883 0.5803921568627451
0.788235294117647 0.792156862745098 0.788235294117647
0.2 0.615686274509804 0.20784313725490197
0.5098039215686274 0.4980392156862745 0.16862745098039217
0.792156862745098 0.4980392156862745 0.26666666666666666
1.0 0.7215686274509804 0.5764705882352941
0.996078431372549 1.0 0.996078431372549
0.1607843137254902 1.0 0.1803921568627451
0.49411764705882355 0.9215686274509803 0.06274509803921569
0.8470588235294118 0.8196078431372549 0.15294117647058825
1.0 0.9019607843137255 0.5529411764705883
0.996078431372549 1.0 0.996078431372549
0.5333333333333333 1.0 0.5568627450980392
0.7137254901960784 1.0 0.39215686274509803
0.9333333333333333 1.0 0.3568627450980392
1.0 1.0 0.40784313725490196
0.2823529411764706 0.28627450980392155 0.2823529411764706
0.4666666666666667 0.47058823529411764 0.4666666666666667
0.5411764705882353 0.5411764705882353 0.5411764705882353
0.8509803921568627 0.8549019607843137 0.8509803921568627
0.996078431372549 1.0 0.996078431372549
0.27058823529411763 0.27058823529411763 0.27058823529411763
0.34901960784313724 0.34901960784313724 0.3843137254901961
0.4666666666666667 0.21568627450980393 0.4745098039215686
0.7450980392156863 0.23529411764705882 0.5176470588235295
1.0 0.5647058823529412 0.7607843137254902
0.5058823529411764 0.5098039215686274 0.5058823529411764
0.3215686274509804 0.47843137254901963 0.48627450980392156
0.5098039215686274 0.5137254901960784 0.5098039215686274
0.788235294117647 0.5411764705882353 0.5529411764705883
1.0 0.7490196078431373 0.7647058823529411
0.996078431372549 1.0 0.996078431372549
0.49019607843137253 1.0 0.8
0.5568627450980392 0.9490196078431372 0.5647058823529412
0.8431372549019608 0.8274509803921568 0.4980392156862745
1.0 0.9098039215686274 0.7568627450980392
0.996078431372549 1.0 0.996078431372549
0.7529411764705882 1.0 1.0
0.7725490196078432 1.0 0.7843137254901961
0.9176470588235294 1.0 0.6235294117647059
1.0 1.0 0.6078431372549019
0.49019607843137253 0.49019607843137253 0.49019607843137253
0.6823529411764706 0.6862745098039216 0.6823529411764706
0.8392156862745098 0.8431372549019608 0.8392156862745098
0.8627450980392157 0.8627450980392157 0.8627450980392157
0.996078431372549 1.0 0.996078431372549
0.43137254901960786 0.43529411764705883 0.43137254901960786
0.5176470588235295 0.5137254901960784 0.5843137254901961
0.45098039215686275 0.20392156862745098 0.6941176470588235
0.7490196078431373 0.24705882352941178 0.7647058823529411
1.0 0.5725490196078431 0.9450980392156862
0.5450980392156862 0.5490196078431373 0.5450980392156862
0.4980392156862745 0.5372549019607843 0.5764705882352941
0.6745098039215687 0.6784313725490196 0.7137254901960784
0.796078431372549 0.5529411764705883 0.807843137254902
1.0 0.7529411764705882 0.9411764705882353
0.8196078431372549 0.8235294117647058 0.8196078431372549
0.47058823529411764 0.7843137254901961 0.803921568627451
0.6509803921568628 0.807843137254902 0.8156862745098039
0.8313725490196079 0.8352941176470589 0.8313725490196079
1.0 0.9176470588235294 0.9254901960784314
0.996078431372549 1.0 0.996078431372549
0.8352941176470589 1.0 1.0
0.8980392156862745 1.0 1.0
0.9176470588235294 1.0 0.9215686274509803
1.0 1.0 0.803921568627451
0.7019607843137254 0.7058823529411765 0.7019607843137254
0.8627450980392157 0.8627450980392157 0.8627450980392157
0.996078431372549 1.0 0.996078431372549
0.996078431372549 1.0 0.996078431372549
0.996078431372549 1.0 0.996078431372549
0.6352941176470588 0.6352941176470588 0.6313725490196078
0.7333333333333333 0.7333333333333333 0.8
0.6196078431372549 0.4666666666666667 0.9137254901960784
0.8941176470588236 0.5607843137254902 1.0
1.0 0.5843137254901961 1.0
0.6745098039215687 0.6784313725490196 0.6745098039215687
0.7490196078431373 0.7529411764705882 0.7607843137254902
0.8549019607843137 0.8588235294117647 0.9058823529411765
0.8862745098039215 0.7254901960784313 1.0
1.0 0.7647058823529411 1.0
0.8392156862745098 0.8431372549019608 0.8392156862745098
0.6666666666666666 0.7803921568627451 0.8431372549019608
0.8392156862745098 0.8627450980392157 0.8980392156862745
0.9725490196078431 0.9686274509803922 1.0
1.0 0.9215686274509803 1.0
0.996078431372549 1.0 0.996078431372549
0.7450980392156863 1.0 1.0
0.8470588235294118 1.0 1.0
0.9215686274509803 1.0 1.0
0.996078431372549 1.0 0.996078431372549
