cubelut/FILM-FJC_FUJIFILM_CLEAR_M_LUT.cube
TITLE "Photo Curves LUT"
LUT_3D_SIZE 33
0.07058823529411765 0.058823529411764705 0.06274509803921569
0.07058823529411765 0.06274509803921569 0.06666666666666667
0.08235294117647059 0.06666666666666667 0.07058823529411765
0.09411764705882353 0.07450980392156863 0.0784313725490196
0.10588235294117647 0.0784313725490196 0.08627450980392157
0.11764705882352941 0.08627450980392157 0.09019607843137255
0.12941176470588237 0.09803921568627451 0.10196078431372549
0.1568627450980392 0.10980392156862745 0.11372549019607843
0.19607843137254902 0.12941176470588237 0.12941176470588237
0.2549019607843137 0.15294117647058825 0.15294117647058825
0.33725490196078434 0.17254901960784313 0.17254901960784313
0.40784313725490196 0.18823529411764706 0.19215686274509805
0.4823529411764706 0.20392156862745098 0.20392156862745098
0.5411764705882353 0.2235294117647059 0.2196078431372549
0.596078431372549 0.23529411764705882 0.23529411764705882
0.6392156862745098 0.25098039215686274 0.24705882352941178
0.6745098039215687 0.2627450980392157 0.25098039215686274
0.7058823529411765 0.26666666666666666 0.2627450980392157
0.7294117647058823 0.2784313725490196 0.26666666666666666
0.7568627450980392 0.28627450980392155 0.27058823529411763
0.7764705882352941 0.2901960784313726 0.27058823529411763
0.788235294117647 0.2980392156862745 0.2784313725490196
0.803921568627451 0.3058823529411765 0.2784313725490196
0.8117647058823529 0.3058823529411765 0.2823529411764706
0.8274509803921568 0.3137254901960784 0.2823529411764706
0.8352941176470589 0.3254901960784314 0.28627450980392155
0.8431372549019608 0.32941176470588235 0.28627450980392155
0.8509803921568627 0.3333333333333333 0.29411764705882354
0.8666666666666667 0.34509803921568627 0.29411764705882354
0.8666666666666667 0.34509803921568627 0.2980392156862745
0.8666666666666667 0.34509803921568627 0.30196078431372547
0.8705882352941177 0.34509803921568627 0.30980392156862746
0.8666666666666667 0.34901960784313724 0.3058823529411765
0.0784313725490196 0.07450980392156863 0.07058823529411765
0.0784313725490196 0.07450980392156863 0.07058823529411765
0.09019607843137255 0.0784313725490196 0.0784313725490196
0.09803921568627451 0.0784313725490196 0.08235294117647059
0.10588235294117647 0.08627450980392157 0.09019607843137255
0.12549019607843137 0.09411764705882353 0.09803921568627451
0.1411764705882353 0.10588235294117647 0.10588235294117647
0.16470588235294117 0.11372549019607843 0.12156862745098039
0.2 0.12941176470588237 0.13333333333333333
0.2627450980392157 0.15294117647058825 0.1568627450980392
0.33725490196078434 0.17254901960784313 0.17254901960784313
0.40784313725490196 0.18823529411764706 0.18823529411764706
0.4823529411764706 0.20784313725490197 0.20392156862745098
0.5490196078431373 0.2196078431372549 0.2196078431372549
0.596078431372549 0.23529411764705882 0.23137254901960785
0.6392156862745098 0.25098039215686274 0.23921568627450981
0.6745098039215687 0.2627450980392157 0.25098039215686274
0.7058823529411765 0.26666666666666666 0.2549019607843137
0.7333333333333333 0.2784313725490196 0.2627450980392157
0.7568627450980392 0.28627450980392155 0.26666666666666666
0.7764705882352941 0.2901960784313726 0.27058823529411763
0.788235294117647 0.2980392156862745 0.27058823529411763
0.803921568627451 0.3058823529411765 0.2784313725490196
0.8117647058823529 0.30980392156862746 0.2784313725490196
0.8313725490196079 0.3137254901960784 0.2823529411764706
0.8313725490196079 0.3215686274509804 0.2823529411764706
0.8431372549019608 0.32941176470588235 0.2823529411764706
0.8588235294117647 0.32941176470588235 0.28627450980392155
0.8627450980392157 0.33725490196078434 0.28627450980392155
0.8627450980392157 0.3411764705882353 0.28627450980392155
0.8705882352941177 0.34509803921568627 0.29411764705882354
0.8666666666666667 0.34901960784313724 0.29411764705882354
0.8666666666666667 0.34901960784313724 0.29411764705882354
0.08627450980392157 0.08627450980392157 0.08235294117647059
0.09019607843137255 0.08627450980392157 0.08235294117647059
0.09803921568627451 0.09019607843137255 0.08627450980392157
0.10980392156862745 0.09411764705882353 0.09019607843137255
0.11372549019607843 0.09803921568627451 0.09411764705882353
0.12941176470588237 0.10588235294117647 0.10196078431372549
0.1411764705882353 0.10980392156862745 0.10980392156862745
0.16862745098039217 0.12549019607843137 0.12156862745098039
0.20392156862745098 0.1411764705882353 0.13725490196078433
0.26666666666666666 0.1607843137254902 0.1568627450980392
0.3411764705882353 0.17647058823529413 0.17254901960784313
0.403921568627451 0.19607843137254902 0.18823529411764706
0.4823529411764706 0.21176470588235294 0.20392156862745098
0.5450980392156862 0.22745098039215686 0.2196078431372549
0.596078431372549 0.23921568627450981 0.23137254901960785
0.6431372549019608 0.2549019607843137 0.24705882352941178
0.6705882352941176 0.26666666666666666 0.25098039215686274
0.7019607843137254 0.27058823529411763 0.25098039215686274
0.7372549019607844 0.2823529411764706 0.2627450980392157
0.7607843137254902 0.28627450980392155 0.26666666666666666
0.7725490196078432 0.2901960784313726 0.26666666666666666
0.788235294117647 0.2980392156862745 0.27058823529411763
0.8 0.3058823529411765 0.27058823529411763
0.8117647058823529 0.30980392156862746 0.2784313725490196
0.8274509803921568 0.3176470588235294 0.2784313725490196
0.8313725490196079 0.3215686274509804 0.2823529411764706
0.8431372549019608 0.32941176470588235 0.2823529411764706
0.8509803921568627 0.3333333333333333 0.2823529411764706
0.8627450980392157 0.3411764705882353 0.28627450980392155
0.8627450980392157 0.34509803921568627 0.28627450980392155
0.8627450980392157 0.3411764705882353 0.28627450980392155
0.8627450980392157 0.3411764705882353 0.28627450980392155
0.8627450980392157 0.34509803921568627 0.28627450980392155
0.09803921568627451 0.09803921568627451 0.09019607843137255
0.10196078431372549 0.10196078431372549 0.09411764705882353
0.11764705882352941 0.10980392156862745 0.09803921568627451
0.11764705882352941 0.10588235294117647 0.09803921568627451
0.12549019607843137 0.11372549019607843 0.10588235294117647
0.13725490196078433 0.11764705882352941 0.10980392156862745
0.14901960784313725 0.12549019607843137 0.11372549019607843
0.17647058823529413 0.13725490196078433 0.12941176470588237
0.20784313725490197 0.14901960784313725 0.1411764705882353
0.27058823529411763 0.16862745098039217 0.1607843137254902
0.34509803921568627 0.18823529411764706 0.1803921568627451
0.4196078431372549 0.20392156862745098 0.19215686274509805
0.4823529411764706 0.2235294117647059 0.20392156862745098
0.5490196078431373 0.23529411764705882 0.2196078431372549
0.596078431372549 0.25098039215686274 0.23529411764705882
0.6392156862745098 0.26666666666666666 0.23921568627450981
0.6745098039215687 0.27058823529411763 0.2549019607843137
0.7058823529411765 0.28627450980392155 0.2549019607843137
0.7333333333333333 0.2901960784313726 0.26666666666666666
0.7607843137254902 0.2980392156862745 0.26666666666666666
0.7764705882352941 0.3058823529411765 0.26666666666666666
0.788235294117647 0.3058823529411765 0.27058823529411763
0.803921568627451 0.3137254901960784 0.2784313725490196
0.8196078431372549 0.3215686274509804 0.2784313725490196
0.8274509803921568 0.3254901960784314 0.2784313725490196
0.8352941176470589 0.32941176470588235 0.2823529411764706
0.8431372549019608 0.3333333333333333 0.2823529411764706
0.8588235294117647 0.34509803921568627 0.2823529411764706
0.8627450980392157 0.34509803921568627 0.2823529411764706
0.8627450980392157 0.34901960784313724 0.28627450980392155
0.8627450980392157 0.34901960784313724 0.28627450980392155
0.8627450980392157 0.34901960784313724 0.2823529411764706
0.8627450980392157 0.34901960784313724 0.2823529411764706
0.10980392156862745 0.11764705882352941 0.10196078431372549
0.11764705882352941 0.12156862745098039 0.10196078431372549
0.12549019607843137 0.12549019607843137 0.10980392156862745
0.12941176470588237 0.12941176470588237 0.10980392156862745
0.13725490196078433 0.12941176470588237 0.10980392156862745
0.14901960784313725 0.13333333333333333 0.12156862745098039
0.1607843137254902 0.1411764705882353 0.12156862745098039
0.18823529411764706 0.15294117647058825 0.13725490196078433
0.2196078431372549 0.16470588235294117 0.14901960784313725
0.27450980392156865 0.1803921568627451 0.16470588235294117
0.34509803921568627 0.2 0.1803921568627451
0.4117647058823529 0.21568627450980393 0.19607843137254902
0.49019607843137253 0.23137254901960785 0.20784313725490197
0.5490196078431373 0.24313725490196078 0.21568627450980393
0.6 0.2627450980392157 0.23529411764705882
0.6431372549019608 0.2784313725490196 0.24705882352941178
0.6745098039215687 0.28627450980392155 0.25098039215686274
0.7058823529411765 0.29411764705882354 0.2549019607843137
0.7333333333333333 0.3058823529411765 0.2627450980392157
0.7568627450980392 0.30980392156862746 0.26666666666666666
0.7764705882352941 0.3176470588235294 0.27058823529411763
0.788235294117647 0.3254901960784314 0.27058823529411763
0.803921568627451 0.3254901960784314 0.27058823529411763
0.8196078431372549 0.3333333333333333 0.2784313725490196
0.8274509803921568 0.3411764705882353 0.2784313725490196
0.8352941176470589 0.34509803921568627 0.2784313725490196
0.8392156862745098 0.34901960784313724 0.2823529411764706
0.8549019607843137 0.3607843137254902 0.2823529411764706
0.8588235294117647 0.36470588235294116 0.2823529411764706
0.8627450980392157 0.36470588235294116 0.2823529411764706
0.8627450980392157 0.36470588235294116 0.2823529411764706
0.8627450980392157 0.3686274509803922 0.2823529411764706
0.8627450980392157 0.3686274509803922 0.2823529411764706
0.12549019607843137 0.1411764705882353 0.11372549019607843
0.12941176470588237 0.1411764705882353 0.11372549019607843
0.1411764705882353 0.14901960784313725 0.12156862745098039
0.1450980392156863 0.14901960784313725 0.12156862745098039
0.15294117647058825 0.1568627450980392 0.12549019607843137
0.1568627450980392 0.15294117647058825 0.12549019607843137
0.17254901960784313 0.1607843137254902 0.13333333333333333
0.19607843137254902 0.17254901960784313 0.1450980392156863
0.22745098039215686 0.1803921568627451 0.15294117647058825
0.28627450980392155 0.19607843137254902 0.16862745098039217
0.35294117647058826 0.21176470588235294 0.1843137254901961
0.4235294117647059 0.23137254901960785 0.2
0.49019607843137253 0.24313725490196078 0.20784313725490197
0.5529411764705883 0.26666666666666666 0.2235294117647059
0.6 0.27450980392156865 0.23529411764705882
0.6392156862745098 0.28627450980392155 0.23921568627450981
0.6705882352941176 0.2980392156862745 0.25098039215686274
0.7019607843137254 0.30980392156862746 0.2549019607843137
0.7294117647058823 0.3176470588235294 0.2627450980392157
0.7490196078431373 0.3254901960784314 0.2627450980392157
0.7725490196078432 0.3333333333333333 0.26666666666666666
0.788235294117647 0.3411764705882353 0.27058823529411763
0.8 0.34509803921568627 0.27058823529411763
0.8117647058823529 0.35294117647058826 0.2784313725490196
0.8235294117647058 0.3607843137254902 0.2784313725490196
0.8352941176470589 0.36470588235294116 0.2784313725490196
0.8392156862745098 0.37254901960784315 0.2784313725490196
0.8470588235294118 0.3803921568627451 0.2823529411764706
0.8549019607843137 0.3843137254901961 0.2784313725490196
0.8588235294117647 0.38823529411764707 0.2784313725490196
0.8588235294117647 0.38823529411764707 0.2823529411764706
0.8627450980392157 0.39215686274509803 0.2823529411764706
0.8627450980392157 0.39215686274509803 0.2823529411764706
0.1450980392156863 0.16862745098039217 0.12549019607843137
0.14901960784313725 0.17254901960784313 0.12941176470588237
0.15294117647058825 0.17647058823529413 0.13333333333333333
0.1607843137254902 0.1803921568627451 0.13333333333333333
0.16862745098039217 0.18823529411764706 0.1411764705882353
0.17647058823529413 0.19215686274509805 0.1411764705882353
0.1843137254901961 0.18823529411764706 0.1411764705882353
0.20784313725490197 0.19215686274509805 0.14901960784313725
0.24313725490196078 0.20392156862745098 0.1607843137254902
0.29411764705882354 0.2196078431372549 0.17254901960784313
0.3607843137254902 0.23137254901960785 0.18823529411764706
0.42745098039215684 0.25098039215686274 0.2
0.4980392156862745 0.26666666666666666 0.21568627450980393
0.5529411764705883 0.2823529411764706 0.2235294117647059
0.6 0.2980392156862745 0.23529411764705882
0.6392156862745098 0.3058823529411765 0.24313725490196078
0.6745098039215687 0.3215686274509804 0.25098039215686274
0.7019607843137254 0.3254901960784314 0.2549019607843137
0.7333333333333333 0.3411764705882353 0.25882352941176473
0.7529411764705882 0.34509803921568627 0.2627450980392157
0.7725490196078432 0.35294117647058826 0.26666666666666666
0.788235294117647 0.3607843137254902 0.26666666666666666
0.8 0.36470588235294116 0.27058823529411763
0.8117647058823529 0.3764705882352941 0.27058823529411763
0.8196078431372549 0.3843137254901961 0.2784313725490196
0.8313725490196079 0.38823529411764707 0.27058823529411763
0.8352941176470589 0.39215686274509803 0.27058823529411763
0.8470588235294118 0.396078431372549 0.2784313725490196
0.8549019607843137 0.403921568627451 0.2784313725490196
0.8588235294117647 0.41568627450980394 0.2784313725490196
0.8588235294117647 0.41568627450980394 0.2784313725490196
0.8588235294117647 0.41568627450980394 0.2784313725490196
0.8588235294117647 0.4196078431372549 0.2784313725490196
0.16470588235294117 0.21176470588235294 0.1450980392156863
0.16470588235294117 0.21176470588235294 0.1450980392156863
0.16862745098039217 0.21176470588235294 0.1450980392156863
0.17254901960784313 0.2196078431372549 0.1450980392156863
0.1843137254901961 0.2235294117647059 0.14901960784313725
0.19607843137254902 0.23137254901960785 0.1568627450980392
0.21176470588235294 0.23529411764705882 0.1607843137254902
0.2196078431372549 0.2235294117647059 0.1607843137254902
0.2549019607843137 0.23529411764705882 0.16470588235294117
0.2980392156862745 0.24313725490196078 0.17254901960784313
0.36470588235294116 0.2549019607843137 0.18823529411764706
0.43529411764705883 0.27450980392156865 0.20392156862745098
0.4980392156862745 0.28627450980392155 0.21568627450980393
0.5568627450980392 0.3058823529411765 0.22745098039215686
0.6 0.3176470588235294 0.23529411764705882
0.6431372549019608 0.32941176470588235 0.24705882352941178
0.6705882352941176 0.34509803921568627 0.24705882352941178
0.7019607843137254 0.35294117647058826 0.25098039215686274
0.7333333333333333 0.3607843137254902 0.25882352941176473
0.7529411764705882 0.37254901960784315 0.26666666666666666
0.7764705882352941 0.3803921568627451 0.26666666666666666
0.788235294117647 0.3843137254901961 0.26666666666666666
0.796078431372549 0.39215686274509803 0.26666666666666666
0.8117647058823529 0.4 0.27058823529411763
0.8196078431372549 0.40784313725490196 0.27058823529411763
0.8313725490196079 0.4117647058823529 0.27058823529411763
0.8352941176470589 0.4196078431372549 0.27058823529411763
0.8470588235294118 0.42745098039215684 0.27058823529411763
0.8549019607843137 0.43137254901960786 0.27058823529411763
0.8588235294117647 0.4392156862745098 0.27058823529411763
0.8588235294117647 0.4392156862745098 0.27058823529411763
0.8588235294117647 0.4392156862745098 0.27058823529411763
0.8588235294117647 0.4470588235294118 0.27058823529411763
0.17254901960784313 0.24313725490196078 0.15294117647058825
0.17647058823529413 0.25098039215686274 0.1568627450980392
0.1843137254901961 0.2627450980392157 0.1568627450980392
0.18823529411764706 0.2627450980392157 0.1607843137254902
0.19215686274509805 0.26666666666666666 0.1607843137254902
0.20784313725490197 0.27058823529411763 0.1607843137254902
0.2196078431372549 0.2784313725490196 0.16470588235294117
0.24705882352941178 0.28627450980392155 0.16862745098039217
0.2627450980392157 0.27450980392156865 0.17254901960784313
0.30980392156862746 0.2823529411764706 0.1803921568627451
0.3764705882352941 0.28627450980392155 0.19215686274509805
0.43529411764705883 0.30196078431372547 0.20392156862745098
0.5019607843137255 0.3215686274509804 0.21568627450980393
0.5607843137254902 0.3333333333333333 0.2235294117647059
0.6 0.34901960784313724 0.23529411764705882
0.6431372549019608 0.3607843137254902 0.23921568627450981
0.6784313725490196 0.3686274509803922 0.24705882352941178
0.7058823529411765 0.3843137254901961 0.25098039215686274
0.7333333333333333 0.38823529411764707 0.25098039215686274
0.7529411764705882 0.396078431372549 0.2627450980392157
0.7686274509803922 0.40784313725490196 0.2627450980392157
0.7803921568627451 0.4117647058823529 0.2627450980392157
0.792156862745098 0.4235294117647059 0.2627450980392157
0.807843137254902 0.42745098039215684 0.26666666666666666
0.8156862745098039 0.43529411764705883 0.26666666666666666
0.8235294117647058 0.44313725490196076 0.26666666666666666
0.8352941176470589 0.45098039215686275 0.27058823529411763
0.8431372549019608 0.4627450980392157 0.27058823529411763
0.8509803921568627 0.47058823529411764 0.27058823529411763
0.8588235294117647 0.4745098039215686 0.2784313725490196
0.8588235294117647 0.4745098039215686 0.2784313725490196
0.8588235294117647 0.4823529411764706 0.27058823529411763
0.8588235294117647 0.4823529411764706 0.27058823529411763
0.19215686274509805 0.3058823529411765 0.16862745098039217
0.19607843137254902 0.3058823529411765 0.16470588235294117
0.19607843137254902 0.30980392156862746 0.16470588235294117
0.20392156862745098 0.3137254901960784 0.16862745098039217
0.21176470588235294 0.3215686274509804 0.16862745098039217
0.2196078431372549 0.3254901960784314 0.16862745098039217
0.23921568627450981 0.3333333333333333 0.17254901960784313
0.2627450980392157 0.3411764705882353 0.17254901960784313
0.30196078431372547 0.34509803921568627 0.1803921568627451
0.3254901960784314 0.32941176470588235 0.1843137254901961
0.3803921568627451 0.33725490196078434 0.18823529411764706
0.4392156862745098 0.3411764705882353 0.20392156862745098
0.5098039215686274 0.35294117647058826 0.21568627450980393
0.5607843137254902 0.37254901960784315 0.2235294117647059
0.6 0.3764705882352941 0.23137254901960785
0.6431372549019608 0.39215686274509803 0.23921568627450981
0.6784313725490196 0.4 0.24313725490196078
0.7019607843137254 0.4117647058823529 0.25098039215686274
0.7333333333333333 0.4235294117647059 0.2549019607843137
0.7450980392156863 0.43137254901960786 0.2549019607843137
0.7647058823529411 0.43529411764705883 0.2549019607843137
0.7803921568627451 0.45098039215686275 0.25882352941176473
0.792156862745098 0.4549019607843137 0.2627450980392157
0.807843137254902 0.4627450980392157 0.2627450980392157
0.8156862745098039 0.4745098039215686 0.26666666666666666
0.8235294117647058 0.4823529411764706 0.2627450980392157
0.8313725490196079 0.48627450980392156 0.26666666666666666
0.8470588235294118 0.4980392156862745 0.27058823529411763
0.8509803921568627 0.5098039215686274 0.26666666666666666
0.8588235294117647 0.5098039215686274 0.27058823529411763
0.8627450980392157 0.5137254901960784 0.27058823529411763
0.8627450980392157 0.5137254901960784 0.27058823529411763
0.8588235294117647 0.5176470588235295 0.27058823529411763
0.2 0.36470588235294116 0.17254901960784313
0.20392156862745098 0.36470588235294116 0.17254901960784313
0.20784313725490197 0.36470588235294116 0.17254901960784313
0.21568627450980393 0.37254901960784315 0.17254901960784313
0.2196078431372549 0.3803921568627451 0.17254901960784313
0.23137254901960785 0.38823529411764707 0.17647058823529413
0.25098039215686274 0.396078431372549 0.1803921568627451
0.2784313725490196 0.396078431372549 0.1803921568627451
0.3215686274509804 0.40784313725490196 0.1843137254901961
0.3686274509803922 0.4117647058823529 0.18823529411764706
0.396078431372549 0.38823529411764707 0.19215686274509805
0.4392156862745098 0.3843137254901961 0.2
0.5058823529411764 0.39215686274509803 0.20784313725490197
0.5568627450980392 0.403921568627451 0.21568627450980393
0.6 0.4196078431372549 0.22745098039215686
0.6431372549019608 0.43137254901960786 0.23529411764705882
0.6745098039215687 0.4392156862745098 0.23921568627450981
0.7019607843137254 0.4470588235294118 0.24705882352941178
0.7254901960784313 0.4588235294117647 0.24705882352941178
0.7450980392156863 0.4666666666666667 0.24705882352941178
0.7686274509803922 0.4823529411764706 0.2549019607843137
0.7803921568627451 0.48627450980392156 0.2549019607843137
0.796078431372549 0.49411764705882355 0.2627450980392157
0.8117647058823529 0.5019607843137255 0.2627450980392157
0.8196078431372549 0.5137254901960784 0.2627450980392157
0.8274509803921568 0.5215686274509804 0.26666666666666666
0.8313725490196079 0.5254901960784314 0.26666666666666666
0.8470588235294118 0.5372549019607843 0.26666666666666666
0.8588235294117647 0.5450980392156862 0.26666666666666666
0.8666666666666667 0.5490196078431373 0.27058823529411763
0.8666666666666667 0.5490196078431373 0.27058823529411763
0.8666666666666667 0.5529411764705883 0.27058823529411763
0.8666666666666667 0.5568627450980392 0.27058823529411763
0.20784313725490197 0.42745098039215684 0.1803921568627451
0.21176470588235294 0.42745098039215684 0.1803921568627451
0.2196078431372549 0.43529411764705883 0.1803921568627451
0.2196078431372549 0.4392156862745098 0.1803921568627451
0.23137254901960785 0.44313725490196076 0.1803921568627451
0.24313725490196078 0.4470588235294118 0.1803921568627451
0.25882352941176473 0.4588235294117647 0.1843137254901961
0.2901960784313726 0.4627450980392157 0.1843137254901961
0.3333333333333333 0.4588235294117647 0.1843137254901961
0.3843137254901961 0.4666666666666667 0.18823529411764706
0.43529411764705883 0.47058823529411764 0.19215686274509805
0.4588235294117647 0.45098039215686275 0.19215686274509805
0.4980392156862745 0.44313725490196076 0.20392156862745098
0.5607843137254902 0.4470588235294118 0.21568627450980393
0.6 0.4627450980392157 0.2235294117647059
0.6352941176470588 0.47058823529411764 0.2235294117647059
0.6705882352941176 0.47843137254901963 0.23137254901960785
0.7019607843137254 0.49019607843137253 0.23921568627450981
0.7254901960784313 0.4980392156862745 0.24705882352941178
0.7450980392156863 0.5098039215686274 0.24705882352941178
0.7686274509803922 0.5215686274509804 0.25098039215686274
0.788235294117647 0.5294117647058824 0.2549019607843137
0.8 0.5372549019607843 0.2627450980392157
0.8117647058823529 0.5372549019607843 0.2627450980392157
0.8235294117647058 0.5490196078431373 0.26666666666666666
0.8313725490196079 0.5568627450980392 0.26666666666666666
0.8431372549019608 0.5607843137254902 0.26666666666666666
0.8588235294117647 0.5686274509803921 0.27058823529411763
0.8627450980392157 0.5803921568627451 0.27058823529411763
0.8705882352941177 0.592156862745098 0.2784313725490196
0.8705882352941177 0.592156862745098 0.2784313725490196
0.8745098039215686 0.592156862745098 0.2823529411764706
0.8745098039215686 0.6 0.2823529411764706
0.21568627450980393 0.48627450980392156 0.1803921568627451
0.2196078431372549 0.49019607843137253 0.1803921568627451
0.2196078431372549 0.49411764705882355 0.1803921568627451
0.22745098039215686 0.4980392156862745 0.1803921568627451
0.23529411764705882 0.5019607843137255 0.1803921568627451
0.2549019607843137 0.5098039215686274 0.1843137254901961
0.26666666666666666 0.5098039215686274 0.1843137254901961
0.2980392156862745 0.5176470588235295 0.1843137254901961
0.34509803921568627 0.5215686274509804 0.1843137254901961
0.396078431372549 0.5176470588235295 0.1843137254901961
0.4470588235294118 0.5254901960784314 0.19215686274509805
0.4980392156862745 0.5254901960784314 0.19215686274509805
0.5215686274509804 0.5019607843137255 0.2
0.5529411764705883 0.49019607843137253 0.20392156862745098
0.6 0.5019607843137255 0.21176470588235294
0.6392156862745098 0.5137254901960784 0.2235294117647059
0.6705882352941176 0.5215686274509804 0.23137254901960785
0.7019607843137254 0.5294117647058824 0.23529411764705882
0.7294117647058823 0.5372549019607843 0.23921568627450981
0.7568627450980392 0.5490196078431373 0.24705882352941178
