cubelut/FILM-KDC_KODAK_90's_COLD_LUT.cube
TITLE "Photo Curves LUT"
LUT_3D_SIZE 5
0.09803921568627451 0.09803921568627451 0.21568627450980393
0.22745098039215686 0.09803921568627451 0.21568627450980393
0.5333333333333333 0.09803921568627451 0.23137254901960785
0.7058823529411765 0.09803921568627451 0.24313725490196078
0.9372549019607843 0.09803921568627451 0.2549019607843137
0.08627450980392157 0.21568627450980393 0.21568627450980393
0.24705882352941178 0.20784313725490197 0.21568627450980393
0.5450980392156862 0.16470588235294117 0.2196078431372549
0.7176470588235294 0.16470588235294117 0.2235294117647059
0.9372549019607843 0.17647058823529413 0.24313725490196078
0.08235294117647059 0.5764705882352941 0.21568627450980393
0.24705882352941178 0.6352941176470588 0.2196078431372549
0.5529411764705883 0.5568627450980392 0.2196078431372549
0.7411764705882353 0.4392156862745098 0.22745098039215686
0.9372549019607843 0.4 0.23137254901960785
0.06666666666666667 0.8431372549019608 0.2235294117647059
0.18823529411764706 0.8901960784313725 0.23137254901960785
0.5803921568627451 0.9098039215686274 0.23529411764705882
0.7411764705882353 0.8274509803921568 0.23529411764705882
0.9372549019607843 0.7490196078431373 0.23921568627450981
0.06666666666666667 1.0 0.23921568627450981
0.16470588235294117 1.0 0.23529411764705882
0.5529411764705883 1.0 0.23921568627450981
0.8196078431372549 1.0 0.23921568627450981
0.9372549019607843 0.9921568627450981 0.23921568627450981
0.10980392156862745 0.09803921568627451 0.28627450980392155
0.23921568627450981 0.09803921568627451 0.2980392156862745
0.5333333333333333 0.09803921568627451 0.3411764705882353
0.7058823529411765 0.09803921568627451 0.3843137254901961
0.9372549019607843 0.09803921568627451 0.4470588235294118
0.10196078431372549 0.2 0.27450980392156865
0.24705882352941178 0.2235294117647059 0.3176470588235294
0.5372549019607843 0.2 0.32941176470588235
0.7137254901960784 0.2235294117647059 0.3843137254901961
0.9372549019607843 0.23137254901960785 0.44313725490196076
0.08235294117647059 0.5294117647058824 0.23137254901960785
0.16470588235294117 0.592156862745098 0.25882352941176473
0.5411764705882353 0.5725490196078431 0.26666666666666666
0.7254901960784313 0.5019607843137255 0.28627450980392155
0.9372549019607843 0.5294117647058824 0.34901960784313724
0.06666666666666667 0.807843137254902 0.2235294117647059
0.1450980392156863 0.8549019607843137 0.25098039215686274
0.5372549019607843 0.8941176470588236 0.2549019607843137
0.7294117647058823 0.8431372549019608 0.2549019607843137
0.9372549019607843 0.7803921568627451 0.25098039215686274
0.06666666666666667 0.984313725490196 0.23137254901960785
0.11764705882352941 1.0 0.23137254901960785
0.5058823529411764 1.0 0.23921568627450981
0.7607843137254902 1.0 0.23921568627450981
0.9372549019607843 1.0 0.24313725490196078
0.16470588235294117 0.09803921568627451 0.5843137254901961
0.28627450980392155 0.09803921568627451 0.6039215686274509
0.5333333333333333 0.09803921568627451 0.6392156862745098
0.7058823529411765 0.09803921568627451 0.7019607843137254
0.9372549019607843 0.09803921568627451 0.7411764705882353
0.1568627450980392 0.17647058823529413 0.592156862745098
0.25098039215686274 0.1568627450980392 0.6313725490196078
0.5450980392156862 0.18823529411764706 0.6627450980392157
0.7215686274509804 0.21568627450980393 0.7137254901960784
0.9372549019607843 0.22745098039215686 0.7450980392156863
0.11764705882352941 0.5254901960784314 0.5137254901960784
0.17647058823529413 0.5647058823529412 0.6039215686274509
0.5490196078431373 0.592156862745098 0.6941176470588235
0.7254901960784313 0.5411764705882353 0.6862745098039216
0.9372549019607843 0.5450980392156862 0.7215686274509804
0.08235294117647059 0.796078431372549 0.34901960784313724
0.10588235294117647 0.8274509803921568 0.403921568627451
0.4392156862745098 0.8627450980392157 0.5058823529411764
0.7176470588235294 0.8509803921568627 0.5490196078431373
0.9372549019607843 0.7843137254901961 0.5725490196078431
0.06666666666666667 0.9725490196078431 0.26666666666666666
0.06666666666666667 0.9921568627450981 0.28627450980392155
0.3568627450980392 1.0 0.3843137254901961
0.7019607843137254 1.0 0.4196078431372549
0.9372549019607843 1.0 0.42745098039215684
0.2235294117647059 0.09803921568627451 0.8352941176470589
0.3411764705882353 0.09803921568627451 0.8392156862745098
0.5529411764705883 0.09803921568627451 0.8470588235294118
0.7019607843137254 0.09803921568627451 0.8627450980392157
0.9372549019607843 0.09803921568627451 0.8941176470588236
0.23921568627450981 0.1411764705882353 0.8313725490196079
0.32941176470588235 0.1450980392156863 0.8549019607843137
0.5607843137254902 0.1803921568627451 0.8588235294117647
0.7137254901960784 0.2 0.8784313725490196
0.9372549019607843 0.2235294117647059 0.9019607843137255
0.21568627450980393 0.5294117647058824 0.8352941176470589
0.27450980392156865 0.5058823529411764 0.8549019607843137
0.5215686274509804 0.4392156862745098 0.8705882352941177
0.7294117647058823 0.5215686274509804 0.8862745098039215
0.9372549019607843 0.5411764705882353 0.8980392156862745
0.12941176470588237 0.792156862745098 0.7725490196078432
0.1803921568627451 0.8235294117647058 0.8196078431372549
0.4392156862745098 0.8431372549019608 0.8588235294117647
0.7294117647058823 0.8627450980392157 0.9058823529411765
0.9372549019607843 0.8313725490196079 0.8941176470588236
0.06666666666666667 0.9725490196078431 0.6666666666666666
0.08627450980392157 0.984313725490196 0.7137254901960784
0.20784313725490197 0.996078431372549 0.7254901960784313
0.6352941176470588 1.0 0.8196078431372549
0.9372549019607843 1.0 0.8352941176470589
0.25882352941176473 0.09803921568627451 0.9764705882352941
0.35294117647058826 0.09803921568627451 0.9803921568627451
0.5568627450980392 0.09803921568627451 0.9803921568627451
0.7058823529411765 0.09803921568627451 0.984313725490196
0.9333333333333333 0.09803921568627451 0.9882352941176471
0.2980392156862745 0.09803921568627451 0.9725490196078431
0.3568627450980392 0.11372549019607843 0.984313725490196
0.5647058823529412 0.15294117647058825 0.984313725490196
0.7254901960784313 0.19215686274509805 0.984313725490196
0.9372549019607843 0.21176470588235294 0.9921568627450981
0.33725490196078434 0.4392156862745098 0.9647058823529412
0.3843137254901961 0.41568627450980394 0.9764705882352941
0.5294117647058824 0.36470588235294116 0.9882352941176471
0.7254901960784313 0.4666666666666667 0.9882352941176471
0.9372549019607843 0.5254901960784314 0.996078431372549
0.2627450980392157 0.8313725490196079 0.9686274509803922
0.30196078431372547 0.8196078431372549 0.9803921568627451
0.49019607843137253 0.7803921568627451 0.9882352941176471
0.6901960784313725 0.7686274509803922 0.996078431372549
0.9372549019607843 0.8235294117647058 1.0
0.13725490196078433 0.9686274509803922 0.9098039215686274
0.17647058823529413 0.984313725490196 0.9411764705882353
0.3686274509803922 0.996078431372549 0.9686274509803922
0.6352941176470588 1.0 0.9921568627450981
0.9372549019607843 1.0 1.0
