cubelut/FILM-KDF_KODAK_FUNSAVER_LUT.cube
TITLE "Generated by LUMIX Lab"
#LUMIXPHOTOSTYLE STD
LUT_3D_SIZE 5
0.090196 0.082353 0.121569
0.172549 0.074510 0.121569
0.345098 0.086275 0.152941
0.584314 0.098039 0.203922
0.796078 0.113725 0.380392
0.098039 0.156863 0.164706
0.176471 0.172549 0.164706
0.380392 0.176471 0.152941
0.615686 0.176471 0.176471
0.803922 0.113725 0.282353
0.141176 0.337255 0.266667
0.219608 0.349020 0.305882
0.415686 0.427451 0.278431
0.658824 0.482353 0.250980
0.835294 0.376471 0.250980
0.219608 0.627451 0.427451
0.301961 0.639216 0.454902
0.498039 0.670588 0.498039
0.694118 0.717647 0.396078
0.878431 0.705882 0.262745
0.423529 0.866667 0.815686
0.529412 0.870588 0.819608
0.670588 0.890196 0.819608
0.768627 0.905882 0.815686
0.909804 0.921569 0.670588
0.082353 0.094118 0.223529
0.168627 0.094118 0.227451
0.356863 0.094118 0.250980
0.592157 0.101961 0.301961
0.800000 0.113725 0.470588
0.094118 0.172549 0.247059
0.188235 0.180392 0.250980
0.384314 0.176471 0.270588
0.619608 0.180392 0.301961
0.803922 0.113725 0.396078
0.141176 0.380392 0.321569
0.231373 0.380392 0.349020
0.423529 0.443137 0.360784
0.670588 0.482353 0.349020
0.839216 0.360784 0.372549
0.200000 0.623529 0.482353
0.305882 0.650980 0.498039
0.517647 0.670588 0.560784
0.698039 0.721569 0.474510
0.886275 0.709804 0.368627
0.427451 0.866667 0.827451
0.529412 0.874510 0.827451
0.666667 0.886275 0.831373
0.772549 0.909804 0.831373
0.905882 0.921569 0.705882
0.086275 0.125490 0.380392
0.172549 0.109804 0.423529
0.360784 0.133333 0.439216
0.600000 0.149020 0.498039
0.796078 0.117647 0.611765
0.094118 0.215686 0.388235
0.172549 0.207843 0.443137
0.384314 0.219608 0.462745
0.619608 0.227451 0.517647
0.803922 0.117647 0.596078
0.121569 0.431373 0.486275
0.223529 0.450980 0.498039
0.458824 0.474510 0.537255
0.678431 0.478431 0.556863
0.831373 0.352941 0.592157
0.168627 0.643137 0.623529
0.286275 0.658824 0.635294
0.537255 0.698039 0.666667
0.705882 0.733333 0.643137
0.882353 0.705882 0.588235
0.411765 0.866667 0.866667
0.517647 0.878431 0.858824
0.670588 0.894118 0.850980
0.776471 0.909804 0.847059
0.909804 0.921569 0.760784
0.094118 0.188235 0.560784
0.152941 0.156863 0.619608
0.403922 0.160784 0.639216
0.619608 0.203922 0.674510
0.796078 0.117647 0.717647
0.105882 0.290196 0.596078
0.160784 0.266667 0.643137
0.423529 0.258824 0.662745
0.639216 0.313726 0.698039
0.811765 0.172549 0.737255
0.145098 0.501961 0.682353
0.200000 0.529412 0.713726
0.458824 0.556863 0.737255
0.682353 0.572549 0.752941
0.839216 0.419608 0.756863
0.160784 0.654902 0.772549
0.262745 0.678431 0.772549
0.529412 0.721569 0.768627
0.721569 0.737255 0.772549
0.886275 0.701961 0.764706
0.376471 0.854902 0.894118
0.494118 0.874510 0.894118
0.662745 0.894118 0.874510
0.772549 0.901961 0.874510
0.909804 0.921569 0.811765
0.145098 0.576471 0.890196
0.145098 0.556863 0.901961
0.301961 0.482353 0.913725
0.658824 0.423529 0.921569
0.862745 0.525490 0.945098
0.168627 0.572549 0.929412
0.160784 0.564706 0.952941
0.298039 0.592157 0.937255
0.678431 0.545098 0.952941
0.874510 0.607843 0.956863
0.164706 0.643137 0.968627
0.172549 0.643137 0.972549
0.294118 0.650980 0.984314
0.682353 0.698039 0.956863
0.886275 0.709804 0.956863
0.168627 0.721569 0.976471
0.172549 0.729412 0.988235
0.247059 0.745098 1.000000
0.674510 0.796078 0.960784
0.894118 0.792157 0.952941
0.196078 0.827451 1.000000
0.286275 0.847059 1.000000
0.490196 0.874510 1.000000
0.721569 0.913725 0.972549
0.909804 0.929412 0.945098
