cubelut/FILM-LIB_LIGHT_BLUE_LUT.cube
TITLE "Generated by LUMIX Lab"
#LUMIXPHOTOSTYLE STD
LUT_3D_SIZE 9
0.039216 0.023529 0.062745
0.062745 0.039216 0.074510
0.137255 0.062745 0.086275
0.278431 0.078431 0.090196
0.415686 0.090196 0.086275
0.662745 0.086275 0.074510
0.968627 0.098039 0.062745
1.000000 0.121569 0.078431
1.000000 0.141176 0.090196
0.070588 0.152941 0.094118
0.133333 0.156863 0.113725
0.258824 0.164706 0.094118
0.368627 0.176471 0.078431
0.556863 0.203922 0.070588
0.815686 0.231373 0.066667
1.000000 0.270588 0.074510
1.000000 0.305882 0.098039
1.000000 0.341176 0.109804
0.019608 0.317647 0.050980
0.054902 0.356863 0.062745
0.266667 0.317647 0.094118
0.403922 0.352941 0.050980
0.600000 0.345098 0.047059
0.847059 0.396078 0.074510
1.000000 0.443137 0.117647
1.000000 0.474510 0.133333
1.000000 0.505882 0.141176
0.031373 0.498039 0.000000
0.035294 0.556863 0.003922
0.227451 0.537255 0.070588
0.388235 0.513726 0.086275
0.611765 0.580392 0.078431
0.800000 0.564706 0.047059
0.996078 0.584314 0.062745
1.000000 0.615686 0.152941
1.000000 0.639216 0.172549
0.050980 0.678431 0.000000
0.050980 0.709804 0.000000
0.137255 0.749020 0.023529
0.384314 0.717647 0.129412
0.572549 0.709804 0.133333
0.823529 0.764706 0.149020
0.972549 0.752941 0.098039
1.000000 0.745098 0.176471
1.000000 0.760784 0.192157
0.058824 0.843137 0.000000
0.062745 0.854902 0.000000
0.058824 0.905882 0.019608
0.313726 0.894118 0.094118
0.541176 0.854902 0.223529
0.749020 0.858824 0.219608
0.960784 0.901961 0.250980
1.000000 0.905882 0.313726
1.000000 0.878431 0.266667
0.090196 0.964706 0.000000
0.062745 0.972549 0.000000
0.062745 0.972549 0.000000
0.243137 0.976471 0.062745
0.486275 0.976471 0.196078
0.717647 0.949020 0.364706
0.886275 0.960784 0.341176
1.000000 0.960784 0.533333
1.000000 0.960784 0.490196
0.109804 0.972549 0.000000
0.062745 0.972549 0.000000
0.062745 0.972549 0.000000
0.196078 0.976471 0.054902
0.407843 0.980392 0.156863
0.690196 0.972549 0.392157
0.862745 0.968627 0.525490
1.000000 0.964706 0.549020
1.000000 0.968627 0.701961
0.062745 0.972549 0.000000
0.062745 0.972549 0.000000
0.062745 0.972549 0.000000
0.172549 0.976471 0.027451
0.376471 0.980392 0.160784
0.643137 0.972549 0.439216
0.874510 0.968627 0.623529
1.000000 0.972549 0.741176
1.000000 0.964706 0.745098
0.047059 0.031373 0.086275
0.074510 0.050980 0.101961
0.180392 0.070588 0.129412
0.321569 0.082353 0.141176
0.474510 0.078431 0.129412
0.764706 0.082353 0.101961
1.000000 0.094118 0.074510
1.000000 0.113725 0.070588
1.000000 0.109804 0.121569
0.078431 0.160784 0.184314
0.141176 0.160784 0.176471
0.254902 0.164706 0.164706
0.360784 0.176471 0.160784
0.545098 0.188235 0.152941
0.835294 0.211765 0.152941
1.000000 0.250980 0.172549
1.000000 0.278431 0.172549
1.000000 0.309804 0.180392
0.023529 0.352941 0.188235
0.094118 0.329412 0.156863
0.286275 0.317647 0.192157
0.415686 0.325490 0.160784
0.627451 0.364706 0.184314
0.862745 0.411765 0.211765
1.000000 0.458824 0.239216
1.000000 0.494118 0.247059
1.000000 0.529412 0.231373
0.035294 0.541176 0.113725
0.031373 0.509804 0.090196
0.207843 0.537255 0.145098
0.396078 0.509804 0.196078
0.600000 0.556863 0.184314
0.835294 0.560784 0.192157
1.000000 0.596078 0.235294
1.000000 0.635294 0.301961
1.000000 0.658824 0.321569
0.047059 0.698039 0.070588
0.047059 0.662745 0.043137
0.149020 0.709804 0.105882
0.372549 0.709804 0.219608
0.576471 0.698039 0.254902
0.815686 0.752941 0.274510
0.972549 0.733333 0.219608
1.000000 0.741176 0.325490
1.000000 0.760784 0.349020
0.058824 0.854902 0.031373
0.058824 0.827451 0.015686
0.058824 0.847059 0.054902
0.290196 0.870588 0.168627
0.549020 0.843137 0.329412
0.749020 0.843137 0.360784
0.956863 0.890196 0.407843
1.000000 0.882353 0.427451
1.000000 0.862745 0.396078
0.058824 0.976471 0.011765
0.058824 0.964706 0.000000
0.058824 0.976471 0.031373
0.243137 0.976471 0.137255
0.435294 0.976471 0.294118
0.705882 0.949020 0.478431
0.882353 0.952941 0.474510
1.000000 0.968627 0.635294
1.000000 0.964706 0.600000
0.058824 0.976471 0.000000
0.058824 0.976471 0.000000
0.058824 0.976471 0.007843
0.215686 0.976471 0.113725
0.380392 0.980392 0.254902
0.666667 0.968627 0.494118
0.862745 0.968627 0.615686
1.000000 0.972549 0.619608
1.000000 0.972549 0.784314
0.062745 0.972549 0.000000
0.062745 0.972549 0.000000
0.062745 0.972549 0.000000
0.176471 0.976471 0.074510
0.368627 0.980392 0.270588
0.619608 0.968627 0.498039
0.870588 0.972549 0.698039
1.000000 0.972549 0.796078
1.000000 0.972549 0.815686
0.058824 0.047059 0.133333
0.098039 0.062745 0.152941
0.184314 0.082353 0.196078
0.325490 0.082353 0.254902
0.494118 0.082353 0.258824
0.776471 0.078431 0.262745
1.000000 0.098039 0.266667
1.000000 0.105882 0.258824
1.000000 0.129412 0.243137
0.066667 0.180392 0.282353
0.160784 0.168627 0.290196
0.266667 0.168627 0.274510
0.400000 0.172549 0.301961
0.623529 0.168627 0.286275
0.925490 0.188235 0.262745
1.000000 0.219608 0.235294
1.000000 0.250980 0.203922
1.000000 0.278431 0.196078
0.027451 0.352941 0.396078
0.141176 0.329412 0.364706
0.301961 0.317647 0.325490
0.423529 0.325490 0.313726
0.627451 0.345098 0.305882
0.858824 0.380392 0.321569
1.000000 0.427451 0.345098
1.000000 0.462745 0.360784
1.000000 0.486275 0.360784
0.047059 0.588235 0.423529
0.078431 0.552941 0.349020
0.250980 0.509804 0.278431
0.419608 0.509804 0.349020
0.611765 0.521569 0.333333
0.827451 0.572549 0.376471
1.000000 0.611765 0.403922
1.000000 0.654902 0.450980
1.000000 0.674510 0.443137
0.058824 0.780392 0.411765
0.054902 0.721569 0.278431
0.180392 0.658824 0.215686
0.349020 0.698039 0.317647
0.584314 0.686275 0.396078
0.803922 0.717647 0.392157
0.980392 0.717647 0.396078
1.000000 0.752941 0.505882
1.000000 0.784314 0.537255
0.062745 0.901961 0.325490
0.058824 0.858824 0.203922
0.070588 0.803922 0.149020
0.290196 0.839216 0.262745
0.521569 0.839216 0.435294
0.745098 0.819608 0.482353
0.949020 0.874510 0.529412
1.000000 0.858824 0.537255
1.000000 0.866667 0.564706
0.062745 0.976471 0.254902
0.062745 0.976471 0.172549
0.058824 0.945098 0.129412
0.227451 0.933333 0.176471
0.407843 0.949020 0.376471
0.709804 0.937255 0.572549
0.882353 0.937255 0.596078
1.000000 0.964706 0.721569
1.000000 0.964706 0.694118
0.058824 0.980392 0.215686
0.058824 0.976471 0.152941
0.062745 0.976471 0.125490
0.180392 0.980392 0.137255
0.372549 0.980392 0.356863
0.631373 0.972549 0.560784
0.870588 0.976471 0.709804
1.000000 0.980392 0.717647
1.000000 0.976471 0.847059
0.058824 0.976471 0.188235
0.062745 0.976471 0.141176
0.062745 0.976471 0.125490
0.137255 0.980392 0.121569
0.360784 0.976471 0.325490
0.584314 0.972549 0.552941
0.862745 0.976471 0.756863
1.000000 0.976471 0.874510
1.000000 0.980392 0.858824
0.078431 0.062745 0.215686
0.121569 0.070588 0.247059
0.223529 0.086275 0.305882
0.325490 0.086275 0.349020
0.478431 0.090196 0.419608
0.764706 0.090196 0.435294
1.000000 0.105882 0.435294
1.000000 0.109804 0.439216
1.000000 0.129412 0.439216
0.058824 0.192157 0.427451
0.172549 0.168627 0.435294
0.286275 0.172549 0.423529
0.388235 0.176471 0.447059
0.611765 0.184314 0.501961
0.886275 0.196078 0.470588
1.000000 0.219608 0.458824
1.000000 0.239216 0.450980
1.000000 0.270588 0.435294
0.031373 0.368627 0.568627
0.070588 0.372549 0.537255
0.305882 0.321569 0.525490
0.427451 0.329412 0.501961
0.647059 0.341176 0.501961
0.894118 0.349020 0.478431
1.000000 0.396078 0.470588
1.000000 0.423529 0.439216
1.000000 0.447059 0.403922
0.050980 0.568627 0.619608
0.129412 0.545098 0.580392
0.294118 0.521569 0.541176
0.435294 0.509804 0.505882
0.607843 0.509804 0.486275
0.811765 0.537255 0.494118
0.984314 0.580392 0.517647
1.000000 0.623529 0.549020
1.000000 0.650980 0.552941
0.062745 0.784314 0.662745
0.164706 0.760784 0.611765
0.278431 0.729412 0.541176
0.376471 0.678431 0.466667
0.584314 0.670588 0.533333
0.796078 0.686275 0.533333
0.972549 0.725490 0.580392
1.000000 0.784314 0.643137
1.000000 0.803922 0.654902
0.062745 0.968627 0.698039
0.101961 0.913725 0.596078
0.176471 0.850980 0.447059
0.305882 0.800000 0.388235
0.482353 0.827451 0.521569
0.733333 0.807843 0.603922
0.929412 0.847059 0.607843
1.000000 0.850980 0.654902
1.000000 0.874510 0.698039
0.062745 0.984314 0.662745
0.062745 0.984314 0.537255
0.082353 0.968627 0.368627
0.215686 0.894118 0.282353
0.407843 0.909804 0.450980
0.694118 0.937255 0.647059
0.870588 0.929412 0.690196
1.000000 0.972549 0.788235
1.000000 0.964706 0.737255
0.058824 0.984314 0.592157
0.062745 0.984314 0.474510
0.058824 0.980392 0.349020
0.176471 0.980392 0.258824
0.341176 0.980392 0.356863
0.596078 0.972549 0.596078
0.874510 0.972549 0.780392
1.000000 0.976471 0.811765
1.000000 0.980392 0.894118
0.062745 0.984314 0.549020
0.058824 0.984314 0.443137
0.062745 0.980392 0.337255
0.137255 0.980392 0.262745
0.321569 0.980392 0.325490
0.549020 0.972549 0.588235
0.850980 0.980392 0.807843
1.000000 0.980392 0.905882
1.000000 0.980392 0.909804
0.078431 0.070588 0.337255
0.149020 0.082353 0.384314
0.250980 0.090196 0.435294
0.345098 0.090196 0.486275
0.478431 0.086275 0.529412
0.745098 0.090196 0.607843
1.000000 0.109804 0.647059
1.000000 0.129412 0.623529
1.000000 0.149020 0.619608
0.058824 0.192157 0.580392
0.172549 0.176471 0.584314
0.301961 0.172549 0.592157
0.407843 0.180392 0.600000
0.596078 0.184314 0.631373
0.862745 0.211765 0.682353
1.000000 0.243137 0.662745
1.000000 0.258824 0.627451
1.000000 0.270588 0.627451
0.039216 0.411765 0.717647
0.043137 0.392157 0.721569
0.313726 0.329412 0.705882
0.450980 0.333333 0.670588
0.627451 0.345098 0.658824
0.874510 0.376471 0.698039
1.000000 0.411765 0.666667
1.000000 0.419608 0.654902
1.000000 0.435294 0.647059
0.054902 0.588235 0.764706
0.070588 0.576471 0.729412
0.254902 0.560784 0.690196
0.427451 0.509804 0.682353
0.611765 0.517647 0.654902
0.823529 0.529412 0.674510
1.000000 0.545098 0.654902
1.000000 0.584314 0.647059
1.000000 0.607843 0.627451
0.062745 0.768627 0.811765
0.152941 0.745098 0.780392
0.305882 0.729412 0.745098
0.431373 0.690196 0.709804
0.607843 0.670588 0.674510
0.772549 0.674510 0.662745
0.945098 0.705882 0.674510
1.000000 0.749020 0.713726
1.000000 0.776471 0.725490
0.062745 0.949020 0.850980
0.207843 0.909804 0.819608
0.333333 0.886275 0.776471
0.403922 0.847059 0.705882
0.525490 0.800000 0.631373
0.745098 0.803922 0.717647
0.917647 0.819608 0.713726
1.000000 0.866667 0.788235
1.000000 0.901961 0.827451
0.058824 0.988235 0.874510
0.207843 0.988235 0.827451
0.278431 0.984314 0.749020
0.301961 0.937255 0.600000
0.411765 0.882353 0.537255
0.662745 0.925490 0.713726
0.874510 0.917647 0.776471
1.000000 0.968627 0.847059
1.000000 0.964706 0.823529
0.058824 0.988235 0.874510
0.109804 0.988235 0.800000
0.172549 0.988235 0.674510
0.243137 0.988235 0.541176
0.325490 0.960784 0.454902
0.564706 0.972549 0.650980
0.862745 0.980392 0.835294
1.000000 0.980392 0.878431
1.000000 0.988235 0.937255
0.062745 0.988235 0.866667
0.058824 0.988235 0.760784
0.086275 0.984314 0.643137
0.207843 0.984314 0.521569
0.309804 0.980392 0.450980
0.501961 0.976471 0.572549
0.811765 0.980392 0.827451
0.996078 0.988235 0.952941
1.000000 0.984314 0.949020
0.090196 0.086275 0.478431
0.180392 0.090196 0.533333
0.282353 0.090196 0.584314
0.372549 0.090196 0.635294
0.505882 0.090196 0.682353
0.752941 0.090196 0.745098
1.000000 0.109804 0.788235
1.000000 0.145098 0.811765
1.000000 0.160784 0.811765
0.058824 0.203922 0.733333
0.180392 0.184314 0.737255
0.321569 0.176471 0.760784
0.435294 0.176471 0.772549
0.623529 0.188235 0.784314
0.839216 0.203922 0.788235
1.000000 0.254902 0.800000
1.000000 0.282353 0.819608
1.000000 0.298039 0.807843
0.043137 0.439216 0.866667
0.047059 0.384314 0.886275
0.317647 0.341176 0.843137
0.466667 0.329412 0.819608
0.647059 0.345098 0.796078
0.839216 0.372549 0.803922
1.000000 0.431373 0.827451
1.000000 0.447059 0.819608
1.000000 0.450980 0.792157
0.058824 0.619608 0.874510
0.058824 0.627451 0.858824
0.211765 0.588235 0.847059
0.435294 0.513726 0.819608
0.631373 0.521569 0.800000
0.800000 0.541176 0.796078
1.000000 0.580392 0.835294
1.000000 0.603922 0.803922
1.000000 0.600000 0.784314
0.058824 0.780392 0.898039
0.090196 0.768627 0.898039
0.250980 0.737255 0.862745
0.384314 0.725490 0.839216
0.596078 0.678431 0.811765
0.784314 0.682353 0.803922
0.956863 0.701961 0.823529
1.000000 0.733333 0.811765
1.000000 0.741176 0.807843
0.062745 0.925490 0.909804
0.176471 0.898039 0.909804
0.313726 0.874510 0.901961
0.427451 0.847059 0.866667
0.584314 0.815686 0.843137
0.764706 0.803922 0.819608
0.909804 0.815686 0.823529
1.000000 0.854902 0.858824
1.000000 0.878431 0.874510
0.062745 0.988235 0.917647
0.243137 0.992157 0.929412
0.372549 0.980392 0.937255
0.486275 0.976471 0.913725
0.560784 0.945098 0.858824
0.690196 0.898039 0.800000
0.882353 0.925490 0.878431
1.000000 0.937255 0.890196
1.000000 0.976471 0.937255
0.109804 0.992157 0.917647
0.294118 0.984314 0.933333
0.396078 0.976471 0.937255
0.450980 0.972549 0.886275
0.439216 0.972549 0.768627
0.552941 0.956863 0.713726
0.827451 0.980392 0.882353
1.000000 0.988235 0.945098
1.000000 0.988235 0.984314
0.141176 0.992157 0.921569
0.313726 0.984314 0.933333
0.364706 0.980392 0.909804
0.364706 0.976471 0.819608
0.388235 0.972549 0.713726
0.450980 0.972549 0.627451
0.752941 0.984314 0.831373
1.000000 0.988235 1.000000
1.000000 0.988235 1.000000
0.094118 0.098039 0.615686
0.207843 0.094118 0.666667
0.301961 0.090196 0.729412
0.403922 0.086275 0.776471
0.556863 0.086275 0.835294
0.800000 0.094118 0.870588
1.000000 0.109804 0.874510
1.000000 0.149020 0.854902
1.000000 0.172549 0.854902
0.058824 0.207843 0.870588
0.196078 0.188235 0.862745
0.337255 0.176471 0.890196
0.462745 0.180392 0.890196
0.647059 0.184314 0.886275
0.850980 0.207843 0.886275
1.000000 0.243137 0.866667
1.000000 0.290196 0.862745
1.000000 0.317647 0.862745
0.043137 0.443137 0.894118
0.047059 0.384314 0.894118
0.321569 0.341176 0.890196
0.490196 0.333333 0.886275
0.678431 0.349020 0.890196
0.858824 0.368627 0.894118
1.000000 0.407843 0.894118
1.000000 0.458824 0.878431
1.000000 0.482353 0.882353
0.062745 0.662745 0.890196
0.062745 0.647059 0.886275
0.211765 0.572549 0.886275
0.439216 0.525490 0.894118
0.662745 0.517647 0.901961
0.815686 0.541176 0.909804
0.980392 0.564706 0.917647
1.000000 0.627451 0.901961
1.000000 0.635294 0.905882
0.062745 0.796078 0.898039
0.062745 0.796078 0.898039
0.196078 0.776471 0.901961
0.352941 0.737255 0.909804
0.596078 0.678431 0.917647
0.811765 0.674510 0.921569
0.945098 0.705882 0.921569
1.000000 0.760784 0.933333
1.000000 0.760784 0.925490
0.062745 0.956863 0.913725
0.133333 0.917647 0.913725
0.278431 0.882353 0.917647
0.388235 0.854902 0.925490
0.533333 0.839216 0.937255
0.752941 0.819608 0.952941
0.917647 0.823529 0.949020
1.000000 0.858824 0.960784
1.000000 0.862745 0.949020
0.062745 0.988235 0.917647
0.203922 0.992157 0.925490
0.337255 0.976471 0.937255
0.458824 0.960784 0.952941
0.596078 0.949020 0.960784
0.752941 0.929412 0.968627
0.905882 0.925490 0.976471
1.000000 0.945098 0.976471
1.000000 0.964706 0.984314
0.074510 0.992157 0.917647
0.286275 0.984314 0.933333
0.411765 0.972549 0.949020
0.564706 0.976471 0.964706
0.694118 0.976471 0.972549
0.764706 0.984314 0.980392
0.835294 0.980392 0.945098
1.000000 0.988235 1.000000
1.000000 0.988235 1.000000
0.227451 0.992157 0.929412
0.396078 0.976471 0.949020
0.533333 0.972549 0.964706
0.643137 0.980392 0.968627
0.694118 0.976471 0.972549
0.631373 0.972549 0.901961
0.721569 0.980392 0.866667
0.984314 0.984314 0.996078
1.000000 0.988235 1.000000
0.098039 0.105882 0.737255
0.227451 0.090196 0.788235
0.325490 0.094118 0.847059
0.427451 0.086275 0.898039
0.611765 0.082353 0.890196
0.835294 0.090196 0.886275
1.000000 0.121569 0.862745
1.000000 0.152941 0.854902
1.000000 0.172549 0.854902
0.054902 0.219608 0.905882
0.203922 0.192157 0.898039
0.352941 0.176471 0.894118
0.482353 0.180392 0.890196
0.682353 0.180392 0.886275
0.874510 0.207843 0.882353
1.000000 0.250980 0.866667
1.000000 0.286275 0.862745
1.000000 0.317647 0.862745
0.047059 0.439216 0.894118
0.047059 0.392157 0.894118
0.325490 0.349020 0.890196
0.509804 0.329412 0.886275
0.698039 0.345098 0.890196
0.874510 0.368627 0.894118
1.000000 0.403922 0.890196
1.000000 0.447059 0.878431
1.000000 0.486275 0.878431
0.062745 0.690196 0.890196
0.062745 0.643137 0.890196
0.215686 0.564706 0.886275
0.443137 0.529412 0.898039
0.682353 0.517647 0.905882
0.847059 0.541176 0.913725
0.984314 0.560784 0.921569
1.000000 0.607843 0.901961
1.000000 0.639216 0.905882
0.062745 0.835294 0.901961
0.062745 0.839216 0.901961
0.137255 0.803922 0.901961
0.341176 0.729412 0.905882
0.603922 0.682353 0.921569
0.835294 0.682353 0.929412
0.956863 0.709804 0.937255
1.000000 0.745098 0.929412
1.000000 0.772549 0.937255
0.062745 0.956863 0.913725
0.058824 0.945098 0.913725
0.207843 0.901961 0.917647
0.337255 0.890196 0.925490
0.501961 0.862745 0.937255
0.764706 0.819608 0.949020
0.929412 0.827451 0.964706
1.000000 0.858824 0.960784
1.000000 0.894118 0.968627
0.062745 0.988235 0.917647
0.176471 0.992157 0.925490
0.313726 0.984314 0.937255
0.415686 0.968627 0.949020
0.545098 0.949020 0.956863
0.705882 0.952941 0.972549
0.894118 0.945098 0.980392
1.000000 0.949020 0.984314
1.000000 0.968627 0.992157
0.062745 0.988235 0.917647
0.243137 0.992157 0.929412
0.376471 0.976471 0.945098
0.505882 0.976471 0.960784
0.658824 0.980392 0.972549
0.784314 0.980392 0.980392
0.909804 0.984314 0.992157
1.000000 0.988235 1.000000
1.000000 0.988235 1.000000
0.156863 0.988235 0.925490
0.368627 0.980392 0.945098
0.505882 0.976471 0.960784
0.670588 0.976471 0.976471
0.800000 0.980392 0.984314
0.894118 0.984314 0.992157
0.956863 0.984314 0.996078
0.992157 0.988235 1.000000
1.000000 0.988235 1.000000
0.105882 0.105882 0.823529
0.243137 0.098039 0.878431
0.345098 0.094118 0.898039
0.458824 0.082353 0.894118
0.643137 0.082353 0.890196
0.870588 0.090196 0.886275
1.000000 0.129412 0.858824
1.000000 0.156863 0.854902
1.000000 0.172549 0.854902
0.050980 0.227451 0.905882
0.207843 0.196078 0.901961
0.364706 0.176471 0.894118
0.513726 0.176471 0.890196
0.709804 0.180392 0.886275
0.898039 0.207843 0.886275
1.000000 0.262745 0.858824
1.000000 0.286275 0.862745
1.000000 0.313726 0.862745
0.043137 0.439216 0.894118
0.050980 0.396078 0.894118
0.325490 0.349020 0.890196
0.541176 0.329412 0.886275
0.725490 0.345098 0.890196
0.909804 0.368627 0.894118
1.000000 0.415686 0.882353
1.000000 0.447059 0.878431
1.000000 0.474510 0.882353
0.062745 0.690196 0.890196
0.062745 0.639216 0.890196
0.215686 0.568627 0.890196
0.450980 0.529412 0.898039
0.705882 0.517647 0.905882
0.862745 0.533333 0.913725
1.000000 0.560784 0.917647
1.000000 0.607843 0.901961
1.000000 0.623529 0.901961
0.062745 0.854902 0.901961
0.062745 0.847059 0.901961
0.098039 0.807843 0.901961
0.341176 0.721569 0.909804
0.607843 0.686275 0.921569
0.850980 0.674510 0.929412
0.968627 0.713726 0.945098
1.000000 0.741176 0.925490
1.000000 0.756863 0.929412
0.058824 0.976471 0.917647
0.058824 0.976471 0.917647
0.137255 0.949020 0.917647
0.301961 0.905882 0.921569
0.466667 0.854902 0.933333
0.764706 0.827451 0.952941
0.949020 0.831373 0.968627
1.000000 0.854902 0.960784
1.000000 0.874510 0.964706
0.062745 0.988235 0.917647
0.062745 0.988235 0.917647
0.243137 0.992157 0.929412
0.360784 0.980392 0.945098
0.486275 0.976471 0.956863
0.682353 0.972549 0.972549
0.898039 0.937255 0.984314
1.000000 0.952941 0.988235
1.000000 0.968627 0.992157
0.062745 0.988235 0.917647
0.219608 0.992157 0.929412
0.368627 0.980392 0.945098
0.490196 0.976471 0.952941
0.607843 0.976471 0.964706
0.737255 0.980392 0.976471
0.886275 0.984314 0.988235
1.000000 0.988235 1.000000
1.000000 0.988235 1.000000
0.062745 0.988235 0.917647
0.325490 0.984314 0.937255
0.462745 0.972549 0.952941
0.603922 0.976471 0.964706
0.745098 0.980392 0.976471
0.858824 0.984314 0.988235
0.960784 0.988235 0.996078
1.000000 0.988235 1.000000
1.000000 0.988235 1.000000
