cubelut/FILM-KDW_KODAK_90's_WARM_LUT.cube
TITLE "Photo Curves LUT"
LUT_3D_SIZE 5
0.08627450980392157 0.09411764705882353 0.1843137254901961
0.23137254901960785 0.10196078431372549 0.19215686274509805
0.5764705882352941 0.10980392156862745 0.2
0.788235294117647 0.12156862745098039 0.20784313725490197
0.9803921568627451 0.12941176470588237 0.21568627450980393
0.08627450980392157 0.21176470588235294 0.1843137254901961
0.23529411764705882 0.24313725490196078 0.1843137254901961
0.5882352941176471 0.2 0.1843137254901961
0.8 0.23137254901960785 0.1843137254901961
0.9882352941176471 0.27058823529411763 0.2
0.08627450980392157 0.5490196078431373 0.1843137254901961
0.14901960784313725 0.6 0.1843137254901961
0.5882352941176471 0.611764705882353 0.1843137254901961
0.8235294117647058 0.5490196078431373 0.1843137254901961
0.996078431372549 0.5254901960784314 0.1843137254901961
0.08627450980392157 0.7568627450980392 0.1843137254901961
0.09411764705882353 0.8 0.1843137254901961
0.43529411764705883 0.8235294117647058 0.1843137254901961
0.803921568627451 0.8235294117647058 0.1843137254901961
0.996078431372549 0.7843137254901961 0.1843137254901961
0.08627450980392157 0.9450980392156862 0.1843137254901961
0.08627450980392157 0.9882352941176471 0.1843137254901961
0.25098039215686274 0.9882352941176471 0.1843137254901961
0.7137254901960784 0.9882352941176471 0.1843137254901961
0.996078431372549 0.9882352941176471 0.1843137254901961
0.08627450980392157 0.09411764705882353 0.27450980392156865
0.2196078431372549 0.10196078431372549 0.28627450980392155
0.5686274509803921 0.10980392156862745 0.3254901960784314
0.788235294117647 0.12156862745098039 0.3607843137254902
0.9803921568627451 0.12941176470588237 0.403921568627451
0.08627450980392157 0.1803921568627451 0.27450980392156865
0.23529411764705882 0.22745098039215686 0.30196078431372547
0.5803921568627451 0.22745098039215686 0.30196078431372547
0.792156862745098 0.2823529411764706 0.3607843137254902
0.984313725490196 0.3176470588235294 0.396078431372549
0.08627450980392157 0.5137254901960784 0.27058823529411763
0.14901960784313725 0.5647058823529412 0.23921568627450981
0.5843137254901961 0.596078431372549 0.23137254901960785
0.803921568627451 0.5529411764705883 0.24705882352941178
0.9921568627450981 0.5803921568627451 0.2901960784313726
0.08627450980392157 0.7333333333333333 0.24313725490196078
0.12549019607843137 0.7686274509803922 0.22745098039215686
0.43137254901960786 0.803921568627451 0.21176470588235294
0.803921568627451 0.8117647058823529 0.21176470588235294
0.996078431372549 0.7686274509803922 0.20392156862745098
0.08627450980392157 0.9098039215686274 0.2235294117647059
0.08627450980392157 0.9529411764705882 0.21176470588235294
0.25098039215686274 0.9882352941176471 0.1843137254901961
0.7098039215686275 0.9882352941176471 0.18823529411764706
0.996078431372549 0.9882352941176471 0.18823529411764706
0.08627450980392157 0.09411764705882353 0.596078431372549
0.21568627450980393 0.10196078431372549 0.6078431372549019
0.5450980392156862 0.10980392156862745 0.6313725490196078
0.7803921568627451 0.12156862745098039 0.6705882352941176
0.9725490196078431 0.12941176470588237 0.6980392156862745
0.08627450980392157 0.1607843137254902 0.596078431372549
0.1803921568627451 0.17254901960784313 0.6313725490196078
0.5647058823529412 0.2235294117647059 0.6470588235294118
0.788235294117647 0.2784313725490196 0.6745098039215687
0.9803921568627451 0.3137254901960784 0.6941176470588235
0.08627450980392157 0.4549019607843137 0.596078431372549
0.1607843137254902 0.5176470588235295 0.6313725490196078
0.5843137254901961 0.5803921568627451 0.6588235294117647
0.796078431372549 0.5568627450980392 0.6431372549019608
0.9882352941176471 0.5803921568627451 0.6588235294117647
0.08627450980392157 0.7215686274509804 0.6196078431372549
0.12941176470588237 0.7450980392156863 0.6078431372549019
0.3803921568627451 0.7764705882352941 0.5176470588235295
0.8 0.8 0.49019607843137253
0.996078431372549 0.7529411764705882 0.5058823529411764
0.08627450980392157 0.8941176470588236 0.5764705882352941
0.09019607843137255 0.9215686274509803 0.5450980392156862
0.25098039215686274 0.9647058823529412 0.4235294117647059
0.6784313725490196 0.9882352941176471 0.34509803921568627
0.996078431372549 0.9882352941176471 0.35294117647058826
0.08627450980392157 0.09411764705882353 0.788235294117647
0.20392156862745098 0.09803921568627451 0.8
0.5450980392156862 0.11372549019607843 0.803921568627451
0.7647058823529411 0.12156862745098039 0.8196078431372549
0.9607843137254902 0.12941176470588237 0.8470588235294118
0.08627450980392157 0.1450980392156863 0.788235294117647
0.17647058823529413 0.17254901960784313 0.8117647058823529
0.5529411764705883 0.23137254901960785 0.8156862745098039
0.7725490196078432 0.27450980392156865 0.8313725490196079
0.9725490196078431 0.3176470588235294 0.8549019607843137
0.08627450980392157 0.396078431372549 0.788235294117647
0.14901960784313725 0.45098039215686275 0.8117647058823529
0.4666666666666667 0.4627450980392157 0.8313725490196079
0.788235294117647 0.5490196078431373 0.8431372549019608
0.9803921568627451 0.5803921568627451 0.8470588235294118
0.08627450980392157 0.6745098039215687 0.792156862745098
0.1411764705882353 0.7137254901960784 0.8156862745098039
0.41568627450980394 0.7450980392156863 0.8313725490196079
0.8 0.788235294117647 0.8470588235294118
0.9921568627450981 0.7725490196078432 0.8352941176470589
0.08627450980392157 0.8901960784313725 0.8196078431372549
0.10588235294117647 0.9137254901960784 0.8156862745098039
0.2627450980392157 0.9372549019607843 0.8
0.6784313725490196 0.9725490196078431 0.7686274509803922
0.996078431372549 0.9882352941176471 0.7607843137254902
0.08627450980392157 0.09411764705882353 0.9294117647058824
0.19215686274509805 0.09411764705882353 0.9333333333333333
0.5411764705882353 0.10980392156862745 0.9411764705882353
0.7647058823529411 0.12549019607843137 0.9529411764705882
0.9450980392156862 0.12941176470588237 0.9647058823529412
0.08627450980392157 0.13725490196078433 0.9254901960784314
0.1607843137254902 0.1568627450980392 0.9450980392156862
0.5294117647058824 0.20784313725490197 0.9529411764705882
0.7686274509803922 0.27058823529411763 0.9607843137254902
0.9568627450980393 0.30980392156862746 0.9725490196078431
0.08627450980392157 0.34509803921568627 0.9254901960784314
0.13333333333333333 0.4 0.9450980392156862
0.41568627450980394 0.41568627450980394 0.9647058823529412
0.7568627450980392 0.5254901960784314 0.9686274509803922
0.9686274509803922 0.5725490196078431 0.984313725490196
0.08627450980392157 0.6431372549019608 0.9294117647058824
0.12549019607843137 0.6705882352941176 0.9450980392156862
0.3333333333333333 0.6862745098039216 0.9647058823529412
0.7215686274509804 0.7176470588235294 0.9803921568627451
0.9803921568627451 0.7686274509803922 0.9921568627450981
0.08627450980392157 0.8313725490196079 0.9333333333333333
0.12156862745098039 0.8627450980392157 0.9490196078431372
0.3137254901960784 0.9019607843137255 0.9647058823529412
0.6941176470588235 0.9372549019607843 0.984313725490196
0.996078431372549 0.9882352941176471 1.0
