cubelut/FILM-HOR_HORROR_v2_LUT.cube
TITLE "Photo Curves LUT"
LUT_3D_SIZE 5
0.0 0.01568627450980392 0.08627450980392157
0.0 0.03529411764705882 0.12941176470588237
0.11372549019607843 0.10980392156862745 0.23921568627450981
0.3764705882352941 0.09019607843137255 0.19607843137254902
0.48627450980392156 0.16862745098039217 0.20784313725490197
0.0 0.027450980392156862 0.10196078431372549
0.00392156862745098 0.047058823529411764 0.13333333333333333
0.16862745098039217 0.14901960784313725 0.25098039215686274
0.3803921568627451 0.19215686274509805 0.18823529411764706
0.45098039215686275 0.3568627450980392 0.2196078431372549
0.0 0.050980392156862744 0.12549019607843137
0.00784313725490196 0.09019607843137255 0.15294117647058825
0.13333333333333333 0.1843137254901961 0.21568627450980393
0.34901960784313724 0.3254901960784314 0.1803921568627451
0.4235294117647059 0.4549019607843137 0.22745098039215686
0.0 0.09019607843137255 0.10588235294117647
0.00392156862745098 0.1411764705882353 0.12156862745098039
0.12549019607843137 0.2784313725490196 0.15294117647058825
0.28627450980392155 0.37254901960784315 0.17254901960784313
0.4 0.49019607843137253 0.23921568627450981
0.0 0.1411764705882353 0.17254901960784313
0.03529411764705882 0.23137254901960785 0.16862745098039217
0.16862745098039217 0.3686274509803922 0.20784313725490197
0.3607843137254902 0.47058823529411764 0.23921568627450981
0.403921568627451 0.4980392156862745 0.24705882352941178
0.0 0.01568627450980392 0.10980392156862745
0.0 0.03137254901960784 0.15294117647058825
0.10196078431372549 0.09803921568627451 0.2549019607843137
0.3686274509803922 0.0784313725490196 0.22745098039215686
0.49019607843137253 0.07450980392156863 0.20784313725490197
0.0 0.043137254901960784 0.1450980392156863
0.0 0.050980392156862744 0.1568627450980392
0.12156862745098039 0.13725490196078433 0.26666666666666666
0.3843137254901961 0.16862745098039217 0.27058823529411763
0.5058823529411764 0.35294117647058826 0.34901960784313724
0.0 0.058823529411764705 0.15294117647058825
0.00784313725490196 0.08627450980392157 0.1803921568627451
0.12941176470588237 0.1843137254901961 0.2627450980392157
0.37254901960784315 0.35294117647058826 0.2784313725490196
0.4823529411764706 0.4980392156862745 0.3843137254901961
0.0 0.09019607843137255 0.17647058823529413
0.011764705882352941 0.1843137254901961 0.19215686274509805
0.15294117647058825 0.3176470588235294 0.23529411764705882
0.34901960784313724 0.42745098039215684 0.2784313725490196
0.4627450980392157 0.5686274509803921 0.40784313725490196
0.00784313725490196 0.1843137254901961 0.26666666666666666
0.09411764705882353 0.35294117647058826 0.3254901960784314
0.2196078431372549 0.45098039215686275 0.34509803921568627
0.4117647058823529 0.5450980392156862 0.4117647058823529
0.4666666666666667 0.5803921568627451 0.43137254901960786
0.0 0.0196078431372549 0.12549019607843137
0.0 0.03137254901960784 0.16862745098039217
0.08627450980392157 0.0784313725490196 0.2901960784313726
0.34901960784313724 0.06666666666666667 0.3333333333333333
0.4627450980392157 0.07058823529411765 0.3333333333333333
0.0 0.050980392156862744 0.17254901960784313
0.00392156862745098 0.054901960784313725 0.19215686274509805
0.09803921568627451 0.11372549019607843 0.30196078431372547
0.36470588235294116 0.12549019607843137 0.36470588235294116
0.5058823529411764 0.18823529411764706 0.40784313725490196
0.01568627450980392 0.09019607843137255 0.2196078431372549
0.043137254901960784 0.12549019607843137 0.25882352941176473
0.12156862745098039 0.19607843137254902 0.3254901960784314
0.403921568627451 0.37254901960784315 0.4666666666666667
0.5490196078431373 0.5019607843137255 0.5607843137254902
0.06666666666666667 0.25882352941176473 0.36470588235294116
0.09411764705882353 0.29411764705882354 0.37254901960784315
0.20392156862745098 0.38823529411764707 0.403921568627451
0.403921568627451 0.49019607843137253 0.4745098039215686
0.5137254901960784 0.6 0.5803921568627451
0.13725490196078433 0.396078431372549 0.5019607843137255
0.17254901960784313 0.42745098039215684 0.47843137254901963
0.2784313725490196 0.5058823529411764 0.48627450980392156
0.4235294117647059 0.5686274509803921 0.5333333333333333
0.5137254901960784 0.6313725490196078 0.6039215686274509
0.0 0.011764705882352941 0.1843137254901961
0.00784313725490196 0.01568627450980392 0.27058823529411763
0.16862745098039217 0.027450980392156862 0.4117647058823529
0.2980392156862745 0.047058823529411764 0.43529411764705883
0.42745098039215684 0.07058823529411765 0.4745098039215686
0.0 0.03529411764705882 0.21176470588235294
0.0 0.043137254901960784 0.2627450980392157
0.1568627450980392 0.06274509803921569 0.4196078431372549
0.3333333333333333 0.10196078431372549 0.47843137254901963
0.4666666666666667 0.1843137254901961 0.5529411764705883
0.08235294117647059 0.2 0.37254901960784315
0.09019607843137255 0.2 0.3843137254901961
0.1568627450980392 0.2 0.45098039215686275
0.38823529411764707 0.3254901960784314 0.5882352941176471
0.5333333333333333 0.43529411764705883 0.6588235294117647
0.16470588235294117 0.3254901960784314 0.4549019607843137
0.2627450980392157 0.4 0.5176470588235295
0.3568627450980392 0.4549019607843137 0.5882352941176471
0.41568627450980394 0.5058823529411764 0.6588235294117647
0.5764705882352941 0.6039215686274509 0.7843137254901961
0.3215686274509804 0.5215686274509804 0.6862745098039216
0.3803921568627451 0.5490196078431373 0.7333333333333333
0.403921568627451 0.5686274509803921 0.7725490196078432
0.4392156862745098 0.6039215686274509 0.7215686274509804
0.5450980392156862 0.6705882352941176 0.792156862745098
0.0 0.0196078431372549 0.2627450980392157
0.09019607843137255 0.023529411764705882 0.39215686274509803
0.29411764705882354 0.03529411764705882 0.5019607843137255
0.3607843137254902 0.050980392156862744 0.5607843137254902
0.3803921568627451 0.06274509803921569 0.5686274509803921
0.0 0.03137254901960784 0.26666666666666666
0.06666666666666667 0.06274509803921569 0.4
0.25882352941176473 0.08235294117647059 0.5333333333333333
0.40784313725490196 0.1450980392156863 0.6745098039215687
0.42745098039215684 0.1843137254901961 0.6941176470588235
0.10980392156862745 0.2235294117647059 0.4823529411764706
0.09019607843137255 0.17254901960784313 0.4666666666666667
0.24705882352941178 0.24705882352941178 0.6
0.4627450980392157 0.36470588235294116 0.8
0.49019607843137253 0.42745098039215684 0.8274509803921568
0.3058823529411765 0.4470588235294118 0.6705882352941176
0.3568627450980392 0.47058823529411764 0.7137254901960784
0.3686274509803922 0.4666666666666667 0.7372549019607844
0.42745098039215684 0.49411764705882355 0.803921568627451
0.5450980392156862 0.5725490196078431 0.8980392156862745
0.3764705882352941 0.5294117647058824 0.7294117647058823
0.4235294117647059 0.5725490196078431 0.796078431372549
0.4627450980392157 0.615686274509804 0.8549019607843137
0.5176470588235295 0.6627450980392157 0.9058823529411765
0.6 0.7137254901960784 0.9137254901960784
