cubelut/FILM-LIB_LIGHT_BLUE_LUT.cube
TITLE "Generated by LUMIX Lab"
#LUMIXPHOTOSTYLE STD
LUT_3D_SIZE 33
0.039216 0.023529 0.062745
0.043137 0.023529 0.066667
0.043137 0.027451 0.070588
0.054902 0.031373 0.074510
0.062745 0.039216 0.074510
0.078431 0.047059 0.074510
0.094118 0.050980 0.082353
0.113725 0.058824 0.086275
0.137255 0.062745 0.086275
0.176471 0.066667 0.090196
0.207843 0.074510 0.094118
0.243137 0.082353 0.094118
0.278431 0.078431 0.090196
0.313726 0.082353 0.094118
0.345098 0.086275 0.090196
0.376471 0.086275 0.090196
0.415686 0.090196 0.086275
0.470588 0.090196 0.086275
0.521569 0.090196 0.082353
0.596078 0.090196 0.074510
0.662745 0.086275 0.074510
0.745098 0.090196 0.070588
0.823529 0.094118 0.066667
0.886275 0.094118 0.066667
0.968627 0.098039 0.062745
1.000000 0.109804 0.074510
1.000000 0.113725 0.074510
1.000000 0.113725 0.074510
1.000000 0.121569 0.078431
1.000000 0.129412 0.078431
1.000000 0.133333 0.082353
1.000000 0.137255 0.082353
1.000000 0.141176 0.090196
0.054902 0.039216 0.074510
0.058824 0.039216 0.074510
0.058824 0.047059 0.074510
0.066667 0.050980 0.078431
0.078431 0.058824 0.082353
0.098039 0.066667 0.086275
0.117647 0.074510 0.094118
0.141176 0.074510 0.094118
0.164706 0.086275 0.098039
0.203922 0.090196 0.094118
0.235294 0.098039 0.094118
0.270588 0.101961 0.094118
0.298039 0.109804 0.094118
0.325490 0.109804 0.094118
0.356863 0.109804 0.086275
0.388235 0.117647 0.090196
0.427451 0.117647 0.082353
0.470588 0.121569 0.082353
0.541176 0.117647 0.078431
0.600000 0.125490 0.078431
0.662745 0.129412 0.070588
0.737255 0.129412 0.066667
0.811765 0.133333 0.062745
0.874510 0.137255 0.062745
0.945098 0.141176 0.062745
1.000000 0.145098 0.062745
1.000000 0.156863 0.074510
1.000000 0.160784 0.078431
1.000000 0.164706 0.078431
1.000000 0.172549 0.082353
1.000000 0.176471 0.090196
1.000000 0.184314 0.094118
1.000000 0.192157 0.098039
0.066667 0.066667 0.086275
0.070588 0.070588 0.086275
0.074510 0.074510 0.090196
0.082353 0.086275 0.090196
0.101961 0.090196 0.094118
0.129412 0.094118 0.098039
0.149020 0.098039 0.101961
0.180392 0.105882 0.098039
0.207843 0.109804 0.098039
0.239216 0.113725 0.098039
0.270588 0.121569 0.094118
0.294118 0.125490 0.094118
0.321569 0.129412 0.086275
0.352941 0.133333 0.082353
0.376471 0.141176 0.078431
0.419608 0.141176 0.070588
0.458824 0.149020 0.070588
0.501961 0.152941 0.070588
0.572549 0.156863 0.066667
0.635294 0.160784 0.062745
0.709804 0.164706 0.066667
0.764706 0.172549 0.058824
0.827451 0.172549 0.062745
0.886275 0.172549 0.054902
0.956863 0.184314 0.058824
1.000000 0.192157 0.062745
1.000000 0.207843 0.078431
1.000000 0.211765 0.082353
1.000000 0.215686 0.090196
1.000000 0.223529 0.090196
1.000000 0.227451 0.094118
1.000000 0.235294 0.101961
1.000000 0.243137 0.105882
0.074510 0.109804 0.090196
0.074510 0.113725 0.094118
0.082353 0.109804 0.098039
0.094118 0.113725 0.101961
0.117647 0.121569 0.101961
0.141176 0.125490 0.098039
0.180392 0.129412 0.098039
0.207843 0.133333 0.098039
0.235294 0.133333 0.094118
0.262745 0.145098 0.094118
0.286275 0.149020 0.098039
0.321569 0.152941 0.090196
0.349020 0.152941 0.082353
0.376471 0.156863 0.082353
0.411765 0.160784 0.078431
0.454902 0.164706 0.070588
0.509804 0.172549 0.074510
0.572549 0.180392 0.070588
0.627451 0.188235 0.066667
0.694118 0.196078 0.062745
0.764706 0.196078 0.062745
0.823529 0.203922 0.054902
0.886275 0.211765 0.054902
0.945098 0.215686 0.054902
0.980392 0.223529 0.054902
1.000000 0.239216 0.070588
1.000000 0.250980 0.082353
1.000000 0.262745 0.090196
1.000000 0.270588 0.094118
1.000000 0.278431 0.094118
1.000000 0.282353 0.098039
1.000000 0.286275 0.098039
1.000000 0.294118 0.101961
0.070588 0.152941 0.094118
0.074510 0.156863 0.098039
0.086275 0.160784 0.101961
0.101961 0.160784 0.109804
0.133333 0.156863 0.113725
0.160784 0.160784 0.109804
0.196078 0.164706 0.098039
0.223529 0.164706 0.098039
0.258824 0.164706 0.094118
0.282353 0.164706 0.086275
0.309804 0.172549 0.082353
0.337255 0.176471 0.082353
0.368627 0.176471 0.078431
0.403922 0.184314 0.078431
0.447059 0.196078 0.074510
0.490196 0.200000 0.070588
0.556863 0.203922 0.070588
0.611765 0.211765 0.066667
0.682353 0.219608 0.066667
0.749020 0.223529 0.062745
0.815686 0.231373 0.066667
0.870588 0.239216 0.062745
0.925490 0.247059 0.070588
0.972549 0.254902 0.066667
1.000000 0.270588 0.074510
1.000000 0.286275 0.098039
1.000000 0.290196 0.090196
1.000000 0.298039 0.098039
1.000000 0.305882 0.098039
1.000000 0.313726 0.098039
1.000000 0.329412 0.101961
1.000000 0.333333 0.105882
1.000000 0.341176 0.109804
0.070588 0.192157 0.094118
0.074510 0.196078 0.094118
0.074510 0.203922 0.098039
0.098039 0.200000 0.109804
0.137255 0.196078 0.117647
0.172549 0.192157 0.117647
0.207843 0.196078 0.105882
0.231373 0.200000 0.098039
0.262745 0.196078 0.082353
0.290196 0.196078 0.082353
0.321569 0.200000 0.078431
0.349020 0.207843 0.078431
0.384314 0.211765 0.070588
0.423529 0.215686 0.070588
0.470588 0.227451 0.070588
0.533333 0.231373 0.066667
0.600000 0.235294 0.066667
0.650980 0.247059 0.066667
0.721569 0.258824 0.062745
0.784314 0.270588 0.070588
0.835294 0.270588 0.074510
0.882353 0.278431 0.078431
0.937255 0.286275 0.070588
0.992157 0.294118 0.074510
1.000000 0.309804 0.094118
1.000000 0.329412 0.105882
1.000000 0.337255 0.109804
1.000000 0.345098 0.109804
1.000000 0.345098 0.109804
1.000000 0.356863 0.109804
1.000000 0.368627 0.109804
1.000000 0.376471 0.113725
1.000000 0.388235 0.113725
0.058824 0.235294 0.082353
0.062745 0.243137 0.086275
0.066667 0.250980 0.086275
0.078431 0.247059 0.094118
0.125490 0.239216 0.109804
0.168627 0.231373 0.117647
0.207843 0.223529 0.109804
0.243137 0.235294 0.098039
0.274510 0.243137 0.090196
0.301961 0.247059 0.074510
0.325490 0.243137 0.070588
0.356863 0.239216 0.070588
0.392157 0.243137 0.062745
0.435294 0.243137 0.058824
0.482353 0.250980 0.062745
0.541176 0.266667 0.058824
0.607843 0.278431 0.058824
0.662745 0.286275 0.062745
0.737255 0.294118 0.070588
0.788235 0.305882 0.074510
0.847059 0.317647 0.078431
0.886275 0.325490 0.078431
0.949020 0.333333 0.078431
1.000000 0.341176 0.078431
1.000000 0.356863 0.101961
1.000000 0.368627 0.113725
1.000000 0.376471 0.117647
1.000000 0.380392 0.125490
1.000000 0.396078 0.121569
1.000000 0.400000 0.121569
1.000000 0.407843 0.129412
1.000000 0.415686 0.125490
1.000000 0.423529 0.125490
0.043137 0.274510 0.066667
0.043137 0.282353 0.066667
0.043137 0.298039 0.070588
0.050980 0.301961 0.074510
0.086275 0.298039 0.082353
0.160784 0.278431 0.105882
0.207843 0.274510 0.109804
0.239216 0.274510 0.101961
0.278431 0.290196 0.090196
0.309804 0.294118 0.074510
0.333333 0.294118 0.070588
0.364706 0.294118 0.058824
0.396078 0.286275 0.054902
0.435294 0.286275 0.050980
0.482353 0.294118 0.047059
0.541176 0.298039 0.050980
0.603922 0.305882 0.058824
0.666667 0.325490 0.058824
0.733333 0.337255 0.070588
0.800000 0.345098 0.070588
0.858824 0.356863 0.074510
0.905882 0.364706 0.082353
0.956863 0.376471 0.078431
1.000000 0.388235 0.086275
1.000000 0.403922 0.113725
1.000000 0.415686 0.125490
1.000000 0.423529 0.125490
1.000000 0.427451 0.125490
1.000000 0.435294 0.129412
1.000000 0.443137 0.129412
1.000000 0.454902 0.125490
1.000000 0.458824 0.137255
1.000000 0.466667 0.133333
0.019608 0.317647 0.050980
0.019608 0.321569 0.050980
0.019608 0.333333 0.050980
0.023529 0.349020 0.054902
0.054902 0.356863 0.062745
0.125490 0.341176 0.078431
0.192157 0.325490 0.101961
0.235294 0.313726 0.105882
0.266667 0.317647 0.094118
0.309804 0.337255 0.082353
0.341176 0.349020 0.074510
0.368627 0.352941 0.062745
0.403922 0.352941 0.050980
0.439216 0.345098 0.043137
0.478431 0.337255 0.043137
0.537255 0.341176 0.047059
0.600000 0.345098 0.047059
0.658824 0.356863 0.054902
0.733333 0.372549 0.066667
0.800000 0.384314 0.070588
0.847059 0.396078 0.074510
0.905882 0.407843 0.074510
0.960784 0.411765 0.078431
1.000000 0.427451 0.086275
1.000000 0.443137 0.117647
1.000000 0.458824 0.129412
1.000000 0.462745 0.141176
1.000000 0.470588 0.141176
1.000000 0.474510 0.133333
1.000000 0.486275 0.141176
1.000000 0.490196 0.141176
1.000000 0.498039 0.141176
1.000000 0.505882 0.141176
0.019608 0.368627 0.035294
0.023529 0.368627 0.031373
0.023529 0.380392 0.035294
0.023529 0.396078 0.039216
0.023529 0.411765 0.039216
0.074510 0.400000 0.054902
0.160784 0.384314 0.078431
0.227451 0.372549 0.098039
0.266667 0.364706 0.101961
0.301961 0.368627 0.090196
0.337255 0.384314 0.078431
0.372549 0.400000 0.074510
0.403922 0.403922 0.070588
0.450980 0.407843 0.054902
0.482353 0.407843 0.050980
0.533333 0.396078 0.047059
0.596078 0.396078 0.043137
0.650980 0.400000 0.050980
0.721569 0.407843 0.054902
0.788235 0.415686 0.062745
0.839216 0.431373 0.070588
0.905882 0.447059 0.070588
0.945098 0.458824 0.078431
0.996078 0.466667 0.082353
1.000000 0.486275 0.109804
1.000000 0.494118 0.137255
1.000000 0.498039 0.141176
1.000000 0.505882 0.137255
1.000000 0.517647 0.141176
1.000000 0.525490 0.149020
1.000000 0.529412 0.149020
1.000000 0.537255 0.152941
1.000000 0.549020 0.152941
0.023529 0.411765 0.011765
0.023529 0.415686 0.007843
0.023529 0.427451 0.007843
0.027451 0.443137 0.019608
0.031373 0.458824 0.023529
0.043137 0.458824 0.031373
0.125490 0.447059 0.050980
0.207843 0.435294 0.082353
0.258824 0.419608 0.094118
0.298039 0.415686 0.098039
0.325490 0.415686 0.086275
0.368627 0.435294 0.078431
0.415686 0.447059 0.078431
0.450980 0.462745 0.070588
0.490196 0.466667 0.066667
0.541176 0.466667 0.058824
0.588235 0.462745 0.050980
0.643137 0.450980 0.043137
0.717647 0.450980 0.050980
0.784314 0.458824 0.050980
0.823529 0.470588 0.058824
0.886275 0.474510 0.062745
0.945098 0.486275 0.070588
0.984314 0.501961 0.074510
1.000000 0.517647 0.101961
1.000000 0.533333 0.133333
1.000000 0.537255 0.145098
1.000000 0.541176 0.137255
1.000000 0.552941 0.145098
1.000000 0.560784 0.149020
1.000000 0.568627 0.156863
1.000000 0.580392 0.160784
1.000000 0.584314 0.160784
0.031373 0.454902 0.000000
0.031373 0.458824 0.000000
0.031373 0.474510 0.000000
0.027451 0.490196 0.000000
0.031373 0.509804 0.015686
0.031373 0.513726 0.023529
0.082353 0.505882 0.031373
0.180392 0.494118 0.058824
0.247059 0.478431 0.086275
0.286275 0.470588 0.098039
0.325490 0.466667 0.101961
0.356863 0.470588 0.086275
0.400000 0.490196 0.086275
0.450980 0.505882 0.086275
0.501961 0.521569 0.078431
0.549020 0.525490 0.070588
0.600000 0.529412 0.066667
0.635294 0.525490 0.054902
0.705882 0.517647 0.050980
0.764706 0.505882 0.050980
0.815686 0.505882 0.050980
0.874510 0.517647 0.050980
0.929412 0.529412 0.062745
0.968627 0.541176 0.066667
1.000000 0.545098 0.082353
1.000000 0.560784 0.125490
1.000000 0.568627 0.145098
1.000000 0.580392 0.152941
1.000000 0.588235 0.145098
1.000000 0.592157 0.152941
1.000000 0.603922 0.156863
1.000000 0.603922 0.160784
1.000000 0.611765 0.168627
0.031373 0.498039 0.000000
0.035294 0.501961 0.000000
0.031373 0.513726 0.000000
0.035294 0.525490 0.000000
0.035294 0.556863 0.003922
0.035294 0.568627 0.015686
0.054902 0.564706 0.023529
0.141176 0.549020 0.043137
0.227451 0.537255 0.070588
0.278431 0.521569 0.090196
0.321569 0.513726 0.105882
0.352941 0.509804 0.098039
0.388235 0.513726 0.086275
0.443137 0.541176 0.090196
0.501961 0.560784 0.090196
0.556863 0.576471 0.082353
0.611765 0.580392 0.078431
0.662745 0.588235 0.074510
0.698039 0.584314 0.062745
0.752941 0.576471 0.050980
0.800000 0.564706 0.047059
0.858824 0.560784 0.047059
0.917647 0.564706 0.054902
0.968627 0.576471 0.058824
0.996078 0.584314 0.062745
1.000000 0.592157 0.109804
1.000000 0.607843 0.145098
1.000000 0.607843 0.149020
1.000000 0.615686 0.152941
1.000000 0.619608 0.164706
1.000000 0.627451 0.160784
1.000000 0.635294 0.164706
1.000000 0.639216 0.172549
0.039216 0.545098 0.000000
0.039216 0.545098 0.000000
0.039216 0.556863 0.000000
0.039216 0.572549 0.000000
0.039216 0.596078 0.000000
0.039216 0.611765 0.007843
0.039216 0.615686 0.019608
0.117647 0.607843 0.031373
0.207843 0.600000 0.054902
0.270588 0.580392 0.078431
0.317647 0.572549 0.098039
0.352941 0.568627 0.105882
0.388235 0.560784 0.105882
0.423529 0.564706 0.090196
0.482353 0.596078 0.094118
0.556863 0.611765 0.101961
0.619608 0.623529 0.101961
0.662745 0.635294 0.098039
0.709804 0.639216 0.082353
0.764706 0.631373 0.070588
0.811765 0.619608 0.058824
0.847059 0.615686 0.054902
0.898039 0.607843 0.050980
0.960784 0.603922 0.062745
0.992157 0.611765 0.062745
1.000000 0.623529 0.105882
1.000000 0.635294 0.149020
1.000000 0.639216 0.152941
1.000000 0.650980 0.152941
1.000000 0.654902 0.156863
1.000000 0.662745 0.156863
1.000000 0.666667 0.180392
1.000000 0.670588 0.180392
0.039216 0.584314 0.000000
0.039216 0.584314 0.000000
0.039216 0.596078 0.000000
0.043137 0.607843 0.000000
0.047059 0.635294 0.000000
0.043137 0.650980 0.000000
0.043137 0.658824 0.019608
0.094118 0.654902 0.019608
0.184314 0.647059 0.043137
0.258824 0.631373 0.066667
0.309804 0.623529 0.094118
0.349020 0.619608 0.113725
0.388235 0.611765 0.117647
0.419608 0.603922 0.117647
0.466667 0.615686 0.105882
0.537255 0.643137 0.109804
0.611765 0.658824 0.117647
0.666667 0.674510 0.117647
0.717647 0.682353 0.113725
0.772549 0.686275 0.105882
0.803922 0.690196 0.094118
0.862745 0.678431 0.070588
0.905882 0.666667 0.062745
0.956863 0.658824 0.058824
0.984314 0.650980 0.066667
1.000000 0.658824 0.094118
1.000000 0.670588 0.145098
1.000000 0.666667 0.156863
1.000000 0.674510 0.156863
1.000000 0.682353 0.168627
1.000000 0.690196 0.172549
1.000000 0.698039 0.172549
1.000000 0.705882 0.184314
0.043137 0.627451 0.000000
0.043137 0.627451 0.000000
0.047059 0.635294 0.000000
0.047059 0.647059 0.000000
0.050980 0.674510 0.000000
0.050980 0.694118 0.000000
0.047059 0.705882 0.011765
0.074510 0.709804 0.019608
0.156863 0.705882 0.031373
0.239216 0.694118 0.058824
0.301961 0.678431 0.078431
0.345098 0.674510 0.105882
0.388235 0.662745 0.125490
0.419608 0.658824 0.129412
0.462745 0.650980 0.129412
0.513726 0.662745 0.109804
0.588235 0.686275 0.121569
0.670588 0.717647 0.129412
0.733333 0.721569 0.137255
0.776471 0.725490 0.129412
0.811765 0.729412 0.125490
0.870588 0.729412 0.109804
0.898039 0.725490 0.090196
0.949020 0.709804 0.078431
0.972549 0.709804 0.074510
1.000000 0.709804 0.074510
1.000000 0.709804 0.152941
1.000000 0.705882 0.156863
1.000000 0.709804 0.164706
1.000000 0.713726 0.168627
1.000000 0.721569 0.168627
1.000000 0.729412 0.180392
1.000000 0.733333 0.184314
0.050980 0.678431 0.000000
0.050980 0.674510 0.000000
0.050980 0.678431 0.000000
0.050980 0.690196 0.000000
0.050980 0.709804 0.000000
0.054902 0.733333 0.000000
0.050980 0.749020 0.003922
0.054902 0.749020 0.015686
0.137255 0.749020 0.023529
0.211765 0.737255 0.047059
0.282353 0.729412 0.074510
0.337255 0.725490 0.094118
0.384314 0.717647 0.129412
0.423529 0.701961 0.141176
0.458824 0.698039 0.145098
0.513726 0.694118 0.141176
0.572549 0.709804 0.133333
0.650980 0.729412 0.141176
0.725490 0.749020 0.149020
0.772549 0.756863 0.156863
0.823529 0.764706 0.149020
0.874510 0.764706 0.141176
0.898039 0.768627 0.129412
0.937255 0.764706 0.113725
0.972549 0.752941 0.098039
1.000000 0.749020 0.078431
1.000000 0.741176 0.156863
1.000000 0.741176 0.168627
1.000000 0.745098 0.176471
1.000000 0.745098 0.188235
1.000000 0.749020 0.184314
1.000000 0.756863 0.180392
1.000000 0.760784 0.192157
0.050980 0.717647 0.000000
0.050980 0.717647 0.000000
0.054902 0.725490 0.000000
0.054902 0.733333 0.000000
0.054902 0.749020 0.000000
0.054902 0.764706 0.000000
0.058824 0.776471 0.000000
0.054902 0.788235 0.019608
0.113725 0.784314 0.023529
0.188235 0.780392 0.039216
0.250980 0.780392 0.066667
0.317647 0.768627 0.090196
0.372549 0.752941 0.121569
0.419608 0.745098 0.141176
0.458824 0.741176 0.172549
0.509804 0.737255 0.176471
0.564706 0.737255 0.168627
0.619608 0.749020 0.152941
0.694118 0.768627 0.164706
0.764706 0.792157 0.176471
0.835294 0.800000 0.180392
0.874510 0.807843 0.172549
0.909804 0.803922 0.160784
0.937255 0.807843 0.145098
0.972549 0.807843 0.125490
0.996078 0.800000 0.113725
1.000000 0.788235 0.160784
1.000000 0.784314 0.184314
1.000000 0.780392 0.188235
1.000000 0.780392 0.188235
1.000000 0.776471 0.196078
1.000000 0.784314 0.192157
1.000000 0.784314 0.200000
0.054902 0.760784 0.000000
0.054902 0.760784 0.000000
0.054902 0.760784 0.000000
0.058824 0.764706 0.000000
0.058824 0.776471 0.000000
0.058824 0.800000 0.000000
0.058824 0.827451 0.000000
0.058824 0.831373 0.015686
0.094118 0.831373 0.019608
0.172549 0.827451 0.031373
0.235294 0.827451 0.054902
0.301961 0.819608 0.082353
0.360784 0.807843 0.113725
0.407843 0.796078 0.137255
0.454902 0.780392 0.172549
0.509804 0.772549 0.196078
0.560784 0.768627 0.196078
0.603922 0.776471 0.192157
0.670588 0.792157 0.176471
0.749020 0.811765 0.188235
0.803922 0.823529 0.200000
0.862745 0.843137 0.196078
0.898039 0.843137 0.192157
0.929412 0.847059 0.180392
0.968627 0.850980 0.172549
0.996078 0.847059 0.152941
1.000000 0.839216 0.200000
1.000000 0.827451 0.235294
1.000000 0.823529 0.219608
1.000000 0.811765 0.207843
1.000000 0.807843 0.207843
1.000000 0.811765 0.203922
1.000000 0.811765 0.207843
0.058824 0.803922 0.000000
0.058824 0.807843 0.000000
0.058824 0.800000 0.000000
0.058824 0.803922 0.000000
0.058824 0.819608 0.000000
0.058824 0.835294 0.000000
0.062745 0.858824 0.000000
0.058824 0.870588 0.007843
0.074510 0.870588 0.019608
0.149020 0.870588 0.027451
0.207843 0.870588 0.050980
0.274510 0.858824 0.074510
0.337255 0.858824 0.101961
0.403922 0.835294 0.129412
0.450980 0.827451 0.168627
0.494118 0.819608 0.196078
0.545098 0.815686 0.215686
0.603922 0.815686 0.219608
0.650980 0.811765 0.207843
0.709804 0.819608 0.192157
0.784314 0.847059 0.207843
0.839216 0.866667 0.227451
0.905882 0.870588 0.227451
0.937255 0.870588 0.227451
0.960784 0.878431 0.211765
0.992157 0.878431 0.196078
1.000000 0.874510 0.250980
1.000000 0.870588 0.301961
1.000000 0.866667 0.274510
1.000000 0.862745 0.239216
1.000000 0.854902 0.243137
1.000000 0.850980 0.223529
1.000000 0.854902 0.219608
0.058824 0.843137 0.000000
0.058824 0.843137 0.000000
0.062745 0.839216 0.000000
0.058824 0.843137 0.000000
0.062745 0.854902 0.000000
0.062745 0.870588 0.000000
0.062745 0.886275 0.000000
0.058824 0.894118 0.007843
0.058824 0.905882 0.019608
0.133333 0.905882 0.023529
0.196078 0.901961 0.039216
0.250980 0.901961 0.066667
0.313726 0.894118 0.094118
0.376471 0.882353 0.125490
0.427451 0.862745 0.156863
0.486275 0.862745 0.180392
0.541176 0.854902 0.223529
0.596078 0.850980 0.239216
0.647059 0.850980 0.247059
0.709804 0.850980 0.235294
0.749020 0.858824 0.219608
0.835294 0.870588 0.231373
0.886275 0.890196 0.247059
0.925490 0.898039 0.254902
0.960784 0.901961 0.250980
0.996078 0.905882 0.243137
1.000000 0.909804 0.294118
1.000000 0.905882 0.317647
1.000000 0.905882 0.313726
1.000000 0.901961 0.305882
1.000000 0.890196 0.278431
1.000000 0.886275 0.270588
1.000000 0.878431 0.266667
0.062745 0.874510 0.000000
0.062745 0.874510 0.000000
0.062745 0.878431 0.000000
0.062745 0.882353 0.000000
0.062745 0.886275 0.000000
0.062745 0.898039 0.000000
0.062745 0.913725 0.000000
0.058824 0.937255 0.000000
0.058824 0.949020 0.015686
0.109804 0.945098 0.019608
0.180392 0.937255 0.043137
0.235294 0.937255 0.054902
0.286275 0.929412 0.078431
0.349020 0.913725 0.109804
0.411765 0.905882 0.137255
0.478431 0.894118 0.180392
0.533333 0.886275 0.219608
0.584314 0.878431 0.247059
0.647059 0.874510 0.270588
0.698039 0.870588 0.274510
0.737255 0.874510 0.258824
0.788235 0.882353 0.247059
0.858824 0.898039 0.258824
0.917647 0.917647 0.290196
0.949020 0.925490 0.294118
0.996078 0.929412 0.294118
1.000000 0.929412 0.345098
1.000000 0.929412 0.376471
1.000000 0.929412 0.364706
1.000000 0.929412 0.345098
1.000000 0.933333 0.321569
1.000000 0.925490 0.313726
1.000000 0.917647 0.313726
0.062745 0.901961 0.000000
0.062745 0.901961 0.000000
0.062745 0.909804 0.000000
0.062745 0.917647 0.000000
0.066667 0.921569 0.000000
0.062745 0.933333 0.000000
0.062745 0.952941 0.000000
0.062745 0.964706 0.000000
0.058824 0.976471 0.007843
0.098039 0.972549 0.019608
0.160784 0.972549 0.035294
0.207843 0.964706 0.050980
0.270588 0.960784 0.074510
0.325490 0.956863 0.098039
0.388235 0.945098 0.133333
0.450980 0.933333 0.176471
0.517647 0.917647 0.203922
0.564706 0.909804 0.250980
0.627451 0.905882 0.290196
0.690196 0.898039 0.301961
0.725490 0.894118 0.301961
0.776471 0.901961 0.294118
0.835294 0.913725 0.274510
0.882353 0.929412 0.290196
0.937255 0.949020 0.313726
0.992157 0.960784 0.325490
1.000000 0.956863 0.372549
1.000000 0.952941 0.423529
1.000000 0.956863 0.423529
1.000000 0.956863 0.415686
1.000000 0.960784 0.388235
1.000000 0.960784 0.376471
1.000000 0.960784 0.345098
0.074510 0.937255 0.000000
0.062745 0.945098 0.000000
0.062745 0.952941 0.000000
0.062745 0.956863 0.000000
0.062745 0.956863 0.000000
0.062745 0.964706 0.000000
0.062745 0.972549 0.000000
0.062745 0.972549 0.000000
0.058824 0.976471 0.000000
0.078431 0.972549 0.015686
0.137255 0.976471 0.031373
0.200000 0.976471 0.047059
0.250980 0.976471 0.066667
0.305882 0.980392 0.086275
0.364706 0.976471 0.121569
0.427451 0.960784 0.164706
0.498039 0.952941 0.207843
0.560784 0.945098 0.247059
0.623529 0.933333 0.290196
0.670588 0.933333 0.321569
0.717647 0.925490 0.337255
0.764706 0.929412 0.337255
0.815686 0.929412 0.321569
0.858824 0.937255 0.305882
0.905882 0.952941 0.321569
0.968627 0.964706 0.349020
1.000000 0.968627 0.380392
1.000000 0.960784 0.482353
1.000000 0.960784 0.482353
1.000000 0.960784 0.458824
1.000000 0.956863 0.462745
1.000000 0.956863 0.443137
1.000000 0.960784 0.423529
0.090196 0.964706 0.000000
0.062745 0.972549 0.000000
0.062745 0.972549 0.000000
0.062745 0.972549 0.000000
0.062745 0.972549 0.000000
0.062745 0.972549 0.000000
0.062745 0.972549 0.000000
0.062745 0.972549 0.000000
0.062745 0.972549 0.000000
0.066667 0.976471 0.015686
0.133333 0.976471 0.031373
0.180392 0.976471 0.050980
0.243137 0.976471 0.062745
0.294118 0.976471 0.086275
0.341176 0.980392 0.109804
0.403922 0.984314 0.149020
0.486275 0.976471 0.196078
0.545098 0.964706 0.247059
0.603922 0.968627 0.290196
0.658824 0.956863 0.329412
0.717647 0.949020 0.364706
0.752941 0.952941 0.376471
0.803922 0.949020 0.368627
0.847059 0.952941 0.356863
0.886275 0.960784 0.341176
0.937255 0.968627 0.360784
0.992157 0.968627 0.388235
1.000000 0.960784 0.517647
1.000000 0.960784 0.533333
1.000000 0.960784 0.533333
1.000000 0.960784 0.517647
1.000000 0.964706 0.494118
1.000000 0.960784 0.490196
0.101961 0.972549 0.000000
0.062745 0.972549 0.000000
0.062745 0.972549 0.000000
0.062745 0.972549 0.000000
0.062745 0.972549 0.000000
0.062745 0.972549 0.000000
0.062745 0.972549 0.000000
0.062745 0.972549 0.000000
0.062745 0.972549 0.000000
0.058824 0.976471 0.011765
0.125490 0.976471 0.035294
0.180392 0.976471 0.043137
0.231373 0.976471 0.062745
0.278431 0.980392 0.082353
0.333333 0.980392 0.101961
0.388235 0.980392 0.141176
0.458824 0.980392 0.188235
0.525490 0.976471 0.243137
0.600000 0.976471 0.290196
0.650980 0.972549 0.329412
0.709804 0.968627 0.376471
0.737255 0.972549 0.400000
0.796078 0.972549 0.411765
0.847059 0.968627 0.411765
0.882353 0.972549 0.388235
0.909804 0.972549 0.380392
0.968627 0.972549 0.400000
1.000000 0.964706 0.494118
1.000000 0.960784 0.537255
1.000000 0.956863 0.556863
1.000000 0.960784 0.560784
1.000000 0.956863 0.556863
1.000000 0.956863 0.541176
0.109804 0.968627 0.000000
0.062745 0.972549 0.000000
0.062745 0.972549 0.000000
0.062745 0.972549 0.000000
0.062745 0.972549 0.000000
0.062745 0.972549 0.000000
0.062745 0.972549 0.000000
0.062745 0.972549 0.000000
0.062745 0.972549 0.000000
0.058824 0.976471 0.003922
0.109804 0.976471 0.031373
0.172549 0.976471 0.043137
0.219608 0.976471 0.058824
0.266667 0.976471 0.078431
0.317647 0.980392 0.094118
0.372549 0.980392 0.129412
0.435294 0.980392 0.176471
0.505882 0.980392 0.235294
0.576471 0.976471 0.286275
0.647059 0.972549 0.341176
0.705882 0.968627 0.384314
0.737255 0.972549 0.423529
0.788235 0.972549 0.447059
0.827451 0.968627 0.454902
0.870588 0.972549 0.450980
0.909804 0.972549 0.435294
0.956863 0.972549 0.431373
0.996078 0.968627 0.450980
