cubelut/FILM-LIB_LIGHT_BLUE_LUT.cube
TITLE "Generated by LUMIX Lab"
#LUMIXPHOTOSTYLE STD
LUT_3D_SIZE 5
0.039216 0.023529 0.062745
0.137255 0.062745 0.086275
0.415686 0.090196 0.086275
0.968627 0.098039 0.062745
1.000000 0.141176 0.090196
0.019608 0.317647 0.050980
0.266667 0.317647 0.094118
0.600000 0.345098 0.047059
1.000000 0.443137 0.117647
1.000000 0.505882 0.141176
0.050980 0.678431 0.000000
0.137255 0.749020 0.023529
0.572549 0.709804 0.133333
0.972549 0.752941 0.098039
1.000000 0.760784 0.192157
0.090196 0.964706 0.000000
0.062745 0.972549 0.000000
0.486275 0.976471 0.196078
0.886275 0.960784 0.341176
1.000000 0.960784 0.490196
0.062745 0.972549 0.000000
0.062745 0.972549 0.000000
0.376471 0.980392 0.160784
0.874510 0.968627 0.623529
1.000000 0.964706 0.745098
0.058824 0.047059 0.133333
0.184314 0.082353 0.196078
0.494118 0.082353 0.258824
1.000000 0.098039 0.266667
1.000000 0.129412 0.243137
0.027451 0.352941 0.396078
0.301961 0.317647 0.325490
0.627451 0.345098 0.305882
1.000000 0.427451 0.345098
1.000000 0.486275 0.360784
0.058824 0.780392 0.411765
0.180392 0.658824 0.215686
0.584314 0.686275 0.396078
0.980392 0.717647 0.396078
1.000000 0.784314 0.537255
0.062745 0.976471 0.254902
0.058824 0.945098 0.129412
0.407843 0.949020 0.376471
0.882353 0.937255 0.596078
1.000000 0.964706 0.694118
0.058824 0.976471 0.188235
0.062745 0.976471 0.125490
0.360784 0.976471 0.325490
0.862745 0.976471 0.756863
1.000000 0.980392 0.858824
0.078431 0.070588 0.337255
0.250980 0.090196 0.435294
0.478431 0.086275 0.529412
1.000000 0.109804 0.647059
1.000000 0.149020 0.619608
0.039216 0.411765 0.717647
0.313726 0.329412 0.705882
0.627451 0.345098 0.658824
1.000000 0.411765 0.666667
1.000000 0.435294 0.647059
0.062745 0.768627 0.811765
0.305882 0.729412 0.745098
0.607843 0.670588 0.674510
0.945098 0.705882 0.674510
1.000000 0.776471 0.725490
0.058824 0.988235 0.874510
0.278431 0.984314 0.749020
0.411765 0.882353 0.537255
0.874510 0.917647 0.776471
1.000000 0.964706 0.823529
0.062745 0.988235 0.866667
0.086275 0.984314 0.643137
0.309804 0.980392 0.450980
0.811765 0.980392 0.827451
1.000000 0.984314 0.949020
0.094118 0.098039 0.615686
0.301961 0.090196 0.729412
0.556863 0.086275 0.835294
1.000000 0.109804 0.874510
1.000000 0.172549 0.854902
0.043137 0.443137 0.894118
0.321569 0.341176 0.890196
0.678431 0.349020 0.890196
1.000000 0.407843 0.894118
1.000000 0.482353 0.882353
0.062745 0.796078 0.898039
0.196078 0.776471 0.901961
0.596078 0.678431 0.917647
0.945098 0.705882 0.921569
1.000000 0.760784 0.925490
0.062745 0.988235 0.917647
0.337255 0.976471 0.937255
0.596078 0.949020 0.960784
0.905882 0.925490 0.976471
1.000000 0.964706 0.984314
0.227451 0.992157 0.929412
0.533333 0.972549 0.964706
0.694118 0.976471 0.972549
0.721569 0.980392 0.866667
1.000000 0.988235 1.000000
0.105882 0.105882 0.823529
0.345098 0.094118 0.898039
0.643137 0.082353 0.890196
1.000000 0.129412 0.858824
1.000000 0.172549 0.854902
0.043137 0.439216 0.894118
0.325490 0.349020 0.890196
0.725490 0.345098 0.890196
1.000000 0.415686 0.882353
1.000000 0.474510 0.882353
0.062745 0.854902 0.901961
0.098039 0.807843 0.901961
0.607843 0.686275 0.921569
0.968627 0.713726 0.945098
1.000000 0.756863 0.929412
0.062745 0.988235 0.917647
0.243137 0.992157 0.929412
0.486275 0.976471 0.956863
0.898039 0.937255 0.984314
1.000000 0.968627 0.992157
0.062745 0.988235 0.917647
0.462745 0.972549 0.952941
0.745098 0.980392 0.976471
0.960784 0.988235 0.996078
1.000000 0.988235 1.000000
