cubelut/Green_Yellow.cube
# Created by Adobe Lightroom plugin Export LUT (1.18.0)
# www.johnrellis.com/lightroom/exportlut.htm
# Preset: Green/Yellow
# Color profile: /Library/Application Support/Adobe/Color/Profiles/Recommended/AdobeRGB1998.icc
LUT_3D_SIZE 32
0.086702 0.104189 0.084962
0.087068 0.104158 0.084962
0.089174 0.104128 0.084932
0.096468 0.103059 0.085115
0.109133 0.103029 0.084688
0.129305 0.103639 0.084108
0.152132 0.104768 0.083162
0.177676 0.106264 0.081788
0.206180 0.107515 0.080507
0.237247 0.108858 0.078492
0.271397 0.109987 0.075990
0.308568 0.110384 0.072663
0.348150 0.111360 0.067781
0.390295 0.111604 0.061707
0.433234 0.110140 0.050874
0.476234 0.109895 0.032349
0.518578 0.107942 0.012390
0.559625 0.106142 0.000000
0.598718 0.105196 0.000000
0.650629 0.102174 0.000000
0.704128 0.099123 0.000000
0.755154 0.094789 0.000000
0.800443 0.091829 0.000000
0.840238 0.090150 0.000000
0.875364 0.088838 0.000000
0.906920 0.089662 0.000000
0.935882 0.093935 0.000000
0.962615 0.100374 0.000000
0.987243 0.109346 0.000000
1.000000 0.120699 0.000000
1.000000 0.135805 0.031312
1.000000 0.153872 0.085145
0.087007 0.104402 0.084932
0.086976 0.104646 0.084932
0.089387 0.104829 0.084840
0.096437 0.105318 0.084871
0.108980 0.106050 0.084688
0.128908 0.107454 0.083711
0.151583 0.108827 0.082765
0.176883 0.110323 0.081666
0.205020 0.111940 0.080079
0.235660 0.113893 0.078340
0.269322 0.115053 0.075898
0.305974 0.116335 0.072206
0.345068 0.116884 0.067903
0.386694 0.117739 0.061494
0.429206 0.117250 0.050629
0.471992 0.116732 0.032654
0.514000 0.115206 0.013184
0.555108 0.114412 0.000000
0.594263 0.113680 0.000000
0.645014 0.111696 0.000000
0.696925 0.109102 0.000000
0.747311 0.105653 0.000000
0.792721 0.102510 0.000000
0.833158 0.100465 0.000000
0.868956 0.099336 0.000000
0.901274 0.099397 0.000000
0.931090 0.102205 0.000000
0.958526 0.107820 0.000000
0.983886 0.114900 0.000000
1.000000 0.125887 0.000000
1.000000 0.138949 0.015503
1.000000 0.156100 0.078614
0.086397 0.106935 0.085573
0.086366 0.107424 0.085237
0.089204 0.107576 0.084840
0.096193 0.108522 0.084840
0.108949 0.110140 0.084230
0.128786 0.111940 0.083528
0.151034 0.114290 0.082460
0.176120 0.116030 0.081056
0.203830 0.117922 0.079713
0.234348 0.119661 0.078035
0.267796 0.121340 0.075563
0.304112 0.123018 0.071839
0.343267 0.124483 0.067384
0.384649 0.125154 0.061494
0.426978 0.125399 0.050568
0.469581 0.125063 0.031739
0.511528 0.125368 0.011688
0.552483 0.123751 0.000000
0.591821 0.122713 0.000000
0.642237 0.122621 0.000000
0.693385 0.120424 0.000000
0.743374 0.117952 0.000000
0.788876 0.115969 0.000000
0.829496 0.113375 0.000000
0.865568 0.112673 0.000000
0.898283 0.112062 0.000000
0.928435 0.114504 0.000000
0.956329 0.118257 0.000000
0.982055 0.124269 0.000000
1.000000 0.133639 0.000000
1.000000 0.145724 0.007691
1.000000 0.161440 0.076234
0.084962 0.114778 0.086458
0.084993 0.115236 0.085847
0.085084 0.115938 0.084596
0.095186 0.116030 0.084291
0.109377 0.117739 0.083894
0.129030 0.122377 0.082521
0.151369 0.124666 0.081422
0.175998 0.127321 0.080201
0.203525 0.129458 0.078767
0.233829 0.131868 0.076967
0.266850 0.134493 0.074281
0.302922 0.136690 0.070497
0.341527 0.138857 0.065858
0.382605 0.140444 0.059693
0.424659 0.141512 0.047944
0.467048 0.142031 0.029206
0.508812 0.142123 0.009644
0.549523 0.142367 0.000000
0.590295 0.141787 0.000000
0.638300 0.141848 0.000000
0.687434 0.141024 0.000000
0.736538 0.139773 0.000000
0.782345 0.137850 0.000000
0.824247 0.136477 0.000000
0.861906 0.135744 0.000000
0.896056 0.135256 0.000000
0.927276 0.136110 0.000000
0.955688 0.139651 0.000000
0.981598 0.144503 0.000000
1.000000 0.151553 0.000000
1.000000 0.161440 0.004761
1.000000 0.174655 0.074189
0.081971 0.128389 0.088624
0.082124 0.128786 0.087404
0.082246 0.129793 0.085542
0.086824 0.130922 0.082856
0.107515 0.131960 0.082673
0.128420 0.133852 0.082185
0.150576 0.138491 0.080690
0.175143 0.142428 0.079164
0.202457 0.145571 0.077546
0.232212 0.148714 0.075319
0.264805 0.151675 0.072816
0.300572 0.154757 0.068727
0.338872 0.157656 0.064302
0.379614 0.160372 0.057130
0.421881 0.162722 0.041688
0.464485 0.164370 0.022950
0.506737 0.165011 0.003906
0.547753 0.166262 0.000000
0.590967 0.166201 0.000000
0.637598 0.166934 0.000000
0.685389 0.166812 0.000000
0.733516 0.167056 0.000000
0.778927 0.165560 0.000000
0.820890 0.165042 0.000000
0.858976 0.164034 0.000000
0.893584 0.163638 0.000000
0.925139 0.164920 0.000000
0.953796 0.166201 0.000000
0.979858 0.169924 0.000000
1.000000 0.175479 0.000000
1.000000 0.182773 0.000000
1.000000 0.193606 0.071321
0.076112 0.149264 0.091920
0.076326 0.149599 0.090517
0.077058 0.150057 0.088502
0.078035 0.151186 0.084230
0.094820 0.152560 0.081086
0.124117 0.153750 0.080720
0.150484 0.154055 0.080323
0.175174 0.159182 0.078462
0.202579 0.164706 0.075929
0.232425 0.168673 0.073274
0.264897 0.172671 0.070069
0.300389 0.176455 0.066285
0.338476 0.180301 0.060761
0.379156 0.183841 0.049897
0.421241 0.186923 0.033570
0.463874 0.189578 0.014954
0.506279 0.191287 0.000000
0.547356 0.192813 0.000000
0.593011 0.194461 0.000000
0.639002 0.196078 0.000000
0.686549 0.197024 0.000000
0.734768 0.197635 0.000000
0.825956 0.205997 0.000000
0.863310 0.205722 0.000000
0.896147 0.205386 0.000000
0.925444 0.205173 0.000000
0.951781 0.205570 0.000000
0.975799 0.207156 0.000000
0.997711 0.210086 0.000000
1.000000 0.214572 0.019989
1.000000 0.221073 0.075898
1.000000 0.230198 0.105776
0.066682 0.176059 0.097261
0.067048 0.176333 0.095705
0.067475 0.176730 0.093538
0.069398 0.177523 0.088746
0.071351 0.178714 0.080446
0.108797 0.180362 0.077943
0.146883 0.182284 0.077028
0.179843 0.181247 0.076814
0.208225 0.187167 0.073732
0.239536 0.193729 0.069917
0.273655 0.200290 0.065522
0.310033 0.205142 0.059998
0.348730 0.209567 0.050690
0.389502 0.213657 0.035309
0.431037 0.217136 0.017762
0.472724 0.220035 0.000000
0.514092 0.222141 0.000000
0.559289 0.224765 0.000000
0.605463 0.227481 0.000000
0.653559 0.229801 0.000000
0.704860 0.232242 0.000000
0.756893 0.234592 0.000000
0.805661 0.235813 0.000000
0.849241 0.236759 0.000000
0.887022 0.237034 0.000000
0.919219 0.236881 0.000000
0.947112 0.236973 0.000000
0.971954 0.237797 0.000000
0.994446 0.238987 0.000000
1.000000 0.241794 0.008606
1.000000 0.246372 0.070588
1.000000 0.253178 0.102693
0.049653 0.201266 0.103029
0.051270 0.201602 0.101534
0.052613 0.201694 0.099306
0.056062 0.202274 0.094362
0.059937 0.203067 0.085878
0.076722 0.204471 0.075074
0.126131 0.206760 0.073945
0.169131 0.209293 0.072724
0.207340 0.207523 0.072938
0.238621 0.214420 0.068727
0.272374 0.221775 0.063783
0.309056 0.229526 0.056001
0.347936 0.236301 0.042054
0.388373 0.241184 0.025391
0.429725 0.245396 0.007874
0.471107 0.248936 0.000000
0.514549 0.252293 0.000000
0.560876 0.256107 0.000000
0.604730 0.258549 0.000000
0.651209 0.261234 0.000000
0.701015 0.264134 0.000000
0.751980 0.267033 0.000000
0.800198 0.269200 0.000000
0.843595 0.270115 0.000000
0.881529 0.270268 0.000000
0.914153 0.269932 0.000000
0.942626 0.269291 0.000000
0.968048 0.268956 0.000000
0.991058 0.269413 0.000000
1.000000 0.271000 0.000000
1.000000 0.273838 0.068025
1.000000 0.278874 0.100526
0.009827 0.228885 0.110170
0.011353 0.228885 0.108614
0.013153 0.229099 0.106355
0.018555 0.229374 0.101381
0.025788 0.229953 0.093172
0.036591 0.230625 0.080537
0.092744 0.232547 0.070283
0.146700 0.235599 0.069093
0.194308 0.239109 0.067140
0.237827 0.239231 0.067567
0.272648 0.245182 0.062531
0.309239 0.253300 0.053529
0.348180 0.261753 0.037018
0.389105 0.269993 0.016480
0.430152 0.275242 0.000000
0.473060 0.280003 0.000000
0.519310 0.285222 0.000000
0.563439 0.288792 0.000000
0.605707 0.291020 0.000000
0.651118 0.294011 0.000000
0.699794 0.297459 0.000000
0.749844 0.300908 0.000000
0.797299 0.303258 0.000000
0.840238 0.304479 0.000000
0.878050 0.304662 0.000000
0.910796 0.303685 0.000000
0.939513 0.302556 0.000000
0.965148 0.301610 0.000000
0.988403 0.301152 0.000000
1.000000 0.301427 0.000000
1.000000 0.302983 0.066102
1.000000 0.306310 0.099855
0.000000 0.257969 0.118624
0.000000 0.257877 0.116823
0.000000 0.257877 0.114778
0.000000 0.257969 0.109651
0.000000 0.258213 0.101778
0.000000 0.258549 0.089570
0.004791 0.258793 0.071412
0.112825 0.262211 0.064485
0.170291 0.266117 0.062501
0.221744 0.270695 0.060578
0.270115 0.272984 0.061097
0.308507 0.277470 0.055238
0.347601 0.286351 0.037659
0.388495 0.295171 0.016388
0.433356 0.305303 0.000000
0.479927 0.314763 0.000000
0.525017 0.319829 0.000000
0.568078 0.323278 0.000000
0.609644 0.325719 0.000000
0.654231 0.328496 0.000000
0.701320 0.332006 0.000000
0.748836 0.335271 0.000000
0.794064 0.337316 0.000000
0.835447 0.338140 0.000000
0.872557 0.337865 0.000000
0.905455 0.336858 0.000000
0.934844 0.335424 0.000000
0.961364 0.334020 0.000000
0.985412 0.333074 0.000000
1.000000 0.332738 0.000000
1.000000 0.333532 0.067292
1.000000 0.335882 0.102296
0.000000 0.287358 0.127993
0.000000 0.287297 0.126162
0.000000 0.287297 0.123903
0.000000 0.287449 0.119448
0.000000 0.287419 0.111391
0.000000 0.287724 0.100130
0.000000 0.288151 0.083406
0.021485 0.289647 0.058747
0.136233 0.294163 0.055085
0.196963 0.299290 0.051514
0.252567 0.304967 0.049073
0.305730 0.309026 0.048432
0.349065 0.313176 0.039429
0.393500 0.324773 0.010590
0.438544 0.335393 0.000000
0.483375 0.344518 0.000000
0.527367 0.352209 0.000000
0.569238 0.356817 0.000000
0.610132 0.358953 0.000000
0.653834 0.362066 0.000000
0.700221 0.365850 0.000000
0.747250 0.369238 0.000000
0.792081 0.371923 0.000000
0.833188 0.372808 0.000000
0.870115 0.372320 0.000000
0.902800 0.371130 0.000000
0.932097 0.369146 0.000000
0.958556 0.367254 0.000000
0.982666 0.365515 0.000000
1.000000 0.364385 0.000000
1.000000 0.364202 0.067262
1.000000 0.365362 0.103548
0.000000 0.319066 0.138735
0.000000 0.319127 0.137392
0.000000 0.319005 0.134890
0.000000 0.318914 0.130373
0.000000 0.319036 0.122774
0.000000 0.319158 0.112032
0.000000 0.319280 0.096895
0.000000 0.319432 0.073732
0.075959 0.322820 0.042420
0.163210 0.328649 0.037293
0.226932 0.335332 0.032136
0.289403 0.345312 0.022950
0.374670 0.374151 0.001648
0.427649 0.378119 0.000000
0.474647 0.388495 0.000000
0.519860 0.396582 0.000000
0.562737 0.402533 0.000000
0.603662 0.407050 0.000000
0.645594 0.411872 0.000000
0.689265 0.414862 0.000000
0.733577 0.417182 0.000000
0.776333 0.418677 0.000000
0.816098 0.418647 0.000000
0.852567 0.417853 0.000000
0.885649 0.415778 0.000000
0.915373 0.413031 0.000000
0.942107 0.409827 0.000000
0.966308 0.406653 0.000000
0.988403 0.403601 0.000000
1.000000 0.401312 0.048615
1.000000 0.399878 0.090425
1.000000 0.399908 0.120729
0.000000 0.359380 0.153811
0.000000 0.359258 0.152377
0.000000 0.358801 0.149935
0.000000 0.358221 0.145296
0.000000 0.357336 0.137301
0.000000 0.356390 0.126650
0.000000 0.355627 0.111391
0.000000 0.355108 0.090517
0.000000 0.355383 0.055726
0.110964 0.364935 0.012451
0.198276 0.376410 0.003296
0.271763 0.389166 0.000000
0.343603 0.402686 0.000000
0.417090 0.415930 0.000000
0.472694 0.417029 0.000000
0.518212 0.425910 0.000000
0.560632 0.431739 0.000000
0.600763 0.435889 0.000000
0.641993 0.440406 0.000000
0.685054 0.445838 0.000000
0.729091 0.451148 0.000000
0.771328 0.452613 0.000000
0.810788 0.452827 0.000000
0.847196 0.451637 0.000000
0.880278 0.449409 0.000000
0.910155 0.446479 0.000000
0.937224 0.442817 0.000000
0.961852 0.439094 0.000000
0.984405 0.435645 0.000000
1.000000 0.432746 0.049012
1.000000 0.430610 0.090242
1.000000 0.429664 0.122408
0.000000 0.392920 0.167208
0.000000 0.392706 0.165530
0.000000 0.392279 0.163455
0.000000 0.391699 0.158755
0.000000 0.390600 0.151369
0.000000 0.390539 0.141451
0.000000 0.391150 0.127749
0.000000 0.391852 0.108919
0.000000 0.393011 0.079866
0.000000 0.396918 0.000000
0.146487 0.407843 0.000000
0.234257 0.420233 0.000000
0.310613 0.433173 0.000000
0.385229 0.445899 0.000000
0.459541 0.457618 0.000000
0.515679 0.454658 0.000000
0.557519 0.460334 0.000000
0.597223 0.464240 0.000000
0.637964 0.468757 0.000000
0.680659 0.474220 0.000000
0.724575 0.479988 0.000000
0.767117 0.485054 0.000000
0.806699 0.486976 0.000000
0.843168 0.485969 0.000000
0.876371 0.483680 0.000000
0.906462 0.480446 0.000000
0.933745 0.476539 0.000000
0.958618 0.472480 0.000000
0.981445 0.468513 0.000000
1.000000 0.465003 0.057160
1.000000 0.462287 0.095094
1.000000 0.460548 0.127718
0.000000 0.433204 0.183780
0.000000 0.433356 0.182345
0.000000 0.432898 0.180056
0.000000 0.432563 0.175845
0.000000 0.431525 0.168307
0.000000 0.430701 0.158175
0.000000 0.430121 0.144961
0.000000 0.429786 0.127138
0.000000 0.430060 0.102358
0.000000 0.430915 0.059754
0.000000 0.437934 0.000000
0.182803 0.449866 0.000000
0.270512 0.462409 0.000000
0.349187 0.474800 0.000000
0.424689 0.486213 0.000000
0.498573 0.496010 0.000000
0.555169 0.489418 0.000000
0.594446 0.493233 0.000000
0.635187 0.497719 0.000000
0.677302 0.502922 0.000000
0.720455 0.508721 0.000000
0.762600 0.513725 0.000000
0.802243 0.517266 0.000000
0.839017 0.519463 0.000000
0.872465 0.517632 0.000000
0.903075 0.514427 0.000000
0.931121 0.510552 0.000000
0.956756 0.506493 0.000000
0.980255 0.502525 0.000000
1.000000 0.498970 0.072724
1.000000 0.495857 0.109316
1.000000 0.493782 0.141665
0.000000 0.473671 0.200931
0.000000 0.473823 0.199710
0.000000 0.473701 0.198032
0.000000 0.473152 0.193118
0.000000 0.472389 0.186130
0.000000 0.471534 0.176516
0.000000 0.470985 0.163729
0.000000 0.470588 0.146975
0.000000 0.470344 0.123964
0.000000 0.470314 0.090974
0.000000 0.470375 0.000000
0.093935 0.480140 0.000000
0.218967 0.491005 0.000000
0.306401 0.501732 0.000000
0.384619 0.511925 0.000000
0.459358 0.521263 0.000000
0.532097 0.529686 0.000000
0.589441 0.523583 0.000000
0.632197 0.526574 0.000000
0.675441 0.532738 0.000000
0.719173 0.539117 0.000000
0.761654 0.544549 0.000000
0.801419 0.548272 0.000000
0.838254 0.550378 0.000000
0.872007 0.551232 0.000000
0.902831 0.550286 0.000000
0.930816 0.546075 0.000000
0.956359 0.541711 0.000000
0.979644 0.537102 0.038605
1.000000 0.532738 0.088045
1.000000 0.528801 0.120943
1.000000 0.525719 0.152285
0.000000 0.510185 0.217258
0.000000 0.510002 0.215946
0.000000 0.509636 0.214054
0.000000 0.509087 0.209812
0.000000 0.508141 0.202853
0.000000 0.507164 0.193606
0.000000 0.506279 0.181308
0.000000 0.505303 0.165377
0.000000 0.504723 0.145083
0.000000 0.504295 0.116945
0.000000 0.503868 0.071595
0.000000 0.506065 0.000000
0.143771 0.516808 0.000000
0.254429 0.527245 0.000000
0.340337 0.537163 0.000000
0.417792 0.545983 0.000000
0.491707 0.554009 0.000000
0.564477 0.562127 0.000000
0.625147 0.559197 0.000000
0.671504 0.561181 0.000000
0.715236 0.567803 0.000000
0.757504 0.573236 0.000000
0.797330 0.577050 0.000000
0.834348 0.579309 0.000000
0.868376 0.580194 0.000000
0.899565 0.579858 0.000000
0.928069 0.578698 0.000000
0.954009 0.575402 0.000000
0.977539 0.570550 0.063325
0.998718 0.565789 0.100710
1.000000 0.561395 0.132387
1.000000 0.557794 0.163699
0.000000 0.546014 0.233677
0.000000 0.546410 0.232609
0.000000 0.566522 0.240421
0.000000 0.565759 0.236027
0.000000 0.564538 0.229282
0.000000 0.562829 0.219394
0.000000 0.560967 0.207126
0.000000 0.559014 0.191073
0.000000 0.557366 0.171328
0.000000 0.555779 0.145388
0.000000 0.554253 0.108248
0.000000 0.552514 0.010559
0.000000 0.556939 0.000000
0.191531 0.566217 0.000000
0.296696 0.574853 0.000000
0.382696 0.583368 0.000000
0.461738 0.591791 0.000000
0.537407 0.600061 0.000000
0.611963 0.608392 0.000000
0.676204 0.607446 0.000000
0.724025 0.606165 0.000000
0.764828 0.610407 0.000000
0.803311 0.613031 0.000000
0.838529 0.614038 0.000000
0.870665 0.613336 0.000000
0.900114 0.611597 0.000000
0.927184 0.609155 0.000000
0.952270 0.606439 0.040864
0.975463 0.603693 0.079866
0.996551 0.598627 0.112947
1.000000 0.593622 0.143313
1.000000 0.589227 0.174594
0.000000 0.585443 0.252506
0.000000 0.587945 0.252354
0.000000 0.590448 0.252140
0.000000 0.592279 0.249119
0.000000 0.593072 0.243717
0.000000 0.592462 0.234928
0.000000 0.591028 0.223636
0.000000 0.589258 0.208865
0.000000 0.587732 0.190860
0.000000 0.586053 0.167727
0.000000 0.584497 0.136934
0.000000 0.582696 0.090394
0.000000 0.580255 0.000000
0.019562 0.588006 0.000000
0.229984 0.596857 0.000000
0.329564 0.605676 0.000000
0.414343 0.614405 0.000000
0.493050 0.623102 0.000000
0.569512 0.632197 0.000000
0.644984 0.641505 0.000000
0.711269 0.642725 0.000000
0.760159 0.638911 0.000000
0.799100 0.642023 0.000000
0.835019 0.643214 0.000000
0.867521 0.642725 0.000000
0.897368 0.641047 0.000000
0.924743 0.638514 0.052796
0.949950 0.635584 0.081086
0.973236 0.632502 0.106020
0.994415 0.629419 0.130159
1.000000 0.625910 0.156191
1.000000 0.620874 0.187686
0.000000 0.617487 0.267857
0.000000 0.619989 0.268132
0.000000 0.622461 0.267643
0.000000 0.624170 0.264775
0.000000 0.624994 0.259739
0.000000 0.624567 0.251682
0.000000 0.623072 0.240757
0.000000 0.621332 0.226993
0.000000 0.619684 0.210117
0.000000 0.617945 0.188846
0.000000 0.616327 0.161624
0.000000 0.614496 0.124788
0.000000 0.611963 0.059205
0.000000 0.611841 0.000000
0.129091 0.621088 0.000000
0.267643 0.630213 0.000000
0.363653 0.639307 0.000000
0.447883 0.648402 0.000000
0.527153 0.657740 0.000000
0.604517 0.667414 0.000000
0.680232 0.676753 0.000000
0.747585 0.679194 0.000000
0.795926 0.671565 0.006226
0.831968 0.672969 0.005615
0.864805 0.672358 0.022034
0.894652 0.670436 0.060090
0.922026 0.667597 0.082643
0.947234 0.664332 0.104768
0.970520 0.660945 0.127047
0.991638 0.657465 0.149935
1.000000 0.654078 0.174533
1.000000 0.650935 0.201572
0.000000 0.651606 0.284154
0.000000 0.654108 0.284306
0.000000 0.656580 0.284062
0.000000 0.658381 0.281834
0.000000 0.659113 0.276524
0.000000 0.658625 0.268925
0.000000 0.657252 0.258549
0.000000 0.655482 0.245670
0.000000 0.653651 0.229618
0.000000 0.651759 0.209842
0.000000 0.649989 0.185580
0.000000 0.647974 0.153841
0.000000 0.645441 0.108003
0.000000 0.642481 0.000000
0.000000 0.646448 0.000000
0.182589 0.656519 0.000000
0.305699 0.666987 0.000000
0.400824 0.677852 0.000000
0.486671 0.688777 0.000000
0.568200 0.699672 0.000000
0.647089 0.710231 0.000000
0.723903 0.720058 0.000000
0.792142 0.722896 0.000000
0.838346 0.710231 0.090486
0.871122 0.709438 0.098695
0.900664 0.707057 0.110689
0.927459 0.703487 0.125704
0.951873 0.699519 0.145327
0.974212 0.695277 0.166262
0.994263 0.691066 0.188724
1.000000 0.686946 0.213352
1.000000 0.683131 0.239963
0.000000 0.698909 0.307256
0.000000 0.700069 0.306828
0.000000 0.700832 0.305638
0.000000 0.701106 0.302556
0.000000 0.700801 0.297307
0.000000 0.699702 0.289433
0.000000 0.698299 0.279698
0.000000 0.696742 0.267216
0.000000 0.695369 0.251987
0.000000 0.694087 0.233524
0.000000 0.692744 0.210849
0.000000 0.691127 0.182528
0.000000 0.688777 0.143771
0.000000 0.685969 0.082063
0.000000 0.682612 0.000000
0.000000 0.691157 0.000000
0.232151 0.701350 0.000000
0.347753 0.711452 0.000000
0.441993 0.721340 0.000000
0.527398 0.730953 0.000000
0.607630 0.739925 0.000000
0.684657 0.748135 0.000000
0.758785 0.755337 0.000000
0.825071 0.756893 0.002319
0.867979 0.738827 0.125887
0.897551 0.736294 0.136263
0.924559 0.732631 0.149203
0.949218 0.728298 0.164767
0.971527 0.723751 0.186007
0.991516 0.719173 0.208652
1.000000 0.714565 0.233310
1.000000 0.710353 0.260624
0.000000 0.735775 0.325322
0.000000 0.736934 0.324773
0.000000 0.737911 0.323919
0.000000 0.738186 0.320836
0.000000 0.737881 0.315740
0.000000 0.736843 0.308415
0.000000 0.735409 0.298863
0.000000 0.733761 0.286870
0.000000 0.732235 0.272435
0.000000 0.730800 0.254704
0.000000 0.729549 0.233860
0.000000 0.728084 0.207889
0.000000 0.726101 0.174014
0.000000 0.723781 0.127260
0.000000 0.721065 0.000000
0.000000 0.720821 0.000000
0.087221 0.730922 0.000000
0.276829 0.740841 0.000000
0.387030 0.750423 0.000000
0.479896 0.759701 0.000000
0.564477 0.768307 0.000000
0.643977 0.776181 0.000000
0.719570 0.783108 0.000000
0.791836 0.788937 0.000000
0.852018 0.785855 0.069581
0.891478 0.765774 0.150454
0.919768 0.759854 0.168643
0.944701 0.755459 0.183688
0.967346 0.750607 0.201511
0.987579 0.745632 0.223850
1.000000 0.740871 0.249851
1.000000 0.736477 0.278447
0.000000 0.780789 0.348150
0.000000 0.782040 0.347662
0.000000 0.782681 0.346715
0.000000 0.782589 0.343725
0.000000 0.781796 0.338293
0.000000 0.780423 0.331121
0.000000 0.778500 0.321447
0.000000 0.776364 0.309575
0.000000 0.774136 0.295415
0.000000 0.772030 0.278355
0.000000 0.769741 0.258030
0.000000 0.767666 0.233402
0.000000 0.765316 0.203067
0.000000 0.762570 0.163394
0.000000 0.759213 0.102907
0.000000 0.755612 0.000000
0.000000 0.758389 0.000000
0.168185 0.766781 0.000000
0.317754 0.775479 0.000000
0.423285 0.784176 0.000000
0.514122 0.792447 0.000000
0.596887 0.799863 0.000000
0.674311 0.805997 0.000000
0.747036 0.810819 0.000000
0.815702 0.814267 0.032776
0.880125 0.815915 0.112367
0.915587 0.793881 0.181918
0.941863 0.783871 0.207797
0.964202 0.778470 0.224277
0.984375 0.772946 0.244114
1.000000 0.767575 0.268711
1.000000 0.762722 0.298253
0.000000 0.813840 0.364935
0.000000 0.814969 0.364599
0.000000 0.815671 0.363775
0.000000 0.815610 0.360815
0.000000 0.814969 0.355749
0.000000 0.813901 0.348913
0.000000 0.812497 0.339910
0.000000 0.810941 0.328832
0.000000 0.809415 0.315740
0.000000 0.807980 0.299809
0.000000 0.806607 0.281193
0.000000 0.805295 0.258610
0.000000 0.803861 0.230869
0.000000 0.802060 0.196262
0.000000 0.799832 0.149752
0.000000 0.797269 0.060792
0.000000 0.794614 0.000000
0.000000 0.801114 0.000000
0.228275 0.808743 0.000000
0.361761 0.816220 0.000000
0.463355 0.823239 0.000000
0.551995 0.829465 0.000000
0.632563 0.834592 0.000000
0.707332 0.838560 0.000000
0.777462 0.841306 0.012207
0.843381 0.843015 0.109407
0.905638 0.843900 0.156802
0.938842 0.821714 0.220340
0.963073 0.808103 0.254063
0.982849 0.802090 0.274327
1.000000 0.796139 0.298222
1.000000 0.790555 0.326452
0.000000 0.848325 0.382940
0.000000 0.849027 0.382483
0.000000 0.849302 0.381476
0.000000 0.848966 0.378637
0.000000 0.848081 0.373663
0.000000 0.846921 0.367071
0.000000 0.845518 0.358404
0.000000 0.844114 0.347906
0.000000 0.842802 0.335332
0.000000 0.841764 0.320531
0.000000 0.840757 0.303044
0.000000 0.840116 0.282414
0.000000 0.839261 0.257420
0.000000 0.838193 0.226810
0.000000 0.836576 0.187076
0.000000 0.834714 0.129854
0.000000 0.832731 0.000000
0.000000 0.832883 0.000000
0.000000 0.839414 0.000000
0.280247 0.845701 0.000000
0.402564 0.851530 0.000000
0.500206 0.856626 0.000000
0.585901 0.860746 0.000000
0.663630 0.863859 0.000000
0.735744 0.865873 0.000000
0.803067 0.866880 0.103334
0.866087 0.867155 0.153872
0.925292 0.866758 0.195865
0.957519 0.845548 0.256229
0.979583 0.828702 0.297765
0.996826 0.822263 0.321416
1.000000 0.816098 0.349096
0.000000 0.878599 0.399451
0.000000 0.878996 0.398810
0.000000 0.879210 0.397681
0.000000 0.879057 0.394965
0.000000 0.878782 0.390509
0.000000 0.878538 0.384771
0.000000 0.878691 0.377447
0.000000 0.879057 0.368688
0.000000 0.879820 0.357794
0.000000 0.880827 0.345129
0.000000 0.881987 0.329717
0.000000 0.883146 0.311498
0.000000 0.884092 0.289403
0.000000 0.884611 0.262547
0.000000 0.884581 0.228336
0.000000 0.883940 0.183688
0.000000 0.883085 0.114260
0.000000 0.882414 0.000000
0.000000 0.885191 0.000000
0.158785 0.889433 0.000000
0.337072 0.893156 0.000000
0.451240 0.896147 0.000000
0.544976 0.898222 0.000000
0.627283 0.899474 0.000000
0.702052 0.899748 0.077058
0.770932 0.899260 0.137179
0.834775 0.898100 0.182223
0.894194 0.896422 0.223087
0.949432 0.894377 0.262303
0.979156 0.873533 0.319249
0.996918 0.853117 0.367895
1.000000 0.845853 0.395392
0.000000 0.916564 0.422187
0.000000 0.916808 0.421515
0.000000 0.916716 0.420386
0.000000 0.916411 0.417670
0.000000 0.915953 0.413458
0.000000 0.915404 0.407660
0.000000 0.915038 0.400397
0.000000 0.914824 0.391547
0.000000 0.914824 0.380957
0.000000 0.915007 0.368231
0.000000 0.915251 0.353704
0.000000 0.915618 0.336156
0.000000 0.915892 0.315404
0.000000 0.916045 0.290593
0.000000 0.915984 0.260624
0.000000 0.915770 0.222721
