cubelut/Green_Blues.cube
# Created by Adobe Lightroom plugin Export LUT (1.18.0)
# www.johnrellis.com/lightroom/exportlut.htm
# Preset: Green/Blues
# Color profile: /Library/Application Support/Adobe/Color/Profiles/Recommended/AdobeRGB1998.icc
LUT_3D_SIZE 8
DOMAIN_MIN 0.000000 0.000000 0.000000
DOMAIN_MAX 0.903226 0.903226 0.903226
0.141604 0.195010 0.164431
0.141756 0.194980 0.164553
0.250004 0.193576 0.178683
0.510002 0.134096 0.212192
0.734463 0.000000 0.257420
0.865995 0.000000 0.316533
0.963958 0.203250 0.387213
1.000000 0.382452 0.500755
0.141634 0.195834 0.164340
0.141390 0.197757 0.164279
0.246036 0.193881 0.178073
0.500938 0.138460 0.210971
0.725856 0.000000 0.254551
0.860960 0.052949 0.302159
0.961517 0.229770 0.374609
1.000000 0.387823 0.490974
0.123049 0.331579 0.146639
0.122835 0.332616 0.146426
0.223758 0.331151 0.145663
0.462898 0.304143 0.162325
0.692378 0.288121 0.197574
0.844266 0.280125 0.251560
0.959869 0.320104 0.336278
1.000000 0.421454 0.464210
0.000000 0.582940 0.000000
0.000000 0.574304 0.000000
0.094667 0.578424 0.000000
0.457588 0.570001 0.000000
0.686519 0.533867 0.000000
0.850126 0.478035 0.149386
0.962737 0.453346 0.262943
1.000000 0.479774 0.403326
0.000000 0.785000 0.000000
0.000000 0.780026 0.000000
0.000000 0.779690 0.000000
0.404242 0.770840 0.000000
0.645991 0.752346 0.000000
0.815396 0.686122 0.000000
0.946990 0.609796 0.086610
1.000000 0.569696 0.287633
0.000000 0.894255 0.000000
0.000000 0.896818 0.000000
0.000000 0.900450 0.000000
0.306828 0.894621 0.000000
0.560357 0.878935 0.000000
0.762051 0.858122 0.000000
0.916777 0.800565 0.000000
1.000000 0.717372 0.082734
0.000000 0.984070 0.000000
0.000000 0.986297 0.000000
0.000000 0.986511 0.000000
0.144533 0.981567 0.000000
0.460700 0.968109 0.000000
0.662806 0.951110 0.000000
0.842832 0.930907 0.000000
0.990448 0.883665 0.000000
0.000000 1.000000 0.000000
0.000000 1.000000 0.000000
0.000000 1.000000 0.000000
0.000000 1.000000 0.000000
0.342748 1.000000 0.000000
0.562707 1.000000 0.000000
0.741604 1.000000 0.000000
0.907652 0.989288 0.000000
0.141604 0.195010 0.164431
0.143618 0.195132 0.164767
0.246738 0.193851 0.178286
0.493324 0.141817 0.209964
0.714900 0.000000 0.251194
0.851713 0.000000 0.304112
0.955962 0.198215 0.375738
1.000000 0.369757 0.489845
0.141390 0.195377 0.164920
0.143740 0.195804 0.165225
0.248020 0.193790 0.178378
0.487129 0.144289 0.209110
0.711543 0.000000 0.246403
0.849851 0.099062 0.292210
0.955169 0.228092 0.365545
1.000000 0.376928 0.481178
0.127291 0.308598 0.150668
0.126619 0.312902 0.149996
0.238315 0.312016 0.148409
0.468391 0.305608 0.162234
0.692103 0.296757 0.194614
0.840299 0.287083 0.247196
0.952178 0.315770 0.327703
1.000000 0.406470 0.450324
0.000000 0.569482 0.000000
0.000000 0.568444 0.000000
0.190219 0.568536 0.000000
0.460273 0.552605 0.000000
0.677577 0.520623 0.001190
0.837003 0.469703 0.149294
0.952758 0.446113 0.255955
1.000000 0.470405 0.393561
0.000000 0.773251 0.000000
0.000000 0.773312 0.000000
0.000000 0.774075 0.000000
0.418555 0.757717 0.000000
0.640986 0.736049 0.000000
0.806546 0.673671 0.000000
0.939544 0.601831 0.087190
1.000000 0.564141 0.283604
0.000000 0.891661 0.000000
0.000000 0.892973 0.000000
0.000000 0.894530 0.000000
0.319310 0.886564 0.000000
0.565332 0.870756 0.000000
0.762478 0.851286 0.000000
0.913542 0.793484 0.000000
1.000000 0.712154 0.083650
0.000000 0.984619 0.000000
0.000000 0.986175 0.000000
0.000000 0.986694 0.000000
0.122835 0.981476 0.000000
0.462989 0.967773 0.000000
0.669154 0.950500 0.000000
0.848295 0.930907 0.000000
0.993683 0.882414 0.000000
0.000000 1.000000 0.000000
0.000000 1.000000 0.000000
0.000000 1.000000 0.000000
0.000000 1.000000 0.000000
0.339849 1.000000 0.000000
0.564660 1.000000 0.000000
0.743832 1.000000 0.000000
0.909758 0.988556 0.000000
0.098268 0.219791 0.256901
0.105257 0.201785 0.256260
0.322087 0.148470 0.268467
0.550530 0.000000 0.285405
0.738033 0.000000 0.303960
0.859586 0.075807 0.329503
0.960357 0.220554 0.375921
1.000000 0.376226 0.495583
0.092195 0.217533 0.267430
0.113649 0.193301 0.274571
0.320439 0.146609 0.282719
0.543999 0.000000 0.297276
0.730953 0.000000 0.300481
0.856718 0.157229 0.319799
0.958770 0.244572 0.365545
1.000000 0.380224 0.485451
0.000000 0.320867 0.292027
0.000000 0.318761 0.286381
0.273228 0.294560 0.271183
0.505180 0.289281 0.262852
0.709682 0.287144 0.264134
0.847349 0.296056 0.284367
0.956054 0.323033 0.329503
1.000000 0.408270 0.456336
0.000000 0.558556 0.267948
0.000000 0.557092 0.269047
0.172488 0.563378 0.211460
0.489815 0.543816 0.185763
0.702724 0.499336 0.195132
0.845914 0.462745 0.227604
0.956390 0.445991 0.277104
1.000000 0.468635 0.401648
0.000000 0.769284 0.208225
0.000000 0.769558 0.215579
0.000000 0.772854 0.000000
0.419471 0.755520 0.139467
0.660578 0.730831 0.068025
0.819913 0.658381 0.091829
0.944182 0.590692 0.163180
1.000000 0.557702 0.294377
0.000000 0.891752 0.092653
0.000000 0.893675 0.109865
0.000000 0.895872 0.000000
0.292180 0.887114 0.112612
0.566583 0.869291 0.063416
0.774197 0.847349 0.000000
0.920562 0.781430 0.000000
1.000000 0.702327 0.113893
0.000000 0.986633 0.000000
0.000000 0.987884 0.000000
0.000000 0.988556 0.000000
0.000000 0.981689 0.097688
0.456275 0.967681 0.081514
0.671473 0.949920 0.000000
0.857664 0.929015 0.000000
0.999176 0.874174 0.000000
0.000000 1.000000 0.000000
0.000000 1.000000 0.000000
0.000000 1.000000 0.000000
0.000000 1.000000 0.000000
0.335698 1.000000 0.140047
0.563989 1.000000 0.068849
0.748409 1.000000 0.000000
0.918608 0.987366 0.000000
0.000000 0.288640 0.559167
0.000000 0.205325 0.562982
0.355718 0.079988 0.550561
0.632532 0.000000 0.575036
0.790890 0.000000 0.524437
0.892485 0.000000 0.482338
0.972229 0.192874 0.503593
1.000000 0.472023 0.613611
0.000000 0.238468 0.573938
0.000000 0.181521 0.579583
0.371679 0.051270 0.563531
0.626276 0.000000 0.577844
0.786282 0.000000 0.523522
0.886595 0.000000 0.480262
0.965423 0.270176 0.513420
1.000000 0.499825 0.623499
0.000000 0.388312 0.598444
0.000000 0.326818 0.595605
0.326635 0.216770 0.573449
0.603784 0.089265 0.553857
0.751797 0.164797 0.490059
0.859220 0.315160 0.498817
0.944366 0.453162 0.565728
1.000000 0.510582 0.603967
0.000000 0.591974 0.556512
0.000000 0.585748 0.551446
0.086122 0.565087 0.539696
0.516350 0.520806 0.522881
0.709316 0.515984 0.522057
0.843503 0.510094 0.521904
0.948028 0.516320 0.535912
1.000000 0.545861 0.573754
0.000000 0.766232 0.509880
0.000000 0.766476 0.499855
0.000000 0.767453 0.460029
0.415045 0.752071 0.454292
0.691463 0.723995 0.423468
0.832242 0.642908 0.445319
0.942260 0.603296 0.459876
1.000000 0.590448 0.494087
0.000000 0.888212 0.438819
0.000000 0.889891 0.440375
0.000000 0.892546 0.395697
0.224094 0.887358 0.372686
0.575860 0.866850 0.408789
0.792813 0.843565 0.367376
0.928191 0.763943 0.353826
1.000000 0.694209 0.388891
0.000000 0.984009 0.364416
0.000000 0.985687 0.364294
0.000000 0.986511 0.340856
0.000000 0.983368 0.269413
0.463264 0.965057 0.395758
0.678767 0.946777 0.367315
0.867338 0.925139 0.301946
1.000000 0.858579 0.238346
0.000000 1.000000 0.251377
0.000000 1.000000 0.244205
0.000000 1.000000 0.207553
0.000000 1.000000 0.104402
0.349889 1.000000 0.393683
0.569177 1.000000 0.366552
0.751980 1.000000 0.320012
0.923827 0.984527 0.210269
0.000000 0.187900 0.782681
0.000000 0.160525 0.780545
0.365667 0.000000 0.772702
0.619959 0.000000 0.762478
0.811246 0.000000 0.732570
0.919829 0.000000 0.656214
0.995087 0.000000 0.602960
1.000000 0.255802 0.621424
0.000000 0.171328 0.779049
0.000000 0.141909 0.780331
0.385199 0.000000 0.773709
0.616236 0.000000 0.759823
0.803861 0.000000 0.730739
0.915618 0.000000 0.650324
0.990692 0.000000 0.603571
1.000000 0.314214 0.629847
0.000000 0.211154 0.789822
0.000000 0.198672 0.786435
0.350866 0.131136 0.775479
0.597925 0.000000 0.760433
0.790341 0.000000 0.716182
0.901732 0.000000 0.639460
0.977050 0.262119 0.623529
1.000000 0.487312 0.677729
0.000000 0.614496 0.770748
0.000000 0.601373 0.767422
0.142123 0.516289 0.764767
0.536797 0.420661 0.757565
0.766415 0.404608 0.707393
0.867185 0.487587 0.676234
0.945068 0.576165 0.700557
1.000000 0.656916 0.744656
0.000000 0.786404 0.739559
0.000000 0.784085 0.738735
0.000000 0.772213 0.734340
0.448493 0.738552 0.725643
0.684291 0.703578 0.716701
0.815824 0.695705 0.713283
0.921416 0.686000 0.708644
1.000000 0.684565 0.712367
0.000000 0.888151 0.647883
0.000000 0.889647 0.644831
0.000000 0.888945 0.633051
0.276188 0.880034 0.629969
0.613550 0.857786 0.670222
0.812985 0.835355 0.644648
0.920043 0.772824 0.656092
1.000000 0.738338 0.658137
0.000000 0.983978 0.577752
0.000000 0.985382 0.572412
0.000000 0.985138 0.554162
0.000000 0.979736 0.539330
0.472786 0.963012 0.597192
0.706538 0.941711 0.618921
0.882780 0.921080 0.576440
0.996979 0.847257 0.539574
0.000000 1.000000 0.485206
0.000000 1.000000 0.481788
0.000000 1.000000 0.467018
0.000000 1.000000 0.420661
0.087037 1.000000 0.430396
0.609155 1.000000 0.599481
0.772274 0.999481 0.567895
0.933684 0.981292 0.493935
0.000000 0.135286 0.901915
0.000000 0.097688 0.902403
0.363256 0.000000 0.899077
0.605737 0.000000 0.892760
0.803647 0.000000 0.882750
0.929381 0.000000 0.823392
1.000000 0.000000 0.740139
1.000000 0.000000 0.684169
0.000000 0.119509 0.897795
0.000000 0.075288 0.899382
0.376715 0.000000 0.895811
0.602625 0.000000 0.888212
0.795377 0.000000 0.877592
0.923857 0.000000 0.820523
1.000000 0.000000 0.736507
1.000000 0.000000 0.685023
0.000000 0.137392 0.904112
0.092287 0.113680 0.901915
0.370275 0.000000 0.896300
0.582757 0.000000 0.882597
0.777554 0.000000 0.872221
0.915160 0.000000 0.812467
1.000000 0.000000 0.733059
1.000000 0.119112 0.701228
0.000000 0.488624 0.891478
0.000000 0.452888 0.889372
0.062654 0.376013 0.888060
0.507103 0.347478 0.883726
0.754269 0.294163 0.875029
0.903166 0.277440 0.813046
0.985748 0.349737 0.753475
1.000000 0.508721 0.753994
0.000000 0.759884 0.872892
0.000000 0.755764 0.872251
0.161105 0.743099 0.869749
0.496925 0.701686 0.865995
0.697993 0.631342 0.860685
0.863005 0.620966 0.818875
0.942321 0.656916 0.796506
1.000000 0.710079 0.809476
0.000000 0.904784 0.845548
0.000000 0.904906 0.847074
0.000000 0.897307 0.846403
0.384436 0.877287 0.844205
0.638239 0.846159 0.837888
0.804074 0.819547 0.832303
0.905241 0.813046 0.830198
0.982727 0.804044 0.825864
0.000000 0.977905 0.749142
0.000000 0.979248 0.749691
0.000000 0.977203 0.748470
0.000000 0.968536 0.748226
0.507103 0.952270 0.762600
0.735378 0.930877 0.791012
0.896178 0.910521 0.767239
0.980804 0.854490 0.767727
0.000000 1.000000 0.665919
0.000000 1.000000 0.662501
0.000000 1.000000 0.650050
0.000000 1.000000 0.635645
0.211032 1.000000 0.647333
0.601740 1.000000 0.719661
0.802579 0.992645 0.750790
0.946685 0.975402 0.711482
0.000000 0.051423 0.976501
0.000000 0.000000 0.976562
0.353979 0.000000 0.974395
0.570031 0.000000 0.971557
0.755215 0.000000 0.966583
0.942626 0.000000 0.961730
1.000000 0.000000 0.880369
1.000000 0.000000 0.796689
0.000000 0.006592 0.974456
0.116457 0.000000 0.975036
0.362524 0.000000 0.973297
0.570581 0.000000 0.970306
0.752071 0.000000 0.965057
0.937926 0.000000 0.959960
1.000000 0.000000 0.880186
1.000000 0.000000 0.795743
0.000000 0.000000 0.977874
0.184726 0.000000 0.977203
0.374060 0.000000 0.974121
0.563195 0.000000 0.968902
0.738491 0.000000 0.962737
0.924285 0.000000 0.956207
1.000000 0.000000 0.878325
1.000000 0.000000 0.791928
0.000000 0.325872 0.973510
0.000000 0.318730 0.971893
0.192538 0.298528 0.969970
0.480171 0.260990 0.967498
0.703731 0.180331 0.962799
0.905669 0.000000 0.956176
1.000000 0.000000 0.880186
1.000000 0.000000 0.796567
0.200839 0.723690 0.955932
0.277562 0.720729 0.955200
0.367041 0.686976 0.955261
0.425177 0.595575 0.957794
0.652247 0.560266 0.953796
0.861906 0.525658 0.946441
0.974029 0.521752 0.888304
1.000000 0.533043 0.834012
0.000000 0.870817 0.943877
0.000000 0.870085 0.944213
0.262242 0.865690 0.942931
0.497749 0.857053 0.940459
0.680354 0.831632 0.937407
0.813138 0.768429 0.935515
0.942443 0.759854 0.902251
0.998291 0.781369 0.883665
0.000000 0.994842 0.923247
0.000000 0.994263 0.924071
0.000000 0.987671 0.923857
0.331884 0.972961 0.922393
0.579034 0.952178 0.919860
0.766476 0.924590 0.915312
0.893187 0.901061 0.909911
0.967193 0.894408 0.907317
0.000000 1.000000 0.820218
0.000000 1.000000 0.819669
0.000000 1.000000 0.818357
0.000000 1.000000 0.820798
0.388037 1.000000 0.834043
0.648066 1.000000 0.852354
0.838987 0.983612 0.884062
0.960143 0.967803 0.863890
0.000000 0.000000 1.000000
0.144259 0.000000 1.000000
0.337987 0.000000 1.000000
0.520928 0.000000 1.000000
0.700038 0.000000 1.000000
0.863127 0.000000 1.000000
1.000000 0.000000 1.000000
1.000000 0.000000 0.913725
0.000000 0.000000 1.000000
0.149325 0.000000 1.000000
0.337682 0.000000 1.000000
0.518578 0.000000 1.000000
0.697353 0.000000 1.000000
0.860472 0.000000 1.000000
1.000000 0.000000 1.000000
1.000000 0.000000 0.914000
0.000000 0.000000 1.000000
0.143984 0.000000 1.000000
0.329015 0.000000 1.000000
0.507805 0.000000 1.000000
0.686946 0.000000 1.000000
0.849943 0.000000 1.000000
1.000000 0.000000 1.000000
1.000000 0.000000 0.916075
0.000000 0.195560 1.000000
0.000000 0.185885 1.000000
0.197330 0.149447 1.000000
0.438483 0.000000 1.000000
0.642786 0.000000 1.000000
0.823575 0.000000 1.000000
1.000000 0.000000 1.000000
1.000000 0.000000 0.916472
0.207767 0.623224 1.000000
0.198795 0.606500 1.000000
0.153414 0.536034 1.000000
0.327062 0.463233 1.000000
0.572534 0.431617 1.000000
0.782803 0.376928 1.000000
0.978515 0.291081 1.000000
1.000000 0.284398 0.923003
0.386542 0.854520 0.994659
0.421759 0.854093 0.994659
0.511681 0.848539 0.994018
0.628412 0.839139 0.992737
0.604150 0.745144 0.998230
0.753628 0.700221 0.997070
0.933135 0.669337 0.992615
1.000000 0.661219 0.940459
0.000000 0.949065 0.989715
0.140566 0.948577 0.989685
0.340917 0.945129 0.988708
0.506126 0.938476 0.986786
0.662715 0.930053 0.984070
0.803250 0.915526 0.981262
0.890318 0.861204 0.980865
0.991730 0.851865 0.954955
0.000000 1.000000 0.971649
0.000000 1.000000 0.971588
0.000000 1.000000 0.971557
0.241917 1.000000 0.971618
0.525658 1.000000 0.971527
0.721553 1.000000 0.971130
0.870268 0.980041 0.969543
0.962097 0.962646 0.966552
