cubelut/Green_Blues.cube
# Created by Adobe Lightroom plugin Export LUT (1.18.0)
# www.johnrellis.com/lightroom/exportlut.htm
# Preset: Green/Blues
# Color profile: /Library/Application Support/Adobe/Color/Profiles/Recommended/AdobeRGB1998.icc
LUT_3D_SIZE 32
0.141604 0.195010 0.164431
0.141604 0.195010 0.164431
0.141604 0.195010 0.164431
0.141604 0.195010 0.164431
0.141756 0.194980 0.164553
0.149081 0.195315 0.165438
0.169131 0.195346 0.167819
0.201877 0.195224 0.172030
0.250004 0.193576 0.178683
0.309545 0.187594 0.185824
0.373938 0.176883 0.193851
0.440711 0.160678 0.202792
0.510002 0.134096 0.212192
0.579126 0.088502 0.221958
0.640223 0.000000 0.232700
0.691096 0.000000 0.244419
0.734463 0.000000 0.257420
0.772396 0.000000 0.270970
0.806332 0.000000 0.285039
0.837247 0.000000 0.300206
0.865995 0.000000 0.316533
0.893126 0.000000 0.331273
0.918517 0.086305 0.347845
0.942107 0.154147 0.366308
0.963958 0.203250 0.387213
0.984344 0.248600 0.410773
1.000000 0.292241 0.437354
1.000000 0.336278 0.467048
1.000000 0.382452 0.500755
1.000000 0.435187 0.541222
1.000000 0.490547 0.585748
1.000000 0.543542 0.629511
0.141604 0.195010 0.164431
0.141604 0.195010 0.164431
0.141604 0.195010 0.164431
0.141604 0.195010 0.164431
0.141756 0.194980 0.164553
0.148684 0.195346 0.165438
0.167849 0.195529 0.167727
0.200504 0.195224 0.171847
0.248905 0.193698 0.178470
0.308568 0.187778 0.185733
0.372900 0.177035 0.193576
0.439612 0.160861 0.202640
0.508812 0.134890 0.212070
0.578027 0.089662 0.221744
0.639063 0.000000 0.232425
0.689967 0.000000 0.244236
0.733333 0.000000 0.256962
0.771237 0.000000 0.270542
0.804959 0.000000 0.284520
0.836027 0.000000 0.299565
0.864927 0.000000 0.314977
0.892119 0.000000 0.329595
0.917632 0.095216 0.345953
0.941375 0.157382 0.364691
0.963256 0.205112 0.385382
0.983734 0.249760 0.409155
1.000000 0.292546 0.435584
1.000000 0.336370 0.465492
1.000000 0.382025 0.499001
1.000000 0.434485 0.539574
1.000000 0.489601 0.584100
1.000000 0.542535 0.627985
0.141604 0.195010 0.164431
0.141604 0.195010 0.164431
0.141604 0.195010 0.164431
0.141604 0.195010 0.164431
0.141756 0.194980 0.164553
0.148684 0.195346 0.165438
0.167697 0.195438 0.167727
0.200107 0.195285 0.171847
0.248447 0.193698 0.178378
0.307469 0.187991 0.185672
0.371862 0.177340 0.193484
0.438697 0.161227 0.202579
0.507591 0.135348 0.211917
0.576379 0.091005 0.221469
0.637385 0.000000 0.232181
0.688472 0.000000 0.243870
0.731960 0.000000 0.256535
0.769619 0.000000 0.269932
0.803464 0.000000 0.283818
0.834379 0.000000 0.298650
0.863645 0.000000 0.312627
0.890959 0.000000 0.327245
0.916533 0.104952 0.343877
0.940368 0.161868 0.362371
0.962402 0.207736 0.383276
0.983032 0.251011 0.407080
1.000000 0.293278 0.433570
1.000000 0.336400 0.463355
1.000000 0.381872 0.497047
1.000000 0.433906 0.537682
1.000000 0.488960 0.582391
1.000000 0.541924 0.626612
0.141604 0.195010 0.164431
0.141604 0.195010 0.164431
0.141604 0.195010 0.164431
0.141604 0.195010 0.164431
0.141970 0.194980 0.164553
0.148684 0.195346 0.165438
0.167361 0.195499 0.167727
0.199619 0.195254 0.171725
0.247745 0.193729 0.178256
0.306920 0.188144 0.185672
0.371008 0.177432 0.193423
0.437324 0.161532 0.202213
0.505577 0.136233 0.211551
0.574243 0.093050 0.221317
0.635828 0.000000 0.231754
0.686854 0.000000 0.243320
0.730404 0.000000 0.256016
0.768399 0.000000 0.269444
0.802243 0.000000 0.283238
0.833768 0.000000 0.295781
0.863371 0.000000 0.308904
0.890867 0.059693 0.323766
0.916686 0.129885 0.340581
0.940612 0.176669 0.359594
0.962799 0.218051 0.380560
0.983673 0.258946 0.404852
1.000000 0.299535 0.431861
1.000000 0.341711 0.462104
1.000000 0.386358 0.496223
1.000000 0.438056 0.537499
1.000000 0.493019 0.582971
1.000000 0.546014 0.627802
0.141634 0.195834 0.164340
0.141604 0.195956 0.164340
0.141543 0.196201 0.164309
0.141390 0.196933 0.164248
0.141390 0.197757 0.164279
0.148775 0.196536 0.164797
0.167208 0.195743 0.167453
0.198459 0.195224 0.171633
0.246036 0.193881 0.178073
0.304295 0.188449 0.185306
0.367651 0.178256 0.192996
0.433692 0.162600 0.201877
0.500938 0.138460 0.210971
0.568872 0.097658 0.220493
0.630762 0.000000 0.230747
0.681880 0.000000 0.242069
0.725856 0.000000 0.254551
0.764279 0.000000 0.266056
0.798795 0.000000 0.276860
0.830900 0.000000 0.288670
0.860960 0.052949 0.302159
0.888762 0.114717 0.317327
0.914763 0.156527 0.334295
0.939025 0.193698 0.353338
0.961517 0.229770 0.374609
0.982605 0.267063 0.399115
1.000000 0.304845 0.426184
1.000000 0.344884 0.456672
1.000000 0.387823 0.490974
1.000000 0.438148 0.532341
1.000000 0.492378 0.578210
1.000000 0.545068 0.623682
0.140749 0.205325 0.163638
0.140597 0.206027 0.163577
0.140597 0.206912 0.163485
0.140505 0.208347 0.163333
0.140139 0.210666 0.163210
0.144015 0.212406 0.163058
0.165774 0.206973 0.163821
0.198032 0.203342 0.168276
0.245212 0.200443 0.175540
0.302586 0.194308 0.183261
0.365057 0.183963 0.191287
0.430335 0.169619 0.200046
0.496681 0.149538 0.208835
0.564355 0.121004 0.217563
0.626520 0.087068 0.226444
0.678645 0.056794 0.236118
0.722957 0.040375 0.246189
0.762081 0.065370 0.256718
0.797513 0.087434 0.268009
0.830655 0.112642 0.280461
0.861570 0.138399 0.294682
0.891386 0.167239 0.311315
0.920989 0.199985 0.331395
0.945464 0.228977 0.351751
0.967926 0.259373 0.374548
0.988220 0.291508 0.399725
1.000000 0.325628 0.427558
1.000000 0.364019 0.459663
1.000000 0.405859 0.495644
1.000000 0.453468 0.537102
1.000000 0.504814 0.582544
1.000000 0.555444 0.627619
0.138308 0.230686 0.161166
0.138369 0.230381 0.161196
0.138277 0.229984 0.161257
0.138155 0.231266 0.161074
0.137911 0.232822 0.161044
0.137819 0.235599 0.160678
0.155062 0.235691 0.160678
0.187869 0.227848 0.161288
0.233982 0.220249 0.166873
0.288334 0.216770 0.174868
0.346532 0.211276 0.182101
0.407538 0.203830 0.189731
0.469612 0.194675 0.197604
0.533196 0.182498 0.205447
0.595941 0.167697 0.213260
0.652430 0.158145 0.221775
0.699672 0.153475 0.231052
0.740108 0.152682 0.241215
0.776089 0.156252 0.252079
0.813931 0.166293 0.265110
0.848417 0.180819 0.279698
0.880003 0.198245 0.296269
0.908934 0.218631 0.314641
0.936584 0.243168 0.336370
0.961730 0.270359 0.360266
0.984314 0.299992 0.386938
1.000000 0.332677 0.416419
1.000000 0.368261 0.449073
1.000000 0.408026 0.485847
1.000000 0.453651 0.527825
1.000000 0.504051 0.574365
1.000000 0.554070 0.620569
0.133181 0.272160 0.156222
0.133242 0.271275 0.156344
0.133272 0.271214 0.156374
0.133211 0.272007 0.156252
0.132937 0.274174 0.155917
0.132357 0.277165 0.155581
0.135134 0.280095 0.155184
0.180087 0.278416 0.155398
0.225742 0.266209 0.155581
0.285557 0.258274 0.160708
0.344488 0.254429 0.168338
0.405249 0.251164 0.175387
0.467170 0.247929 0.182681
0.530053 0.243198 0.190311
0.592828 0.236851 0.197848
0.649500 0.231235 0.206394
0.696468 0.226596 0.216068
0.737179 0.222843 0.226841
0.773617 0.221592 0.238315
0.811612 0.225101 0.251835
0.846464 0.231998 0.266911
0.878233 0.241917 0.283909
0.907652 0.255100 0.302983
0.935454 0.272618 0.324773
0.960754 0.293553 0.349218
0.983490 0.317967 0.376135
1.000000 0.345800 0.405921
1.000000 0.377203 0.438727
1.000000 0.413642 0.475837
1.000000 0.455940 0.517815
1.000000 0.503868 0.564660
1.000000 0.553124 0.612146
0.123049 0.331579 0.146639
0.123323 0.330449 0.146883
0.123476 0.330114 0.146975
0.123323 0.330449 0.146883
0.122835 0.332616 0.146426
0.122469 0.334936 0.145937
0.121889 0.337743 0.145327
0.158877 0.337072 0.145327
0.223758 0.331151 0.145663
0.278904 0.321233 0.145022
0.335485 0.311131 0.149630
0.400793 0.305913 0.155245
0.462898 0.304143 0.162325
0.526085 0.301915 0.169802
0.588708 0.298650 0.177859
0.645045 0.294102 0.186954
0.692378 0.288121 0.197574
0.733577 0.282689 0.209293
0.770413 0.278202 0.221469
0.808988 0.277958 0.235691
0.844266 0.280125 0.251560
0.876555 0.284642 0.269230
0.906340 0.292668 0.288914
0.934386 0.304601 0.311376
0.959869 0.320104 0.336278
0.982849 0.339086 0.363592
1.000000 0.362036 0.393835
1.000000 0.388891 0.426764
1.000000 0.421454 0.464210
1.000000 0.459968 0.506340
1.000000 0.504723 0.553399
1.000000 0.552758 0.602441
0.107454 0.397925 0.131197
0.107698 0.397162 0.131411
0.107515 0.396612 0.131594
0.107454 0.396735 0.131563
0.107393 0.398047 0.131167
0.106783 0.399817 0.130617
0.106325 0.401617 0.130251
0.126528 0.402655 0.129641
0.212100 0.396948 0.130465
0.281559 0.390295 0.129671
0.337072 0.381140 0.128298
0.392187 0.370489 0.132296
0.459907 0.367376 0.138003
0.527489 0.363012 0.142458
0.590204 0.360388 0.151369
0.646418 0.355749 0.162203
0.693904 0.348791 0.174411
0.735317 0.341344 0.187655
0.772702 0.334661 0.201694
0.811337 0.331579 0.217105
0.846677 0.330327 0.234409
0.879240 0.331273 0.253361
0.909331 0.334936 0.274571
0.937041 0.341863 0.297856
0.962310 0.352209 0.323674
0.984985 0.366522 0.352026
1.000000 0.384771 0.382940
1.000000 0.407202 0.416632
1.000000 0.435492 0.454658
1.000000 0.469734 0.496895
1.000000 0.510704 0.544152
1.000000 0.556390 0.594202
0.083650 0.464118 0.108278
0.084260 0.463233 0.108705
0.084108 0.462684 0.108949
0.084413 0.462379 0.109071
0.083864 0.462898 0.108858
0.083406 0.464027 0.108339
0.082948 0.465126 0.107851
0.082795 0.466621 0.107149
0.190616 0.461524 0.108003
0.273167 0.454231 0.109499
0.337743 0.447822 0.106966
0.393622 0.439826 0.103914
0.444678 0.426642 0.108217
0.513146 0.424689 0.113954
0.581170 0.420264 0.118654
0.640650 0.412207 0.128817
0.688746 0.404059 0.144167
0.730587 0.395087 0.160159
0.768551 0.386267 0.176242
0.807706 0.380652 0.193393
0.843687 0.376593 0.211765
0.876829 0.374090 0.232334
0.907225 0.374029 0.254368
0.935302 0.376562 0.278721
0.960723 0.382452 0.305272
0.983703 0.391760 0.334356
1.000000 0.405310 0.366003
1.000000 0.423346 0.400610
1.000000 0.446754 0.438636
1.000000 0.476234 0.480903
1.000000 0.512657 0.528130
1.000000 0.556054 0.579797
0.013031 0.533684 0.066011
0.015778 0.532494 0.067140
0.017365 0.531548 0.068025
0.018952 0.530632 0.068910
0.018463 0.530724 0.068818
0.017639 0.530907 0.068666
0.016388 0.531762 0.067842
0.014527 0.533349 0.066316
0.163455 0.530236 0.066987
0.263462 0.523766 0.068635
0.336828 0.516869 0.068727
0.400916 0.512383 0.059968
0.475929 0.522332 0.000000
0.525170 0.506249 0.011231
0.594812 0.503136 0.038483
0.653590 0.491585 0.070375
0.703365 0.475807 0.094270
0.746731 0.461250 0.117433
0.785031 0.449897 0.141238
0.821347 0.440345 0.163638
0.855009 0.431983 0.186404
0.885801 0.425422 0.209781
0.914519 0.420966 0.234409
0.941100 0.419104 0.260655
0.965454 0.420356 0.288701
0.986572 0.424140 0.318151
1.000000 0.432410 0.350408
1.000000 0.445441 0.385504
1.000000 0.463905 0.424079
1.000000 0.488014 0.466102
1.000000 0.519463 0.513146
1.000000 0.559106 0.565728
0.000000 0.582940 0.000000
0.000000 0.580194 0.000000
0.000000 0.577752 0.000000
0.000000 0.575647 0.000000
0.000000 0.574304 0.000000
0.000000 0.576074 0.000000
0.000000 0.577752 0.000000
0.000000 0.579278 0.000000
0.094667 0.578424 0.000000
0.234318 0.577050 0.000000
0.320989 0.574701 0.000000
0.392554 0.572229 0.000000
0.457588 0.570001 0.000000
0.519036 0.567498 0.000000
0.565393 0.550805 0.000000
0.631403 0.546349 0.000000
0.686519 0.533867 0.000000
0.733700 0.517845 0.049836
0.776822 0.501274 0.089570
0.815366 0.488472 0.120394
0.850126 0.478035 0.149386
0.881651 0.468635 0.177127
0.910887 0.461189 0.204898
0.937957 0.455940 0.233127
0.962737 0.453346 0.262943
0.984680 0.453468 0.294163
1.000000 0.457496 0.327672
1.000000 0.466072 0.363928
1.000000 0.479774 0.403326
1.000000 0.499062 0.446052
1.000000 0.525628 0.493507
1.000000 0.561730 0.547753
0.000000 0.649134 0.000000
0.000000 0.646448 0.000000
0.000000 0.643946 0.000000
0.000000 0.641657 0.000000
0.000000 0.639948 0.000000
0.000000 0.640528 0.000000
0.000000 0.641321 0.000000
0.000000 0.641993 0.000000
0.000000 0.641718 0.000000
0.209720 0.639796 0.000000
0.307164 0.637293 0.000000
0.384436 0.633997 0.000000
0.451667 0.630671 0.000000
0.514641 0.627558 0.000000
0.574640 0.623651 0.000000
0.614130 0.601434 0.000000
0.672236 0.591699 0.000000
0.721248 0.575891 0.000000
0.765438 0.559014 0.000000
0.806790 0.542138 0.038697
0.844480 0.524895 0.094453
0.876768 0.512718 0.133608
0.906554 0.502556 0.167391
0.934020 0.494331 0.199954
0.959564 0.488350 0.232700
0.982238 0.484901 0.266148
1.000000 0.484749 0.301427
1.000000 0.488899 0.338842
1.000000 0.497810 0.379217
1.000000 0.512108 0.422644
1.000000 0.533837 0.470893
1.000000 0.564904 0.525994
0.000000 0.701228 0.000000
0.000000 0.698878 0.000000
0.000000 0.696437 0.000000
0.000000 0.694362 0.000000
0.000000 0.692592 0.000000
0.000000 0.692805 0.000000
0.000000 0.692958 0.000000
0.000000 0.693019 0.000000
0.000000 0.692866 0.000000
0.176028 0.691554 0.000000
0.285679 0.689021 0.000000
0.367834 0.685512 0.000000
0.438148 0.681361 0.000000
0.502129 0.678309 0.000000
0.562799 0.674311 0.000000
0.621149 0.669703 0.000000
0.656611 0.645686 0.000000
0.708156 0.632258 0.000000
0.753597 0.614771 0.000000
0.796017 0.597314 0.000000
0.834745 0.579461 0.000000
0.869932 0.561486 0.066102
0.901915 0.545220 0.115145
0.930297 0.534295 0.157992
0.956542 0.525475 0.196475
0.979919 0.518730 0.233555
1.000000 0.515007 0.271458
1.000000 0.515160 0.311376
1.000000 0.519799 0.353735
1.000000 0.530144 0.399298
1.000000 0.548089 0.450507
1.000000 0.575067 0.507927
0.000000 0.748653 0.000000
0.000000 0.746944 0.000000
0.000000 0.745418 0.000000
0.000000 0.743954 0.000000
0.000000 0.742794 0.000000
0.000000 0.742947 0.000000
0.000000 0.743191 0.000000
0.000000 0.743282 0.000000
0.000000 0.743282 0.000000
0.139406 0.742367 0.000000
0.267033 0.739559 0.000000
0.353063 0.736477 0.000000
0.425971 0.732570 0.000000
0.491554 0.728328 0.000000
0.552300 0.724056 0.000000
0.610315 0.719203 0.000000
0.666285 0.713588 0.000000
0.701961 0.691279 0.000000
0.745144 0.672053 0.000000
0.787930 0.653407 0.000000
0.826932 0.634333 0.000000
0.862547 0.615015 0.000000
0.895781 0.596612 0.000000
0.926421 0.578912 0.100191
0.953552 0.564538 0.149081
0.977295 0.554559 0.193759
0.998840 0.547173 0.235935
1.000000 0.543145 0.278416
1.000000 0.543236 0.322606
1.000000 0.549187 0.370794
1.000000 0.561730 0.422889
1.000000 0.582635 0.480781
0.000000 0.785000 0.000000
0.000000 0.783566 0.000000
0.000000 0.782132 0.000000
0.000000 0.781064 0.000000
0.000000 0.780026 0.000000
0.000000 0.779995 0.000000
0.000000 0.780026 0.000000
0.000000 0.779843 0.000000
0.000000 0.779690 0.000000
0.065370 0.779599 0.000000
0.237034 0.777157 0.000000
0.329046 0.774258 0.000000
0.404242 0.770840 0.000000
0.471168 0.766537 0.000000
0.532341 0.762234 0.000000
0.589990 0.757656 0.000000
0.645991 0.752346 0.000000
0.698726 0.745480 0.000000
0.739406 0.728939 0.000000
0.774990 0.705715 0.000000
0.815396 0.686122 0.000000
0.852689 0.666377 0.000000
0.886900 0.647059 0.000000
0.918273 0.628107 0.000000
0.946990 0.609796 0.086610
0.973053 0.592401 0.141695
0.995453 0.580865 0.191836
1.000000 0.573236 0.239414
1.000000 0.569696 0.287633
1.000000 0.570947 0.337926
1.000000 0.578119 0.391516
1.000000 0.592920 0.450233
0.000000 0.820035 0.000000
0.000000 0.820035 0.000000
0.000000 0.817350 0.000000
0.000000 0.817929 0.000000
0.000000 0.818570 0.000000
0.000000 0.819211 0.000000
0.000000 0.819821 0.000000
0.000000 0.821164 0.000000
0.000000 0.822538 0.000000
0.000000 0.822080 0.000000
0.213596 0.819394 0.000000
0.310277 0.815702 0.000000
0.387366 0.811521 0.000000
0.454749 0.807034 0.000000
0.516747 0.802029 0.000000
0.572839 0.796017 0.000000
0.626703 0.789731 0.000000
0.679164 0.782956 0.000000
0.730373 0.775998 0.000000
0.775296 0.764248 0.000000
0.803281 0.736599 0.000000
0.841154 0.716304 0.000000
0.876005 0.695735 0.000000
0.907805 0.675441 0.000000
0.937072 0.655818 0.000000
0.964080 0.637079 0.072236
0.988830 0.619623 0.139681
1.000000 0.604852 0.190249
1.000000 0.597314 0.243992
1.000000 0.593652 0.297215
1.000000 0.595331 0.352422
1.000000 0.603845 0.411719
0.000000 0.839200 0.000000
0.000000 0.840024 0.000000
0.000000 0.840818 0.000000
0.000000 0.842252 0.000000
0.000000 0.843809 0.000000
0.000000 0.845274 0.000000
0.000000 0.846860 0.000000
0.000000 0.848325 0.000000
0.000000 0.849943 0.000000
0.000000 0.850614 0.000000
0.172549 0.848386 0.000000
0.281010 0.845212 0.000000
0.361822 0.841611 0.000000
0.430732 0.837613 0.000000
0.493355 0.833188 0.000000
0.550896 0.827420 0.000000
0.604700 0.821775 0.000000
0.657191 0.816068 0.000000
0.708583 0.809842 0.000000
0.758114 0.802701 0.000000
0.806485 0.794888 0.000000
0.829770 0.765225 0.000000
0.866148 0.744961 0.000000
0.899016 0.723720 0.000000
0.929320 0.703059 0.000000
0.957427 0.683284 0.000000
0.983307 0.664515 0.064271
1.000000 0.647150 0.143984
1.000000 0.631647 0.198856
1.000000 0.621576 0.254063
1.000000 0.618524 0.313268
1.000000 0.621942 0.375647
0.000000 0.868101 0.000000
0.000000 0.868681 0.000000
0.000000 0.869291 0.000000
0.000000 0.870298 0.000000
0.000000 0.871489 0.000000
0.000000 0.872557 0.000000
0.000000 0.873747 0.000000
0.000000 0.874937 0.000000
0.000000 0.876097 0.000000
0.000000 0.877287 0.000000
0.117098 0.875090 0.000000
0.249729 0.872221 0.000000
0.334722 0.868986 0.000000
0.405371 0.865293 0.000000
0.469276 0.861265 0.000000
0.527794 0.856229 0.000000
0.582513 0.851072 0.000000
0.634546 0.845823 0.000000
0.685420 0.840146 0.000000
0.734554 0.833524 0.000000
0.782864 0.826535 0.000000
0.830869 0.819364 0.000000
0.853971 0.791226 0.000000
0.888548 0.771145 0.000000
0.920378 0.749874 0.000000
0.949645 0.729122 0.000000
0.976379 0.709071 0.000000
1.000000 0.690028 0.062379
1.000000 0.672511 0.151614
1.000000 0.657099 0.211856
1.000000 0.645014 0.267826
1.000000 0.642756 0.333684
0.000000 0.894255 0.000000
0.000000 0.894682 0.000000
0.000000 0.895201 0.000000
0.000000 0.895995 0.000000
0.000000 0.896818 0.000000
0.000000 0.897795 0.000000
0.000000 0.898680 0.000000
0.000000 0.899565 0.000000
0.000000 0.900450 0.000000
0.000000 0.901335 0.000000
0.000000 0.899992 0.000000
0.214633 0.897459 0.000000
0.306828 0.894621 0.000000
0.380377 0.891447 0.000000
0.445136 0.887877 0.000000
0.504326 0.883635 0.000000
0.560357 0.878935 0.000000
0.612787 0.874296 0.000000
0.663722 0.869322 0.000000
0.713313 0.863951 0.000000
0.762051 0.858122 0.000000
0.810147 0.851987 0.000000
0.858762 0.846159 0.000000
0.883146 0.820279 0.000000
0.916777 0.800565 0.000000
0.946990 0.778805 0.000000
0.974487 0.757412 0.000000
0.999329 0.736843 0.000000
1.000000 0.717372 0.082734
1.000000 0.700069 0.173007
1.000000 0.685359 0.239384
1.000000 0.674769 0.302770
0.000000 0.924132 0.000000
0.000000 0.924712 0.000000
0.000000 0.925322 0.000000
0.000000 0.925841 0.000000
0.000000 0.926329 0.000000
0.000000 0.926879 0.000000
0.000000 0.927459 0.000000
0.000000 0.927703 0.000000
0.000000 0.927977 0.000000
0.000000 0.928222 0.000000
0.000000 0.927062 0.000000
0.177981 0.924193 0.000000
0.279789 0.920989 0.000000
0.355901 0.917510 0.000000
0.421454 0.913664 0.000000
0.481117 0.909392 0.000000
0.536950 0.904753 0.000000
0.590112 0.899809 0.000000
0.640101 0.894896 0.000000
0.689235 0.889830 0.000000
0.737636 0.884672 0.000000
0.785489 0.879210 0.000000
0.832700 0.873320 0.000000
0.879942 0.867155 0.000000
0.905333 0.843717 0.000000
0.937285 0.823911 0.000000
0.965820 0.801450 0.000000
0.991821 0.779812 0.000000
1.000000 0.759274 0.000000
1.000000 0.739925 0.100526
1.000000 0.722652 0.191958
1.000000 0.708553 0.263645
0.000000 0.946044 0.000000
0.000000 0.946563 0.000000
0.000000 0.947143 0.000000
0.000000 0.947448 0.000000
0.000000 0.947875 0.000000
0.000000 0.948302 0.000000
0.000000 0.948760 0.000000
0.000000 0.948730 0.000000
0.000000 0.948730 0.000000
0.000000 0.948760 0.000000
0.000000 0.948241 0.000000
0.120058 0.945556 0.000000
0.245670 0.942535 0.000000
0.327245 0.939208 0.000000
0.394934 0.935607 0.000000
0.455787 0.931640 0.000000
0.511925 0.927367 0.000000
0.565209 0.922850 0.000000
0.616388 0.918303 0.000000
0.665614 0.914000 0.000000
0.713497 0.909331 0.000000
0.760739 0.904204 0.000000
0.807248 0.898619 0.000000
0.853269 0.892607 0.000000
0.894011 0.882414 0.000000
0.923980 0.863981 0.000000
0.952667 0.842771 0.000000
0.980774 0.821103 0.000000
1.000000 0.799405 0.000000
1.000000 0.778927 0.000000
1.000000 0.759762 0.118502
1.000000 0.743099 0.213046
0.000000 0.966400 0.000000
0.000000 0.967010 0.000000
0.000000 0.967559 0.000000
0.000000 0.968139 0.000000
0.000000 0.968780 0.000000
0.000000 0.968688 0.000000
0.000000 0.968658 0.000000
0.000000 0.968658 0.000000
0.000000 0.968688 0.000000
0.000000 0.968261 0.000000
0.000000 0.967956 0.000000
0.000000 0.965179 0.000000
0.205570 0.962158 0.000000
0.295720 0.958831 0.000000
0.366552 0.955291 0.000000
0.428626 0.951629 0.000000
0.485664 0.947692 0.000000
0.539483 0.943572 0.000000
0.590784 0.939147 0.000000
0.639704 0.934478 0.000000
0.686549 0.929717 0.000000
0.732937 0.924743 0.000000
0.778439 0.919371 0.000000
0.823423 0.913481 0.000000
0.868132 0.907439 0.000000
0.913176 0.901427 0.000000
0.948486 0.887816 0.000000
0.972412 0.863920 0.000000
0.998352 0.841825 0.000000
1.000000 0.819852 0.000000
1.000000 0.799222 0.000000
1.000000 0.780301 0.149203
0.000000 0.984070 0.000000
0.000000 0.984588 0.000000
0.000000 0.985168 0.000000
0.000000 0.985718 0.000000
0.000000 0.986297 0.000000
0.000000 0.986328 0.000000
0.000000 0.986358 0.000000
0.000000 0.986419 0.000000
0.000000 0.986511 0.000000
0.000000 0.986206 0.000000
0.000000 0.985992 0.000000
0.000000 0.984344 0.000000
0.144533 0.981567 0.000000
0.260319 0.978424 0.000000
0.338354 0.975158 0.000000
0.402625 0.971771 0.000000
0.460700 0.968109 0.000000
0.514855 0.964294 0.000000
0.566247 0.960143 0.000000
0.615747 0.955688 0.000000
0.662806 0.951110 0.000000
0.708553 0.946471 0.000000
0.753841 0.941711 0.000000
0.798611 0.936522 0.000000
0.842832 0.930907 0.000000
0.886839 0.924987 0.000000
0.930510 0.918578 0.000000
0.970214 0.909178 0.000000
0.990448 0.883665 0.000000
1.000000 0.862272 0.000000
1.000000 0.840085 0.000000
1.000000 0.818936 0.000000
0.000000 1.000000 0.000000
0.000000 1.000000 0.000000
0.000000 1.000000 0.000000
0.000000 1.000000 0.000000
0.000000 1.000000 0.000000
0.000000 1.000000 0.000000
0.000000 1.000000 0.000000
0.000000 1.000000 0.000000
0.000000 1.000000 0.000000
0.000000 1.000000 0.000000
0.000000 1.000000 0.000000
0.000000 1.000000 0.000000
0.000000 0.998840 0.000000
0.213474 0.995941 0.000000
0.303258 0.992798 0.000000
0.373754 0.989471 0.000000
0.433539 0.986053 0.000000
0.488441 0.982483 0.000000
0.540276 0.978637 0.000000
0.589990 0.974609 0.000000
0.638025 0.970428 0.000000
0.683803 0.966247 0.000000
0.728573 0.961730 0.000000
0.772610 0.956786 0.000000
0.815976 0.951446 0.000000
0.859220 0.945830 0.000000
0.902159 0.939849 0.000000
0.945525 0.933806 0.000000
0.989837 0.928496 0.000000
1.000000 0.902617 0.000000
1.000000 0.880858 0.000000
1.000000 0.858183 0.000000
0.000000 1.000000 0.000000
0.000000 1.000000 0.000000
0.000000 1.000000 0.000000
0.000000 1.000000 0.000000
0.000000 1.000000 0.000000
0.000000 1.000000 0.000000
0.000000 1.000000 0.000000
0.000000 1.000000 0.000000
0.000000 1.000000 0.000000
0.000000 1.000000 0.000000
0.000000 1.000000 0.000000
0.000000 1.000000 0.000000
0.000000 1.000000 0.000000
0.157382 1.000000 0.000000
0.266606 1.000000 0.000000
0.343572 1.000000 0.000000
0.408728 1.000000 0.000000
0.466346 1.000000 0.000000
0.519219 1.000000 0.000000
0.569085 0.996612 0.000000
0.617365 0.992737 0.000000
0.664210 0.988708 0.000000
0.708553 0.984558 0.000000
0.752102 0.980041 0.000000
0.795254 0.975097 0.000000
0.838529 0.970336 0.000000
0.881437 0.965118 0.000000
0.924102 0.959442 0.000000
0.966430 0.953216 0.000000
1.000000 0.950866 0.000000
1.000000 0.925109 0.000000
1.000000 0.903014 0.000000
0.000000 1.000000 0.000000
0.000000 1.000000 0.000000
0.000000 1.000000 0.000000
0.000000 1.000000 0.000000
0.000000 1.000000 0.000000
0.000000 1.000000 0.000000
0.000000 1.000000 0.000000
0.000000 1.000000 0.000000
0.000000 1.000000 0.000000
0.000000 1.000000 0.000000
0.000000 1.000000 0.000000
0.000000 1.000000 0.000000
0.000000 1.000000 0.000000
0.026917 1.000000 0.000000
0.221164 1.000000 0.000000
0.307774 1.000000 0.000000
