cubelut/Green_Blues.cube
# Created by Adobe Lightroom plugin Export LUT (1.18.0)
# www.johnrellis.com/lightroom/exportlut.htm
# Preset: Green/Blues
# Color profile: /Library/Application Support/Adobe/Color/Profiles/Recommended/AdobeRGB1998.icc
LUT_3D_SIZE 5
DOMAIN_MIN 0.000000 0.000000 0.000000
DOMAIN_MAX 0.903226 0.903226 0.903226
0.141604 0.195010 0.164431
0.201877 0.195224 0.172030
0.640223 0.000000 0.232700
0.893126 0.000000 0.331273
1.000000 0.382452 0.500755
0.133181 0.272160 0.156222
0.180087 0.278416 0.155398
0.592828 0.236851 0.197848
0.878233 0.241917 0.283909
1.000000 0.413642 0.475837
0.000000 0.701228 0.000000
0.000000 0.693019 0.000000
0.562799 0.674311 0.000000
0.869932 0.561486 0.066102
1.000000 0.519799 0.353735
0.000000 0.924132 0.000000
0.000000 0.927703 0.000000
0.421454 0.913664 0.000000
0.785489 0.879210 0.000000
1.000000 0.759274 0.000000
0.000000 1.000000 0.000000
0.000000 1.000000 0.000000
0.163668 1.000000 0.000000
0.609857 1.000000 0.000000
0.907652 0.989288 0.000000
0.125124 0.206516 0.210086
0.246952 0.177707 0.212711
0.646815 0.000000 0.248508
0.889036 0.109224 0.318120
1.000000 0.379644 0.496712
0.090944 0.263981 0.235172
0.225528 0.253025 0.226078
0.624353 0.251713 0.219852
0.880858 0.266392 0.278416
1.000000 0.402960 0.467384
0.000000 0.689052 0.127138
0.000000 0.687098 0.000000
0.582422 0.654749 0.000000
0.867277 0.546990 0.104311
1.000000 0.510704 0.353155
0.000000 0.922454 0.000000
0.000000 0.924285 0.000000
0.418616 0.906615 0.000000
0.793515 0.870054 0.000000
1.000000 0.746792 0.000000
0.000000 1.000000 0.000000
0.000000 1.000000 0.000000
0.136263 1.000000 0.000000
0.610956 1.000000 0.000000
0.914611 0.986847 0.000000
0.000000 0.273777 0.693660
0.277287 0.091005 0.685939
0.731167 0.000000 0.664820
0.927062 0.000000 0.555108
1.000000 0.387274 0.611627
0.000000 0.203464 0.719814
0.304570 0.125063 0.701717
0.716487 0.000000 0.656519
0.911894 0.114595 0.557488
1.000000 0.526757 0.663813
0.000000 0.706111 0.665339
0.000000 0.690974 0.656245
0.610163 0.626612 0.636774
0.856321 0.615717 0.634150
1.000000 0.623560 0.652369
0.000000 0.920195 0.537652
0.000000 0.921569 0.510948
0.429786 0.903532 0.535729
0.824094 0.864530 0.499550
1.000000 0.737209 0.501061
0.000000 1.000000 0.380285
0.000000 1.000000 0.362310
0.000000 1.000000 0.274540
0.630701 1.000000 0.481910
0.928771 0.983612 0.360113
0.000000 0.121736 0.921569
0.287541 0.000000 0.919188
0.692439 0.000000 0.909331
0.951476 0.000000 0.839109
1.000000 0.000000 0.708431
0.000000 0.067353 0.923125
0.335485 0.000000 0.918395
0.681727 0.000000 0.905333
0.945464 0.000000 0.834501
1.000000 0.000000 0.715053
0.000000 0.645289 0.904662
0.141848 0.588739 0.903319
0.593011 0.477241 0.898802
0.914855 0.450904 0.835599
1.000000 0.576593 0.787228
0.000000 0.935149 0.872129
0.000000 0.928771 0.872007
0.512596 0.893858 0.866819
0.830503 0.844053 0.856016
0.978241 0.828733 0.848447
0.000000 1.000000 0.706142
0.000000 1.000000 0.696864
0.000000 1.000000 0.686885
0.676478 1.000000 0.773434
0.950011 0.973541 0.754513
0.000000 0.000000 1.000000
0.292058 0.000000 1.000000
0.612512 0.000000 1.000000
0.906004 0.000000 1.000000
1.000000 0.000000 0.913725
0.000000 0.000000 1.000000
0.289769 0.000000 1.000000
0.602136 0.000000 1.000000
0.896452 0.000000 1.000000
1.000000 0.000000 0.915831
0.000000 0.379583 1.000000
0.000000 0.341039 1.000000
0.495094 0.271611 1.000000
0.850278 0.000000 1.000000
1.000000 0.000000 0.918730
0.352117 0.877745 0.994141
0.456001 0.878233 0.993133
0.668605 0.861906 0.990204
0.791531 0.747280 0.993011
1.000000 0.716274 0.943908
0.000000 1.000000 0.971649
0.000000 1.000000 0.971557
0.404852 1.000000 0.971588
0.762814 0.996582 0.970886
0.962097 0.962646 0.966552
