cubelut/Green_Yellow.cube
# Created by Adobe Lightroom plugin Export LUT (1.18.0)
# www.johnrellis.com/lightroom/exportlut.htm
# Preset: Green/Yellow
# Color profile: /Library/Application Support/Adobe/Color/Profiles/Recommended/AdobeRGB1998.icc
LUT_3D_SIZE 5
DOMAIN_MIN 0.000000 0.000000 0.000000
DOMAIN_MAX 0.903226 0.903226 0.903226
0.086702 0.104189 0.084962
0.177676 0.106264 0.081788
0.433234 0.110140 0.050874
0.755154 0.094789 0.000000
0.987243 0.109346 0.000000
0.049653 0.201266 0.103029
0.169131 0.209293 0.072724
0.429725 0.245396 0.007874
0.751980 0.267033 0.000000
0.991058 0.269413 0.000000
0.000000 0.433204 0.183780
0.000000 0.429786 0.127138
0.424689 0.486213 0.000000
0.762600 0.513725 0.000000
0.980255 0.502525 0.000000
0.000000 0.698909 0.307256
0.000000 0.696742 0.267216
0.000000 0.682612 0.000000
0.684657 0.748135 0.000000
0.971527 0.723751 0.186007
0.000000 0.942626 0.438392
0.000000 0.942199 0.410163
0.000000 0.934844 0.282750
0.292668 0.945068 0.000000
0.871366 0.933501 0.269993
0.081727 0.101472 0.169802
0.176883 0.095430 0.176974
0.424140 0.000000 0.192691
0.728237 0.000000 0.177981
0.974914 0.000000 0.189334
0.043305 0.205142 0.179751
0.178347 0.208774 0.181369
0.427863 0.213870 0.179049
0.729519 0.217380 0.178103
0.974670 0.231876 0.194675
0.000000 0.442969 0.251804
0.091188 0.443488 0.240909
0.411933 0.468330 0.175387
0.739071 0.494697 0.188998
0.973541 0.493324 0.223392
0.000000 0.707149 0.370184
0.000000 0.706081 0.349187
0.000000 0.690425 0.182712
0.684565 0.744381 0.189792
0.966613 0.724331 0.302831
0.000000 0.941253 0.493263
0.000000 0.940703 0.466957
0.000000 0.942870 0.362280
0.274662 0.948058 0.107240
0.875059 0.933928 0.361578
0.000000 0.083131 0.430060
0.189639 0.059144 0.436133
0.430854 0.000000 0.449989
0.728786 0.000000 0.477913
0.967468 0.000000 0.466438
0.000000 0.205447 0.445106
0.145541 0.194675 0.447486
0.439857 0.189792 0.461097
0.728634 0.164584 0.471351
0.967224 0.206363 0.470436
0.000000 0.472969 0.466590
0.074311 0.474250 0.468025
0.445258 0.477028 0.471931
0.735744 0.479133 0.475593
0.961730 0.492134 0.491310
0.000000 0.734493 0.519615
0.000000 0.728237 0.515770
0.369299 0.718135 0.510857
0.697414 0.743038 0.472114
0.951843 0.730800 0.530694
0.000000 0.941314 0.595392
0.000000 0.940581 0.596307
0.266056 0.935943 0.575097
0.239139 0.938598 0.374151
0.877775 0.927245 0.533410
0.000000 0.000000 0.731472
0.154421 0.000000 0.734707
0.444892 0.000000 0.746181
0.719478 0.000000 0.754086
0.950622 0.000000 0.731624
0.000000 0.182071 0.737636
0.000000 0.176638 0.739651
0.431495 0.157046 0.746120
0.716152 0.124422 0.751125
0.946563 0.201999 0.728450
0.000000 0.459632 0.744594
0.000000 0.451148 0.745632
0.400366 0.441993 0.748348
0.712642 0.445136 0.748531
0.942260 0.475532 0.729671
0.000000 0.743740 0.762783
0.000000 0.741787 0.760800
0.411719 0.742977 0.762448
0.729091 0.744045 0.763699
0.929320 0.749203 0.767056
0.000000 0.949706 0.752682
0.150668 0.947570 0.754574
0.425910 0.940856 0.760464
0.649287 0.922362 0.760678
0.890471 0.919585 0.760006
0.000000 0.000000 0.935882
0.086366 0.000000 0.935973
0.409186 0.000000 0.936950
0.664027 0.000000 0.937346
0.911711 0.000000 0.936828
0.000000 0.154696 0.935180
0.000000 0.147982 0.935180
0.392645 0.126436 0.935851
0.658778 0.110079 0.935180
0.909850 0.153506 0.934966
0.000000 0.407385 0.934356
0.000000 0.399664 0.934173
0.354040 0.400366 0.933410
0.650294 0.410407 0.931731
0.908782 0.439124 0.932860
0.000000 0.674891 0.932158
0.000000 0.672511 0.931426
0.356939 0.666896 0.930846
0.676661 0.692439 0.928862
0.910582 0.735164 0.930571
0.000000 0.918456 0.930480
0.210422 0.918059 0.930053
0.483619 0.917967 0.929686
0.739651 0.916869 0.928252
0.911986 0.916136 0.927337
