cubelut/Green_Yellow.cube
# Created by Adobe Lightroom plugin Export LUT (1.18.0)
# www.johnrellis.com/lightroom/exportlut.htm
# Preset: Green/Yellow
# Color profile: /Library/Application Support/Adobe/Color/Profiles/Recommended/AdobeRGB1998.icc
LUT_3D_SIZE 8
DOMAIN_MIN 0.000000 0.000000 0.000000
DOMAIN_MAX 0.903226 0.903226 0.903226
0.086702 0.104189 0.084962
0.109133 0.103029 0.084688
0.206180 0.107515 0.080507
0.348150 0.111360 0.067781
0.518578 0.107942 0.012390
0.704128 0.099123 0.000000
0.875364 0.088838 0.000000
0.987243 0.109346 0.000000
0.081971 0.128389 0.088624
0.107515 0.131960 0.082673
0.202457 0.145571 0.077546
0.338872 0.157656 0.064302
0.506737 0.165011 0.003906
0.685389 0.166812 0.000000
0.858976 0.164034 0.000000
0.979858 0.169924 0.000000
0.009827 0.228885 0.110170
0.025788 0.229953 0.093172
0.194308 0.239109 0.067140
0.348180 0.261753 0.037018
0.519310 0.285222 0.000000
0.699794 0.297459 0.000000
0.878050 0.304662 0.000000
0.988403 0.301152 0.000000
0.000000 0.359380 0.153811
0.000000 0.357336 0.137301
0.000000 0.355383 0.055726
0.343603 0.402686 0.000000
0.560632 0.431739 0.000000
0.729091 0.451148 0.000000
0.880278 0.449409 0.000000
0.984405 0.435645 0.000000
0.000000 0.510185 0.217258
0.000000 0.508141 0.202853
0.000000 0.504723 0.145083
0.143771 0.516808 0.000000
0.491707 0.554009 0.000000
0.715236 0.567803 0.000000
0.868376 0.580194 0.000000
0.977539 0.570550 0.063325
0.000000 0.651606 0.284154
0.000000 0.659113 0.276524
0.000000 0.653651 0.229618
0.000000 0.645441 0.108003
0.305699 0.666987 0.000000
0.647089 0.710231 0.000000
0.871122 0.709438 0.098695
0.974212 0.695277 0.166262
0.000000 0.813840 0.364935
0.000000 0.814969 0.355749
0.000000 0.809415 0.315740
0.000000 0.803861 0.230869
0.000000 0.794614 0.000000
0.463355 0.823239 0.000000
0.777462 0.841306 0.012207
0.963073 0.808103 0.254063
0.000000 0.942626 0.438392
0.000000 0.942290 0.430091
0.000000 0.942504 0.400488
0.000000 0.945495 0.341527
0.000000 0.936278 0.209079
0.000000 0.943481 0.000000
0.607660 0.944793 0.079438
0.871366 0.933501 0.269993
0.084199 0.104128 0.105623
0.108888 0.102327 0.107240
0.200076 0.094759 0.111574
0.337652 0.081147 0.107088
0.504509 0.065492 0.098329
0.676967 0.024048 0.085145
0.851255 0.000000 0.065705
0.974304 0.053803 0.080629
0.081605 0.129091 0.107698
0.109895 0.131411 0.108797
0.201480 0.136599 0.109194
0.336217 0.142336 0.105959
0.500786 0.144137 0.096223
0.669398 0.142611 0.081331
0.839292 0.134859 0.057527
0.966278 0.143465 0.069490
0.035340 0.227207 0.131655
0.090089 0.229801 0.130861
0.195560 0.237766 0.108553
0.342321 0.256504 0.104372
0.507561 0.272526 0.089448
0.676051 0.279911 0.072786
0.848600 0.284367 0.045258
0.972869 0.285130 0.082307
0.000000 0.354986 0.176791
0.000000 0.355749 0.169589
0.000000 0.357061 0.111238
0.328710 0.385412 0.093965
0.524559 0.406012 0.086458
0.685695 0.422919 0.061097
0.849302 0.428748 0.027710
0.969421 0.422736 0.090394
0.000000 0.510338 0.243290
0.000000 0.507164 0.229099
0.000000 0.501183 0.176883
0.128725 0.503227 0.033051
0.475074 0.535973 0.060548
0.692653 0.550713 0.077913
0.853117 0.569024 0.073121
0.968505 0.562524 0.123049
0.000000 0.644312 0.301823
0.000000 0.643366 0.290684
0.000000 0.638819 0.247684
0.000000 0.633722 0.148074
0.295323 0.655451 0.000000
0.641352 0.703517 0.001404
0.864317 0.704219 0.153658
0.968139 0.690761 0.197513
0.000000 0.800137 0.375128
0.000000 0.796963 0.364019
0.000000 0.793423 0.326940
0.000000 0.791867 0.250675
0.000000 0.786221 0.000000
0.454322 0.813718 0.000000
0.768673 0.831662 0.105806
0.955200 0.801114 0.264866
0.000000 0.935912 0.448737
0.000000 0.936614 0.441718
0.000000 0.937346 0.413275
0.000000 0.940887 0.356909
0.000000 0.942840 0.243442
0.000000 0.945617 0.000000
0.605585 0.942901 0.129702
0.869291 0.930846 0.286015
0.078950 0.100374 0.200443
0.116487 0.097749 0.203067
0.206668 0.091157 0.208164
0.345006 0.063508 0.225223
0.513939 0.000000 0.228428
0.694667 0.000000 0.219638
0.864378 0.000000 0.220249
0.980285 0.000000 0.232517
0.049348 0.130434 0.204776
0.105837 0.129549 0.206027
0.206668 0.132906 0.208957
0.342840 0.122896 0.219974
0.511955 0.061219 0.219486
0.686427 0.000000 0.213077
0.856046 0.000000 0.215732
0.976257 0.076326 0.228977
0.000000 0.236515 0.210880
0.093172 0.238102 0.212100
0.207797 0.240604 0.212619
0.350164 0.243412 0.212406
0.525414 0.249119 0.215579
0.692164 0.250828 0.216892
0.856535 0.252720 0.219211
0.974304 0.264988 0.233799
0.000000 0.372442 0.242527
0.000000 0.374334 0.243412
0.178988 0.379614 0.244297
0.346166 0.396735 0.215091
0.538415 0.412238 0.227115
0.701076 0.418494 0.226322
0.859953 0.420722 0.230137
0.973022 0.418097 0.248386
0.000000 0.522942 0.302190
0.000000 0.523674 0.301244
0.098329 0.523308 0.289158
0.131228 0.517784 0.196048
0.492073 0.548180 0.214176
0.703822 0.558068 0.234684
0.856718 0.571130 0.245731
0.968383 0.561822 0.270298
0.000000 0.656977 0.358831
0.000000 0.657160 0.357366
0.000000 0.653407 0.338170
0.000000 0.644923 0.259739
0.279057 0.652979 0.166079
0.641077 0.699336 0.218235
0.859770 0.702815 0.281895
0.966186 0.695033 0.319707
0.000000 0.811612 0.432074
0.000000 0.809537 0.429023
0.000000 0.803647 0.402441
0.000000 0.797818 0.334081
0.000000 0.789944 0.200290
0.445655 0.812680 0.153719
0.775418 0.834989 0.256352
0.956909 0.808255 0.374029
0.000000 0.936797 0.499367
0.000000 0.935210 0.497139
0.000000 0.934630 0.471199
0.000000 0.939940 0.423560
0.000000 0.941131 0.328344
0.000000 0.944976 0.104219
0.605524 0.942840 0.246494
0.873136 0.931395 0.374884
0.020356 0.092195 0.341741
0.107424 0.086946 0.346593
0.219852 0.070680 0.352911
0.348821 0.015473 0.360693
0.513939 0.000000 0.383673
0.684901 0.000000 0.391516
0.851255 0.000000 0.389044
0.970947 0.000000 0.383307
0.000000 0.125277 0.353307
0.080751 0.124544 0.354864
0.216464 0.120638 0.358068
0.351537 0.109651 0.364172
0.516899 0.057435 0.383673
0.682612 0.000000 0.386938
0.847837 0.000000 0.383551
0.969207 0.000000 0.381140
0.000000 0.244877 0.358434
0.000000 0.240177 0.360174
0.191653 0.229953 0.363439
0.355535 0.234165 0.370397
0.526513 0.234104 0.383520
0.697688 0.225620 0.388006
0.864012 0.227420 0.393744
0.973358 0.262913 0.398901
0.000000 0.390326 0.374395
0.000000 0.391760 0.375860
0.181064 0.395239 0.379797
0.363592 0.398413 0.383459
0.531487 0.400336 0.384558
0.696254 0.402289 0.388067
0.855528 0.406836 0.395026
0.968811 0.418708 0.408881
0.000000 0.552453 0.406928
0.000000 0.550591 0.405554
0.149264 0.548394 0.406012
0.335576 0.545922 0.413855
0.512657 0.557519 0.388190
0.708980 0.569635 0.411475
0.857603 0.573693 0.418463
0.964538 0.566735 0.430640
0.000000 0.687007 0.452613
0.000000 0.693385 0.457252
0.000000 0.687465 0.453376
0.278019 0.679866 0.443977
0.277409 0.666102 0.330694
0.658686 0.708583 0.390723
0.859556 0.709590 0.437751
0.960479 0.703975 0.465492
0.000000 0.824918 0.506828
0.000000 0.825162 0.506554
0.000000 0.823362 0.504479
0.184329 0.818204 0.485206
0.186130 0.810391 0.384497
0.438117 0.817685 0.315373
0.783841 0.836790 0.408698
0.952392 0.812833 0.495338
0.000000 0.943999 0.563409
0.000000 0.943755 0.563439
0.000000 0.941131 0.561303
0.087007 0.938994 0.538964
0.082033 0.939818 0.460639
0.089540 0.942473 0.325566
0.603357 0.941497 0.369421
0.878050 0.930694 0.485573
0.000000 0.070161 0.516533
0.045930 0.061097 0.519341
0.219913 0.000000 0.522850
0.362432 0.000000 0.529442
0.517388 0.000000 0.543359
0.682856 0.000000 0.556268
0.844724 0.000000 0.560052
0.963531 0.000000 0.546685
0.000000 0.116335 0.522393
0.000000 0.113863 0.526207
0.211063 0.102388 0.528496
0.359930 0.076112 0.531548
0.517967 0.000000 0.544518
0.684230 0.000000 0.556359
0.845304 0.000000 0.559442
0.962982 0.000000 0.546593
0.000000 0.234897 0.530877
0.000000 0.226291 0.532799
0.165347 0.222446 0.533501
0.352453 0.222507 0.540063
0.517662 0.219059 0.545129
0.680079 0.215915 0.550134
0.841978 0.209262 0.554284
0.958831 0.239841 0.543938
0.000000 0.393500 0.540612
0.000000 0.391028 0.541161
0.109743 0.383948 0.545068
0.340673 0.381659 0.549493
0.522972 0.390143 0.552697
0.687800 0.394385 0.556695
0.844633 0.391547 0.556176
0.958160 0.404211 0.549859
0.000000 0.549798 0.552819
0.000000 0.550774 0.553857
0.120272 0.551690 0.555047
0.348486 0.553368 0.557031
0.523705 0.551202 0.555566
0.691920 0.549432 0.554437
0.843870 0.551690 0.557824
0.953368 0.558740 0.565301
0.000000 0.702937 0.560632
0.000000 0.702602 0.560632
0.093141 0.697261 0.559808
0.321996 0.690913 0.562737
0.474556 0.679500 0.560204
0.663630 0.701686 0.544488
0.847959 0.711147 0.585229
0.949493 0.707149 0.599695
0.000000 0.837858 0.602411
0.000000 0.836210 0.601587
0.000000 0.832364 0.600488
0.273625 0.827146 0.599969
0.418769 0.817288 0.583764
0.401678 0.807523 0.451942
0.787198 0.831144 0.547143
0.941588 0.813657 0.612055
0.000000 0.942870 0.636103
0.000000 0.941955 0.635767
0.000000 0.939117 0.634974
0.257694 0.938994 0.638941
0.377813 0.933471 0.617334
0.355749 0.935119 0.513878
0.586511 0.935821 0.479011
0.881102 0.925841 0.598932
0.000000 0.000000 0.697597
0.000000 0.000000 0.698482
0.207889 0.000000 0.698085
0.368780 0.000000 0.705623
0.526055 0.000000 0.713405
0.684565 0.000000 0.718837
0.840146 0.000000 0.720058
0.955627 0.000000 0.699184
0.000000 0.098787 0.692744
0.000000 0.094301 0.692988
0.190890 0.072419 0.694545
0.360723 0.000000 0.701656
0.520134 0.000000 0.708309
0.680507 0.000000 0.714809
0.837766 0.000000 0.717372
0.954009 0.032471 0.697871
0.000000 0.219242 0.705989
0.000000 0.218448 0.706050
0.125063 0.215335 0.707790
0.346227 0.210605 0.711818
0.518456 0.205081 0.714504
0.683833 0.197421 0.718807
0.839109 0.210727 0.718105
0.952728 0.261021 0.698970
0.000000 0.389563 0.716640
0.000000 0.384985 0.715724
0.000000 0.374243 0.717800
0.328313 0.377173 0.726101
0.524804 0.385138 0.730617
0.696773 0.388983 0.732479
0.844877 0.400946 0.724666
0.952270 0.419806 0.704005
0.000000 0.548241 0.716670
0.000000 0.547417 0.717433
0.000000 0.545068 0.719387
0.310552 0.542412 0.722774
0.505058 0.536309 0.724575
0.689693 0.539940 0.726101
0.837400 0.549462 0.717342
0.943603 0.564996 0.707485
0.000000 0.703365 0.720577
0.000000 0.705837 0.723201
0.000000 0.707027 0.724453
0.326116 0.708034 0.725734
0.504631 0.707301 0.725643
0.691981 0.709346 0.728237
0.835264 0.714717 0.732601
0.935729 0.720668 0.738003
0.000000 0.856474 0.728115
0.000000 0.857450 0.729152
0.151461 0.856352 0.727962
0.354101 0.853025 0.727657
0.502892 0.843137 0.728115
0.646113 0.824094 0.726436
0.804074 0.831937 0.717189
0.930144 0.830289 0.755459
0.000000 0.948760 0.729061
0.000000 0.947723 0.729061
0.150362 0.944762 0.729671
0.326696 0.941497 0.731930
0.469764 0.934661 0.733303
0.591577 0.924010 0.726406
0.564111 0.928435 0.606622
0.888853 0.921263 0.730983
0.000000 0.000000 0.841184
0.000000 0.000000 0.843015
0.186221 0.000000 0.844144
0.358282 0.000000 0.846647
0.513298 0.000000 0.848112
0.666011 0.000000 0.849363
0.818296 0.000000 0.850736
0.940642 0.000000 0.830137
0.000000 0.065187 0.837552
0.000000 0.053803 0.839078
0.164279 0.000000 0.840391
0.348394 0.000000 0.841764
0.506188 0.000000 0.843046
0.659754 0.000000 0.843748
0.811856 0.000000 0.844602
0.935668 0.000000 0.825101
0.000000 0.205936 0.844419
0.000000 0.204562 0.844511
0.047944 0.199588 0.844205
0.326207 0.191806 0.844938
0.497871 0.181247 0.844816
0.658564 0.176303 0.845579
0.815488 0.177279 0.848051
0.938079 0.234257 0.828092
0.000000 0.363409 0.850034
0.000000 0.358648 0.849119
0.000000 0.350378 0.848539
0.296788 0.352789 0.849485
0.491035 0.355962 0.849332
0.661280 0.364843 0.850523
0.820798 0.371710 0.852934
0.938231 0.399664 0.829618
0.000000 0.525261 0.846799
0.000000 0.522881 0.846067
0.000000 0.516625 0.845487
0.264805 0.510155 0.846525
0.473610 0.508141 0.847135
0.653559 0.513909 0.847501
0.816983 0.522026 0.848936
0.932494 0.554894 0.829313
0.000000 0.679744 0.846891
0.000000 0.679469 0.847074
0.000000 0.678492 0.847532
0.287663 0.677150 0.848997
0.476661 0.673915 0.850095
0.668482 0.686671 0.850919
0.822477 0.699977 0.852079
0.924834 0.716976 0.839933
0.000000 0.830991 0.850797
0.000000 0.831724 0.851499
0.070558 0.832181 0.851865
0.331029 0.833158 0.852750
0.512871 0.832700 0.852171
0.686397 0.832609 0.851499
0.824460 0.833524 0.851591
0.918334 0.836545 0.853269
0.000000 0.947631 0.834867
0.000000 0.947234 0.834653
0.252323 0.947417 0.835935
0.409339 0.944732 0.835721
0.567468 0.938109 0.838499
0.690852 0.927794 0.846036
0.786587 0.913970 0.845090
0.898680 0.916686 0.844419
0.000000 0.000000 0.935882
0.000000 0.000000 0.936400
0.156649 0.000000 0.935912
0.333318 0.000000 0.936614
0.482979 0.000000 0.937041
0.627863 0.000000 0.937194
0.771542 0.000000 0.937560
0.911711 0.000000 0.936828
0.000000 0.000000 0.934661
0.000000 0.000000 0.935119
0.133364 0.000000 0.934966
0.325078 0.000000 0.935241
0.478370 0.000000 0.935668
0.625025 0.000000 0.935760
0.769253 0.000000 0.935729
0.909758 0.000000 0.935058
0.000000 0.187350 0.934539
0.000000 0.186282 0.934722
0.000000 0.180545 0.933928
0.301152 0.175753 0.935637
0.467659 0.167758 0.935424
0.620081 0.164492 0.934600
0.767239 0.177676 0.934447
0.908873 0.198276 0.933989
0.000000 0.324071 0.935271
0.000000 0.324895 0.935607
0.000000 0.324498 0.935027
0.266514 0.326909 0.935302
0.456001 0.331182 0.935180
0.616999 0.338628 0.934508
0.767300 0.352178 0.934081
0.909300 0.365393 0.933806
0.000000 0.486427 0.933257
0.000000 0.485573 0.933715
0.000000 0.480537 0.933501
0.226841 0.473304 0.933684
0.441444 0.477333 0.932891
0.611017 0.484504 0.932036
0.766079 0.499611 0.931762
0.908904 0.522393 0.932280
0.000000 0.636378 0.931151
0.000000 0.635248 0.930785
0.000000 0.631922 0.930053
0.236728 0.626978 0.929808
0.438117 0.626093 0.929778
0.626856 0.646204 0.929931
0.782498 0.672938 0.930602
0.910887 0.699519 0.931518
0.000000 0.780941 0.930449
0.000000 0.780606 0.930236
0.000000 0.779599 0.929717
0.305486 0.779019 0.929625
0.487037 0.782101 0.929198
0.662623 0.794888 0.928252
0.808713 0.816800 0.928222
0.909606 0.827420 0.927764
0.000000 0.918456 0.930480
0.088380 0.918242 0.930297
0.248112 0.918029 0.930022
0.403021 0.918090 0.929870
0.562707 0.917693 0.929290
0.707332 0.917021 0.928435
0.826932 0.916442 0.927764
0.911986 0.916136 0.927337
