cubelut/Hasselblad_Ultra_LUT.cube
TITLE "Photo Curves LUT"
LUT_3D_SIZE 5
0.0 0.0 0.0
0.08235294117647059 0.01568627450980392 0.011764705882352941
0.3176470588235294 0.058823529411764705 0.047058823529411764
0.592156862745098 0.06666666666666667 0.054901960784313725
0.8470588235294118 0.06274509803921569 0.050980392156862744
0.047058823529411764 0.16470588235294117 0.043137254901960784
0.11764705882352941 0.11372549019607843 0.0392156862745098
0.32941176470588235 0.13333333333333333 0.058823529411764705
0.596078431372549 0.13725490196078433 0.050980392156862744
0.8431372549019608 0.13725490196078433 0.0392156862745098
0.050980392156862744 0.4588235294117647 0.047058823529411764
0.19215686274509805 0.4117647058823529 0.047058823529411764
0.34901960784313724 0.32941176470588235 0.050980392156862744
0.6 0.3137254901960784 0.03529411764705882
0.8392156862745098 0.3058823529411765 0.023529411764705882
0.023529411764705882 0.7333333333333333 0.0196078431372549
0.18823529411764706 0.6862745098039216 0.01568627450980392
0.42745098039215684 0.6313725490196078 0.00784313725490196
0.6078431372549019 0.5411764705882353 0.00784313725490196
0.8392156862745098 0.5215686274509804 0.0
0.0 0.9803921568627451 0.0
0.19215686274509805 0.9411764705882353 0.0
0.49019607843137253 0.8941176470588236 0.0
0.7529411764705882 0.8509803921568627 0.00392156862745098
0.8588235294117647 0.7529411764705882 0.0
0.00784313725490196 0.0196078431372549 0.13333333333333333
0.09411764705882353 0.0196078431372549 0.08627450980392157
0.3215686274509804 0.050980392156862744 0.10588235294117647
0.592156862745098 0.054901960784313725 0.10196078431372549
0.8470588235294118 0.050980392156862744 0.09019607843137255
0.050980392156862744 0.19215686274509805 0.16470588235294117
0.16470588235294117 0.17647058823529413 0.17647058823529413
0.3843137254901961 0.16862745098039217 0.1568627450980392
0.6549019607843137 0.1607843137254902 0.13725490196078433
0.8823529411764706 0.14901960784313725 0.12549019607843137
0.047058823529411764 0.49019607843137253 0.09019607843137255
0.1607843137254902 0.4549019607843137 0.13725490196078433
0.3843137254901961 0.3803921568627451 0.1450980392156863
0.6431372549019608 0.34901960784313724 0.11764705882352941
0.8705882352941177 0.3411764705882353 0.10588235294117647
0.01568627450980392 0.7529411764705882 0.03137254901960784
0.13333333333333333 0.7254901960784313 0.08235294117647059
0.44313725490196076 0.6705882352941176 0.11372549019607843
0.6549019607843137 0.592156862745098 0.10588235294117647
0.8666666666666667 0.5725490196078431 0.09411764705882353
0.0 0.9882352941176471 0.0
0.12941176470588237 0.984313725490196 0.050980392156862744
0.47843137254901963 0.9372549019607843 0.09803921568627451
0.7686274509803922 0.8941176470588236 0.11764705882352941
0.8980392156862745 0.803921568627451 0.10980392156862745
0.03529411764705882 0.054901960784313725 0.48627450980392156
0.10980392156862745 0.043137254901960784 0.43137254901960786
0.35294117647058826 0.054901960784313725 0.32941176470588235
0.6078431372549019 0.054901960784313725 0.29411764705882354
0.8549019607843137 0.047058823529411764 0.26666666666666666
0.054901960784313725 0.24705882352941178 0.5372549019607843
0.17254901960784313 0.21176470588235294 0.5019607843137255
0.396078431372549 0.1568627450980392 0.403921568627451
0.6627450980392157 0.1411764705882353 0.34509803921568627
0.8862745098039215 0.12549019607843137 0.3058823529411765
0.0392156862745098 0.49019607843137253 0.44313725490196076
0.12941176470588237 0.4627450980392157 0.4588235294117647
0.41568627450980394 0.43137254901960786 0.4588235294117647
0.6941176470588235 0.39215686274509803 0.403921568627451
0.9019607843137255 0.3764705882352941 0.37254901960784315
0.00392156862745098 0.7647058823529411 0.2980392156862745
0.06666666666666667 0.7411764705882353 0.3215686274509804
0.403921568627451 0.7137254901960784 0.4
0.6980392156862745 0.6549019607843137 0.4117647058823529
0.9058823529411765 0.6274509803921569 0.3803921568627451
0.0 0.9882352941176471 0.1803921568627451
0.03137254901960784 0.984313725490196 0.20784313725490197
0.41568627450980394 0.984313725490196 0.3607843137254902
0.7803921568627451 0.9411764705882353 0.4196078431372549
0.9333333333333333 0.8627450980392157 0.403921568627451
0.050980392156862744 0.07450980392156863 0.8235294117647058
0.09803921568627451 0.054901960784313725 0.792156862745098
0.4 0.054901960784313725 0.7372549019607844
0.6470588235294118 0.047058823529411764 0.6039215686274509
0.8627450980392157 0.043137254901960784 0.5411764705882353
0.050980392156862744 0.27058823529411763 0.8431372549019608
0.16470588235294117 0.23529411764705882 0.8196078431372549
0.37254901960784315 0.16470588235294117 0.7764705882352941
0.6862745098039216 0.13725490196078433 0.6627450980392157
0.8941176470588236 0.11764705882352941 0.6
0.0196078431372549 0.5607843137254902 0.8274509803921568
0.13725490196078433 0.5215686274509804 0.8117647058823529
0.40784313725490196 0.4627450980392157 0.7725490196078432
0.7058823529411765 0.3843137254901961 0.7098039215686275
0.9098039215686274 0.3568627450980392 0.6470588235294118
0.00392156862745098 0.7647058823529411 0.7333333333333333
0.08235294117647059 0.7490196078431373 0.7490196078431373
0.3764705882352941 0.7294117647058823 0.7529411764705882
0.7529411764705882 0.7137254901960784 0.7686274509803922
0.9529411764705882 0.6862745098039216 0.7333333333333333
0.0 0.9882352941176471 0.6392156862745098
0.03529411764705882 0.9882352941176471 0.6588235294117647
0.30980392156862746 0.9882352941176471 0.6666666666666666
0.7607843137254902 0.984313725490196 0.7372549019607844
0.9686274509803922 0.9215686274509803 0.7450980392156863
0.054901960784313725 0.09019607843137255 1.0
0.08627450980392157 0.054901960784313725 1.0
0.32941176470588235 0.054901960784313725 0.9725490196078431
0.7333333333333333 0.0392156862745098 0.9176470588235294
0.8901960784313725 0.03137254901960784 0.8156862745098039
0.047058823529411764 0.3058823529411765 1.0
0.1607843137254902 0.2627450980392157 1.0
0.3215686274509804 0.1607843137254902 1.0
0.7176470588235294 0.13725490196078433 0.9411764705882353
0.9137254901960784 0.11764705882352941 0.8470588235294118
0.01568627450980392 0.5882352941176471 1.0
0.12941176470588237 0.5490196078431373 0.996078431372549
0.40784313725490196 0.4980392156862745 0.9921568627450981
0.6784313725490196 0.39215686274509803 0.9529411764705882
0.9254901960784314 0.36470588235294116 0.8745098039215686
0.0 0.8509803921568627 0.9882352941176471
0.10196078431372549 0.8156862745098039 0.9882352941176471
0.4117647058823529 0.7843137254901961 0.9882352941176471
0.7568627450980392 0.7490196078431373 0.9882352941176471
0.9686274509803922 0.6862745098039216 0.9294117647058824
0.0 0.9882352941176471 0.9372549019607843
0.06274509803921569 0.9882352941176471 0.9529411764705882
0.3568627450980392 0.9921568627450981 0.9686274509803922
0.7411764705882353 0.9921568627450981 0.9803921568627451
1.0 0.9921568627450981 0.9882352941176471
