cubelut/Hasselblad_Ultra_LUT.cube
TITLE "Photo Curves LUT"
LUT_3D_SIZE 33
0.0 0.0 0.0
0.00392156862745098 0.0 0.0
0.011764705882352941 0.0 0.0
0.01568627450980392 0.00392156862745098 0.0
0.023529411764705882 0.0 0.0
0.03529411764705882 0.00784313725490196 0.00392156862745098
0.043137254901960784 0.00784313725490196 0.0
0.058823529411764705 0.011764705882352941 0.00784313725490196
0.08235294117647059 0.01568627450980392 0.011764705882352941
0.10588235294117647 0.0196078431372549 0.01568627450980392
0.12941176470588237 0.023529411764705882 0.0196078431372549
0.1607843137254902 0.03529411764705882 0.027450980392156862
0.18823529411764706 0.0392156862745098 0.03137254901960784
0.21568627450980393 0.043137254901960784 0.03529411764705882
0.24705882352941178 0.047058823529411764 0.0392156862745098
0.2784313725490196 0.050980392156862744 0.043137254901960784
0.3176470588235294 0.058823529411764705 0.047058823529411764
0.34509803921568627 0.058823529411764705 0.050980392156862744
0.3764705882352941 0.058823529411764705 0.050980392156862744
0.403921568627451 0.06274509803921569 0.050980392156862744
0.44313725490196076 0.06274509803921569 0.054901960784313725
0.4823529411764706 0.06666666666666667 0.054901960784313725
0.5137254901960784 0.06666666666666667 0.054901960784313725
0.5490196078431373 0.06666666666666667 0.054901960784313725
0.592156862745098 0.06666666666666667 0.054901960784313725
0.6235294117647059 0.06666666666666667 0.050980392156862744
0.6588235294117647 0.06666666666666667 0.054901960784313725
0.6980392156862745 0.06666666666666667 0.054901960784313725
0.7294117647058823 0.06666666666666667 0.050980392156862744
0.7607843137254902 0.06274509803921569 0.050980392156862744
0.792156862745098 0.06274509803921569 0.050980392156862744
0.8196078431372549 0.058823529411764705 0.047058823529411764
0.8470588235294118 0.06274509803921569 0.050980392156862744
0.0 0.00784313725490196 0.0
0.00392156862745098 0.00784313725490196 0.0
0.011764705882352941 0.00784313725490196 0.0
0.0196078431372549 0.011764705882352941 0.00392156862745098
0.027450980392156862 0.01568627450980392 0.00392156862745098
0.03137254901960784 0.011764705882352941 0.0
0.047058823529411764 0.01568627450980392 0.00784313725490196
0.06666666666666667 0.023529411764705882 0.011764705882352941
0.0784313725490196 0.0196078431372549 0.011764705882352941
0.10588235294117647 0.027450980392156862 0.01568627450980392
0.13333333333333333 0.03529411764705882 0.023529411764705882
0.16470588235294117 0.043137254901960784 0.03137254901960784
0.19215686274509805 0.047058823529411764 0.03529411764705882
0.2235294117647059 0.050980392156862744 0.0392156862745098
0.25098039215686274 0.054901960784313725 0.0392156862745098
0.2823529411764706 0.058823529411764705 0.047058823529411764
0.3176470588235294 0.06274509803921569 0.047058823529411764
0.34509803921568627 0.06274509803921569 0.050980392156862744
0.3764705882352941 0.06666666666666667 0.050980392156862744
0.40784313725490196 0.06666666666666667 0.050980392156862744
0.4470588235294118 0.07058823529411765 0.054901960784313725
0.4823529411764706 0.07058823529411765 0.054901960784313725
0.5137254901960784 0.07058823529411765 0.058823529411764705
0.5490196078431373 0.07058823529411765 0.054901960784313725
0.592156862745098 0.07058823529411765 0.058823529411764705
0.6235294117647059 0.07058823529411765 0.054901960784313725
0.6588235294117647 0.06666666666666667 0.054901960784313725
0.6941176470588235 0.07058823529411765 0.050980392156862744
0.7294117647058823 0.06666666666666667 0.050980392156862744
0.7607843137254902 0.07058823529411765 0.050980392156862744
0.788235294117647 0.06666666666666667 0.047058823529411764
0.8196078431372549 0.06666666666666667 0.050980392156862744
0.8470588235294118 0.06274509803921569 0.047058823529411764
0.00392156862745098 0.0196078431372549 0.00392156862745098
0.00784313725490196 0.0196078431372549 0.0
0.01568627450980392 0.01568627450980392 0.0
0.0196078431372549 0.01568627450980392 0.00392156862745098
0.03137254901960784 0.023529411764705882 0.00784313725490196
0.0392156862745098 0.023529411764705882 0.00784313725490196
0.047058823529411764 0.023529411764705882 0.00784313725490196
0.06274509803921569 0.027450980392156862 0.00784313725490196
0.08235294117647059 0.027450980392156862 0.011764705882352941
0.10980392156862745 0.03529411764705882 0.0196078431372549
0.1411764705882353 0.043137254901960784 0.027450980392156862
0.16470588235294117 0.043137254901960784 0.027450980392156862
0.19607843137254902 0.050980392156862744 0.03529411764705882
0.22745098039215686 0.058823529411764705 0.0392156862745098
0.2549019607843137 0.058823529411764705 0.0392156862745098
0.2823529411764706 0.06666666666666667 0.047058823529411764
0.3176470588235294 0.07058823529411765 0.050980392156862744
0.34509803921568627 0.07058823529411765 0.050980392156862744
0.3803921568627451 0.07450980392156863 0.054901960784313725
0.4117647058823529 0.07450980392156863 0.054901960784313725
0.4470588235294118 0.07450980392156863 0.054901960784313725
0.4823529411764706 0.07450980392156863 0.054901960784313725
0.5176470588235295 0.07450980392156863 0.054901960784313725
0.5490196078431373 0.0784313725490196 0.054901960784313725
0.592156862745098 0.0784313725490196 0.050980392156862744
0.6235294117647059 0.07450980392156863 0.054901960784313725
0.6588235294117647 0.0784313725490196 0.054901960784313725
0.6941176470588235 0.07450980392156863 0.050980392156862744
0.7294117647058823 0.07450980392156863 0.050980392156862744
0.7607843137254902 0.07450980392156863 0.050980392156862744
0.792156862745098 0.07450980392156863 0.050980392156862744
0.8235294117647058 0.07058823529411765 0.047058823529411764
0.8470588235294118 0.07058823529411765 0.047058823529411764
0.00392156862745098 0.027450980392156862 0.0
0.01568627450980392 0.027450980392156862 0.00784313725490196
0.023529411764705882 0.03137254901960784 0.00784313725490196
0.023529411764705882 0.023529411764705882 0.00784313725490196
0.03137254901960784 0.027450980392156862 0.00784313725490196
0.0392156862745098 0.027450980392156862 0.00392156862745098
0.050980392156862744 0.03137254901960784 0.011764705882352941
0.07058823529411765 0.0392156862745098 0.01568627450980392
0.09019607843137255 0.043137254901960784 0.01568627450980392
0.11372549019607843 0.043137254901960784 0.023529411764705882
0.1450980392156863 0.050980392156862744 0.03137254901960784
0.16862745098039217 0.054901960784313725 0.03137254901960784
0.2 0.058823529411764705 0.0392156862745098
0.22745098039215686 0.06666666666666667 0.043137254901960784
0.25882352941176473 0.07058823529411765 0.043137254901960784
0.2901960784313726 0.07058823529411765 0.047058823529411764
0.3176470588235294 0.0784313725490196 0.050980392156862744
0.34509803921568627 0.07450980392156863 0.050980392156862744
0.3803921568627451 0.0784313725490196 0.050980392156862744
0.41568627450980394 0.0784313725490196 0.054901960784313725
0.4470588235294118 0.0784313725490196 0.054901960784313725
0.4823529411764706 0.0784313725490196 0.058823529411764705
0.5137254901960784 0.0784313725490196 0.054901960784313725
0.5529411764705883 0.08235294117647059 0.054901960784313725
0.592156862745098 0.0784313725490196 0.054901960784313725
0.6196078431372549 0.0784313725490196 0.050980392156862744
0.6627450980392157 0.0784313725490196 0.054901960784313725
0.6941176470588235 0.0784313725490196 0.050980392156862744
0.7294117647058823 0.0784313725490196 0.050980392156862744
0.7607843137254902 0.0784313725490196 0.050980392156862744
0.788235294117647 0.07450980392156863 0.047058823529411764
0.8235294117647058 0.0784313725490196 0.047058823529411764
0.8470588235294118 0.0784313725490196 0.050980392156862744
0.00784313725490196 0.043137254901960784 0.00784313725490196
0.0196078431372549 0.043137254901960784 0.011764705882352941
0.027450980392156862 0.043137254901960784 0.011764705882352941
0.03137254901960784 0.043137254901960784 0.011764705882352941
0.03529411764705882 0.03529411764705882 0.011764705882352941
0.043137254901960784 0.03529411764705882 0.011764705882352941
0.050980392156862744 0.03529411764705882 0.011764705882352941
0.07450980392156863 0.043137254901960784 0.01568627450980392
0.09411764705882353 0.047058823529411764 0.023529411764705882
0.11764705882352941 0.054901960784313725 0.027450980392156862
0.1411764705882353 0.054901960784313725 0.027450980392156862
0.16862745098039217 0.058823529411764705 0.03137254901960784
0.20392156862745098 0.06666666666666667 0.0392156862745098
0.23137254901960785 0.07058823529411765 0.0392156862745098
0.2627450980392157 0.07450980392156863 0.047058823529411764
0.2901960784313726 0.0784313725490196 0.050980392156862744
0.3215686274509804 0.08235294117647059 0.050980392156862744
0.34901960784313724 0.08627450980392157 0.054901960784313725
0.38823529411764707 0.09019607843137255 0.058823529411764705
0.4196078431372549 0.09019607843137255 0.058823529411764705
0.4470588235294118 0.08627450980392157 0.054901960784313725
0.4823529411764706 0.08627450980392157 0.054901960784313725
0.5176470588235295 0.09019607843137255 0.054901960784313725
0.5529411764705883 0.09019607843137255 0.058823529411764705
0.592156862745098 0.09019607843137255 0.058823529411764705
0.6235294117647059 0.08627450980392157 0.054901960784313725
0.6627450980392157 0.08627450980392157 0.050980392156862744
0.6941176470588235 0.08627450980392157 0.050980392156862744
0.7294117647058823 0.08627450980392157 0.050980392156862744
0.7607843137254902 0.08235294117647059 0.047058823529411764
0.792156862745098 0.08235294117647059 0.050980392156862744
0.8235294117647058 0.08235294117647059 0.047058823529411764
0.8431372549019608 0.08235294117647059 0.047058823529411764
0.01568627450980392 0.06274509803921569 0.011764705882352941
0.023529411764705882 0.06274509803921569 0.01568627450980392
0.03137254901960784 0.058823529411764705 0.01568627450980392
0.043137254901960784 0.058823529411764705 0.01568627450980392
0.047058823529411764 0.054901960784313725 0.0196078431372549
0.050980392156862744 0.050980392156862744 0.01568627450980392
0.058823529411764705 0.050980392156862744 0.01568627450980392
0.0784313725490196 0.054901960784313725 0.023529411764705882
0.09803921568627451 0.058823529411764705 0.023529411764705882
0.12156862745098039 0.06274509803921569 0.03137254901960784
0.14901960784313725 0.06666666666666667 0.03529411764705882
0.17647058823529413 0.07058823529411765 0.0392156862745098
0.20392156862745098 0.0784313725490196 0.0392156862745098
0.23529411764705882 0.08235294117647059 0.043137254901960784
0.2627450980392157 0.08627450980392157 0.047058823529411764
0.29411764705882354 0.09019607843137255 0.050980392156862744
0.3176470588235294 0.08627450980392157 0.050980392156862744
0.35294117647058826 0.09019607843137255 0.050980392156862744
0.38823529411764707 0.09411764705882353 0.054901960784313725
0.4196078431372549 0.09411764705882353 0.054901960784313725
0.4470588235294118 0.09803921568627451 0.054901960784313725
0.4823529411764706 0.09411764705882353 0.054901960784313725
0.5176470588235295 0.09803921568627451 0.054901960784313725
0.5568627450980392 0.09803921568627451 0.054901960784313725
0.592156862745098 0.09803921568627451 0.054901960784313725
0.6274509803921569 0.09411764705882353 0.050980392156862744
0.6588235294117647 0.09411764705882353 0.050980392156862744
0.6941176470588235 0.09803921568627451 0.050980392156862744
0.7333333333333333 0.09411764705882353 0.050980392156862744
0.7607843137254902 0.09411764705882353 0.050980392156862744
0.792156862745098 0.09411764705882353 0.047058823529411764
0.8235294117647058 0.09019607843137255 0.047058823529411764
0.8470588235294118 0.09019607843137255 0.047058823529411764
0.023529411764705882 0.09019607843137255 0.023529411764705882
0.03529411764705882 0.09019607843137255 0.027450980392156862
0.043137254901960784 0.08627450980392157 0.027450980392156862
0.050980392156862744 0.08627450980392157 0.023529411764705882
0.058823529411764705 0.08235294117647059 0.023529411764705882
0.06666666666666667 0.0784313725490196 0.027450980392156862
0.07058823529411765 0.06666666666666667 0.023529411764705882
0.08627450980392157 0.07058823529411765 0.027450980392156862
0.10196078431372549 0.07058823529411765 0.03137254901960784
0.12549019607843137 0.07450980392156863 0.03137254901960784
0.15294117647058825 0.0784313725490196 0.03529411764705882
0.1843137254901961 0.08627450980392157 0.043137254901960784
0.21176470588235294 0.09019607843137255 0.047058823529411764
0.23529411764705882 0.09411764705882353 0.047058823529411764
0.27058823529411763 0.09803921568627451 0.050980392156862744
0.29411764705882354 0.09803921568627451 0.050980392156862744
0.3215686274509804 0.10196078431372549 0.054901960784313725
0.3568627450980392 0.10196078431372549 0.054901960784313725
0.38823529411764707 0.10980392156862745 0.054901960784313725
0.4196078431372549 0.10588235294117647 0.054901960784313725
0.4470588235294118 0.10588235294117647 0.054901960784313725
0.48627450980392156 0.10980392156862745 0.054901960784313725
0.5215686274509804 0.10980392156862745 0.054901960784313725
0.5568627450980392 0.10980392156862745 0.054901960784313725
0.592156862745098 0.10980392156862745 0.054901960784313725
0.6235294117647059 0.10588235294117647 0.054901960784313725
0.6627450980392157 0.10980392156862745 0.050980392156862744
0.6980392156862745 0.10980392156862745 0.054901960784313725
0.7333333333333333 0.10980392156862745 0.050980392156862744
0.7607843137254902 0.10588235294117647 0.047058823529411764
0.792156862745098 0.10588235294117647 0.047058823529411764
0.8235294117647058 0.10588235294117647 0.047058823529411764
0.8431372549019608 0.10588235294117647 0.043137254901960784
0.03529411764705882 0.12549019607843137 0.03529411764705882
0.047058823529411764 0.12156862745098039 0.03137254901960784
0.047058823529411764 0.11764705882352941 0.03137254901960784
0.058823529411764705 0.11372549019607843 0.03529411764705882
0.06666666666666667 0.10588235294117647 0.03137254901960784
0.07450980392156863 0.10588235294117647 0.03137254901960784
0.09019607843137255 0.10588235294117647 0.03529411764705882
0.09411764705882353 0.09411764705882353 0.03137254901960784
0.11372549019607843 0.09411764705882353 0.03529411764705882
0.13725490196078433 0.09803921568627451 0.0392156862745098
0.1607843137254902 0.09803921568627451 0.0392156862745098
0.18823529411764706 0.10588235294117647 0.043137254901960784
0.21568627450980393 0.10588235294117647 0.047058823529411764
0.24705882352941178 0.11372549019607843 0.050980392156862744
0.26666666666666666 0.11372549019607843 0.050980392156862744
0.2980392156862745 0.11372549019607843 0.054901960784313725
0.32941176470588235 0.11764705882352941 0.054901960784313725
0.3568627450980392 0.12156862745098039 0.054901960784313725
0.38823529411764707 0.11764705882352941 0.054901960784313725
0.4196078431372549 0.12156862745098039 0.054901960784313725
0.45098039215686275 0.12156862745098039 0.054901960784313725
0.49019607843137253 0.12156862745098039 0.058823529411764705
0.5215686274509804 0.12156862745098039 0.054901960784313725
0.5529411764705883 0.12156862745098039 0.054901960784313725
0.5882352941176471 0.12156862745098039 0.054901960784313725
0.6313725490196078 0.12549019607843137 0.054901960784313725
0.6588235294117647 0.12156862745098039 0.050980392156862744
0.6980392156862745 0.12156862745098039 0.050980392156862744
0.7333333333333333 0.12156862745098039 0.050980392156862744
0.7607843137254902 0.12156862745098039 0.050980392156862744
0.792156862745098 0.12156862745098039 0.047058823529411764
0.8196078431372549 0.11764705882352941 0.043137254901960784
0.8470588235294118 0.12156862745098039 0.047058823529411764
0.047058823529411764 0.16470588235294117 0.043137254901960784
0.054901960784313725 0.1568627450980392 0.043137254901960784
0.058823529411764705 0.1568627450980392 0.0392156862745098
0.07058823529411765 0.15294117647058825 0.0392156862745098
0.0784313725490196 0.1450980392156863 0.043137254901960784
0.09411764705882353 0.1411764705882353 0.0392156862745098
0.10196078431372549 0.13725490196078433 0.0392156862745098
0.12549019607843137 0.13725490196078433 0.043137254901960784
0.11764705882352941 0.11372549019607843 0.0392156862745098
0.14901960784313725 0.11764705882352941 0.043137254901960784
0.17254901960784313 0.12156862745098039 0.047058823529411764
0.19607843137254902 0.12549019607843137 0.050980392156862744
0.2235294117647059 0.12941176470588237 0.050980392156862744
0.24313725490196078 0.12549019607843137 0.050980392156862744
0.27450980392156865 0.12549019607843137 0.054901960784313725
0.3058823529411765 0.12941176470588237 0.058823529411764705
0.32941176470588235 0.13333333333333333 0.058823529411764705
0.3568627450980392 0.13333333333333333 0.054901960784313725
0.39215686274509803 0.13725490196078433 0.054901960784313725
0.4235294117647059 0.13725490196078433 0.058823529411764705
0.4588235294117647 0.1411764705882353 0.058823529411764705
0.48627450980392156 0.13725490196078433 0.058823529411764705
0.5215686274509804 0.13725490196078433 0.054901960784313725
0.5529411764705883 0.1411764705882353 0.054901960784313725
0.596078431372549 0.13725490196078433 0.050980392156862744
0.6313725490196078 0.13725490196078433 0.050980392156862744
0.6627450980392157 0.13725490196078433 0.050980392156862744
0.6980392156862745 0.1411764705882353 0.047058823529411764
0.7294117647058823 0.13725490196078433 0.047058823529411764
0.7568627450980392 0.13725490196078433 0.047058823529411764
0.788235294117647 0.13725490196078433 0.043137254901960784
0.8196078431372549 0.13725490196078433 0.043137254901960784
0.8431372549019608 0.13725490196078433 0.0392156862745098
0.054901960784313725 0.20784313725490197 0.050980392156862744
0.06274509803921569 0.2 0.050980392156862744
0.06666666666666667 0.19607843137254902 0.050980392156862744
0.0784313725490196 0.19215686274509805 0.050980392156862744
0.09019607843137255 0.1843137254901961 0.050980392156862744
0.10588235294117647 0.1803921568627451 0.050980392156862744
0.12156862745098039 0.1803921568627451 0.050980392156862744
0.13333333333333333 0.17254901960784313 0.050980392156862744
0.15294117647058825 0.16470588235294117 0.050980392156862744
0.15294117647058825 0.14901960784313725 0.050980392156862744
0.17647058823529413 0.1450980392156863 0.050980392156862744
0.2 0.1450980392156863 0.050980392156862744
0.22745098039215686 0.14901960784313725 0.054901960784313725
0.25098039215686274 0.1450980392156863 0.054901960784313725
0.2823529411764706 0.15294117647058825 0.058823529411764705
0.3058823529411765 0.14901960784313725 0.054901960784313725
0.3333333333333333 0.1568627450980392 0.058823529411764705
0.3607843137254902 0.1568627450980392 0.058823529411764705
0.39215686274509803 0.1568627450980392 0.058823529411764705
0.4235294117647059 0.1568627450980392 0.058823529411764705
0.4588235294117647 0.1568627450980392 0.058823529411764705
0.48627450980392156 0.15294117647058825 0.054901960784313725
0.5254901960784314 0.1568627450980392 0.054901960784313725
0.5568627450980392 0.1568627450980392 0.054901960784313725
0.6 0.1607843137254902 0.054901960784313725
0.6313725490196078 0.1607843137254902 0.050980392156862744
0.6666666666666666 0.1568627450980392 0.047058823529411764
0.6980392156862745 0.1568627450980392 0.047058823529411764
0.7294117647058823 0.1568627450980392 0.047058823529411764
0.7607843137254902 0.1568627450980392 0.047058823529411764
0.7843137254901961 0.1568627450980392 0.043137254901960784
0.8196078431372549 0.1568627450980392 0.043137254901960784
0.8392156862745098 0.15294117647058825 0.0392156862745098
0.054901960784313725 0.24313725490196078 0.050980392156862744
0.06274509803921569 0.23529411764705882 0.054901960784313725
0.07058823529411765 0.23529411764705882 0.050980392156862744
0.08235294117647059 0.2235294117647059 0.054901960784313725
0.09019607843137255 0.2235294117647059 0.050980392156862744
0.10980392156862745 0.21568627450980393 0.050980392156862744
0.12549019607843137 0.21176470588235294 0.054901960784313725
0.14901960784313725 0.21176470588235294 0.058823529411764705
0.16470588235294117 0.2 0.058823529411764705
0.1803921568627451 0.19607843137254902 0.054901960784313725
0.1803921568627451 0.17254901960784313 0.050980392156862744
0.20392156862745098 0.17254901960784313 0.054901960784313725
0.22745098039215686 0.16862745098039217 0.054901960784313725
0.2549019607843137 0.17254901960784313 0.058823529411764705
0.2823529411764706 0.17254901960784313 0.058823529411764705
0.3137254901960784 0.17254901960784313 0.058823529411764705
0.3411764705882353 0.17254901960784313 0.058823529411764705
0.36470588235294116 0.17647058823529413 0.058823529411764705
0.396078431372549 0.17647058823529413 0.054901960784313725
0.4235294117647059 0.17647058823529413 0.054901960784313725
0.4627450980392157 0.17647058823529413 0.054901960784313725
0.49019607843137253 0.17647058823529413 0.054901960784313725
0.5254901960784314 0.17647058823529413 0.054901960784313725
0.5607843137254902 0.1803921568627451 0.050980392156862744
0.6 0.1803921568627451 0.054901960784313725
0.6313725490196078 0.17647058823529413 0.050980392156862744
0.6666666666666666 0.17647058823529413 0.047058823529411764
0.6980392156862745 0.17647058823529413 0.047058823529411764
0.7294117647058823 0.17254901960784313 0.043137254901960784
0.7607843137254902 0.17647058823529413 0.043137254901960784
0.792156862745098 0.17647058823529413 0.043137254901960784
0.8156862745098039 0.17254901960784313 0.03529411764705882
0.8431372549019608 0.17647058823529413 0.0392156862745098
0.058823529411764705 0.2784313725490196 0.054901960784313725
0.06666666666666667 0.27450980392156865 0.054901960784313725
0.07450980392156863 0.27058823529411763 0.054901960784313725
0.08627450980392157 0.2627450980392157 0.054901960784313725
0.09803921568627451 0.25882352941176473 0.054901960784313725
0.11764705882352941 0.25098039215686274 0.054901960784313725
0.12941176470588237 0.24705882352941178 0.054901960784313725
0.14901960784313725 0.23921568627450981 0.054901960784313725
0.17254901960784313 0.23921568627450981 0.058823529411764705
0.19215686274509805 0.23137254901960785 0.058823529411764705
0.21176470588235294 0.22745098039215686 0.058823529411764705
0.20784313725490197 0.2 0.054901960784313725
0.23529411764705882 0.2 0.058823529411764705
0.25882352941176473 0.2 0.058823529411764705
0.28627450980392155 0.2 0.058823529411764705
0.3137254901960784 0.2 0.058823529411764705
0.33725490196078434 0.2 0.058823529411764705
0.3686274509803922 0.2 0.054901960784313725
0.396078431372549 0.2 0.054901960784313725
0.42745098039215684 0.2 0.054901960784313725
0.4588235294117647 0.19607843137254902 0.050980392156862744
0.49411764705882355 0.19607843137254902 0.050980392156862744
0.5294117647058824 0.2 0.050980392156862744
0.5647058823529412 0.2 0.050980392156862744
0.596078431372549 0.2 0.050980392156862744
0.6313725490196078 0.2 0.050980392156862744
0.6627450980392157 0.2 0.043137254901960784
0.6980392156862745 0.2 0.043137254901960784
0.7294117647058823 0.19607843137254902 0.0392156862745098
0.7568627450980392 0.19607843137254902 0.0392156862745098
0.788235294117647 0.19607843137254902 0.0392156862745098
0.8156862745098039 0.19607843137254902 0.03529411764705882
0.8431372549019608 0.19607843137254902 0.03137254901960784
0.058823529411764705 0.3137254901960784 0.054901960784313725
0.06666666666666667 0.30980392156862746 0.054901960784313725
0.07450980392156863 0.30196078431372547 0.054901960784313725
0.08627450980392157 0.2980392156862745 0.054901960784313725
0.09803921568627451 0.29411764705882354 0.054901960784313725
0.11764705882352941 0.28627450980392155 0.054901960784313725
0.13333333333333333 0.2823529411764706 0.054901960784313725
0.1568627450980392 0.2784313725490196 0.054901960784313725
0.1803921568627451 0.27058823529411763 0.058823529411764705
0.2 0.26666666666666666 0.054901960784313725
0.2196078431372549 0.2627450980392157 0.058823529411764705
0.24313725490196078 0.25882352941176473 0.058823529411764705
