cubelut/Hasselblad_Vintage_Original_LUT.cube
TITLE "Photo Curves LUT"
LUT_3D_SIZE 33
0.11764705882352941 0.11764705882352941 0.10588235294117647
0.11764705882352941 0.11764705882352941 0.10196078431372549
0.12549019607843137 0.12156862745098039 0.10980392156862745
0.12941176470588237 0.12156862745098039 0.10980392156862745
0.13333333333333333 0.12549019607843137 0.11372549019607843
0.1411764705882353 0.12941176470588237 0.10980392156862745
0.15294117647058825 0.1411764705882353 0.11372549019607843
0.16862745098039217 0.1411764705882353 0.11764705882352941
0.17647058823529413 0.14901960784313725 0.12549019607843137
0.19607843137254902 0.1607843137254902 0.13725490196078433
0.2196078431372549 0.16862745098039217 0.13725490196078433
0.23529411764705882 0.17647058823529413 0.14901960784313725
0.24705882352941178 0.18823529411764706 0.15294117647058825
0.2627450980392157 0.2 0.1607843137254902
0.2823529411764706 0.20784313725490197 0.17254901960784313
0.3058823529411765 0.21176470588235294 0.17254901960784313
0.32941176470588235 0.2235294117647059 0.17647058823529413
0.3607843137254902 0.23137254901960785 0.1803921568627451
0.40784313725490196 0.23137254901960785 0.1843137254901961
0.45098039215686275 0.23921568627450981 0.19215686274509805
0.49411764705882355 0.24705882352941178 0.19215686274509805
0.5372549019607843 0.24705882352941178 0.19215686274509805
0.5725490196078431 0.2549019607843137 0.19607843137254902
0.6196078431372549 0.25882352941176473 0.20392156862745098
0.6509803921568628 0.26666666666666666 0.20392156862745098
0.6862745098039216 0.27058823529411763 0.20784313725490197
0.7019607843137254 0.28627450980392155 0.21568627450980393
0.7215686274509804 0.2901960784313726 0.2196078431372549
0.7372549019607844 0.2980392156862745 0.2235294117647059
0.7529411764705882 0.30196078431372547 0.23137254901960785
0.7843137254901961 0.3137254901960784 0.23921568627450981
0.8196078431372549 0.32941176470588235 0.24705882352941178
0.8627450980392157 0.34509803921568627 0.2627450980392157
0.12156862745098039 0.12549019607843137 0.10588235294117647
0.12156862745098039 0.12549019607843137 0.10588235294117647
0.13333333333333333 0.12549019607843137 0.10980392156862745
0.13333333333333333 0.12941176470588237 0.10980392156862745
0.13333333333333333 0.12549019607843137 0.10588235294117647
0.14901960784313725 0.1411764705882353 0.11764705882352941
0.1568627450980392 0.1411764705882353 0.11764705882352941
0.16862745098039217 0.1411764705882353 0.11764705882352941
0.1803921568627451 0.1568627450980392 0.12941176470588237
0.19607843137254902 0.1607843137254902 0.13725490196078433
0.21176470588235294 0.17254901960784313 0.13725490196078433
0.23137254901960785 0.1803921568627451 0.1450980392156863
0.24705882352941178 0.18823529411764706 0.14901960784313725
0.25882352941176473 0.19215686274509805 0.1607843137254902
0.2784313725490196 0.21176470588235294 0.16862745098039217
0.3058823529411765 0.21176470588235294 0.17254901960784313
0.32941176470588235 0.2235294117647059 0.17647058823529413
0.36470588235294116 0.22745098039215686 0.1843137254901961
0.4117647058823529 0.23529411764705882 0.18823529411764706
0.4392156862745098 0.23529411764705882 0.1843137254901961
0.4980392156862745 0.24705882352941178 0.19215686274509805
0.5372549019607843 0.24705882352941178 0.19215686274509805
0.5764705882352941 0.25098039215686274 0.19215686274509805
0.6274509803921569 0.26666666666666666 0.2
0.6549019607843137 0.26666666666666666 0.20392156862745098
0.6823529411764706 0.27450980392156865 0.20784313725490197
0.7019607843137254 0.28627450980392155 0.21176470588235294
0.7215686274509804 0.2901960784313726 0.2235294117647059
0.7450980392156863 0.30196078431372547 0.23137254901960785
0.7647058823529411 0.3137254901960784 0.23137254901960785
0.788235294117647 0.3215686274509804 0.24313725490196078
0.8274509803921568 0.33725490196078434 0.25098039215686274
0.8705882352941177 0.35294117647058826 0.2627450980392157
0.12549019607843137 0.12941176470588237 0.10980392156862745
0.13333333333333333 0.12941176470588237 0.10980392156862745
0.13725490196078433 0.12941176470588237 0.11372549019607843
0.13725490196078433 0.12941176470588237 0.10980392156862745
0.1411764705882353 0.13725490196078433 0.11372549019607843
0.14901960784313725 0.13725490196078433 0.11372549019607843
0.1568627450980392 0.1411764705882353 0.12156862745098039
0.17254901960784313 0.14901960784313725 0.12549019607843137
0.18823529411764706 0.1568627450980392 0.12549019607843137
0.2 0.16470588235294117 0.13725490196078433
0.21176470588235294 0.17254901960784313 0.13725490196078433
0.23921568627450981 0.18823529411764706 0.14901960784313725
0.25098039215686274 0.19215686274509805 0.1568627450980392
0.2627450980392157 0.2 0.16470588235294117
0.28627450980392155 0.21176470588235294 0.16862745098039217
0.3058823529411765 0.21176470588235294 0.17254901960784313
0.32941176470588235 0.2235294117647059 0.1803921568627451
0.3607843137254902 0.23137254901960785 0.1843137254901961
0.4117647058823529 0.23921568627450981 0.18823529411764706
0.4470588235294118 0.24705882352941178 0.18823529411764706
0.49019607843137253 0.24705882352941178 0.18823529411764706
0.5372549019607843 0.24705882352941178 0.19215686274509805
0.5764705882352941 0.2549019607843137 0.19215686274509805
0.6274509803921569 0.26666666666666666 0.2
0.6509803921568628 0.27058823529411763 0.2
0.6823529411764706 0.27450980392156865 0.20784313725490197
0.7019607843137254 0.28627450980392155 0.21568627450980393
0.7215686274509804 0.29411764705882354 0.2196078431372549
0.7450980392156863 0.30196078431372547 0.23137254901960785
0.7607843137254902 0.3137254901960784 0.23137254901960785
0.7843137254901961 0.3254901960784314 0.23921568627450981
0.8235294117647058 0.33725490196078434 0.25098039215686274
0.8705882352941177 0.35294117647058826 0.25882352941176473
0.12941176470588237 0.13333333333333333 0.10980392156862745
0.13725490196078433 0.13333333333333333 0.11372549019607843
0.1411764705882353 0.13725490196078433 0.11372549019607843
0.1411764705882353 0.13725490196078433 0.11372549019607843
0.1450980392156863 0.13725490196078433 0.11764705882352941
0.15294117647058825 0.1450980392156863 0.11764705882352941
0.1607843137254902 0.1450980392156863 0.12549019607843137
0.17254901960784313 0.1568627450980392 0.12941176470588237
0.18823529411764706 0.16470588235294117 0.13333333333333333
0.20392156862745098 0.17254901960784313 0.1411764705882353
0.2235294117647059 0.17647058823529413 0.14901960784313725
0.23529411764705882 0.18823529411764706 0.1568627450980392
0.24705882352941178 0.19607843137254902 0.1568627450980392
0.27058823529411763 0.20392156862745098 0.16470588235294117
0.28627450980392155 0.21568627450980393 0.17254901960784313
0.30980392156862746 0.2235294117647059 0.1803921568627451
0.3411764705882353 0.22745098039215686 0.1803921568627451
0.3764705882352941 0.23529411764705882 0.18823529411764706
0.4117647058823529 0.23921568627450981 0.18823529411764706
0.4549019607843137 0.24313725490196078 0.18823529411764706
0.49411764705882355 0.24705882352941178 0.1843137254901961
0.5372549019607843 0.24705882352941178 0.18823529411764706
0.5843137254901961 0.2549019607843137 0.19215686274509805
0.6274509803921569 0.26666666666666666 0.2
0.6588235294117647 0.27450980392156865 0.20784313725490197
0.6862745098039216 0.28627450980392155 0.20784313725490197
0.7058823529411765 0.2901960784313726 0.2196078431372549
0.7294117647058823 0.2980392156862745 0.2196078431372549
0.7450980392156863 0.30196078431372547 0.23137254901960785
0.7647058823529411 0.3176470588235294 0.23529411764705882
0.788235294117647 0.32941176470588235 0.23921568627450981
0.8235294117647058 0.34509803921568627 0.25098039215686274
0.8666666666666667 0.3607843137254902 0.2627450980392157
0.12941176470588237 0.1411764705882353 0.11372549019607843
0.13725490196078433 0.1411764705882353 0.11764705882352941
0.13725490196078433 0.1450980392156863 0.11764705882352941
0.14901960784313725 0.1450980392156863 0.12549019607843137
0.14901960784313725 0.1450980392156863 0.11764705882352941
0.1568627450980392 0.14901960784313725 0.12156862745098039
0.16862745098039217 0.15294117647058825 0.12156862745098039
0.1803921568627451 0.1568627450980392 0.12941176470588237
0.19607843137254902 0.16862745098039217 0.13725490196078433
0.21176470588235294 0.17647058823529413 0.13725490196078433
0.22745098039215686 0.1843137254901961 0.14901960784313725
0.23921568627450981 0.19215686274509805 0.15294117647058825
0.2549019607843137 0.2 0.16470588235294117
0.26666666666666666 0.20392156862745098 0.1607843137254902
0.2901960784313726 0.21568627450980393 0.16862745098039217
0.30980392156862746 0.2235294117647059 0.17647058823529413
0.34509803921568627 0.23137254901960785 0.17647058823529413
0.3803921568627451 0.23529411764705882 0.1843137254901961
0.4196078431372549 0.24313725490196078 0.18823529411764706
0.4627450980392157 0.24705882352941178 0.19215686274509805
0.4980392156862745 0.24705882352941178 0.18823529411764706
0.5372549019607843 0.2549019607843137 0.19215686274509805
0.5843137254901961 0.25882352941176473 0.19215686274509805
0.6235294117647059 0.26666666666666666 0.19607843137254902
0.6627450980392157 0.2823529411764706 0.20784313725490197
0.6901960784313725 0.2823529411764706 0.21176470588235294
0.7098039215686275 0.29411764705882354 0.21568627450980393
0.7294117647058823 0.30196078431372547 0.2235294117647059
0.7411764705882353 0.3137254901960784 0.22745098039215686
0.7647058823529411 0.3215686274509804 0.23529411764705882
0.8 0.3333333333333333 0.24313725490196078
0.8274509803921568 0.34901960784313724 0.25098039215686274
0.8745098039215686 0.3686274509803922 0.25882352941176473
0.13725490196078433 0.1568627450980392 0.11764705882352941
0.1411764705882353 0.1568627450980392 0.11764705882352941
0.1450980392156863 0.1568627450980392 0.12156862745098039
0.15294117647058825 0.1568627450980392 0.12156862745098039
0.1607843137254902 0.1568627450980392 0.12156862745098039
0.1607843137254902 0.1568627450980392 0.12156862745098039
0.17647058823529413 0.16470588235294117 0.12941176470588237
0.18823529411764706 0.16862745098039217 0.13333333333333333
0.2 0.17647058823529413 0.13333333333333333
0.21568627450980393 0.1843137254901961 0.1411764705882353
0.23137254901960785 0.18823529411764706 0.14901960784313725
0.24313725490196078 0.2 0.15294117647058825
0.25882352941176473 0.20784313725490197 0.16470588235294117
0.27450980392156865 0.21568627450980393 0.17254901960784313
0.2901960784313726 0.2196078431372549 0.17254901960784313
0.3176470588235294 0.22745098039215686 0.17647058823529413
0.3568627450980392 0.23921568627450981 0.17647058823529413
0.38823529411764707 0.23921568627450981 0.19215686274509805
0.4196078431372549 0.24313725490196078 0.19215686274509805
0.4666666666666667 0.24705882352941178 0.18823529411764706
0.5058823529411764 0.2549019607843137 0.19215686274509805
0.5450980392156862 0.25882352941176473 0.19215686274509805
0.5882352941176471 0.26666666666666666 0.19215686274509805
0.6274509803921569 0.27450980392156865 0.2
0.6627450980392157 0.2823529411764706 0.20784313725490197
0.6901960784313725 0.28627450980392155 0.21176470588235294
0.7098039215686275 0.2980392156862745 0.21176470588235294
0.7294117647058823 0.3058823529411765 0.2235294117647059
0.7450980392156863 0.3215686274509804 0.22745098039215686
0.7647058823529411 0.32941176470588235 0.23529411764705882
0.8 0.3411764705882353 0.24313725490196078
0.8392156862745098 0.3568627450980392 0.25882352941176473
0.8862745098039215 0.3843137254901961 0.26666666666666666
0.14901960784313725 0.16862745098039217 0.12156862745098039
0.15294117647058825 0.16862745098039217 0.12549019607843137
0.15294117647058825 0.16862745098039217 0.12156862745098039
0.16470588235294117 0.17254901960784313 0.12549019607843137
0.16862745098039217 0.17254901960784313 0.12941176470588237
0.17647058823529413 0.17647058823529413 0.13333333333333333
0.1843137254901961 0.17254901960784313 0.13725490196078433
0.19607843137254902 0.1803921568627451 0.13725490196078433
0.21568627450980393 0.1843137254901961 0.1411764705882353
0.2196078431372549 0.18823529411764706 0.1411764705882353
0.23921568627450981 0.2 0.15294117647058825
0.25098039215686274 0.20784313725490197 0.1568627450980392
0.26666666666666666 0.21176470588235294 0.16862745098039217
0.27450980392156865 0.2196078431372549 0.16862745098039217
0.29411764705882354 0.22745098039215686 0.16862745098039217
0.3254901960784314 0.23529411764705882 0.17254901960784313
0.3607843137254902 0.24313725490196078 0.1843137254901961
0.39215686274509803 0.24705882352941178 0.18823529411764706
0.42745098039215684 0.2549019607843137 0.18823529411764706
0.47058823529411764 0.25098039215686274 0.19215686274509805
0.5098039215686274 0.25882352941176473 0.19215686274509805
0.5568627450980392 0.2627450980392157 0.19215686274509805
0.596078431372549 0.27058823529411763 0.2
0.6392156862745098 0.2784313725490196 0.20392156862745098
0.6666666666666666 0.2823529411764706 0.20784313725490197
0.6941176470588235 0.2980392156862745 0.21568627450980393
0.7176470588235294 0.30980392156862746 0.21568627450980393
0.7333333333333333 0.3137254901960784 0.2235294117647059
0.7450980392156863 0.3254901960784314 0.23137254901960785
0.7686274509803922 0.33725490196078434 0.23529411764705882
0.803921568627451 0.3568627450980392 0.24313725490196078
0.8431372549019608 0.37254901960784315 0.2549019607843137
0.8823529411764706 0.4 0.26666666666666666
0.1607843137254902 0.19607843137254902 0.12941176470588237
0.1607843137254902 0.19215686274509805 0.12941176470588237
0.16470588235294117 0.19215686274509805 0.13333333333333333
0.17254901960784313 0.19215686274509805 0.13333333333333333
0.17647058823529413 0.19215686274509805 0.13725490196078433
0.19215686274509805 0.19215686274509805 0.1450980392156863
0.2 0.19215686274509805 0.13725490196078433
0.20392156862745098 0.19215686274509805 0.13725490196078433
0.21568627450980393 0.19607843137254902 0.14901960784313725
0.22745098039215686 0.20392156862745098 0.14901960784313725
0.23921568627450981 0.20392156862745098 0.15294117647058825
0.25882352941176473 0.21176470588235294 0.16470588235294117
0.27058823529411763 0.2235294117647059 0.16470588235294117
0.2901960784313726 0.22745098039215686 0.17647058823529413
0.30196078431372547 0.23137254901960785 0.17647058823529413
0.33725490196078434 0.24313725490196078 0.1803921568627451
0.3686274509803922 0.24313725490196078 0.1843137254901961
0.403921568627451 0.24705882352941178 0.1843137254901961
0.4392156862745098 0.2549019607843137 0.1843137254901961
0.48627450980392156 0.25882352941176473 0.18823529411764706
0.5254901960784314 0.26666666666666666 0.18823529411764706
0.5686274509803921 0.27450980392156865 0.19607843137254902
0.6039215686274509 0.2784313725490196 0.2
0.6431372549019608 0.28627450980392155 0.2
0.6705882352941176 0.29411764705882354 0.20392156862745098
0.6941176470588235 0.30196078431372547 0.21176470588235294
0.7137254901960784 0.3137254901960784 0.2196078431372549
0.7254901960784313 0.3215686274509804 0.2196078431372549
0.7529411764705882 0.33725490196078434 0.23137254901960785
0.7725490196078432 0.34901960784313724 0.23137254901960785
0.807843137254902 0.3686274509803922 0.24313725490196078
0.8352941176470589 0.3803921568627451 0.25098039215686274
0.8862745098039215 0.40784313725490196 0.26666666666666666
0.1607843137254902 0.21176470588235294 0.13333333333333333
0.17254901960784313 0.21568627450980393 0.13725490196078433
0.17647058823529413 0.21176470588235294 0.13333333333333333
0.1803921568627451 0.20784313725490197 0.13725490196078433
0.1843137254901961 0.20784313725490197 0.13333333333333333
0.19607843137254902 0.21176470588235294 0.1450980392156863
0.20784313725490197 0.20784313725490197 0.1411764705882353
0.2235294117647059 0.21176470588235294 0.1450980392156863
0.2196078431372549 0.20784313725490197 0.14901960784313725
0.23529411764705882 0.21176470588235294 0.15294117647058825
0.25098039215686274 0.2196078431372549 0.1607843137254902
0.2627450980392157 0.2235294117647059 0.1607843137254902
0.2823529411764706 0.23529411764705882 0.16862745098039217
0.29411764705882354 0.23921568627450981 0.16862745098039217
0.3215686274509804 0.23921568627450981 0.17254901960784313
0.34509803921568627 0.24705882352941178 0.17647058823529413
0.3843137254901961 0.2549019607843137 0.1843137254901961
0.4196078431372549 0.25882352941176473 0.18823529411764706
0.45098039215686275 0.2627450980392157 0.19215686274509805
0.4823529411764706 0.26666666666666666 0.18823529411764706
0.5333333333333333 0.27450980392156865 0.18823529411764706
0.5686274509803921 0.2784313725490196 0.19215686274509805
0.6078431372549019 0.2901960784313726 0.2
0.6431372549019608 0.2980392156862745 0.2
0.6784313725490196 0.3058823529411765 0.20784313725490197
0.6980392156862745 0.30980392156862746 0.20784313725490197
0.7137254901960784 0.32941176470588235 0.2196078431372549
0.7333333333333333 0.3333333333333333 0.2196078431372549
0.7529411764705882 0.34901960784313724 0.22745098039215686
0.7764705882352941 0.3686274509803922 0.23137254901960785
0.803921568627451 0.3803921568627451 0.23921568627450981
0.8509803921568627 0.4117647058823529 0.2549019607843137
0.8862745098039215 0.42745098039215684 0.26666666666666666
0.17254901960784313 0.22745098039215686 0.13725490196078433
0.1803921568627451 0.23137254901960785 0.1411764705882353
0.1803921568627451 0.22745098039215686 0.1411764705882353
0.1843137254901961 0.22745098039215686 0.1411764705882353
0.19607843137254902 0.22745098039215686 0.1411764705882353
0.20392156862745098 0.22745098039215686 0.1450980392156863
0.21568627450980393 0.22745098039215686 0.1450980392156863
0.2235294117647059 0.2235294117647059 0.1450980392156863
0.23921568627450981 0.22745098039215686 0.15294117647058825
0.23529411764705882 0.22745098039215686 0.1568627450980392
0.2549019607843137 0.23137254901960785 0.1568627450980392
0.27058823529411763 0.23921568627450981 0.16470588235294117
0.2823529411764706 0.23921568627450981 0.16862745098039217
0.2980392156862745 0.24705882352941178 0.17647058823529413
0.32941176470588235 0.24705882352941178 0.1803921568627451
0.36470588235294116 0.25882352941176473 0.1843137254901961
0.3803921568627451 0.25882352941176473 0.1803921568627451
0.42745098039215684 0.26666666666666666 0.1843137254901961
0.4588235294117647 0.27058823529411763 0.18823529411764706
0.5098039215686274 0.2784313725490196 0.18823529411764706
0.5411764705882353 0.2823529411764706 0.19215686274509805
0.5803921568627451 0.29411764705882354 0.19607843137254902
0.6274509803921569 0.30196078431372547 0.2
0.6549019607843137 0.3058823529411765 0.20392156862745098
0.6823529411764706 0.3137254901960784 0.20784313725490197
0.7019607843137254 0.32941176470588235 0.20784313725490197
0.7254901960784313 0.34509803921568627 0.2196078431372549
0.7411764705882353 0.3568627450980392 0.22745098039215686
0.7568627450980392 0.3764705882352941 0.22745098039215686
0.7803921568627451 0.3843137254901961 0.23529411764705882
0.807843137254902 0.4 0.23921568627450981
0.8627450980392157 0.43529411764705883 0.25882352941176473
0.8901960784313725 0.4549019607843137 0.27058823529411763
0.17647058823529413 0.24705882352941178 0.1411764705882353
0.1803921568627451 0.24313725490196078 0.1411764705882353
0.18823529411764706 0.24705882352941178 0.1450980392156863
0.19607843137254902 0.24705882352941178 0.14901960784313725
0.20392156862745098 0.24705882352941178 0.1450980392156863
0.21176470588235294 0.24705882352941178 0.1450980392156863
0.2235294117647059 0.24705882352941178 0.14901960784313725
0.23529411764705882 0.24313725490196078 0.14901960784313725
0.24313725490196078 0.24313725490196078 0.14901960784313725
0.25882352941176473 0.24313725490196078 0.1607843137254902
0.25882352941176473 0.23529411764705882 0.15294117647058825
0.27058823529411763 0.24313725490196078 0.1607843137254902
0.29411764705882354 0.24705882352941178 0.17254901960784313
0.3137254901960784 0.25882352941176473 0.17647058823529413
0.32941176470588235 0.25882352941176473 0.17647058823529413
0.3686274509803922 0.26666666666666666 0.17647058823529413
0.403921568627451 0.27058823529411763 0.1803921568627451
0.4392156862745098 0.2823529411764706 0.1843137254901961
0.47058823529411764 0.28627450980392155 0.1843137254901961
0.5176470588235295 0.2901960784313726 0.19215686274509805
0.5568627450980392 0.29411764705882354 0.18823529411764706
0.5882352941176471 0.2980392156862745 0.19607843137254902
0.6313725490196078 0.3137254901960784 0.2
0.6588235294117647 0.3176470588235294 0.20392156862745098
0.6823529411764706 0.32941176470588235 0.20784313725490197
0.7058823529411765 0.34509803921568627 0.21568627450980393
0.7254901960784313 0.35294117647058826 0.2196078431372549
0.7411764705882353 0.37254901960784315 0.2235294117647059
0.7607843137254902 0.396078431372549 0.23137254901960785
0.7803921568627451 0.40784313725490196 0.23529411764705882
0.8235294117647058 0.4392156862745098 0.25098039215686274
0.8666666666666667 0.4549019607843137 0.25882352941176473
0.9058823529411765 0.4823529411764706 0.27058823529411763
0.1843137254901961 0.26666666666666666 0.1450980392156863
0.18823529411764706 0.2627450980392157 0.1411764705882353
0.19215686274509805 0.26666666666666666 0.1450980392156863
0.2 0.25882352941176473 0.14901960784313725
0.20784313725490197 0.25882352941176473 0.14901960784313725
0.2235294117647059 0.2627450980392157 0.14901960784313725
0.23137254901960785 0.25882352941176473 0.14901960784313725
0.23921568627450981 0.25882352941176473 0.14901960784313725
0.24705882352941178 0.25882352941176473 0.1568627450980392
0.2549019607843137 0.2549019607843137 0.1568627450980392
0.27058823529411763 0.2627450980392157 0.16470588235294117
0.27058823529411763 0.2549019607843137 0.1607843137254902
0.2901960784313726 0.2549019607843137 0.1607843137254902
0.3176470588235294 0.26666666666666666 0.17254901960784313
0.33725490196078434 0.26666666666666666 0.17254901960784313
0.3843137254901961 0.2784313725490196 0.1843137254901961
0.4117647058823529 0.2823529411764706 0.1843137254901961
0.4470588235294118 0.2901960784313726 0.1843137254901961
0.4823529411764706 0.2901960784313726 0.1803921568627451
0.5254901960784314 0.2980392156862745 0.18823529411764706
0.5568627450980392 0.3058823529411765 0.18823529411764706
0.6039215686274509 0.3176470588235294 0.19607843137254902
0.6392156862745098 0.32941176470588235 0.20784313725490197
0.6705882352941176 0.34509803921568627 0.20784313725490197
0.6901960784313725 0.34509803921568627 0.20392156862745098
0.7137254901960784 0.36470588235294116 0.21568627450980393
0.7294117647058823 0.3764705882352941 0.21568627450980393
0.7411764705882353 0.396078431372549 0.2196078431372549
0.7686274509803922 0.40784313725490196 0.23137254901960785
0.792156862745098 0.42745098039215684 0.23529411764705882
0.8235294117647058 0.4627450980392157 0.25098039215686274
0.8666666666666667 0.48627450980392156 0.2549019607843137
0.9098039215686274 0.5098039215686274 0.26666666666666666
0.18823529411764706 0.28627450980392155 0.1411764705882353
0.2 0.2901960784313726 0.14901960784313725
0.2 0.2823529411764706 0.1450980392156863
0.20784313725490197 0.2823529411764706 0.15294117647058825
0.21176470588235294 0.2823529411764706 0.14901960784313725
0.22745098039215686 0.2823529411764706 0.15294117647058825
0.23529411764705882 0.2784313725490196 0.15294117647058825
0.24705882352941178 0.2823529411764706 0.15294117647058825
0.2549019607843137 0.2784313725490196 0.15294117647058825
0.2627450980392157 0.2784313725490196 0.1607843137254902
0.2784313725490196 0.2784313725490196 0.1607843137254902
0.29411764705882354 0.2823529411764706 0.1607843137254902
0.29411764705882354 0.27058823529411763 0.1607843137254902
0.3215686274509804 0.27450980392156865 0.17254901960784313
0.34901960784313724 0.2823529411764706 0.17254901960784313
0.3843137254901961 0.2901960784313726 0.17647058823529413
0.41568627450980394 0.2980392156862745 0.1803921568627451
0.45098039215686275 0.3058823529411765 0.1843137254901961
