cubelut/Hasselblad_Pure_LUT.cube
TITLE "Photo Curves LUT"
LUT_3D_SIZE 5
0.0 0.0 0.0
0.13333333333333333 0.023529411764705882 0.023529411764705882
0.4549019607843137 0.058823529411764705 0.054901960784313725
0.8 0.054901960784313725 0.050980392156862744
1.0 0.043137254901960784 0.043137254901960784
0.03529411764705882 0.12156862745098039 0.03529411764705882
0.1450980392156863 0.1450980392156863 0.050980392156862744
0.4392156862745098 0.1607843137254902 0.054901960784313725
0.7843137254901961 0.15294117647058825 0.043137254901960784
1.0 0.1411764705882353 0.03137254901960784
0.054901960784313725 0.3803921568627451 0.054901960784313725
0.13725490196078433 0.38823529411764707 0.050980392156862744
0.38823529411764707 0.3764705882352941 0.043137254901960784
0.7215686274509804 0.37254901960784315 0.0196078431372549
0.9686274509803922 0.3764705882352941 0.00784313725490196
0.03137254901960784 0.6352941176470588 0.03137254901960784
0.09411764705882353 0.6392156862745098 0.027450980392156862
0.35294117647058826 0.6235294117647059 0.01568627450980392
0.6705882352941176 0.6196078431372549 0.0
0.9333333333333333 0.6392156862745098 0.0
0.00392156862745098 0.8549019607843137 0.00392156862745098
0.054901960784313725 0.8627450980392157 0.00392156862745098
0.3176470588235294 0.8588235294117647 0.0
0.6627450980392157 0.8627450980392157 0.00392156862745098
0.9254901960784314 0.8784313725490196 0.0
0.00392156862745098 0.00784313725490196 0.07058823529411765
0.07058823529411765 0.01568627450980392 0.07450980392156863
0.3411764705882353 0.054901960784313725 0.13725490196078433
0.7254901960784313 0.054901960784313725 0.1607843137254902
0.9882352941176471 0.047058823529411764 0.1607843137254902
0.03137254901960784 0.10588235294117647 0.11764705882352941
0.17647058823529413 0.16470588235294117 0.18823529411764706
0.4549019607843137 0.16470588235294117 0.1843137254901961
0.792156862745098 0.15294117647058825 0.17254901960784313
1.0 0.1411764705882353 0.1607843137254902
0.054901960784313725 0.3607843137254902 0.12156862745098039
0.12549019607843137 0.40784313725490196 0.13333333333333333
0.41568627450980394 0.396078431372549 0.14901960784313725
0.7529411764705882 0.38823529411764707 0.13725490196078433
0.9882352941176471 0.38823529411764707 0.13333333333333333
0.03137254901960784 0.615686274509804 0.0784313725490196
0.08235294117647059 0.6588235294117647 0.08627450980392157
0.3607843137254902 0.6470588235294118 0.09803921568627451
0.7019607843137254 0.6470588235294118 0.11372549019607843
0.9607843137254902 0.6588235294117647 0.11764705882352941
0.00392156862745098 0.8431372549019608 0.0392156862745098
0.043137254901960784 0.8784313725490196 0.047058823529411764
0.3176470588235294 0.8862745098039215 0.07058823529411765
0.6862745098039216 0.8901960784313725 0.10196078431372549
0.9411764705882353 0.9019607843137255 0.10980392156862745
0.023529411764705882 0.023529411764705882 0.29411764705882354
0.08627450980392157 0.03137254901960784 0.2901960784313726
0.2784313725490196 0.054901960784313725 0.3058823529411765
0.5490196078431373 0.058823529411764705 0.3333333333333333
0.8745098039215686 0.047058823529411764 0.3764705882352941
0.047058823529411764 0.10588235294117647 0.3411764705882353
0.1450980392156863 0.1411764705882353 0.4196078431372549
0.3686274509803922 0.13725490196078433 0.40784313725490196
0.6862745098039216 0.13333333333333333 0.4196078431372549
0.9607843137254902 0.12549019607843137 0.4392156862745098
0.050980392156862744 0.33725490196078434 0.3843137254901961
0.12549019607843137 0.3843137254901961 0.4392156862745098
0.43137254901960786 0.4117647058823529 0.47843137254901963
0.7568627450980392 0.396078431372549 0.4627450980392157
0.996078431372549 0.396078431372549 0.4666666666666667
0.027450980392156862 0.596078431372549 0.33725490196078434
0.06666666666666667 0.6352941176470588 0.36470588235294116
0.34509803921568627 0.6666666666666666 0.38823529411764707
0.7294117647058823 0.6745098039215687 0.43529411764705883
0.984313725490196 0.6823529411764706 0.4470588235294118
0.00392156862745098 0.8274509803921568 0.2823529411764706
0.03137254901960784 0.8588235294117647 0.2980392156862745
0.2980392156862745 0.9137254901960784 0.33725490196078434
0.7098039215686275 0.9254901960784314 0.4
0.9647058823529412 0.9333333333333333 0.42745098039215684
0.043137254901960784 0.043137254901960784 0.5843137254901961
0.11372549019607843 0.050980392156862744 0.5686274509803921
0.28627450980392155 0.06274509803921569 0.5647058823529412
0.5058823529411764 0.058823529411764705 0.5607843137254902
0.7647058823529411 0.047058823529411764 0.5647058823529412
0.050980392156862744 0.11372549019607843 0.615686274509804
0.13725490196078433 0.13725490196078433 0.6901960784313725
0.3411764705882353 0.12941176470588237 0.6705882352941176
0.6039215686274509 0.11764705882352941 0.6588235294117647
0.8470588235294118 0.10588235294117647 0.6470588235294118
0.050980392156862744 0.3137254901960784 0.6549019607843137
0.12549019607843137 0.34509803921568627 0.7019607843137254
0.3764705882352941 0.36470588235294116 0.7372549019607844
0.6705882352941176 0.34509803921568627 0.7098039215686275
0.9215686274509803 0.3411764705882353 0.7098039215686275
0.023529411764705882 0.5686274509803921 0.6627450980392157
0.07450980392156863 0.611764705882353 0.7019607843137254
0.3411764705882353 0.6431372549019608 0.7372549019607844
0.7647058823529411 0.7019607843137254 0.7803921568627451
1.0 0.7058823529411765 0.7843137254901961
0.00392156862745098 0.8 0.6196078431372549
0.03529411764705882 0.8470588235294118 0.6588235294117647
0.2784313725490196 0.8941176470588236 0.6901960784313725
0.6941176470588235 0.9529411764705882 0.7333333333333333
0.984313725490196 0.9607843137254902 0.7647058823529411
0.054901960784313725 0.054901960784313725 0.8156862745098039
0.11764705882352941 0.058823529411764705 0.803921568627451
0.2901960784313726 0.058823529411764705 0.796078431372549
0.5058823529411764 0.054901960784313725 0.788235294117647
0.7450980392156863 0.043137254901960784 0.7725490196078432
0.06274509803921569 0.12156862745098039 0.8352941176470589
0.1411764705882353 0.13333333333333333 0.8784313725490196
0.32941176470588235 0.12549019607843137 0.8627450980392157
0.5803921568627451 0.11372549019607843 0.8431372549019608
0.8196078431372549 0.09803921568627451 0.8313725490196079
0.047058823529411764 0.3058823529411765 0.8431372549019608
0.12549019607843137 0.32941176470588235 0.8745098039215686
0.3568627450980392 0.34509803921568627 0.8980392156862745
0.6313725490196078 0.3215686274509804 0.8705882352941177
0.8705882352941177 0.30980392156862746 0.8588235294117647
0.027450980392156862 0.5333333333333333 0.8392156862745098
0.08627450980392157 0.5725490196078431 0.8666666666666667
0.3333333333333333 0.6 0.8901960784313725
0.7019607843137254 0.6470588235294118 0.9294117647058824
0.9333333333333333 0.6431372549019608 0.9215686274509803
0.00392156862745098 0.7764705882352941 0.8392156862745098
0.0392156862745098 0.8235294117647058 0.8705882352941177
0.2980392156862745 0.8784313725490196 0.9098039215686274
0.6941176470588235 0.9333333333333333 0.9490196078431372
1.0 0.9921568627450981 0.9882352941176471
