cubelut/Hasselblad_Vintage_Original_LUT.cube
TITLE "Photo Curves LUT"
LUT_3D_SIZE 5
0.11764705882352941 0.11764705882352941 0.10588235294117647
0.17647058823529413 0.14901960784313725 0.12549019607843137
0.32941176470588235 0.2235294117647059 0.17647058823529413
0.6509803921568628 0.26666666666666666 0.20392156862745098
0.8627450980392157 0.34509803921568627 0.2627450980392157
0.1607843137254902 0.21176470588235294 0.13333333333333333
0.2196078431372549 0.20784313725490197 0.14901960784313725
0.3843137254901961 0.2549019607843137 0.1843137254901961
0.6784313725490196 0.3058823529411765 0.20784313725490197
0.8862745098039215 0.42745098039215684 0.26666666666666666
0.20392156862745098 0.4235294117647059 0.1450980392156863
0.2823529411764706 0.4 0.1568627450980392
0.4392156862745098 0.37254901960784315 0.17647058823529413
0.7215686274509804 0.49019607843137253 0.21568627450980393
0.9529411764705882 0.6666666666666666 0.2823529411764706
0.24313725490196078 0.7294117647058823 0.17254901960784313
0.35294117647058826 0.7137254901960784 0.1843137254901961
0.6352941176470588 0.7137254901960784 0.2
0.7647058823529411 0.7098039215686275 0.22745098039215686
1.0 0.8 0.2980392156862745
0.2901960784313726 0.9921568627450981 0.21176470588235294
0.48627450980392156 1.0 0.23137254901960785
0.792156862745098 1.0 0.25882352941176473
0.984313725490196 1.0 0.28627450980392155
1.0 1.0 0.2901960784313726
0.1450980392156863 0.1450980392156863 0.19215686274509805
0.20784313725490197 0.16470588235294117 0.17647058823529413
0.35294117647058826 0.2235294117647059 0.19607843137254902
0.6588235294117647 0.2627450980392157 0.21568627450980393
0.8745098039215686 0.33725490196078434 0.27450980392156865
0.16470588235294117 0.2196078431372549 0.19607843137254902
0.21176470588235294 0.20392156862745098 0.1843137254901961
0.3686274509803922 0.2549019607843137 0.21176470588235294
0.6784313725490196 0.30980392156862746 0.24313725490196078
0.9019607843137255 0.45098039215686275 0.32941176470588235
0.20784313725490197 0.4666666666666667 0.16470588235294117
0.25882352941176473 0.3803921568627451 0.1843137254901961
0.40784313725490196 0.3568627450980392 0.20392156862745098
0.7058823529411765 0.47843137254901963 0.24313725490196078
0.9294117647058824 0.6588235294117647 0.32941176470588235
0.23921568627450981 0.7411764705882353 0.17254901960784313
0.30196078431372547 0.7058823529411765 0.2
0.5803921568627451 0.6862745098039216 0.22745098039215686
0.7529411764705882 0.7019607843137254 0.2627450980392157
1.0 0.8 0.3764705882352941
0.28627450980392155 1.0 0.21568627450980393
0.3764705882352941 1.0 0.23921568627450981
0.7686274509803922 1.0 0.2901960784313726
0.9529411764705882 1.0 0.35294117647058826
1.0 1.0 0.3686274509803922
0.20392156862745098 0.20784313725490197 0.4549019607843137
0.24705882352941178 0.20392156862745098 0.4
0.4392156862745098 0.23137254901960785 0.3333333333333333
0.7019607843137254 0.27450980392156865 0.3686274509803922
0.9254901960784314 0.3607843137254902 0.47843137254901963
0.21176470588235294 0.2980392156862745 0.5372549019607843
0.25882352941176473 0.25882352941176473 0.4235294117647059
0.4196078431372549 0.25882352941176473 0.33725490196078434
0.6941176470588235 0.3058823529411765 0.37254901960784315
0.9176470588235294 0.41568627450980394 0.48627450980392156
0.2 0.4745098039215686 0.3803921568627451
0.24313725490196078 0.396078431372549 0.3686274509803922
0.3686274509803922 0.3411764705882353 0.3333333333333333
0.6980392156862745 0.4745098039215686 0.40784313725490196
0.9372549019607843 0.6784313725490196 0.5529411764705883
0.22745098039215686 0.7607843137254902 0.2901960784313726
0.25098039215686274 0.7176470588235294 0.2784313725490196
0.47843137254901963 0.6666666666666666 0.3411764705882353
0.7372549019607844 0.6901960784313725 0.4549019607843137
0.996078431372549 0.8 0.596078431372549
0.27058823529411763 0.9921568627450981 0.26666666666666666
0.29411764705882354 0.996078431372549 0.2784313725490196
0.6980392156862745 1.0 0.4588235294117647
0.9019607843137255 1.0 0.5803921568627451
1.0 1.0 0.6039215686274509
0.2549019607843137 0.25098039215686274 0.7215686274509804
0.27058823529411763 0.23529411764705882 0.6823529411764706
0.596078431372549 0.25882352941176473 0.6862745098039216
0.7411764705882353 0.2784313725490196 0.6235294117647059
0.9764705882352941 0.37254901960784315 0.6274509803921569
0.25882352941176473 0.4196078431372549 0.788235294117647
0.30980392156862746 0.3254901960784314 0.6941176470588235
0.5137254901960784 0.29411764705882354 0.6745098039215687
0.7294117647058823 0.3137254901960784 0.6274509803921569
0.9607843137254902 0.4392156862745098 0.6313725490196078
0.25098039215686274 0.7019607843137254 0.8
0.2980392156862745 0.6078431372549019 0.7176470588235294
0.4980392156862745 0.49411764705882355 0.6666666666666666
0.7215686274509804 0.48627450980392156 0.6313725490196078
0.9607843137254902 0.6823529411764706 0.6588235294117647
0.2196078431372549 0.7764705882352941 0.6588235294117647
0.26666666666666666 0.7333333333333333 0.6588235294117647
0.4588235294117647 0.7019607843137254 0.6705882352941176
0.7333333333333333 0.6901960784313725 0.6549019607843137
0.984313725490196 0.8 0.6784313725490196
0.27058823529411763 1.0 0.6235294117647059
0.28627450980392155 1.0 0.6196078431372549
0.5333333333333333 1.0 0.6313725490196078
0.8392156862745098 1.0 0.6784313725490196
1.0 1.0 0.6980392156862745
0.2784313725490196 0.2784313725490196 0.9333333333333333
0.2823529411764706 0.25882352941176473 0.9294117647058824
0.615686274509804 0.2901960784313726 0.9450980392156862
0.8745098039215686 0.32941176470588235 0.9529411764705882
0.9725490196078431 0.34509803921568627 0.8117647058823529
0.27058823529411763 0.49411764705882355 0.9450980392156862
0.34901960784313724 0.42745098039215684 0.9450980392156862
0.5686274509803921 0.3333333333333333 0.9450980392156862
0.8156862745098039 0.3843137254901961 0.9490196078431372
0.9803921568627451 0.42745098039215684 0.8509803921568627
0.25882352941176473 0.7411764705882353 0.9568627450980393
0.3333333333333333 0.7137254901960784 0.9411764705882353
0.6392156862745098 0.6784313725490196 0.9490196078431372
0.792156862745098 0.6274509803921569 0.9529411764705882
1.0 0.7098039215686275 0.8901960784313725
0.26666666666666666 1.0 0.8980392156862745
0.3254901960784314 0.9411764705882353 0.9490196078431372
0.6352941176470588 0.8313725490196079 0.9568627450980393
0.8117647058823529 0.796078431372549 0.9568627450980393
1.0 0.807843137254902 0.9254901960784314
0.26666666666666666 1.0 0.8980392156862745
0.3058823529411765 1.0 0.9058823529411765
0.5764705882352941 1.0 0.9372549019607843
0.8196078431372549 1.0 0.9568627450980393
1.0 1.0 0.9529411764705882
