cubelut/Hasselblad_Pure_LUT.cube
TITLE "Photo Curves LUT"
LUT_3D_SIZE 33
0.0 0.0 0.0
0.00784313725490196 0.0 0.0
0.01568627450980392 0.00392156862745098 0.0
0.0196078431372549 0.00392156862745098 0.0
0.03529411764705882 0.00784313725490196 0.00784313725490196
0.050980392156862744 0.011764705882352941 0.00784313725490196
0.06666666666666667 0.011764705882352941 0.00784313725490196
0.10196078431372549 0.0196078431372549 0.01568627450980392
0.13333333333333333 0.023529411764705882 0.023529411764705882
0.17254901960784313 0.03137254901960784 0.027450980392156862
0.21176470588235294 0.03529411764705882 0.03529411764705882
0.24705882352941178 0.0392156862745098 0.0392156862745098
0.2901960784313726 0.047058823529411764 0.043137254901960784
0.3333333333333333 0.054901960784313725 0.050980392156862744
0.37254901960784315 0.054901960784313725 0.054901960784313725
0.41568627450980394 0.054901960784313725 0.054901960784313725
0.4549019607843137 0.058823529411764705 0.054901960784313725
0.49411764705882355 0.058823529411764705 0.054901960784313725
0.5450980392156862 0.058823529411764705 0.054901960784313725
0.592156862745098 0.058823529411764705 0.058823529411764705
0.6352941176470588 0.058823529411764705 0.054901960784313725
0.6784313725490196 0.054901960784313725 0.054901960784313725
0.7176470588235294 0.054901960784313725 0.054901960784313725
0.7607843137254902 0.054901960784313725 0.050980392156862744
0.8 0.054901960784313725 0.050980392156862744
0.8313725490196079 0.050980392156862744 0.050980392156862744
0.8666666666666667 0.050980392156862744 0.050980392156862744
0.8941176470588236 0.050980392156862744 0.047058823529411764
0.9215686274509803 0.050980392156862744 0.050980392156862744
0.9529411764705882 0.050980392156862744 0.047058823529411764
0.9764705882352941 0.050980392156862744 0.047058823529411764
1.0 0.047058823529411764 0.047058823529411764
1.0 0.043137254901960784 0.043137254901960784
0.0 0.00784313725490196 0.0
0.00784313725490196 0.00784313725490196 0.0
0.01568627450980392 0.00784313725490196 0.0
0.027450980392156862 0.00784313725490196 0.00392156862745098
0.03137254901960784 0.011764705882352941 0.00392156862745098
0.050980392156862744 0.01568627450980392 0.011764705882352941
0.07450980392156863 0.01568627450980392 0.011764705882352941
0.10196078431372549 0.023529411764705882 0.01568627450980392
0.13333333333333333 0.027450980392156862 0.023529411764705882
0.17254901960784313 0.03529411764705882 0.03137254901960784
0.21568627450980393 0.047058823529411764 0.0392156862745098
0.24705882352941178 0.050980392156862744 0.0392156862745098
0.2901960784313726 0.054901960784313725 0.047058823529411764
0.3333333333333333 0.058823529411764705 0.050980392156862744
0.37254901960784315 0.06274509803921569 0.054901960784313725
0.4117647058823529 0.06274509803921569 0.054901960784313725
0.4549019607843137 0.06666666666666667 0.058823529411764705
0.49411764705882355 0.06274509803921569 0.054901960784313725
0.5411764705882353 0.06666666666666667 0.054901960784313725
0.592156862745098 0.06666666666666667 0.054901960784313725
0.6352941176470588 0.06274509803921569 0.054901960784313725
0.6784313725490196 0.06666666666666667 0.054901960784313725
0.7176470588235294 0.06274509803921569 0.054901960784313725
0.7568627450980392 0.06274509803921569 0.050980392156862744
0.8 0.058823529411764705 0.050980392156862744
0.8352941176470589 0.058823529411764705 0.050980392156862744
0.8666666666666667 0.058823529411764705 0.050980392156862744
0.8941176470588236 0.054901960784313725 0.047058823529411764
0.9215686274509803 0.054901960784313725 0.047058823529411764
0.9490196078431372 0.050980392156862744 0.047058823529411764
0.9725490196078431 0.050980392156862744 0.043137254901960784
1.0 0.050980392156862744 0.043137254901960784
1.0 0.050980392156862744 0.043137254901960784
0.0 0.011764705882352941 0.00392156862745098
0.00784313725490196 0.011764705882352941 0.0
0.01568627450980392 0.01568627450980392 0.00392156862745098
0.0196078431372549 0.0196078431372549 0.0
0.0392156862745098 0.023529411764705882 0.011764705882352941
0.054901960784313725 0.027450980392156862 0.01568627450980392
0.0784313725490196 0.03137254901960784 0.01568627450980392
0.10588235294117647 0.03529411764705882 0.0196078431372549
0.1411764705882353 0.043137254901960784 0.027450980392156862
0.17647058823529413 0.047058823529411764 0.03529411764705882
0.21176470588235294 0.050980392156862744 0.0392156862745098
0.25098039215686274 0.058823529411764705 0.043137254901960784
0.29411764705882354 0.06274509803921569 0.047058823529411764
0.33725490196078434 0.07058823529411765 0.054901960784313725
0.3686274509803922 0.07058823529411765 0.054901960784313725
0.4117647058823529 0.07058823529411765 0.054901960784313725
0.4549019607843137 0.07450980392156863 0.058823529411764705
0.4980392156862745 0.07058823529411765 0.058823529411764705
0.5450980392156862 0.07450980392156863 0.058823529411764705
0.592156862745098 0.07450980392156863 0.058823529411764705
0.6352941176470588 0.07058823529411765 0.054901960784313725
0.6745098039215687 0.07058823529411765 0.050980392156862744
0.7176470588235294 0.07058823529411765 0.050980392156862744
0.7607843137254902 0.06666666666666667 0.054901960784313725
0.796078431372549 0.06666666666666667 0.047058823529411764
0.8313725490196079 0.06666666666666667 0.047058823529411764
0.8666666666666667 0.06666666666666667 0.047058823529411764
0.8901960784313725 0.06274509803921569 0.047058823529411764
0.9215686274509803 0.06274509803921569 0.047058823529411764
0.9529411764705882 0.058823529411764705 0.047058823529411764
0.9725490196078431 0.058823529411764705 0.043137254901960784
0.996078431372549 0.054901960784313725 0.043137254901960784
1.0 0.054901960784313725 0.043137254901960784
0.00392156862745098 0.023529411764705882 0.00392156862745098
0.011764705882352941 0.023529411764705882 0.00392156862745098
0.0196078431372549 0.027450980392156862 0.00784313725490196
0.027450980392156862 0.027450980392156862 0.011764705882352941
0.0392156862745098 0.027450980392156862 0.00784313725490196
0.054901960784313725 0.03137254901960784 0.011764705882352941
0.07450980392156863 0.03529411764705882 0.01568627450980392
0.10588235294117647 0.043137254901960784 0.023529411764705882
0.1450980392156863 0.050980392156862744 0.03137254901960784
0.17254901960784313 0.054901960784313725 0.03529411764705882
0.21568627450980393 0.058823529411764705 0.0392156862745098
0.25098039215686274 0.06666666666666667 0.043137254901960784
0.29411764705882354 0.07450980392156863 0.050980392156862744
0.32941176470588235 0.07058823529411765 0.050980392156862744
0.3686274509803922 0.0784313725490196 0.054901960784313725
0.4117647058823529 0.07450980392156863 0.054901960784313725
0.45098039215686275 0.0784313725490196 0.054901960784313725
0.49411764705882355 0.0784313725490196 0.058823529411764705
0.5450980392156862 0.0784313725490196 0.058823529411764705
0.592156862745098 0.07450980392156863 0.054901960784313725
0.6352941176470588 0.07450980392156863 0.054901960784313725
0.6784313725490196 0.07450980392156863 0.054901960784313725
0.7176470588235294 0.07450980392156863 0.050980392156862744
0.7568627450980392 0.07450980392156863 0.050980392156862744
0.796078431372549 0.07058823529411765 0.047058823529411764
0.8313725490196079 0.07058823529411765 0.047058823529411764
0.8666666666666667 0.06666666666666667 0.050980392156862744
0.8941176470588236 0.06666666666666667 0.047058823529411764
0.9215686274509803 0.06666666666666667 0.043137254901960784
0.9450980392156862 0.06274509803921569 0.043137254901960784
0.9725490196078431 0.06274509803921569 0.043137254901960784
0.996078431372549 0.06274509803921569 0.043137254901960784
1.0 0.06274509803921569 0.0392156862745098
0.00784313725490196 0.03529411764705882 0.00784313725490196
0.011764705882352941 0.03529411764705882 0.011764705882352941
0.0196078431372549 0.03529411764705882 0.00784313725490196
0.03137254901960784 0.0392156862745098 0.01568627450980392
0.0392156862745098 0.0392156862745098 0.011764705882352941
0.058823529411764705 0.047058823529411764 0.01568627450980392
0.0784313725490196 0.047058823529411764 0.0196078431372549
0.10588235294117647 0.054901960784313725 0.027450980392156862
0.13725490196078433 0.058823529411764705 0.03137254901960784
0.17647058823529413 0.06666666666666667 0.0392156862745098
0.21568627450980393 0.07058823529411765 0.043137254901960784
0.2549019607843137 0.0784313725490196 0.050980392156862744
0.2901960784313726 0.08235294117647059 0.050980392156862744
0.3254901960784314 0.08235294117647059 0.050980392156862744
0.36470588235294116 0.08235294117647059 0.050980392156862744
0.40784313725490196 0.08627450980392157 0.058823529411764705
0.45098039215686275 0.08627450980392157 0.054901960784313725
0.49411764705882355 0.08627450980392157 0.058823529411764705
0.5411764705882353 0.08627450980392157 0.058823529411764705
0.592156862745098 0.08627450980392157 0.054901960784313725
0.6352941176470588 0.08627450980392157 0.058823529411764705
0.6745098039215687 0.08235294117647059 0.054901960784313725
0.7137254901960784 0.08235294117647059 0.050980392156862744
0.7568627450980392 0.0784313725490196 0.050980392156862744
0.796078431372549 0.0784313725490196 0.050980392156862744
0.8313725490196079 0.0784313725490196 0.047058823529411764
0.8627450980392157 0.08235294117647059 0.050980392156862744
0.8901960784313725 0.0784313725490196 0.043137254901960784
0.9215686274509803 0.0784313725490196 0.047058823529411764
0.9450980392156862 0.07450980392156863 0.043137254901960784
0.9686274509803922 0.07058823529411765 0.0392156862745098
0.996078431372549 0.07058823529411765 0.043137254901960784
1.0 0.07058823529411765 0.043137254901960784
0.011764705882352941 0.047058823529411764 0.01568627450980392
0.01568627450980392 0.047058823529411764 0.011764705882352941
0.023529411764705882 0.050980392156862744 0.011764705882352941
0.03137254901960784 0.050980392156862744 0.01568627450980392
0.043137254901960784 0.054901960784313725 0.01568627450980392
0.058823529411764705 0.058823529411764705 0.0196078431372549
0.08235294117647059 0.06274509803921569 0.023529411764705882
0.10196078431372549 0.06666666666666667 0.023529411764705882
0.13725490196078433 0.07450980392156863 0.03529411764705882
0.17647058823529413 0.08235294117647059 0.0392156862745098
0.21568627450980393 0.08627450980392157 0.043137254901960784
0.2549019607843137 0.09019607843137255 0.047058823529411764
0.2901960784313726 0.09411764705882353 0.050980392156862744
0.32941176470588235 0.09411764705882353 0.054901960784313725
0.3686274509803922 0.09803921568627451 0.058823529411764705
0.40784313725490196 0.09803921568627451 0.054901960784313725
0.4470588235294118 0.09803921568627451 0.058823529411764705
0.49411764705882355 0.09803921568627451 0.058823529411764705
0.5411764705882353 0.09803921568627451 0.058823529411764705
0.5843137254901961 0.09803921568627451 0.054901960784313725
0.6313725490196078 0.09803921568627451 0.050980392156862744
0.6745098039215687 0.09411764705882353 0.054901960784313725
0.7137254901960784 0.09411764705882353 0.050980392156862744
0.7529411764705882 0.09411764705882353 0.050980392156862744
0.792156862745098 0.09411764705882353 0.047058823529411764
0.8274509803921568 0.09019607843137255 0.043137254901960784
0.8588235294117647 0.09019607843137255 0.047058823529411764
0.8901960784313725 0.09019607843137255 0.047058823529411764
0.9176470588235294 0.08627450980392157 0.043137254901960784
0.9450980392156862 0.08627450980392157 0.0392156862745098
0.9686274509803922 0.08627450980392157 0.043137254901960784
0.9921568627450981 0.08235294117647059 0.0392156862745098
1.0 0.08235294117647059 0.0392156862745098
0.01568627450980392 0.06666666666666667 0.01568627450980392
0.0196078431372549 0.07058823529411765 0.0196078431372549
0.03137254901960784 0.07058823529411765 0.0196078431372549
0.0392156862745098 0.07058823529411765 0.0196078431372549
0.047058823529411764 0.07058823529411765 0.023529411764705882
0.06666666666666667 0.07450980392156863 0.027450980392156862
0.08235294117647059 0.08235294117647059 0.03137254901960784
0.10980392156862745 0.08627450980392157 0.03137254901960784
0.1411764705882353 0.09411764705882353 0.0392156862745098
0.17254901960784313 0.09803921568627451 0.043137254901960784
0.21568627450980393 0.10196078431372549 0.047058823529411764
0.25098039215686274 0.10980392156862745 0.050980392156862744
0.2823529411764706 0.10588235294117647 0.050980392156862744
0.3254901960784314 0.11372549019607843 0.054901960784313725
0.36470588235294116 0.11372549019607843 0.058823529411764705
0.403921568627451 0.11764705882352941 0.058823529411764705
0.44313725490196076 0.11372549019607843 0.054901960784313725
0.48627450980392156 0.11764705882352941 0.054901960784313725
0.5372549019607843 0.11764705882352941 0.058823529411764705
0.5803921568627451 0.11764705882352941 0.054901960784313725
0.6235294117647059 0.11372549019607843 0.050980392156862744
0.6705882352941176 0.11372549019607843 0.054901960784313725
0.7137254901960784 0.11372549019607843 0.050980392156862744
0.7568627450980392 0.10980392156862745 0.050980392156862744
0.792156862745098 0.10588235294117647 0.047058823529411764
0.8235294117647058 0.10588235294117647 0.043137254901960784
0.8509803921568627 0.10588235294117647 0.0392156862745098
0.8862745098039215 0.10588235294117647 0.043137254901960784
0.9098039215686274 0.10196078431372549 0.0392156862745098
0.9411764705882353 0.10196078431372549 0.0392156862745098
0.9686274509803922 0.10196078431372549 0.0392156862745098
0.9921568627450981 0.09803921568627451 0.03529411764705882
1.0 0.09803921568627451 0.03529411764705882
0.023529411764705882 0.08627450980392157 0.023529411764705882
0.027450980392156862 0.09019607843137255 0.023529411764705882
0.0392156862745098 0.09411764705882353 0.027450980392156862
0.047058823529411764 0.09411764705882353 0.027450980392156862
0.054901960784313725 0.09803921568627451 0.03137254901960784
0.07058823529411765 0.10196078431372549 0.03529411764705882
0.09019607843137255 0.10588235294117647 0.0392156862745098
0.10980392156862745 0.10588235294117647 0.0392156862745098
0.1411764705882353 0.11372549019607843 0.043137254901960784
0.17647058823529413 0.11764705882352941 0.047058823529411764
0.21568627450980393 0.12549019607843137 0.050980392156862744
0.25098039215686274 0.12941176470588237 0.054901960784313725
0.2823529411764706 0.12941176470588237 0.054901960784313725
0.3215686274509804 0.13333333333333333 0.058823529411764705
0.3568627450980392 0.13333333333333333 0.054901960784313725
0.403921568627451 0.13725490196078433 0.054901960784313725
0.44313725490196076 0.13725490196078433 0.058823529411764705
0.48627450980392156 0.13725490196078433 0.054901960784313725
0.5294117647058824 0.13333333333333333 0.054901960784313725
0.5764705882352941 0.13333333333333333 0.054901960784313725
0.6235294117647059 0.13333333333333333 0.054901960784313725
0.6666666666666666 0.13333333333333333 0.050980392156862744
0.7098039215686275 0.13333333333333333 0.047058823529411764
0.7450980392156863 0.12941176470588237 0.047058823529411764
0.788235294117647 0.12941176470588237 0.043137254901960784
0.8196078431372549 0.12941176470588237 0.043137254901960784
0.8509803921568627 0.12549019607843137 0.0392156862745098
0.8862745098039215 0.12549019607843137 0.0392156862745098
0.9058823529411765 0.12549019607843137 0.0392156862745098
0.9333333333333333 0.12156862745098039 0.0392156862745098
0.9647058823529412 0.12156862745098039 0.03529411764705882
0.984313725490196 0.11764705882352941 0.027450980392156862
1.0 0.11764705882352941 0.03529411764705882
0.03529411764705882 0.12156862745098039 0.03529411764705882
0.03529411764705882 0.12156862745098039 0.03529411764705882
0.047058823529411764 0.12941176470588237 0.03529411764705882
0.054901960784313725 0.12549019607843137 0.0392156862745098
0.06274509803921569 0.12941176470588237 0.0392156862745098
0.07450980392156863 0.13333333333333333 0.0392156862745098
0.09803921568627451 0.13725490196078433 0.047058823529411764
0.11764705882352941 0.1411764705882353 0.047058823529411764
0.1450980392156863 0.1450980392156863 0.050980392156862744
0.1803921568627451 0.14901960784313725 0.054901960784313725
0.20784313725490197 0.1450980392156863 0.050980392156862744
0.24313725490196078 0.15294117647058825 0.054901960784313725
0.2823529411764706 0.1568627450980392 0.058823529411764705
0.3215686274509804 0.1568627450980392 0.058823529411764705
0.3568627450980392 0.1607843137254902 0.054901960784313725
0.4 0.1607843137254902 0.058823529411764705
0.4392156862745098 0.1607843137254902 0.054901960784313725
0.48627450980392156 0.16470588235294117 0.054901960784313725
0.5215686274509804 0.1607843137254902 0.054901960784313725
0.5686274509803921 0.1607843137254902 0.054901960784313725
0.615686274509804 0.1568627450980392 0.047058823529411764
0.6627450980392157 0.1568627450980392 0.050980392156862744
0.7019607843137254 0.15294117647058825 0.047058823529411764
0.7450980392156863 0.15294117647058825 0.043137254901960784
0.7843137254901961 0.15294117647058825 0.043137254901960784
0.8156862745098039 0.14901960784313725 0.043137254901960784
0.8470588235294118 0.14901960784313725 0.0392156862745098
0.8784313725490196 0.15294117647058825 0.0392156862745098
0.9019607843137255 0.1450980392156863 0.03529411764705882
0.9333333333333333 0.1450980392156863 0.03529411764705882
0.9568627450980393 0.1450980392156863 0.03137254901960784
0.9882352941176471 0.1450980392156863 0.03137254901960784
1.0 0.1411764705882353 0.03137254901960784
0.043137254901960784 0.15294117647058825 0.043137254901960784
0.043137254901960784 0.15294117647058825 0.043137254901960784
0.050980392156862744 0.1607843137254902 0.043137254901960784
0.06274509803921569 0.16470588235294117 0.043137254901960784
0.07058823529411765 0.16470588235294117 0.047058823529411764
0.08235294117647059 0.1607843137254902 0.047058823529411764
0.10196078431372549 0.16470588235294117 0.050980392156862744
0.12156862745098039 0.16862745098039217 0.050980392156862744
0.14901960784313725 0.16862745098039217 0.054901960784313725
0.17647058823529413 0.17647058823529413 0.054901960784313725
0.21568627450980393 0.17647058823529413 0.058823529411764705
0.24313725490196078 0.17647058823529413 0.058823529411764705
0.2784313725490196 0.1803921568627451 0.058823529411764705
0.3137254901960784 0.1803921568627451 0.054901960784313725
0.34901960784313724 0.1843137254901961 0.058823529411764705
0.396078431372549 0.18823529411764706 0.054901960784313725
0.43137254901960786 0.1843137254901961 0.054901960784313725
0.4745098039215686 0.1843137254901961 0.054901960784313725
0.5176470588235295 0.1843137254901961 0.050980392156862744
0.5647058823529412 0.1843137254901961 0.050980392156862744
0.611764705882353 0.1843137254901961 0.047058823529411764
0.6549019607843137 0.1803921568627451 0.047058823529411764
0.6980392156862745 0.1803921568627451 0.047058823529411764
0.7372549019607844 0.1803921568627451 0.043137254901960784
0.7764705882352941 0.17647058823529413 0.0392156862745098
0.807843137254902 0.17254901960784313 0.0392156862745098
0.8431372549019608 0.17647058823529413 0.0392156862745098
0.8705882352941177 0.17254901960784313 0.03529411764705882
0.8980392156862745 0.17254901960784313 0.03137254901960784
0.9254901960784314 0.16862745098039217 0.03137254901960784
0.9529411764705882 0.17254901960784313 0.027450980392156862
0.9803921568627451 0.17254901960784313 0.027450980392156862
1.0 0.16862745098039217 0.027450980392156862
0.050980392156862744 0.18823529411764706 0.047058823529411764
0.050980392156862744 0.19215686274509805 0.047058823529411764
0.058823529411764705 0.19215686274509805 0.050980392156862744
0.06666666666666667 0.19607843137254902 0.050980392156862744
0.07450980392156863 0.19607843137254902 0.050980392156862744
0.08627450980392157 0.19607843137254902 0.050980392156862744
0.10196078431372549 0.19607843137254902 0.050980392156862744
0.12156862745098039 0.2 0.054901960784313725
0.14901960784313725 0.2 0.054901960784313725
0.17647058823529413 0.2 0.054901960784313725
0.20784313725490197 0.2 0.054901960784313725
0.23921568627450981 0.20392156862745098 0.058823529411764705
0.27450980392156865 0.20784313725490197 0.054901960784313725
0.30980392156862746 0.20784313725490197 0.054901960784313725
0.34901960784313724 0.21176470588235294 0.054901960784313725
0.3843137254901961 0.20784313725490197 0.054901960784313725
0.42745098039215684 0.20784313725490197 0.054901960784313725
0.47058823529411764 0.21176470588235294 0.054901960784313725
0.5098039215686274 0.21176470588235294 0.050980392156862744
0.5568627450980392 0.21176470588235294 0.050980392156862744
0.6078431372549019 0.21176470588235294 0.050980392156862744
0.6431372549019608 0.20784313725490197 0.043137254901960784
0.6941176470588235 0.21176470588235294 0.043137254901960784
0.7333333333333333 0.20784313725490197 0.0392156862745098
0.7686274509803922 0.20784313725490197 0.0392156862745098
0.8 0.20392156862745098 0.03529411764705882
0.8392156862745098 0.20392156862745098 0.03529411764705882
0.8627450980392157 0.2 0.03137254901960784
0.8980392156862745 0.2 0.03137254901960784
0.9215686274509803 0.19607843137254902 0.027450980392156862
0.9490196078431372 0.19607843137254902 0.027450980392156862
0.9725490196078431 0.19215686274509805 0.023529411764705882
1.0 0.19215686274509805 0.027450980392156862
0.054901960784313725 0.2196078431372549 0.050980392156862744
0.054901960784313725 0.2196078431372549 0.050980392156862744
0.058823529411764705 0.2196078431372549 0.050980392156862744
0.07058823529411765 0.22745098039215686 0.054901960784313725
0.0784313725490196 0.2235294117647059 0.054901960784313725
0.09019607843137255 0.22745098039215686 0.054901960784313725
0.10588235294117647 0.23137254901960785 0.058823529411764705
0.12549019607843137 0.23137254901960785 0.058823529411764705
0.14901960784313725 0.23137254901960785 0.054901960784313725
0.17647058823529413 0.23137254901960785 0.058823529411764705
0.21176470588235294 0.23529411764705882 0.054901960784313725
0.23921568627450981 0.23529411764705882 0.058823529411764705
0.27058823529411763 0.23529411764705882 0.058823529411764705
0.30980392156862746 0.23529411764705882 0.058823529411764705
0.34509803921568627 0.23921568627450981 0.054901960784313725
0.3764705882352941 0.23529411764705882 0.050980392156862744
0.4196078431372549 0.23921568627450981 0.054901960784313725
0.4627450980392157 0.23921568627450981 0.050980392156862744
0.5019607843137255 0.23921568627450981 0.047058823529411764
0.5529411764705883 0.23529411764705882 0.047058823529411764
0.592156862745098 0.23529411764705882 0.0392156862745098
0.6392156862745098 0.23921568627450981 0.043137254901960784
0.6862745098039216 0.23529411764705882 0.0392156862745098
0.7254901960784313 0.23529411764705882 0.03529411764705882
0.7607843137254902 0.22745098039215686 0.03529411764705882
0.796078431372549 0.23529411764705882 0.03137254901960784
0.8313725490196079 0.23137254901960785 0.03137254901960784
0.8588235294117647 0.22745098039215686 0.027450980392156862
0.8901960784313725 0.22745098039215686 0.027450980392156862
0.9215686274509803 0.22745098039215686 0.023529411764705882
0.9450980392156862 0.2235294117647059 0.023529411764705882
0.9725490196078431 0.2235294117647059 0.0196078431372549
0.996078431372549 0.2235294117647059 0.0196078431372549
0.054901960784313725 0.2549019607843137 0.054901960784313725
0.054901960784313725 0.2549019607843137 0.054901960784313725
0.058823529411764705 0.2549019607843137 0.054901960784313725
0.07058823529411765 0.25882352941176473 0.058823529411764705
0.08235294117647059 0.25882352941176473 0.058823529411764705
0.09019607843137255 0.25882352941176473 0.054901960784313725
0.10980392156862745 0.25882352941176473 0.058823529411764705
0.12156862745098039 0.25882352941176473 0.054901960784313725
0.14901960784313725 0.25882352941176473 0.054901960784313725
0.1803921568627451 0.25882352941176473 0.058823529411764705
0.20392156862745098 0.2627450980392157 0.054901960784313725
0.23529411764705882 0.2627450980392157 0.054901960784313725
