cubelut/Landscape8.cube
# Created by Adobe Lightroom plugin Export LUT (1.18.0)
# www.johnrellis.com/lightroom/exportlut.htm
# Preset: Landscape8
# Color profile: /Library/Application Support/Adobe/Color/Profiles/Recommended/AdobeRGB1998.icc
LUT_3D_SIZE 8
DOMAIN_MIN 0.000000 0.000000 0.000000
DOMAIN_MAX 0.903226 0.903226 0.903226
0.110872 0.101137 0.108827
0.148348 0.104707 0.114839
0.227695 0.116274 0.128725
0.345251 0.128634 0.146639
0.502586 0.150729 0.175479
0.682429 0.189090 0.216403
0.849577 0.259586 0.282170
0.967468 0.376532 0.387213
0.132509 0.135744 0.119966
0.161532 0.141299 0.120394
0.239963 0.148013 0.130404
0.360327 0.162203 0.148623
0.518456 0.187472 0.177920
0.696925 0.225864 0.220005
0.857511 0.290532 0.286748
0.970550 0.397742 0.392218
0.176486 0.199710 0.145113
0.196139 0.201480 0.148226
0.260563 0.223423 0.146242
0.371862 0.246769 0.157229
0.533532 0.281865 0.181735
0.707698 0.317815 0.219577
0.857115 0.364233 0.284642
0.969390 0.446693 0.391089
0.236271 0.286168 0.176150
0.252567 0.288853 0.178805
0.303349 0.295659 0.187411
0.397742 0.341375 0.178775
0.535515 0.381048 0.193393
0.707851 0.434974 0.227512
0.862028 0.474952 0.293309
0.973419 0.531579 0.399329
0.310307 0.393256 0.213443
0.323644 0.395483 0.215640
0.367681 0.401770 0.223117
0.444800 0.428656 0.228580
0.572625 0.498268 0.222354
0.723903 0.548943 0.249119
0.867124 0.593774 0.319646
0.971008 0.640711 0.431250
0.393530 0.515984 0.253605
0.403113 0.514977 0.254490
0.442695 0.522210 0.261326
0.508629 0.534752 0.274235
0.618189 0.595148 0.278721
0.749416 0.664515 0.287419
0.867491 0.696895 0.347082
0.967102 0.734920 0.469368
0.493812 0.663325 0.305089
0.503502 0.664240 0.306859
0.539940 0.671229 0.315373
0.600153 0.681727 0.330449
0.680323 0.696773 0.354345
0.790463 0.763180 0.370062
0.889158 0.805356 0.411322
0.965606 0.824949 0.515801
0.613428 0.815183 0.401465
0.622156 0.816312 0.404486
0.651637 0.819577 0.414954
0.700465 0.824369 0.433143
0.770596 0.836942 0.469673
0.844205 0.856138 0.505119
0.922759 0.895171 0.539605
0.983764 0.915740 0.603357
0.108370 0.105837 0.143679
0.149599 0.105592 0.147860
0.229953 0.128084 0.162814
0.348608 0.148531 0.190280
0.509911 0.169223 0.220279
0.693141 0.207675 0.260899
0.855741 0.283330 0.324437
0.968902 0.405585 0.426093
0.124788 0.143221 0.147951
0.158907 0.145235 0.155520
0.237644 0.157290 0.170169
0.358404 0.173953 0.190616
0.519646 0.199374 0.220981
0.701289 0.239322 0.262425
0.861601 0.310521 0.327916
0.971801 0.425696 0.431464
0.167453 0.206821 0.157717
0.198672 0.209567 0.175631
0.259617 0.226444 0.177340
0.375219 0.252567 0.191379
0.540002 0.287205 0.220127
0.714015 0.326177 0.260594
0.864836 0.380591 0.326757
0.971771 0.470649 0.430884
0.234897 0.295354 0.193301
0.255619 0.297948 0.202762
0.307042 0.303990 0.210727
0.404120 0.349554 0.207706
0.549584 0.393042 0.226474
0.722530 0.445808 0.264500
0.871275 0.487312 0.331914
0.975708 0.549432 0.437293
0.310979 0.399573 0.232822
0.324895 0.402106 0.235142
0.370306 0.409094 0.242832
0.448493 0.434150 0.251469
0.579522 0.506615 0.249241
0.730709 0.556268 0.278660
0.870970 0.601373 0.350103
0.972168 0.650782 0.461280
0.394965 0.523369 0.270787
0.406592 0.525231 0.272831
0.447028 0.532219 0.279728
0.513420 0.543786 0.292210
0.620417 0.598993 0.299351
0.750546 0.667323 0.310094
0.868803 0.700526 0.371313
0.967559 0.741634 0.493935
0.496132 0.671321 0.322087
0.507256 0.673793 0.324743
0.543542 0.679713 0.332708
0.603021 0.688441 0.346990
0.682399 0.701747 0.370031
0.791775 0.765927 0.389502
0.890929 0.809262 0.434089
0.966888 0.830320 0.538720
0.614893 0.818967 0.415839
0.623224 0.819608 0.418311
0.652583 0.822568 0.428565
0.701259 0.826963 0.446235
0.766690 0.834836 0.475929
0.842130 0.854612 0.513970
0.922240 0.895689 0.551965
0.983612 0.917357 0.616358
0.103456 0.115175 0.205966
0.138186 0.117494 0.209445
0.225284 0.124971 0.222354
0.340307 0.136904 0.242130
0.493874 0.174746 0.287358
0.677821 0.240940 0.349187
0.843290 0.327855 0.413672
0.957397 0.464698 0.510460
0.139559 0.157290 0.211368
0.154849 0.152132 0.216464
0.232639 0.155734 0.228733
0.348455 0.171267 0.250950
0.504021 0.212131 0.297673
0.685878 0.266209 0.352453
0.848081 0.349187 0.416358
0.959258 0.479225 0.513542
0.159854 0.219913 0.220676
0.183536 0.222934 0.226566
0.254459 0.233829 0.246860
0.368383 0.255985 0.270665
0.522667 0.289128 0.305364
0.698695 0.334874 0.349859
0.854337 0.407477 0.416052
0.961975 0.518334 0.515862
0.199039 0.300847 0.217716
0.219120 0.305333 0.224277
0.302556 0.318639 0.267521
0.395697 0.350500 0.274784
0.541833 0.392645 0.301152
0.714626 0.442481 0.346075
0.863462 0.497322 0.413306
0.965728 0.581170 0.517906
0.271824 0.406592 0.243351
0.295933 0.410315 0.257694
0.365881 0.421790 0.295323
0.440314 0.432166 0.307988
0.569207 0.503960 0.314519
0.724605 0.556634 0.350988
0.866087 0.610346 0.423255
0.966461 0.668391 0.530816
0.366949 0.529534 0.288334
0.386633 0.533257 0.301091
0.442573 0.543938 0.328435
0.512078 0.556054 0.341314
0.614435 0.598566 0.356420
0.747402 0.670558 0.374670
0.866789 0.707088 0.439216
0.962982 0.753445 0.552026
0.474922 0.674708 0.345281
0.492012 0.677607 0.357275
0.535698 0.685115 0.375189
0.598108 0.694942 0.390143
0.679225 0.708431 0.413306
0.785611 0.764187 0.440131
0.885039 0.809537 0.485664
0.962127 0.834012 0.582757
0.604211 0.821195 0.444007
0.617212 0.822416 0.453925
0.647944 0.825834 0.464607
0.696437 0.829221 0.480629
0.762692 0.837339 0.508995
0.837522 0.851957 0.545861
0.917723 0.894499 0.585595
0.979828 0.917967 0.645563
0.080171 0.127993 0.290684
0.124666 0.130343 0.293034
0.215610 0.135409 0.304631
0.331334 0.137575 0.324498
0.476020 0.135439 0.350378
0.659266 0.191012 0.406500
0.833158 0.324346 0.483192
0.946563 0.527062 0.601892
0.128786 0.169711 0.293614
0.140352 0.160922 0.297185
0.222141 0.163333 0.308690
0.335851 0.165682 0.328252
0.480659 0.169436 0.353460
0.665400 0.230045 0.413428
0.836149 0.360601 0.493996
0.946441 0.552880 0.614466
0.166293 0.241825 0.303258
0.189242 0.243076 0.307897
0.243229 0.237613 0.324743
0.355291 0.244968 0.344396
0.500237 0.269200 0.373724
0.677760 0.336736 0.435920
0.836240 0.458991 0.525689
0.946410 0.588434 0.621729
0.194217 0.322820 0.314092
0.214939 0.326329 0.319219
0.280797 0.338598 0.337102
0.390478 0.362982 0.373114
0.535882 0.401465 0.410163
0.704128 0.456764 0.461341
0.850004 0.536095 0.533043
0.952239 0.633936 0.622827
0.242924 0.409674 0.303868
0.260624 0.414954 0.309606
0.318730 0.432502 0.329381
0.437781 0.457710 0.388220
0.558007 0.506493 0.406104
0.717464 0.562951 0.452216
0.858366 0.625330 0.528527
0.958495 0.696376 0.622370
0.293004 0.534661 0.303166
0.312200 0.536736 0.310460
0.390112 0.551202 0.352361
0.502159 0.572381 0.412879
0.597681 0.590234 0.432563
0.736233 0.670954 0.462287
0.860472 0.716823 0.532891
0.956878 0.772335 0.631495
0.412848 0.680507 0.354864
0.431342 0.682460 0.365637
0.493843 0.690181 0.403571
0.583276 0.701930 0.452491
0.667750 0.714809 0.475319
0.771633 0.757565 0.509056
0.876707 0.811368 0.559228
0.957549 0.843137 0.649805
0.556451 0.824216 0.448249
0.570611 0.824704 0.458045
0.619043 0.827298 0.492622
0.684230 0.832303 0.529961
0.752865 0.840574 0.556359
0.828733 0.850980 0.591058
0.910155 0.892515 0.633478
0.974640 0.919738 0.688869
0.000000 0.144900 0.386572
0.091768 0.146029 0.388952
0.203281 0.148775 0.399695
0.319890 0.149111 0.417639
0.459144 0.146639 0.444526
0.630243 0.140169 0.484169
0.809659 0.233555 0.533379
0.940124 0.450782 0.618097
0.084474 0.180819 0.390051
0.107881 0.172671 0.392096
0.208682 0.174289 0.402289
0.324071 0.175723 0.421149
0.463691 0.176730 0.448249
0.633753 0.177920 0.486275
0.812039 0.270787 0.538262
0.940063 0.477943 0.626429
0.173251 0.266239 0.398291
0.195590 0.266697 0.402930
0.226352 0.245304 0.415991
0.339544 0.251041 0.434424
0.480201 0.259983 0.462043
0.648280 0.275578 0.495888
0.821500 0.382818 0.560296
0.940490 0.563897 0.658015
0.197635 0.350530 0.408911
0.218631 0.352819 0.413367
0.284337 0.359319 0.428199
0.369970 0.359533 0.456794
0.507744 0.375708 0.484352
0.673243 0.416297 0.522454
0.832639 0.536126 0.606683
0.940398 0.674128 0.707210
0.234867 0.444526 0.420417
0.253513 0.447761 0.424537
0.314763 0.459907 0.440284
0.413764 0.482918 0.470253
0.552728 0.522850 0.521630
0.712245 0.582574 0.576623
0.849363 0.657465 0.645991
0.947753 0.735592 0.720394
0.291508 0.538689 0.405158
0.307256 0.543481 0.409735
0.360967 0.560723 0.427039
0.450782 0.589960 0.458717
0.598871 0.624659 0.533959
0.728328 0.680171 0.567559
0.856382 0.734279 0.635706
0.952880 0.792569 0.715480
0.353704 0.685695 0.411810
0.368353 0.689143 0.415839
0.417273 0.700099 0.430426
0.521202 0.714687 0.479591
0.655634 0.731350 0.556573
0.754696 0.750301 0.586664
0.868986 0.817014 0.642817
0.955261 0.856565 0.723964
0.480079 0.834592 0.460883
0.497871 0.835416 0.470741
0.554925 0.837858 0.503624
0.638727 0.839567 0.554040
0.736172 0.846555 0.613642
0.816556 0.857328 0.645533
0.900023 0.890135 0.687678
0.969879 0.923919 0.741421
0.000000 0.162631 0.496010
0.000000 0.162844 0.498726
0.178225 0.163333 0.509789
0.311528 0.161563 0.527306
0.449928 0.156374 0.552850
0.609552 0.153567 0.586206
0.785946 0.179202 0.627680
0.926146 0.321782 0.653498
0.000000 0.194034 0.503319
0.000000 0.187655 0.506340
0.182467 0.187839 0.516136
0.315801 0.187106 0.533135
0.454261 0.185122 0.557824
0.614130 0.187320 0.590448
0.788693 0.216220 0.629938
0.927184 0.354498 0.658534
0.148440 0.288609 0.510124
0.156649 0.281468 0.513695
0.192599 0.255100 0.525109
0.324681 0.258488 0.541802
0.463722 0.263615 0.566705
0.624628 0.275425 0.599207
0.794064 0.311650 0.634424
0.928405 0.450141 0.675441
0.196963 0.379431 0.516167
0.218112 0.380926 0.520928
0.284123 0.384161 0.536309
0.343023 0.359411 0.556603
0.480262 0.370367 0.579797
0.640436 0.390906 0.611933
0.801022 0.435157 0.642054
0.929656 0.579034 0.707332
0.227634 0.484596 0.532921
0.247532 0.486213 0.536156
0.309911 0.492103 0.548241
0.406592 0.501610 0.570397
0.516258 0.505211 0.606165
0.671962 0.533776 0.638972
0.820340 0.595148 0.676051
0.935729 0.721157 0.762203
0.275425 0.590295 0.544030
0.292302 0.592157 0.546777
0.349279 0.601251 0.558679
0.440803 0.618036 0.581476
0.564355 0.644312 0.618006
0.713954 0.688228 0.676020
0.848234 0.752102 0.737423
0.945861 0.814908 0.799771
0.345464 0.684352 0.520134
0.358740 0.686244 0.522545
0.404974 0.694850 0.532860
0.484443 0.711666 0.554864
0.592676 0.736965 0.593225
0.742275 0.767239 0.676783
0.857084 0.820920 0.725521
0.951812 0.869200 0.795590
0.455207 0.834012 0.547082
0.467597 0.835416 0.550591
0.508659 0.839963 0.562615
0.572778 0.846830 0.582666
0.672786 0.855436 0.630396
0.797147 0.865141 0.708125
0.882689 0.882170 0.742336
0.963439 0.928130 0.798550
0.000000 0.186923 0.652430
0.000000 0.186160 0.653620
0.114748 0.184115 0.660670
0.300908 0.179690 0.672755
0.450690 0.174228 0.690791
0.603082 0.174228 0.713863
0.765286 0.198550 0.741207
0.916045 0.303960 0.766293
0.000000 0.213687 0.656886
0.000000 0.209201 0.658167
0.113313 0.207370 0.665003
0.302525 0.204623 0.677363
0.453742 0.202274 0.695247
0.607172 0.206210 0.718410
0.770077 0.233371 0.745724
0.918944 0.336584 0.770169
0.000000 0.311406 0.658686
0.000000 0.302281 0.661067
0.108003 0.272831 0.669673
0.304112 0.274052 0.681941
0.458167 0.277928 0.699977
0.611566 0.288426 0.722377
0.773556 0.318547 0.748470
0.917906 0.409400 0.771359
0.177584 0.423499 0.661036
0.203403 0.422614 0.664302
0.262089 0.412634 0.674281
0.310735 0.371283 0.688716
0.466407 0.381018 0.706203
0.618860 0.397070 0.727596
0.779995 0.432959 0.753323
0.918364 0.511742 0.776059
0.218204 0.529290 0.668635
0.240269 0.529381 0.671168
0.306615 0.528649 0.679042
0.403632 0.528038 0.694667
0.487434 0.504021 0.717250
0.639796 0.527886 0.739315
0.795132 0.567132 0.766354
0.922026 0.631769 0.788235
0.265934 0.646082 0.681666
0.284550 0.646509 0.683436
0.343938 0.647791 0.689815
0.434058 0.649653 0.700862
0.550561 0.655116 0.719081
0.672694 0.663905 0.750729
0.812131 0.699458 0.781094
0.929290 0.760403 0.816068
0.333074 0.749905 0.683040
0.348058 0.750393 0.684535
0.399298 0.753201 0.690761
0.480293 0.758267 0.702602
0.587610 0.768032 0.723140
0.713649 0.786587 0.756558
0.844541 0.827329 0.813230
0.949218 0.885832 0.873777
0.453834 0.839597 0.661219
0.465064 0.840452 0.663172
0.498848 0.841398 0.667750
0.557977 0.846159 0.679194
0.641444 0.855314 0.701350
0.741695 0.870970 0.738491
0.864775 0.891203 0.810971
0.956023 0.933501 0.861784
0.000000 0.229252 0.825010
0.000000 0.228489 0.825650
0.000000 0.227573 0.829679
0.280552 0.225925 0.835569
0.447791 0.227237 0.844388
0.598871 0.237186 0.855741
0.749325 0.268620 0.868772
0.897032 0.337713 0.884001
0.000000 0.250126 0.826871
0.000000 0.249577 0.827481
0.000000 0.248814 0.831235
0.281498 0.248447 0.837369
0.449348 0.251133 0.846036
0.600946 0.262425 0.857267
0.751492 0.294774 0.870542
0.898711 0.363195 0.885710
0.000000 0.347875 0.827665
0.000000 0.338140 0.828885
0.000000 0.312261 0.834043
0.283055 0.313481 0.838773
0.453040 0.319921 0.847684
0.605798 0.335149 0.859342
0.755642 0.368109 0.872435
0.900847 0.432654 0.887327
0.174014 0.475746 0.826444
0.185183 0.469337 0.827573
0.221805 0.446601 0.832792
0.290959 0.406928 0.840757
0.461372 0.416907 0.849302
0.614405 0.435706 0.860563
0.761776 0.469215 0.873686
0.903471 0.525841 0.889006
0.247868 0.585534 0.828153
0.268009 0.583886 0.828733
0.330968 0.579339 0.832395
0.421363 0.570001 0.838529
0.479713 0.530205 0.851347
0.631250 0.552239 0.863127
0.772549 0.583307 0.876768
0.908415 0.633997 0.892790
0.318151 0.702022 0.834501
0.335332 0.701595 0.835447
0.388952 0.699428 0.838163
0.468482 0.694209 0.842100
0.569909 0.689845 0.849393
0.656153 0.671565 0.863737
0.787716 0.698116 0.878264
0.914183 0.738491 0.897337
0.398444 0.817838 0.842954
0.412146 0.817624 0.843778
0.455634 0.816495 0.846220
0.523461 0.813565 0.849790
0.611902 0.810239 0.855528
0.712490 0.808469 0.864714
0.811887 0.809995 0.885527
0.926696 0.842588 0.910033
0.493874 0.912078 0.841917
0.504234 0.912169 0.842954
0.537285 0.911498 0.845579
0.590784 0.909422 0.849393
0.661769 0.907500 0.856321
0.745968 0.907164 0.867765
0.841123 0.912627 0.888060
0.947784 0.940978 0.933715
