cubelut/Landscape7.cube
# Created by Adobe Lightroom plugin Export LUT (1.18.0)
# www.johnrellis.com/lightroom/exportlut.htm
# Preset: Landscape7
# Color profile: /Library/Application Support/Adobe/Color/Profiles/Recommended/AdobeRGB1998.icc
LUT_3D_SIZE 5
DOMAIN_MIN 0.000000 0.000000 0.000000
DOMAIN_MAX 0.903226 0.903226 0.903226
0.000000 0.000000 0.000000
0.165408 0.069429 0.076356
0.480385 0.086732 0.131167
0.845090 0.196780 0.259648
1.000000 0.476600 0.473976
0.066926 0.176699 0.068879
0.178256 0.183536 0.077363
0.493965 0.237461 0.139162
0.849790 0.314092 0.269108
1.000000 0.518822 0.482368
0.127413 0.463752 0.097658
0.259983 0.468147 0.105776
0.511101 0.496468 0.133669
0.854398 0.544701 0.286076
1.000000 0.639979 0.513481
0.253819 0.781643 0.183780
0.358495 0.782071 0.192691
0.584833 0.783352 0.223239
0.844175 0.802396 0.293370
1.000000 0.793240 0.533288
0.492592 0.969329 0.400244
0.540703 0.967773 0.409064
0.676631 0.962646 0.441932
0.842802 0.955932 0.504448
0.988708 0.953918 0.601587
0.053010 0.033417 0.199313
0.185336 0.039734 0.191684
0.477394 0.125246 0.256901
0.833585 0.308690 0.387488
1.000000 0.576745 0.571618
0.017700 0.188449 0.191012
0.187808 0.201663 0.203708
0.482399 0.268925 0.277256
0.838590 0.382696 0.391974
1.000000 0.606165 0.577905
0.017334 0.466590 0.225559
0.248936 0.472084 0.244175
0.509026 0.497932 0.270665
0.851438 0.567926 0.405768
0.999847 0.694728 0.599451
0.206821 0.782803 0.270512
0.365332 0.780789 0.311803
0.588952 0.782467 0.334630
0.841245 0.801785 0.395605
0.993103 0.813809 0.611261
0.535332 0.965209 0.475929
0.578119 0.963745 0.483986
0.700069 0.958862 0.512230
0.852110 0.953368 0.567285
0.986023 0.953674 0.651789
0.148562 0.000000 0.490974
0.292699 0.000000 0.486275
0.524010 0.000000 0.471046
0.838254 0.126070 0.494881
0.992340 0.623285 0.664057
0.000000 0.214054 0.479438
0.245914 0.213901 0.477241
0.519188 0.197848 0.469856
0.834257 0.347509 0.515923
0.983246 0.695705 0.702266
0.000000 0.495674 0.463630
0.221683 0.498421 0.466102
0.543114 0.536400 0.500008
0.829679 0.646418 0.605158
0.977325 0.784939 0.744259
0.203647 0.781674 0.482460
0.342962 0.782498 0.490700
0.618738 0.785245 0.544640
0.835874 0.803311 0.597467
0.979339 0.857145 0.757412
0.525628 0.965698 0.568322
0.596246 0.961303 0.593408
0.753079 0.951080 0.663172
0.869841 0.948547 0.696407
0.979858 0.954223 0.757656
0.255314 0.000000 0.777707
0.371283 0.000000 0.776028
0.618067 0.000000 0.771939
0.857420 0.000000 0.751217
1.000000 0.371527 0.692531
0.207462 0.242618 0.771603
0.344518 0.237308 0.770809
0.606561 0.217197 0.768093
0.852628 0.249180 0.750057
1.000000 0.478920 0.706783
0.128908 0.537682 0.765286
0.315526 0.542168 0.764004
0.602533 0.560784 0.760525
0.840299 0.572869 0.751949
0.983185 0.730465 0.779049
0.245090 0.797147 0.744198
0.373114 0.796567 0.744228
0.620539 0.797421 0.747707
0.840879 0.818936 0.774105
0.969329 0.892088 0.861814
0.542077 0.962341 0.730251
0.603632 0.958862 0.739956
0.743923 0.951110 0.768887
0.881163 0.947326 0.817868
0.973541 0.956359 0.857847
0.333501 0.152224 0.965087
0.413184 0.162448 0.964508
0.607813 0.198459 0.962341
0.831754 0.265690 0.958648
1.000000 0.416419 0.934386
0.364935 0.332341 0.962402
0.437964 0.338689 0.961791
0.621668 0.361456 0.959655
0.834501 0.404700 0.956207
1.000000 0.511803 0.934264
0.465003 0.594537 0.954894
0.557153 0.625849 0.952300
0.695308 0.648157 0.950011
0.850309 0.661372 0.948302
0.987549 0.699458 0.934356
0.535119 0.790066 0.947784
0.597986 0.799252 0.946838
0.738735 0.823423 0.944488
0.870787 0.846159 0.941955
0.974395 0.853513 0.936950
0.624598 0.958312 0.938567
0.665461 0.957671 0.938293
0.768582 0.955779 0.937346
0.877470 0.954986 0.937804
0.969543 0.962066 0.948180
