cubelut/Landscape5.cube
# Created by Adobe Lightroom plugin Export LUT (1.18.0)
# www.johnrellis.com/lightroom/exportlut.htm
# Preset: Landscape5
# Color profile: /Library/Application Support/Adobe/Color/Profiles/Recommended/AdobeRGB1998.icc
LUT_3D_SIZE 8
DOMAIN_MIN 0.000000 0.000000 0.000000
DOMAIN_MAX 0.903226 0.903226 0.903226
0.000000 0.000000 0.000000
0.084413 0.012634 0.019135
0.166629 0.011902 0.042267
0.274022 0.000000 0.051026
0.425940 0.000000 0.053742
0.622217 0.000000 0.019287
0.821805 0.000000 0.000000
0.971832 0.000000 0.000000
0.001740 0.096834 0.032166
0.082612 0.099428 0.026703
0.162905 0.091310 0.042390
0.270146 0.085420 0.051270
0.421515 0.016785 0.049928
0.618616 0.000000 0.007050
0.819791 0.000000 0.000000
0.970825 0.000000 0.000000
0.000000 0.187137 0.063508
0.064973 0.188388 0.063325
0.164736 0.192935 0.051911
0.258122 0.181796 0.046296
0.397864 0.184329 0.031891
0.594324 0.171145 0.000000
0.803006 0.092287 0.000000
0.962921 0.000000 0.000000
0.000000 0.302129 0.074342
0.000000 0.303349 0.074067
0.149844 0.306126 0.072786
0.277897 0.310063 0.028840
0.396735 0.299474 0.000000
0.549462 0.292943 0.000000
0.775051 0.296513 0.000000
0.950866 0.264988 0.000000
0.000000 0.457465 0.068208
0.000000 0.458106 0.067109
0.144320 0.459663 0.062440
0.287938 0.464057 0.001373
0.444282 0.463020 0.000000
0.591058 0.448005 0.000000
0.763333 0.439460 0.000000
0.932708 0.421393 0.000000
0.000000 0.643214 0.000000
0.000000 0.642451 0.000000
0.097505 0.643275 0.000000
0.291356 0.644068 0.000000
0.473243 0.648646 0.000000
0.651698 0.640589 0.000000
0.796933 0.607233 0.000000
0.939147 0.581842 0.000000
0.000000 0.816190 0.000000
0.000000 0.815946 0.000000
0.000000 0.815915 0.000000
0.283879 0.815091 0.000000
0.451911 0.813382 0.000000
0.651881 0.811368 0.000000
0.829374 0.798337 0.000000
0.953918 0.747768 0.000000
0.000000 0.948730 0.102602
0.000000 0.948638 0.102022
0.000000 0.948119 0.098543
0.277134 0.946777 0.090608
0.447730 0.945708 0.082277
0.611444 0.942657 0.000000
0.793210 0.937285 0.000000
0.958373 0.926360 0.000000
0.000000 0.024903 0.101778
0.079561 0.033143 0.102998
0.165469 0.065187 0.115602
0.278141 0.000000 0.117372
0.435309 0.000000 0.115175
0.633692 0.000000 0.108248
0.829404 0.000000 0.096437
0.975555 0.000000 0.098573
0.001556 0.099428 0.101900
0.078828 0.101503 0.105013
0.164187 0.101106 0.109163
0.274174 0.087739 0.111513
0.429664 0.000000 0.111849
0.628534 0.000000 0.104372
0.826810 0.000000 0.090974
0.974578 0.000000 0.092927
0.000000 0.187686 0.116609
0.072267 0.189517 0.114809
0.163241 0.193637 0.108400
0.259342 0.180484 0.100069
0.407141 0.182803 0.100069
0.605249 0.159884 0.088441
0.811582 0.013825 0.064912
0.967193 0.000000 0.064302
0.000000 0.303563 0.137606
0.000000 0.305150 0.122927
0.151553 0.307836 0.121248
0.279301 0.312200 0.102235
0.401404 0.300023 0.084749
0.562371 0.293614 0.045045
0.784360 0.291051 0.000000
0.955261 0.256077 0.000000
0.000000 0.458228 0.153445
0.000000 0.460182 0.121004
0.140963 0.461860 0.118288
0.285801 0.466041 0.104005
0.446876 0.465644 0.050965
0.594781 0.448157 0.000000
0.765927 0.435920 0.000000
0.936522 0.417700 0.000000
0.000000 0.644678 0.144808
0.000000 0.645960 0.096468
0.078798 0.646571 0.090608
0.289433 0.646845 0.078523
0.471290 0.650202 0.000000
0.652705 0.641505 0.000000
0.798398 0.606531 0.000000
0.940337 0.579370 0.000000
0.000000 0.817319 0.137697
0.000000 0.818418 0.080751
0.000000 0.818112 0.073640
0.281102 0.816770 0.054444
0.451514 0.814542 0.000000
0.650690 0.812284 0.000000
0.830259 0.799283 0.000000
0.955261 0.747768 0.000000
0.000000 0.948577 0.185092
0.000000 0.949218 0.156497
0.000000 0.948608 0.154208
0.280278 0.947143 0.149325
0.448890 0.945098 0.141787
0.610529 0.942412 0.100954
0.792477 0.937530 0.000000
0.958556 0.926665 0.000000
0.000000 0.052674 0.191318
0.056397 0.056916 0.190890
0.158145 0.066468 0.195377
0.280888 0.064363 0.219638
0.448554 0.000000 0.246830
0.657923 0.000000 0.265110
0.845426 0.000000 0.232151
0.982696 0.000000 0.224308
0.000000 0.118990 0.191287
0.053376 0.107790 0.192538
0.158816 0.110567 0.196872
0.281071 0.114229 0.219181
0.450233 0.064515 0.242924
0.655970 0.000000 0.242557
0.843503 0.000000 0.217014
0.981353 0.000000 0.220798
0.000000 0.194186 0.195773
0.068757 0.195346 0.197299
0.166049 0.204227 0.207675
0.280095 0.194583 0.205447
0.438025 0.173861 0.206455
0.635889 0.098878 0.204379
0.829831 0.000000 0.201297
0.975067 0.000000 0.206516
0.000000 0.306584 0.216983
0.038666 0.307805 0.217441
0.157534 0.314977 0.212924
0.281834 0.317662 0.200595
0.408240 0.293889 0.180911
0.593591 0.288060 0.174716
0.803189 0.266209 0.169894
0.963104 0.222141 0.176547
0.000000 0.462928 0.244511
0.000000 0.463996 0.241794
0.126680 0.468971 0.217136
0.276463 0.469642 0.212375
0.449592 0.469032 0.185580
0.600488 0.443153 0.157168
0.768368 0.418463 0.117983
0.945037 0.403052 0.117464
0.000000 0.648127 0.264103
0.000000 0.648707 0.258946
0.000000 0.652247 0.213504
0.281834 0.652125 0.207736
0.462806 0.653193 0.186069
0.655116 0.644068 0.140871
0.801602 0.602472 0.097841
0.941527 0.567834 0.000000
0.000000 0.817563 0.278325
0.000000 0.817685 0.274632
0.000000 0.820218 0.219486
0.275029 0.818845 0.213993
0.451331 0.816190 0.205051
0.644892 0.812833 0.150851
0.829587 0.799008 0.066102
0.955413 0.744167 0.000000
0.000000 0.946166 0.316808
0.000000 0.946014 0.316442
0.000000 0.948516 0.267521
0.301274 0.946777 0.263401
0.461006 0.944701 0.258244
0.611841 0.941833 0.244419
0.790249 0.937621 0.151644
0.957885 0.926329 0.073976
0.000000 0.067720 0.292851
0.000000 0.068482 0.291844
0.152712 0.066072 0.289982
0.267918 0.060517 0.303227
0.460792 0.000000 0.351690
0.671260 0.000000 0.382269
0.855985 0.000000 0.395758
0.986145 0.000000 0.408545
0.000000 0.121096 0.293248
0.000000 0.113710 0.293126
0.150668 0.109712 0.292058
0.269078 0.108217 0.304417
0.463722 0.029328 0.351080
0.671992 0.000000 0.379339
0.856321 0.000000 0.393103
0.985809 0.000000 0.408911
0.000000 0.224552 0.297917
0.000000 0.223697 0.298863
0.141909 0.202274 0.303716
0.277592 0.203098 0.312016
0.466163 0.199161 0.346654
0.672633 0.152010 0.368536
0.854490 0.113924 0.384558
0.984558 0.000000 0.373419
0.000000 0.318425 0.308171
0.000000 0.319554 0.309361
0.159792 0.325383 0.315496
0.304326 0.342870 0.333532
0.465522 0.320134 0.325383
0.657710 0.289128 0.322881
0.838712 0.245151 0.322728
0.976349 0.211887 0.330236
0.000000 0.471290 0.341405
0.000000 0.472816 0.341253
0.153872 0.478370 0.340795
0.295720 0.488899 0.333715
0.465949 0.484047 0.314153
0.616052 0.434089 0.279240
0.798795 0.406836 0.267155
0.959808 0.388037 0.281041
0.000000 0.654902 0.368719
0.000000 0.654902 0.366522
0.118441 0.658015 0.360601
0.288273 0.663111 0.337621
0.456825 0.659876 0.328161
0.662348 0.650324 0.291997
0.806973 0.594324 0.255467
0.943786 0.545403 0.223362
0.000000 0.821225 0.382879
0.000000 0.821103 0.381415
0.147463 0.820645 0.377996
0.301579 0.821378 0.351843
0.467659 0.817899 0.343755
0.641199 0.813596 0.317144
0.830350 0.799771 0.272892
0.956603 0.739284 0.243992
0.000000 0.946502 0.406561
0.121218 0.945983 0.407904
0.282383 0.944091 0.414954
0.373571 0.944366 0.394842
0.503624 0.942321 0.389532
0.633448 0.939605 0.382300
0.791989 0.936614 0.327916
0.957397 0.925933 0.284886
0.000000 0.080842 0.406256
0.000000 0.078828 0.405249
0.147890 0.067231 0.402899
0.275700 0.000000 0.398505
0.428321 0.000000 0.427100
0.671992 0.000000 0.487007
0.864347 0.000000 0.506828
0.988556 0.000000 0.511009
0.000000 0.121889 0.407965
0.000000 0.119997 0.406958
0.139864 0.111574 0.404852
0.275273 0.087495 0.401099
0.430335 0.002441 0.428443
0.674647 0.000000 0.486732
0.864195 0.000000 0.505455
0.988037 0.000000 0.511315
0.000000 0.252567 0.413611
0.000000 0.245640 0.414618
0.099763 0.203952 0.415442
0.273930 0.190585 0.412146
0.440528 0.183383 0.434852
0.685847 0.143313 0.486793
0.863981 0.130556 0.502464
0.985962 0.228275 0.515038
0.000000 0.362890 0.423621
0.000000 0.362036 0.424537
0.129000 0.358434 0.428473
0.272313 0.327581 0.436866
0.464820 0.327825 0.449500
0.695338 0.343236 0.485878
0.861601 0.360906 0.502403
0.980560 0.417609 0.527276
0.000000 0.485969 0.440223
0.000000 0.486915 0.441169
0.137819 0.491402 0.445502
0.315618 0.502068 0.456336
0.517082 0.524132 0.479805
0.690028 0.489967 0.465522
0.848417 0.465522 0.461830
0.974701 0.457832 0.469001
0.000000 0.667781 0.477394
0.000000 0.668605 0.477272
0.160983 0.671565 0.477607
0.348913 0.675746 0.479683
0.513085 0.680140 0.478065
0.684504 0.666926 0.448707
0.815457 0.583703 0.393469
0.955505 0.539971 0.382483
0.000000 0.826841 0.492409
0.000000 0.826841 0.492378
0.210056 0.826261 0.492805
0.391577 0.823911 0.497047
0.531487 0.821469 0.491279
0.659693 0.815640 0.476967
0.835569 0.803098 0.432288
0.957733 0.735378 0.390173
0.168521 0.947723 0.509300
0.219181 0.947173 0.511040
0.340734 0.944854 0.518364
0.478340 0.940185 0.531334
0.582818 0.937896 0.528191
0.683864 0.935821 0.519951
0.806027 0.934234 0.488808
0.958129 0.925811 0.444739
0.000000 0.089906 0.539635
0.000000 0.084779 0.538842
0.140658 0.058076 0.536645
0.303838 0.000000 0.531945
0.444404 0.000000 0.528466
0.633783 0.000000 0.571160
0.852140 0.000000 0.618494
0.990539 0.000000 0.621790
0.000000 0.128817 0.542535
0.000000 0.125002 0.541863
0.121798 0.108431 0.539483
0.299535 0.053773 0.534844
0.443763 0.000000 0.529534
0.635859 0.000000 0.572595
0.853483 0.000000 0.618402
0.990051 0.000000 0.622431
0.000000 0.263951 0.548119
0.000000 0.243961 0.548425
0.000000 0.204837 0.547448
0.280400 0.183597 0.543114
0.442145 0.138003 0.536309
0.642390 0.086030 0.576715
0.856962 0.085023 0.618158
0.987488 0.251713 0.625483
0.000000 0.409583 0.556359
0.000000 0.404211 0.557244
0.017395 0.383032 0.560327
0.238865 0.319768 0.561364
0.442267 0.293187 0.554253
0.655665 0.298039 0.585168
0.862089 0.356237 0.621149
0.981964 0.432319 0.634577
0.000000 0.535424 0.572778
0.000000 0.534295 0.573236
0.027192 0.530388 0.575280
0.295750 0.524071 0.579950
0.461402 0.487312 0.587488
0.682246 0.493446 0.602594
0.865141 0.552789 0.633509
0.974212 0.594324 0.653956
0.000000 0.677882 0.593530
0.000000 0.678004 0.593988
0.118898 0.679316 0.596429
0.344305 0.681910 0.602045
0.538933 0.687160 0.613306
0.730495 0.703609 0.638392
0.854246 0.674342 0.621668
0.966552 0.664271 0.622370
0.000000 0.829587 0.611902
0.073426 0.829770 0.612696
0.278813 0.830472 0.616663
0.444648 0.828733 0.622889
0.597833 0.824949 0.631983
0.726650 0.822019 0.638453
0.845853 0.810941 0.606226
0.954009 0.737850 0.543877
0.276127 0.947814 0.625147
0.310704 0.947143 0.626886
0.406836 0.944640 0.633051
0.527611 0.940337 0.643580
0.652399 0.934874 0.659327
0.748653 0.931853 0.662501
0.831296 0.930449 0.648920
0.957794 0.925597 0.607538
0.000000 0.100008 0.702907
0.000000 0.092470 0.701900
0.079164 0.045258 0.699916
0.316228 0.000000 0.696071
0.480049 0.000000 0.690333
0.639429 0.000000 0.694453
0.820432 0.000000 0.730373
0.977569 0.000000 0.746120
0.000000 0.137758 0.705226
0.000000 0.132387 0.704311
0.000000 0.109010 0.702296
0.307347 0.000000 0.698634
0.477119 0.000000 0.693080
0.639521 0.000000 0.696345
0.822690 0.000000 0.732601
0.978790 0.000000 0.747646
0.000000 0.252598 0.707424
0.000000 0.226841 0.707637
0.000000 0.209628 0.706172
0.269627 0.181430 0.702693
0.461891 0.113893 0.697414
0.633600 0.000000 0.696315
0.823514 0.000000 0.733150
0.977417 0.189059 0.747372
0.000000 0.431464 0.711025
0.000000 0.424414 0.711391
0.000000 0.389227 0.712337
0.187503 0.319615 0.711147
0.434852 0.288151 0.705562
0.622675 0.228305 0.696712
0.825345 0.270665 0.734493
0.975006 0.403143 0.750820
0.000000 0.570947 0.720638
0.000000 0.568963 0.720851
0.000000 0.561608 0.720974
0.282933 0.537804 0.721675
0.421698 0.471321 0.721218
0.622705 0.433539 0.712032
0.831785 0.480934 0.740261
0.971649 0.591272 0.764187
0.000000 0.700557 0.734279
0.000000 0.699672 0.734249
0.103609 0.696712 0.734279
0.339544 0.691768 0.734157
0.520623 0.686763 0.734279
0.667903 0.659358 0.735195
0.841306 0.674189 0.749508
0.967376 0.740078 0.783963
0.000000 0.835325 0.748684
0.000000 0.834775 0.748653
0.245335 0.833310 0.749233
0.422614 0.830472 0.750515
0.592309 0.827298 0.754177
0.743771 0.827237 0.762783
0.871855 0.840024 0.785855
0.960449 0.821408 0.772946
0.336004 0.946166 0.749783
0.366522 0.945556 0.751034
0.452430 0.942962 0.754574
0.572045 0.939574 0.763455
0.691341 0.936126 0.776211
0.789548 0.933074 0.786954
0.869169 0.932036 0.789853
0.956115 0.928038 0.761501
0.000000 0.133211 0.873991
0.000000 0.126711 0.873594
0.000000 0.099153 0.873167
0.283848 0.000000 0.871641
0.474342 0.000000 0.869444
0.643275 0.000000 0.866423
0.802060 0.000000 0.872984
0.955566 0.000000 0.891478
0.000000 0.165835 0.875090
0.000000 0.160922 0.874693
0.000000 0.140749 0.874144
0.271916 0.081483 0.872801
0.468940 0.000000 0.870603
0.640650 0.000000 0.867582
0.801633 0.000000 0.873869
0.956115 0.000000 0.892393
0.000000 0.250248 0.877104
0.000000 0.247379 0.876860
0.000000 0.236179 0.876555
0.224643 0.209567 0.874479
0.449012 0.153079 0.872465
0.630488 0.000000 0.869718
0.798337 0.000000 0.874266
0.955962 0.000000 0.892851
0.000000 0.452216 0.876341
0.000000 0.439979 0.876524
0.000000 0.391943 0.877928
0.132052 0.346929 0.877562
0.419593 0.317876 0.875273
0.614374 0.265568 0.872251
0.792050 0.207462 0.873442
0.954772 0.319005 0.892454
0.000000 0.598993 0.879210
0.000000 0.595727 0.878935
0.092683 0.584863 0.878843
0.325566 0.563836 0.878141
0.417243 0.493294 0.879362
0.608789 0.460731 0.876249
0.785946 0.410285 0.871977
0.952850 0.515831 0.891966
0.000000 0.723079 0.884977
0.000000 0.722744 0.884977
0.231662 0.721492 0.884642
0.397467 0.718837 0.883330
0.551415 0.708949 0.881285
0.649653 0.660609 0.879759
0.793606 0.624903 0.873625
0.949981 0.682918 0.891020
0.191501 0.842130 0.891875
0.237095 0.842039 0.891905
0.347845 0.841398 0.891814
0.480140 0.840055 0.891020
0.615534 0.838773 0.889769
0.735988 0.836027 0.887846
0.827604 0.810025 0.885801
0.950652 0.822690 0.896635
0.361913 0.955871 0.900237
0.387579 0.955413 0.900420
0.463752 0.953429 0.900542
0.568811 0.949706 0.900359
0.679530 0.945281 0.900694
0.783474 0.941253 0.902190
0.876951 0.939361 0.906493
0.962615 0.946899 0.923003
