cubelut/Landscape4.cube
# Created by Adobe Lightroom plugin Export LUT (1.18.0)
# www.johnrellis.com/lightroom/exportlut.htm
# Preset: Landscape1
# Color profile: /Library/Application Support/Adobe/Color/Profiles/Recommended/AdobeRGB1998.icc
LUT_3D_SIZE 8
DOMAIN_MIN 0.000000 0.000000 0.000000
DOMAIN_MAX 0.903226 0.903226 0.903226
0.000000 0.000000 0.000000
0.106081 0.000000 0.000000
0.215274 0.000000 0.000000
0.337163 0.000000 0.000000
0.472694 0.000000 0.000000
0.617029 0.000000 0.000000
0.769345 0.000000 0.000000
0.910063 0.000000 0.000000
0.000000 0.087678 0.000000
0.113619 0.080720 0.000000
0.222141 0.059541 0.000000
0.346441 0.000000 0.000000
0.482979 0.000000 0.000000
0.627527 0.000000 0.000000
0.776791 0.060914 0.000000
0.914183 0.000000 0.000000
0.000000 0.191836 0.000000
0.136233 0.189151 0.000000
0.246830 0.183230 0.000000
0.360754 0.184756 0.000000
0.498177 0.205203 0.000000
0.639521 0.231937 0.000000
0.780728 0.247959 0.000000
0.915343 0.241794 0.000000
0.000000 0.342840 0.000000
0.153201 0.343786 0.000000
0.309087 0.344182 0.000000
0.406409 0.340642 0.000000
0.522850 0.356390 0.000000
0.656825 0.394537 0.000000
0.795010 0.407813 0.000000
0.924102 0.398535 0.000000
0.000000 0.571313 0.000000
0.145235 0.572290 0.000000
0.341253 0.574762 0.000000
0.484199 0.576806 0.000000
0.588586 0.578882 0.000000
0.700404 0.572961 0.000000
0.819821 0.571405 0.000000
0.935546 0.555047 0.000000
0.000000 0.784329 0.000000
0.051575 0.781125 0.000000
0.329686 0.780758 0.000000
0.502617 0.781491 0.000000
0.631312 0.780880 0.000000
0.750790 0.776822 0.000000
0.847074 0.730282 0.000000
0.950500 0.696345 0.000000
0.000000 0.922484 0.000000
0.000000 0.921202 0.000000
0.290013 0.919341 0.000000
0.470344 0.916411 0.000000
0.634699 0.912444 0.000000
0.751705 0.905943 0.000000
0.882444 0.895781 0.000000
0.968902 0.834989 0.000000
0.000000 1.000000 0.000000
0.000000 1.000000 0.000000
0.236210 1.000000 0.000000
0.424933 1.000000 0.000000
0.585229 0.999695 0.000000
0.731228 0.991028 0.000000
0.851499 0.981384 0.000000
0.988891 0.967895 0.000000
0.019318 0.000000 0.110414
0.111788 0.000000 0.106783
0.222629 0.000000 0.102449
0.345006 0.000000 0.080354
0.481331 0.000000 0.054780
0.626856 0.000000 0.000000
0.776852 0.000000 0.000000
0.915526 0.000000 0.000000
0.000000 0.077119 0.111360
0.108583 0.080964 0.108675
0.224369 0.037385 0.096864
0.350347 0.000000 0.079866
0.487861 0.000000 0.047181
0.633448 0.000000 0.000000
0.782712 0.000000 0.000000
0.919615 0.000000 0.000000
0.000000 0.193973 0.129366
0.106111 0.192264 0.100282
0.245365 0.184054 0.097353
0.363958 0.182315 0.077882
0.503929 0.193820 0.000000
0.646448 0.215305 0.000000
0.789395 0.228031 0.000000
0.921782 0.217258 0.000000
0.000000 0.349493 0.118135
0.091859 0.349645 0.067231
0.296483 0.348089 0.028443
0.411170 0.347448 0.009827
0.532921 0.363104 0.000000
0.667842 0.394690 0.000000
0.803983 0.401556 0.000000
0.930175 0.387976 0.000000
0.000000 0.573907 0.000000
0.000000 0.575799 0.000000
0.319219 0.578607 0.000000
0.482979 0.583490 0.000000
0.593011 0.586206 0.000000
0.705470 0.575677 0.000000
0.823758 0.569787 0.000000
0.939239 0.549828 0.000000
0.000000 0.788693 0.000000
0.000000 0.787991 0.000000
0.303288 0.786801 0.000000
0.492866 0.786130 0.000000
0.629938 0.784146 0.000000
0.751492 0.778347 0.000000
0.848722 0.730251 0.000000
0.952697 0.694942 0.000000
0.000000 0.926726 0.000000
0.000000 0.926146 0.000000
0.261082 0.923491 0.000000
0.458717 0.919463 0.000000
0.628565 0.914580 0.000000
0.751003 0.907866 0.000000
0.884337 0.897765 0.000000
0.971435 0.835935 0.000000
0.000000 1.000000 0.000000
0.000000 1.000000 0.000000
0.202396 1.000000 0.000000
0.412024 1.000000 0.000000
0.577173 0.999329 0.000000
0.727993 0.991089 0.000000
0.850309 0.981933 0.000000
0.989349 0.968505 0.000000
0.109163 0.000000 0.228275
0.149874 0.000000 0.225284
0.229404 0.000000 0.219608
0.358373 0.000000 0.232395
0.487922 0.000000 0.215000
0.623133 0.000000 0.155581
0.773404 0.000000 0.121065
0.914183 0.000000 0.060090
0.080476 0.050111 0.231846
0.140444 0.044709 0.229282
0.230838 0.000000 0.222385
0.359838 0.000000 0.225193
0.490150 0.000000 0.197879
0.629145 0.000000 0.151766
0.778470 0.000000 0.119265
0.917113 0.000000 0.048524
0.000000 0.169650 0.235721
0.096864 0.170657 0.234043
0.226383 0.177340 0.226749
0.359594 0.140017 0.199557
0.498054 0.108248 0.177432
0.642023 0.096345 0.151034
0.787503 0.087984 0.110140
0.922210 0.000000 0.000000
0.000000 0.344854 0.289250
0.000000 0.343969 0.276646
0.217655 0.342168 0.213626
0.396399 0.338048 0.211734
0.522850 0.341405 0.188052
0.662867 0.355413 0.147036
0.801144 0.355383 0.087556
0.929625 0.337896 0.000000
0.000000 0.571130 0.307012
0.000000 0.571405 0.285283
0.191043 0.572198 0.181155
0.454902 0.575097 0.160342
0.580591 0.575860 0.164675
0.699702 0.562158 0.135927
0.820432 0.552422 0.015229
0.939544 0.524620 0.000000
0.000000 0.786648 0.281682
0.000000 0.786648 0.249760
0.134401 0.787320 0.111360
0.444892 0.786160 0.078065
0.616724 0.784634 0.004028
0.747677 0.778134 0.000000
0.847898 0.725917 0.000000
0.951904 0.685847 0.000000
0.000000 0.925872 0.220645
0.000000 0.926116 0.182071
0.010742 0.925536 0.000000
0.409705 0.921477 0.000000
0.602014 0.916533 0.000000
0.742763 0.908721 0.000000
0.880613 0.897063 0.000000
0.968872 0.832700 0.000000
0.000000 1.000000 0.125673
0.000000 1.000000 0.000000
0.000000 1.000000 0.000000
0.364111 1.000000 0.000000
0.550164 1.000000 0.000000
0.718349 0.992279 0.000000
0.844541 0.982544 0.000000
0.987152 0.968353 0.000000
0.189090 0.000000 0.364782
0.215122 0.000000 0.360662
0.281651 0.000000 0.350805
0.364935 0.000000 0.349248
0.520287 0.000000 0.390143
0.655116 0.000000 0.381201
0.788632 0.000000 0.344030
0.919097 0.000000 0.272435
0.171725 0.000000 0.366430
0.202396 0.000000 0.363775
0.277531 0.000000 0.354589
0.366003 0.000000 0.351141
0.522515 0.000000 0.389044
0.655085 0.000000 0.372778
0.789181 0.000000 0.331121
0.919646 0.000000 0.250736
0.000000 0.131319 0.379492
0.000000 0.123079 0.378454
0.254704 0.138308 0.368597
0.369848 0.109926 0.358373
0.516625 0.000000 0.367163
0.648646 0.000000 0.332555
0.782498 0.000000 0.266026
0.920684 0.000000 0.222507
0.000000 0.300359 0.385626
0.000000 0.301579 0.384894
0.208957 0.305852 0.379553
0.363195 0.318669 0.364996
0.511315 0.279484 0.327794
0.656947 0.257786 0.296086
0.798062 0.237552 0.262150
0.929381 0.205753 0.224308
0.000000 0.563226 0.470100
0.000000 0.563867 0.463874
0.111452 0.562921 0.434791
0.348791 0.556207 0.351659
0.555810 0.557000 0.349920
0.684718 0.535424 0.321752
0.814420 0.510338 0.276402
0.938598 0.473579 0.228092
0.000000 0.780728 0.474403
0.000000 0.778714 0.463569
0.000000 0.779629 0.423713
0.325994 0.778561 0.333440
0.585840 0.778073 0.319921
0.733242 0.771389 0.327123
0.840726 0.716213 0.302831
0.948516 0.670954 0.240452
0.000000 0.923980 0.441382
0.000000 0.923674 0.430854
0.000000 0.922820 0.391241
0.310735 0.920836 0.322881
0.552392 0.915923 0.312108
0.727779 0.907866 0.305730
0.873075 0.896056 0.306767
0.964813 0.830503 0.281468
0.000000 1.000000 0.393896
0.000000 1.000000 0.384466
0.000000 1.000000 0.351568
0.286076 1.000000 0.301213
0.509056 1.000000 0.288029
0.696925 0.993988 0.267552
0.836362 0.983154 0.254063
0.982452 0.968261 0.231662
0.284794 0.000000 0.512291
0.302617 0.000000 0.508782
0.355535 0.000000 0.499336
0.421424 0.000000 0.480690
0.512566 0.000000 0.490181
0.676600 0.000000 0.529839
0.817105 0.000000 0.519890
0.935180 0.000000 0.477790
0.271153 0.000000 0.515740
0.290959 0.000000 0.511620
0.348974 0.000000 0.502129
0.420966 0.000000 0.484962
0.514305 0.000000 0.492134
0.678523 0.000000 0.529259
0.816464 0.000000 0.515190
0.935088 0.000000 0.471748
0.178927 0.083131 0.529198
0.228946 0.096407 0.526238
0.321324 0.054017 0.517082
0.416388 0.000000 0.499245
0.519707 0.000000 0.499214
0.686427 0.000000 0.528466
0.814939 0.000000 0.497536
0.935241 0.000000 0.448035
0.000000 0.274052 0.544427
0.000000 0.269474 0.543877
0.167178 0.250370 0.539757
0.389410 0.268589 0.521691
0.522332 0.254002 0.507897
0.681605 0.238682 0.508843
0.807126 0.000000 0.455268
0.931792 0.000000 0.387091
0.000000 0.486275 0.553857
0.000000 0.486763 0.552636
0.145144 0.490242 0.548272
0.343938 0.500237 0.537896
0.512261 0.523735 0.516991
0.667750 0.468940 0.468116
0.806912 0.420935 0.422431
0.937041 0.372625 0.378332
0.000000 0.778897 0.645228
0.000000 0.778805 0.640345
0.000000 0.778531 0.622156
0.303593 0.775113 0.583398
0.509575 0.768765 0.518700
0.711574 0.762509 0.517113
0.825010 0.707240 0.477913
0.942687 0.648096 0.415991
0.000000 0.921874 0.614466
0.000000 0.921874 0.609064
0.000000 0.921050 0.589746
0.298863 0.917937 0.557519
0.509117 0.913390 0.521050
0.718013 0.906859 0.512902
0.862058 0.895109 0.517723
0.957000 0.834745 0.478462
0.000000 1.000000 0.566369
0.000000 1.000000 0.561547
0.000000 1.000000 0.546441
0.295781 1.000000 0.526452
0.500175 1.000000 0.513390
0.679377 0.994110 0.502892
0.836057 0.982574 0.493690
0.975525 0.968444 0.485817
0.369146 0.000000 0.660700
0.383307 0.000000 0.658717
0.428016 0.000000 0.652522
0.491585 0.000000 0.638849
0.564446 0.000000 0.621149
0.668757 0.000000 0.635431
0.819486 0.000000 0.646998
0.953368 0.000000 0.630274
0.359716 0.000000 0.667048
0.375158 0.000000 0.665126
0.422614 0.000000 0.658167
0.489784 0.000000 0.644129
0.564538 0.000000 0.623774
0.670893 0.000000 0.637781
0.821286 0.000000 0.647089
0.953613 0.000000 0.627955
0.309270 0.000000 0.675990
0.330297 0.000000 0.674403
0.392401 0.000000 0.667720
0.474281 0.000000 0.653742
0.560632 0.000000 0.631647
0.673671 0.000000 0.641779
0.824521 0.000000 0.645472
0.952361 0.000000 0.618555
0.000000 0.174472 0.694636
0.000000 0.183169 0.693233
0.293065 0.217655 0.686152
0.433692 0.214237 0.670436
0.547539 0.146181 0.647150
0.674464 0.151247 0.646326
0.826902 0.191073 0.643336
0.947936 0.000000 0.599542
0.000000 0.435645 0.704677
0.000000 0.433387 0.704036
0.060395 0.426490 0.701442
0.315526 0.420569 0.695369
0.521294 0.456214 0.673915
0.674647 0.447150 0.657404
0.821073 0.471077 0.638636
0.939971 0.347570 0.569268
0.000000 0.662013 0.712154
0.000000 0.662715 0.710994
0.000000 0.668086 0.708370
0.316106 0.681666 0.702754
0.501732 0.706813 0.691829
0.662226 0.728634 0.668727
0.798062 0.669306 0.614588
0.929900 0.607019 0.561913
0.000000 0.915496 0.789609
0.000000 0.915007 0.787167
0.000000 0.914061 0.779507
0.285191 0.910796 0.757107
0.508721 0.904723 0.723751
0.677638 0.897032 0.684962
0.841184 0.889006 0.685908
0.938659 0.842954 0.642573
0.000000 1.000000 0.741146
0.000000 1.000000 0.738003
0.000000 1.000000 0.727016
0.304723 1.000000 0.711696
0.522179 0.997070 0.701350
0.685389 0.989685 0.692134
0.844907 0.979675 0.685267
0.964630 0.967926 0.682368
0.424414 0.000000 0.804898
0.436194 0.000000 0.803586
0.475196 0.000000 0.799435
0.536858 0.000000 0.791257
0.614557 0.000000 0.778744
0.708156 0.000000 0.771633
0.817685 0.000000 0.771267
0.948302 0.000000 0.751278
0.414984 0.000000 0.807126
0.427527 0.000000 0.805753
0.468238 0.000000 0.801663
0.532128 0.000000 0.793698
0.612055 0.000000 0.781064
0.707210 0.000000 0.772793
0.818784 0.000000 0.772732
0.949584 0.000000 0.751492
0.377417 0.000000 0.812436
0.392462 0.000000 0.811307
0.440131 0.000000 0.807218
0.512383 0.000000 0.799252
0.600183 0.000000 0.786465
0.701045 0.000000 0.773800
0.819303 0.000000 0.774319
0.950530 0.000000 0.750210
0.260166 0.162600 0.822812
0.293889 0.175509 0.821805
0.379370 0.198947 0.817380
0.470710 0.160037 0.809079
0.574456 0.016846 0.795895
0.687190 0.000000 0.775662
0.819028 0.000000 0.777310
0.951293 0.000000 0.749722
0.000000 0.328649 0.835386
0.000000 0.325292 0.835172
0.000000 0.316472 0.833921
0.381079 0.388922 0.824765
0.536339 0.403601 0.809873
0.665888 0.328222 0.789090
0.815640 0.373999 0.782132
0.947021 0.462928 0.758572
0.000000 0.576623 0.838834
0.000000 0.576959 0.838468
0.000000 0.580468 0.837064
0.302007 0.593927 0.833463
0.482033 0.627314 0.825986
0.658442 0.670527 0.803799
0.802213 0.661494 0.786984
0.933837 0.690028 0.771267
0.000000 0.783963 0.841398
0.000000 0.785611 0.841032
0.000000 0.792660 0.839658
0.317540 0.808042 0.836667
0.510063 0.832273 0.831357
0.668910 0.855558 0.822446
0.797421 0.866209 0.802823
0.916869 0.820188 0.753933
0.000000 0.992432 0.901640
0.000000 0.993896 0.902098
0.000000 0.998779 0.903441
0.292576 0.999023 0.897368
0.523705 0.992035 0.879210
0.688655 0.984253 0.852659
0.822995 0.976959 0.826505
0.951385 0.966949 0.825040
0.454444 0.000000 0.930510
0.464698 0.000000 0.929961
0.499397 0.000000 0.928405
0.557397 0.000000 0.925109
0.634974 0.000000 0.919982
0.730434 0.000000 0.912505
0.842985 0.000000 0.912413
0.954253 0.000000 0.894560
0.446571 0.000000 0.931518
0.457069 0.000000 0.930999
0.492836 0.000000 0.929351
0.552148 0.000000 0.926116
0.631098 0.000000 0.920928
0.727932 0.000000 0.913451
0.841947 0.000000 0.912963
0.954681 0.000000 0.895262
0.416754 0.000000 0.934417
0.428504 0.000000 0.933928
0.468086 0.000000 0.932341
0.532219 0.000000 0.928801
0.616175 0.000000 0.923583
0.717769 0.000000 0.916075
0.836912 0.000000 0.913787
0.954864 0.000000 0.896635
0.357671 0.169497 0.939055
0.372473 0.164553 0.938476
0.420417 0.144472 0.936797
0.494331 0.090761 0.933379
0.587182 0.000000 0.928008
0.697139 0.000000 0.920195
0.825986 0.000000 0.914336
0.953948 0.000000 0.898558
0.000000 0.273594 0.947601
0.147616 0.284947 0.946838
0.300786 0.326879 0.944244
0.450507 0.399390 0.938659
0.549798 0.364721 0.933532
0.666712 0.300694 0.925658
0.806546 0.151186 0.914244
0.949157 0.299504 0.901091
0.000000 0.477394 0.951202
0.000000 0.478859 0.951049
0.000000 0.486580 0.950317
0.297551 0.510704 0.948119
0.513085 0.601068 0.939666
0.659266 0.624720 0.928191
0.783047 0.543206 0.915831
0.935698 0.603235 0.902800
0.000000 0.690211 0.950622
0.000000 0.692378 0.950469
0.000000 0.701350 0.949615
0.308263 0.723934 0.947326
0.494423 0.762905 0.942992
0.648157 0.803037 0.936767
0.792325 0.826688 0.921416
0.921416 0.813596 0.907256
0.000000 0.870359 0.949706
0.000000 0.872251 0.949523
0.000000 0.879728 0.948699
0.334905 0.894774 0.946715
0.525078 0.915496 0.943786
0.679866 0.935271 0.940398
0.811063 0.950378 0.936065
0.920134 0.955779 0.922698
