cubelut/Landscape2.cube
# Created by Adobe Lightroom plugin Export LUT (1.18.0)
# www.johnrellis.com/lightroom/exportlut.htm
# Preset: Landscape2
# Color profile: /Library/Application Support/Adobe/Color/Profiles/Recommended/AdobeRGB1998.icc
LUT_3D_SIZE 8
DOMAIN_MIN 0.000000 0.000000 0.000000
DOMAIN_MAX 0.903226 0.903226 0.903226
0.000000 0.000000 0.000000
0.096162 0.000946 0.001556
0.201022 0.064607 0.000000
0.321233 0.094087 0.000000
0.449531 0.112886 0.000000
0.582727 0.120333 0.000000
0.729610 0.116030 0.000000
0.877134 0.103212 0.000000
0.000000 0.122683 0.003265
0.085786 0.123384 0.000000
0.184085 0.143923 0.020844
0.312291 0.162936 0.000000
0.444404 0.174563 0.000000
0.580346 0.179110 0.000000
0.728939 0.176761 0.000000
0.877226 0.169467 0.000000
0.000000 0.266819 0.046723
0.000000 0.264195 0.000000
0.191714 0.261082 0.000000
0.291142 0.267460 0.057008
0.413611 0.283818 0.043854
0.556237 0.293462 0.000000
0.711360 0.298894 0.000000
0.866178 0.301366 0.000000
0.000000 0.429816 0.081086
0.000000 0.427466 0.000000
0.173159 0.409735 0.000000
0.324102 0.407538 0.000000
0.438270 0.404913 0.058717
0.512566 0.396155 0.113008
0.681697 0.419287 0.080049
0.848356 0.435309 0.051637
0.000000 0.599451 0.123018
0.000000 0.596277 0.000000
0.022827 0.579706 0.000000
0.316075 0.557916 0.000000
0.474189 0.552239 0.000000
0.609155 0.551965 0.060761
0.688777 0.536339 0.139895
0.821134 0.557824 0.182132
0.000000 0.747799 0.172915
0.000000 0.744869 0.123873
0.000000 0.735348 0.000000
0.275181 0.709712 0.000000
0.465248 0.697108 0.000000
0.624018 0.688746 0.000000
0.775479 0.697688 0.102754
0.859983 0.684199 0.204410
0.000000 0.871580 0.227848
0.000000 0.870237 0.196658
0.000000 0.865965 0.000000
0.184970 0.850431 0.000000
0.432319 0.824613 0.000000
0.605035 0.821286 0.000000
0.757229 0.811978 0.000000
0.914366 0.833921 0.198703
0.000000 0.974609 0.287694
0.000000 0.974243 0.266484
0.000000 0.972778 0.166629
0.000000 0.966247 0.000000
0.382879 0.952667 0.000000
0.572259 0.938628 0.000000
0.731411 0.934874 0.000000
0.873808 0.926818 0.148470
0.005829 0.004395 0.102510
0.089540 0.017212 0.098970
0.207187 0.057984 0.106813
0.330327 0.018830 0.087617
0.458625 0.069276 0.075532
0.591363 0.078004 0.042786
0.735714 0.062623 0.000000
0.881010 0.000000 0.000000
0.000000 0.113710 0.102419
0.094911 0.125612 0.097139
0.205722 0.135836 0.094759
0.328557 0.146700 0.086671
0.457496 0.154910 0.072572
0.590906 0.156954 0.029938
0.735866 0.151034 0.000000
0.881437 0.140932 0.000000
0.000000 0.272038 0.132113
0.042908 0.266270 0.107088
0.196811 0.262028 0.093477
0.293950 0.269932 0.116976
0.428443 0.284642 0.102052
0.569024 0.289281 0.078279
0.721218 0.290471 0.001801
0.872465 0.289586 0.000000
0.000000 0.434485 0.160983
0.000000 0.429450 0.126284
0.171115 0.413733 0.023774
0.329290 0.409308 0.076814
0.441382 0.406134 0.122042
0.526207 0.401038 0.142367
0.691768 0.419196 0.117952
0.854459 0.431800 0.102510
0.000000 0.601282 0.199283
0.000000 0.598260 0.160006
0.000000 0.583612 0.000000
0.318090 0.558984 0.000000
0.478828 0.553704 0.036866
0.610468 0.551598 0.127596
0.689143 0.536095 0.171878
0.826413 0.557702 0.200717
0.000000 0.749477 0.236179
0.000000 0.747250 0.204257
0.000000 0.739010 0.000000
0.275883 0.713039 0.000000
0.467628 0.697597 0.000000
0.626795 0.688991 0.009430
0.775448 0.696651 0.155306
0.859922 0.683803 0.230320
0.000000 0.872831 0.280278
0.000000 0.871794 0.255985
0.000000 0.867430 0.132540
0.190707 0.852628 0.000000
0.434455 0.826474 0.000000
0.607721 0.821592 0.000000
0.759884 0.812558 0.100221
0.916014 0.834684 0.233127
0.000000 0.974640 0.330724
0.000000 0.974182 0.312352
0.000000 0.972717 0.234379
0.000000 0.967102 0.047822
0.386877 0.952667 0.000000
0.574395 0.938140 0.000000
0.733669 0.934722 0.000000
0.875639 0.926909 0.193881
0.060029 0.000000 0.239933
0.102632 0.031586 0.229648
0.198795 0.076844 0.213016
0.350835 0.059846 0.237491
0.479652 0.000000 0.221469
0.608270 0.000000 0.196506
0.747677 0.000000 0.161593
0.887633 0.000000 0.144167
0.061738 0.117250 0.241154
0.115145 0.133761 0.229892
0.202029 0.142367 0.212497
0.349706 0.133577 0.229099
0.478584 0.100465 0.210483
0.609583 0.000000 0.175509
0.747311 0.000000 0.161105
0.887449 0.000000 0.143130
0.000000 0.257603 0.239231
0.080232 0.258305 0.232090
0.216892 0.266758 0.212100
0.343297 0.262608 0.201694
0.471870 0.258976 0.190768
0.603510 0.252598 0.177462
0.743160 0.242496 0.159670
0.885069 0.232334 0.139071
0.000000 0.455726 0.292332
0.000000 0.447913 0.278416
0.192966 0.424018 0.225040
0.342138 0.409583 0.212253
0.439246 0.401282 0.222812
0.561669 0.403937 0.211643
0.715175 0.406989 0.193912
0.867887 0.409216 0.181674
0.000000 0.620844 0.324193
0.000000 0.613672 0.311589
0.155367 0.591394 0.252903
0.322362 0.558679 0.186709
0.488075 0.552544 0.213230
0.607324 0.544854 0.235172
0.683711 0.530388 0.247654
0.839872 0.551690 0.250736
0.000000 0.760098 0.355230
0.000000 0.755154 0.346380
0.113344 0.741970 0.290745
0.281315 0.721004 0.191257
0.474922 0.696712 0.182101
0.635157 0.688502 0.219577
0.773129 0.691127 0.260502
0.856138 0.679316 0.298650
0.000000 0.876799 0.394202
0.000000 0.873777 0.389532
0.117891 0.867704 0.336889
0.220066 0.857328 0.214969
0.443458 0.831022 0.179721
0.615534 0.820310 0.189578
0.765866 0.811246 0.244266
0.913298 0.829801 0.320378
0.106477 0.973724 0.443183
0.174685 0.972107 0.440345
0.178561 0.970825 0.388159
0.182467 0.968139 0.266361
0.407752 0.954376 0.223484
0.583276 0.937163 0.182376
0.741146 0.933471 0.214847
0.880522 0.925811 0.298222
0.105165 0.000000 0.416754
0.141512 0.000000 0.404761
0.209323 0.081941 0.366644
0.334173 0.098207 0.346319
0.520165 0.036500 0.388312
0.648798 0.000000 0.369024
0.773709 0.000000 0.344366
0.900389 0.000000 0.315007
0.117311 0.137362 0.414343
0.151614 0.141207 0.404150
0.218631 0.152193 0.368811
0.336370 0.158083 0.345617
0.520256 0.140871 0.385382
0.646937 0.077638 0.362615
0.772122 0.000000 0.336736
0.899351 0.000000 0.305333
0.000000 0.238071 0.437049
0.111818 0.248997 0.428901
0.257053 0.288548 0.381598
0.347265 0.278630 0.345129
0.512078 0.265965 0.362860
0.638331 0.228489 0.336339
0.763607 0.166995 0.304265
0.897917 0.000000 0.266514
0.000000 0.431830 0.420996
0.000000 0.430426 0.413947
0.237430 0.425513 0.389654
0.372198 0.415290 0.346715
0.498665 0.397314 0.326818
0.626429 0.380255 0.308263
0.756924 0.361883 0.288182
0.892424 0.346258 0.270146
0.000000 0.654566 0.495827
0.000000 0.648035 0.485084
0.207614 0.623835 0.446052
0.366064 0.578241 0.368872
0.508110 0.552941 0.349798
0.600275 0.533684 0.345281
0.713558 0.527123 0.328557
0.864591 0.531823 0.319463
0.000000 0.781643 0.502953
0.000000 0.776547 0.495216
0.231205 0.760037 0.469154
0.370764 0.730739 0.404517
0.487739 0.694423 0.330175
0.649531 0.687068 0.359442
0.766567 0.679896 0.373053
0.848020 0.669490 0.383490
0.000000 0.889769 0.520256
0.101747 0.886717 0.516411
0.290715 0.875639 0.502495
0.393225 0.859037 0.449500
0.471778 0.838529 0.357183
0.629725 0.817624 0.342443
0.776944 0.809476 0.381079
0.908904 0.821927 0.428534
0.205020 0.979065 0.548150
0.252750 0.977111 0.547295
0.366796 0.970336 0.543572
0.428687 0.963287 0.497658
0.461433 0.956664 0.396857
0.602899 0.937652 0.347784
0.755032 0.931304 0.363836
0.889097 0.924163 0.422492
0.157443 0.000000 0.606287
0.188876 0.000000 0.597009
0.261784 0.075227 0.564813
0.325444 0.118898 0.502312
0.484291 0.115450 0.489876
0.682307 0.000000 0.537011
0.809018 0.000000 0.524773
0.922240 0.000000 0.497414
0.173861 0.147799 0.606287
0.202701 0.152132 0.597314
0.271794 0.164034 0.566430
0.334264 0.174929 0.505669
0.486336 0.172366 0.489540
0.682399 0.136965 0.535180
0.807523 0.095338 0.520378
0.921294 0.000000 0.492622
0.194217 0.293065 0.621607
0.248203 0.313848 0.608606
0.313909 0.315373 0.577722
0.369177 0.300359 0.518761
0.494881 0.290654 0.488960
0.683589 0.279759 0.529564
0.802426 0.242527 0.504326
0.918029 0.173861 0.473884
0.000000 0.425116 0.635920
0.139590 0.427893 0.630793
0.309941 0.436011 0.611902
0.439765 0.454719 0.544396
0.512261 0.422705 0.488624
0.676722 0.408057 0.506035
0.791409 0.358984 0.467842
0.910735 0.296086 0.427863
0.000000 0.603540 0.617731
0.112154 0.602869 0.612543
0.293767 0.599542 0.593683
0.437934 0.588403 0.556542
0.542260 0.558587 0.492042
0.657527 0.526574 0.458686
0.774838 0.495735 0.427008
0.902129 0.471473 0.401709
0.000000 0.811734 0.687465
0.000000 0.807523 0.680476
0.296849 0.792325 0.655970
0.456916 0.763149 0.610651
0.555749 0.715999 0.526970
0.672145 0.687404 0.499092
0.752865 0.661555 0.478614
0.860227 0.655451 0.462287
0.170504 0.906859 0.675105
0.234531 0.904082 0.671809
0.369146 0.893889 0.659754
0.500008 0.875059 0.634577
0.579461 0.848142 0.569909
0.650538 0.815427 0.483955
0.792782 0.808133 0.516197
0.902373 0.810056 0.531640
0.313787 0.986206 0.679591
0.348943 0.984283 0.678950
0.441566 0.977813 0.675441
0.543633 0.966796 0.662531
0.605310 0.954894 0.612085
0.647578 0.942016 0.521508
0.774166 0.928710 0.503655
0.900298 0.922759 0.545464
0.207279 0.012360 0.757626
0.233066 0.061707 0.752346
0.301854 0.107546 0.733486
0.379980 0.140627 0.695369
0.449928 0.153567 0.635828
0.631678 0.141878 0.634882
0.823148 0.089815 0.681941
0.940826 0.144320 0.679164
0.231907 0.175814 0.759579
0.254551 0.180240 0.754543
0.316960 0.192233 0.735866
0.390448 0.202029 0.698207
0.452461 0.199985 0.635950
0.633722 0.192264 0.634913
0.823270 0.164370 0.680812
0.940185 0.191440 0.676722
0.312657 0.352178 0.765133
0.327764 0.351751 0.760494
0.372778 0.348547 0.742611
0.430030 0.337682 0.706172
0.474861 0.311955 0.642023
0.640131 0.305150 0.633936
0.822965 0.295384 0.676295
0.937346 0.293919 0.666835
0.305577 0.444099 0.795956
0.348791 0.459907 0.789242
0.455238 0.502647 0.763333
0.513481 0.501152 0.722438
0.533532 0.454994 0.660029
0.652125 0.433173 0.632105
0.822263 0.431861 0.668452
0.932036 0.399878 0.645563
0.274479 0.589014 0.788876
0.319768 0.593561 0.786160
0.436957 0.608453 0.776211
0.563073 0.626032 0.757443
0.631434 0.618708 0.694179
0.672877 0.564202 0.632807
0.817533 0.551965 0.647669
0.923766 0.496040 0.604517
0.287694 0.737423 0.775204
0.328252 0.738247 0.772427
0.435401 0.740902 0.762722
0.551019 0.741299 0.744076
0.643488 0.731960 0.711055
0.700465 0.690364 0.636255
0.794156 0.649592 0.591882
0.908721 0.616083 0.555718
0.319951 0.921782 0.839261
0.360388 0.919554 0.836240
0.465827 0.912322 0.826474
0.576776 0.898436 0.803494
0.667689 0.875944 0.762539
0.722713 0.834226 0.679438
0.810452 0.807004 0.645197
0.888365 0.788449 0.621851
0.429694 0.992798 0.823026
0.454932 0.991119 0.821622
0.526238 0.985565 0.815915
0.612116 0.976623 0.803311
0.693751 0.964141 0.779812
0.745113 0.946899 0.721126
0.793729 0.925872 0.635126
0.912322 0.921294 0.665675
0.260136 0.134890 0.881987
0.280400 0.144533 0.878965
0.339361 0.170596 0.868376
0.415656 0.195651 0.847501
0.490120 0.206516 0.812192
0.587182 0.197391 0.773617
0.761166 0.196201 0.772671
0.940551 0.187137 0.823209
0.290074 0.223911 0.883360
0.307286 0.227909 0.880400
0.359564 0.239597 0.869963
0.429938 0.251316 0.849363
0.499855 0.251804 0.814389
0.590143 0.236088 0.774228
0.763424 0.236118 0.773342
0.941100 0.231937 0.823087
0.386114 0.392493 0.886564
0.397040 0.392523 0.883879
0.432258 0.392248 0.873930
0.482826 0.387030 0.854032
0.535363 0.368902 0.819791
0.598901 0.334813 0.773159
0.768307 0.334966 0.772122
0.939849 0.335698 0.819028
0.485725 0.536034 0.898711
0.511223 0.549401 0.894865
0.564660 0.572229 0.882292
0.585901 0.555047 0.863340
0.607782 0.521141 0.830381
0.619959 0.457435 0.772885
0.777462 0.455299 0.770260
0.938415 0.459205 0.812924
0.481178 0.614099 0.914336
0.509178 0.623194 0.913146
0.597467 0.656123 0.908537
0.681331 0.691463 0.887877
0.707332 0.676967 0.851865
0.695308 0.609339 0.794461
0.792447 0.579675 0.769955
0.937682 0.583764 0.805997
0.499001 0.731563 0.907073
0.523064 0.735958 0.905943
0.592462 0.749447 0.902129
0.677089 0.766415 0.895598
0.757321 0.781064 0.885405
0.790860 0.763058 0.832792
0.809781 0.697078 0.769406
0.934447 0.688777 0.786984
0.512291 0.844205 0.897856
0.532647 0.845762 0.896818
0.593072 0.850584 0.893309
0.669337 0.856779 0.886900
0.745174 0.861479 0.875669
0.806973 0.857023 0.851621
0.832029 0.809934 0.773007
0.916930 0.765560 0.721736
0.538231 0.983062 0.938842
0.555932 0.983490 0.938872
0.607782 0.985138 0.938720
0.680964 0.985504 0.935729
0.759274 0.977722 0.920500
0.821836 0.965240 0.891295
0.856077 0.939879 0.822110
0.924956 0.920745 0.784451
0.316167 0.217044 0.977234
0.331365 0.223056 0.975891
0.379278 0.241855 0.971252
0.447333 0.264103 0.962066
0.521538 0.279088 0.947082
0.591638 0.272892 0.923552
0.712032 0.260410 0.906828
0.872160 0.273930 0.906126
0.347906 0.282719 0.977447
0.361089 0.286320 0.976165
0.403357 0.297856 0.971557
0.465400 0.312047 0.962554
0.534142 0.319280 0.947753
0.599725 0.307042 0.924437
0.714687 0.290898 0.907012
0.873716 0.303227 0.906401
0.451270 0.436957 0.977661
0.459693 0.437781 0.976471
0.487678 0.440162 0.972198
0.530114 0.439948 0.963500
0.580011 0.431861 0.949371
0.629419 0.405402 0.926818
0.723415 0.376043 0.906523
0.878111 0.385473 0.905943
0.606500 0.614984 0.978058
0.609888 0.613886 0.976989
0.621637 0.609857 0.973205
0.640314 0.600000 0.965545
0.663050 0.579706 0.952483
0.686152 0.540215 0.931060
0.739345 0.487556 0.905272
0.885618 0.492592 0.904936
0.640467 0.681880 0.988251
0.654963 0.689937 0.986755
0.698024 0.713863 0.981628
0.750546 0.741360 0.971862
0.755673 0.718441 0.960266
0.759518 0.677699 0.940002
0.761227 0.603113 0.904479
0.896269 0.605402 0.904295
0.640284 0.747860 0.989075
0.655756 0.753475 0.988617
0.702266 0.770901 0.987121
0.764950 0.795529 0.984924
0.828672 0.826169 0.976226
0.842374 0.811185 0.955871
0.825986 0.742733 0.918914
0.908659 0.714565 0.903593
0.650935 0.831754 0.984497
0.664424 0.834928 0.984131
0.705745 0.844968 0.982971
0.764065 0.860288 0.981140
0.827787 0.878904 0.978851
0.887724 0.898253 0.976043
0.908568 0.886290 0.950134
0.923461 0.820676 0.904906
0.658686 0.916930 0.979400
0.670436 0.918395 0.979156
0.707149 0.923217 0.978241
0.761166 0.930907 0.976593
0.821408 0.940520 0.974334
0.878813 0.950408 0.971099
0.925658 0.956664 0.963745
0.939666 0.924041 0.907805
