cubelut/Landscape3.cube
# Created by Adobe Lightroom plugin Export LUT (1.18.0)
# www.johnrellis.com/lightroom/exportlut.htm
# Preset: Landscape3
# Color profile: /Library/Application Support/Adobe/Color/Profiles/Recommended/AdobeRGB1998.icc
LUT_3D_SIZE 5
DOMAIN_MIN 0.000000 0.000000 0.000000
DOMAIN_MAX 0.903226 0.903226 0.903226
0.053498 0.061769 0.073915
0.175113 0.041505 0.081758
0.385199 0.000000 0.097475
0.642939 0.000000 0.110323
0.888670 0.000000 0.135348
0.000000 0.196262 0.117739
0.181704 0.195834 0.096498
0.411414 0.180911 0.101442
0.662745 0.105562 0.111543
0.891875 0.000000 0.139193
0.000000 0.473060 0.220920
0.000000 0.489387 0.148379
0.424292 0.442145 0.114107
0.694606 0.410193 0.117464
0.912078 0.369787 0.164309
0.000000 0.759701 0.325963
0.000000 0.764889 0.292241
0.023133 0.781094 0.176883
0.689693 0.702663 0.156405
0.908507 0.618708 0.203586
0.100984 0.938537 0.429694
0.128237 0.940978 0.417334
0.203677 0.950591 0.371649
0.514519 0.941222 0.346441
0.879179 0.893523 0.311406
0.000000 0.065003 0.218265
0.183261 0.070619 0.217868
0.399359 0.000000 0.243442
0.653407 0.000000 0.241703
0.892851 0.000000 0.236454
0.000000 0.208896 0.228855
0.184054 0.199863 0.232395
0.415808 0.158816 0.225650
0.670680 0.000000 0.227237
0.897734 0.000000 0.241672
0.000000 0.475410 0.300053
0.146731 0.478584 0.299840
0.435920 0.453376 0.240757
0.712367 0.412757 0.237858
0.912474 0.362921 0.261387
0.000000 0.755550 0.388922
0.095705 0.757351 0.381018
0.200229 0.776089 0.295323
0.693172 0.704799 0.265415
0.911192 0.621912 0.287633
0.311986 0.932403 0.487190
0.320195 0.934874 0.477455
0.343572 0.942626 0.439185
0.537285 0.939300 0.410712
0.880461 0.892546 0.367468
0.000000 0.073426 0.441993
0.207706 0.060670 0.438575
0.442176 0.000000 0.441077
0.693904 0.000000 0.444862
0.893126 0.000000 0.452796
0.000000 0.256870 0.444190
0.148409 0.204227 0.448829
0.447364 0.194888 0.447150
0.693690 0.109407 0.446021
0.889921 0.000000 0.452644
0.000000 0.494362 0.465980
0.192996 0.487953 0.466041
0.454383 0.455818 0.462593
0.699580 0.399268 0.441749
0.903655 0.348028 0.432593
0.176089 0.752926 0.488350
0.297642 0.753048 0.499092
0.499092 0.744900 0.521508
0.706477 0.707271 0.457374
0.918700 0.641077 0.460792
0.408392 0.929595 0.561944
0.477760 0.926207 0.577966
0.599329 0.922332 0.604273
0.632593 0.935302 0.569451
0.890898 0.893278 0.508476
0.000000 0.075990 0.646937
0.212741 0.024598 0.645075
0.515709 0.000000 0.637720
0.737575 0.000000 0.638758
0.926665 0.000000 0.606470
0.000000 0.237736 0.649744
0.120790 0.212284 0.650965
0.506554 0.218082 0.643671
0.739773 0.187320 0.642451
0.927459 0.179812 0.609247
0.000000 0.542840 0.653101
0.153902 0.532769 0.652216
0.460029 0.466621 0.657099
0.739467 0.473610 0.650141
0.916838 0.446754 0.621363
0.204410 0.773770 0.670985
0.324285 0.769131 0.671687
0.543816 0.749386 0.670436
0.735134 0.711147 0.661158
0.905669 0.661250 0.633021
0.539635 0.916991 0.670466
0.580529 0.915740 0.680507
0.679561 0.913695 0.707485
0.789944 0.911955 0.738399
0.903563 0.893004 0.671901
0.000000 0.101045 0.846525
0.150118 0.092927 0.845975
0.500328 0.134401 0.841855
0.775235 0.266423 0.833036
0.938140 0.193332 0.824033
0.000000 0.235019 0.847562
0.000000 0.232181 0.847623
0.489479 0.260533 0.843473
0.772091 0.353491 0.834257
0.936217 0.311803 0.825589
0.036500 0.550317 0.843534
0.255253 0.539940 0.843961
0.458015 0.482979 0.847288
0.761013 0.539544 0.837797
0.928923 0.530449 0.830106
0.263645 0.771115 0.848325
0.351263 0.768856 0.847807
0.532921 0.758572 0.845090
0.732235 0.720577 0.845975
0.919249 0.730373 0.838804
0.516350 0.945220 0.856535
0.558679 0.942138 0.857145
0.669856 0.932250 0.858640
0.798032 0.918242 0.861204
0.913329 0.894713 0.855283
