cubelut/Landscape8.cube
# Created by Adobe Lightroom plugin Export LUT (1.18.0)
# www.johnrellis.com/lightroom/exportlut.htm
# Preset: Landscape8
# Color profile: /Library/Application Support/Adobe/Color/Profiles/Recommended/AdobeRGB1998.icc
LUT_3D_SIZE 5
DOMAIN_MIN 0.000000 0.000000 0.000000
DOMAIN_MAX 0.903226 0.903226 0.903226
0.110872 0.101137 0.108827
0.204898 0.113527 0.124941
0.419196 0.137942 0.159457
0.727199 0.202701 0.229770
0.967468 0.376532 0.387213
0.163912 0.181399 0.137881
0.231266 0.198978 0.139010
0.444587 0.238193 0.164950
0.743221 0.300450 0.232334
0.967834 0.428473 0.388586
0.272465 0.338506 0.194278
0.320470 0.346197 0.202701
0.481819 0.415808 0.199283
0.757168 0.504509 0.251804
0.972595 0.586023 0.415229
0.415686 0.549218 0.263737
0.452674 0.555077 0.270085
0.569970 0.577264 0.294621
0.788540 0.702632 0.311315
0.966674 0.758053 0.481331
0.613428 0.815183 0.401465
0.642420 0.818662 0.411627
0.736599 0.832914 0.453468
0.863554 0.866300 0.513146
0.983764 0.915740 0.603357
0.105776 0.112581 0.189639
0.204013 0.120455 0.201785
0.417182 0.160891 0.250553
0.730922 0.248081 0.340520
0.962158 0.449592 0.488350
0.151217 0.198337 0.200687
0.226658 0.207828 0.220493
0.439399 0.247990 0.264744
0.743191 0.323125 0.339605
0.964263 0.490059 0.489967
0.243229 0.351324 0.220249
0.320317 0.363622 0.262821
0.484504 0.425666 0.275212
0.762448 0.516564 0.339361
0.968872 0.612451 0.497047
0.400519 0.558526 0.296330
0.449042 0.566552 0.318212
0.569787 0.588342 0.342443
0.785306 0.705379 0.375616
0.963439 0.769680 0.541314
0.607477 0.817899 0.436744
0.637201 0.821286 0.446723
0.728603 0.831357 0.481971
0.858030 0.862913 0.543664
0.979950 0.916381 0.633326
0.051057 0.136019 0.337285
0.184695 0.140902 0.347906
0.393439 0.142153 0.383001
0.690669 0.176883 0.453162
0.943969 0.493843 0.608057
0.164981 0.235630 0.347356
0.206058 0.218540 0.361120
0.409583 0.228031 0.396429
0.706600 0.296086 0.472755
0.942443 0.573510 0.641108
0.214237 0.382849 0.366949
0.277897 0.394751 0.383001
0.470344 0.440864 0.446021
0.747311 0.540124 0.537316
0.949096 0.687800 0.674098
0.305547 0.571374 0.353979
0.357214 0.587274 0.370062
0.562036 0.624659 0.474922
0.771115 0.712215 0.532128
0.955596 0.801175 0.678370
0.525017 0.830137 0.455665
0.575341 0.831601 0.487495
0.709163 0.839200 0.570550
0.843503 0.857572 0.627771
0.972839 0.922362 0.715755
0.000000 0.168582 0.535943
0.126131 0.168399 0.544274
0.379828 0.162966 0.573632
0.650813 0.158816 0.626337
0.923278 0.298924 0.674342
0.066682 0.267399 0.545098
0.135348 0.239048 0.554864
0.388708 0.241825 0.583642
0.661738 0.257267 0.635737
0.925475 0.387488 0.682277
0.209720 0.442847 0.559136
0.276707 0.445258 0.570275
0.422766 0.431281 0.612360
0.695277 0.473793 0.664454
0.930602 0.627100 0.736995
0.285618 0.628077 0.576196
0.341802 0.636652 0.587457
0.504936 0.662928 0.625299
0.750118 0.726314 0.712642
0.946990 0.834775 0.820188
0.451789 0.833677 0.572656
0.491402 0.837613 0.582544
0.608209 0.850370 0.617670
0.812436 0.869902 0.731777
0.961822 0.929534 0.814084
0.000000 0.229252 0.825010
0.000000 0.227939 0.828489
0.367742 0.225956 0.839567
0.635645 0.241825 0.858793
0.897032 0.337713 0.884001
0.000000 0.319188 0.826993
0.000000 0.292424 0.831266
0.370764 0.295567 0.842191
0.640986 0.318608 0.861631
0.899626 0.410529 0.886290
0.216770 0.530785 0.827146
0.288457 0.524620 0.830900
0.389136 0.466529 0.846647
0.660090 0.501915 0.866270
0.905913 0.579858 0.890959
0.334600 0.730037 0.835172
0.386481 0.728481 0.837797
0.525322 0.720577 0.845090
0.697353 0.707057 0.867857
0.917021 0.765499 0.900145
0.493874 0.912078 0.841917
0.526940 0.911803 0.844755
0.624323 0.908324 0.852323
0.768704 0.907683 0.871763
0.947784 0.940978 0.933715
