cubelut/Landscape6.cube
# Created by Adobe Lightroom plugin Export LUT (1.18.0)
# www.johnrellis.com/lightroom/exportlut.htm
# Preset: Landscape6
# Color profile: /Library/Application Support/Adobe/Color/Profiles/Recommended/AdobeRGB1998.icc
LUT_3D_SIZE 32
0.000000 0.000000 0.000000
0.003845 0.000000 0.001038
0.035065 0.000000 0.004700
0.075532 0.000000 0.008698
0.096376 0.001434 0.016632
0.116884 0.009461 0.025299
0.137881 0.017823 0.034333
0.159915 0.027588 0.048402
0.183536 0.037171 0.059846
0.209110 0.041444 0.064851
0.237156 0.039887 0.068818
0.267155 0.035950 0.073030
0.299687 0.030671 0.076905
0.335393 0.021515 0.080903
0.373449 0.009552 0.084962
0.413672 0.000000 0.089052
0.455055 0.000000 0.093202
0.496986 0.000000 0.097353
0.538628 0.000000 0.101381
0.581109 0.000000 0.105867
0.624292 0.000000 0.110658
0.667262 0.000000 0.115358
0.708461 0.000000 0.121431
0.746975 0.000000 0.129061
0.783078 0.000000 0.138094
0.817868 0.000000 0.148623
0.851469 0.000000 0.160678
0.884031 0.000000 0.174289
0.915435 0.000000 0.190249
0.945708 0.000000 0.208743
0.974670 0.000000 0.231083
1.000000 0.111421 0.257603
0.000000 0.008179 0.000427
0.007080 0.012879 0.000916
0.039582 0.014496 0.002106
0.075807 0.020233 0.008453
0.096681 0.025818 0.017853
0.117494 0.031189 0.025605
0.138674 0.040314 0.037781
0.160555 0.049256 0.050965
0.184298 0.055421 0.060395
0.210269 0.057954 0.065309
0.238254 0.057496 0.069245
0.268437 0.056580 0.073304
0.301274 0.053437 0.077058
0.337041 0.047669 0.081300
0.375463 0.032776 0.085603
0.415625 0.014679 0.089815
0.456947 0.000000 0.093599
0.498939 0.000000 0.097383
0.540703 0.000000 0.101350
0.583124 0.000000 0.105959
0.626307 0.000000 0.110780
0.669245 0.000000 0.115572
0.710079 0.000000 0.121920
0.748409 0.000000 0.129519
0.784360 0.000000 0.138796
0.818967 0.000000 0.149416
0.852506 0.000000 0.160983
0.884916 0.000000 0.174990
0.916228 0.000000 0.190982
0.946380 0.000000 0.209567
0.975280 0.042878 0.231815
1.000000 0.121218 0.258488
0.000000 0.048188 0.000458
0.011658 0.050690 0.000855
0.045594 0.052674 0.000855
0.076875 0.054597 0.008576
0.097292 0.056245 0.018311
0.118288 0.058320 0.026215
0.139528 0.061555 0.039551
0.161624 0.064790 0.053162
0.185641 0.067933 0.061494
0.211398 0.069123 0.066285
0.239414 0.069184 0.070192
0.269810 0.069734 0.073335
0.302800 0.068330 0.077363
0.338598 0.066133 0.081819
0.376989 0.062348 0.085939
0.417487 0.052277 0.089815
0.458930 0.032654 0.093965
0.500755 0.004059 0.097963
0.542565 0.000000 0.102083
0.584863 0.000000 0.106477
0.628016 0.000000 0.110811
0.670588 0.000000 0.116243
0.711299 0.000000 0.122408
0.749477 0.000000 0.129824
0.785336 0.000000 0.139223
0.819821 0.000000 0.149813
0.853239 0.000000 0.161624
0.885527 0.000000 0.175814
0.916777 0.000000 0.191836
0.946868 0.000000 0.210575
0.975677 0.073365 0.232700
1.000000 0.131777 0.259556
0.000000 0.082399 0.001251
0.017151 0.082612 0.003815
0.048219 0.082795 0.004028
0.077790 0.083253 0.006439
0.099672 0.081849 0.017639
0.119448 0.082429 0.033295
0.140902 0.083772 0.047639
0.163363 0.085512 0.057832
0.187472 0.087068 0.063172
0.213504 0.088045 0.066957
0.241672 0.089357 0.070985
0.272282 0.089998 0.074372
0.305272 0.090242 0.078828
0.341558 0.090150 0.082612
0.380163 0.088624 0.086519
0.420478 0.085573 0.090761
0.462013 0.080720 0.094423
0.503838 0.072786 0.098299
0.545586 0.063386 0.102480
0.587884 0.036042 0.106752
0.631067 0.000000 0.111238
0.673457 0.000000 0.116457
0.713680 0.000000 0.122835
0.751400 0.000000 0.130770
0.786831 0.000000 0.139864
0.821012 0.000000 0.150576
0.854154 0.000000 0.162509
0.886290 0.000000 0.176364
0.917327 0.000000 0.192691
0.947295 0.055909 0.211429
0.976043 0.105776 0.234073
1.000000 0.151064 0.260838
0.001923 0.106294 0.011322
0.024292 0.106264 0.011841
0.051057 0.106477 0.015351
0.076753 0.107301 0.018860
0.101442 0.108095 0.025757
0.123201 0.107851 0.038117
0.143923 0.108339 0.054658
0.166415 0.109712 0.061433
0.190677 0.110719 0.065064
0.216983 0.112551 0.068818
0.245487 0.113649 0.072572
0.276249 0.115175 0.076387
0.309758 0.116365 0.080476
0.346105 0.117647 0.084199
0.384649 0.117952 0.087770
0.424872 0.117708 0.091371
0.466346 0.114961 0.095705
0.507927 0.112367 0.099245
0.549401 0.107424 0.103334
0.591669 0.101595 0.107088
0.634485 0.092958 0.111940
0.676570 0.084382 0.116976
0.716457 0.073732 0.123568
0.753719 0.062989 0.131807
0.788724 0.055360 0.140780
0.822690 0.046326 0.151919
0.855589 0.056153 0.163699
0.887480 0.067872 0.178042
0.918364 0.087678 0.194247
0.948180 0.111788 0.213443
0.976776 0.141604 0.236027
1.000000 0.176852 0.263401
0.012757 0.130404 0.028443
0.032013 0.130648 0.029999
0.056184 0.130861 0.031342
0.077943 0.131563 0.035950
0.101472 0.132479 0.040650
0.125399 0.134035 0.047303
0.148623 0.134310 0.054810
0.170718 0.134951 0.062013
0.194675 0.136873 0.067262
0.221195 0.138613 0.071199
0.249943 0.140627 0.074861
0.281041 0.143008 0.078523
0.314641 0.145327 0.082155
0.351263 0.147433 0.085817
0.389929 0.149386 0.089235
0.430243 0.150271 0.092775
0.471412 0.149874 0.096742
0.512718 0.148989 0.100343
0.554040 0.146792 0.104128
0.595911 0.143862 0.108186
0.638392 0.139590 0.112642
0.679866 0.134493 0.118105
0.712276 0.128054 0.123232
0.749783 0.124086 0.131044
0.785122 0.120821 0.140444
0.819333 0.119020 0.150973
0.852537 0.121279 0.163088
0.884703 0.125978 0.177310
0.915892 0.136080 0.193606
0.945922 0.151522 0.212741
0.974731 0.173068 0.235355
1.000000 0.201572 0.263035
0.023957 0.154513 0.045045
0.042054 0.154726 0.045502
0.060639 0.155093 0.047639
0.079683 0.155734 0.050324
0.102419 0.157015 0.052003
0.125734 0.158175 0.056397
0.150118 0.159762 0.059266
0.174502 0.161196 0.061189
0.198398 0.162051 0.067048
0.224521 0.164614 0.072511
0.253086 0.168551 0.077913
0.284337 0.171298 0.080934
0.318090 0.174472 0.084688
0.354833 0.177676 0.087861
0.393652 0.180453 0.091127
0.434089 0.182559 0.094514
0.475410 0.184146 0.097475
0.516533 0.184237 0.100862
0.557549 0.183810 0.104891
0.598749 0.182223 0.109102
0.640528 0.179904 0.113497
0.680873 0.177646 0.118563
0.719020 0.174105 0.125460
0.755032 0.171084 0.133394
0.789181 0.169406 0.142397
0.822568 0.168887 0.153292
0.855222 0.169833 0.165713
0.886992 0.173220 0.180331
0.917754 0.180209 0.196933
0.947478 0.192447 0.216281
0.975982 0.209201 0.239445
1.000000 0.233463 0.267430
0.028382 0.181399 0.054505
0.046326 0.181704 0.054780
0.062287 0.182132 0.056489
0.081819 0.182742 0.056611
0.104189 0.184024 0.058808
0.127749 0.185458 0.060548
0.152712 0.187137 0.062623
0.178012 0.189090 0.065034
0.204532 0.191470 0.066621
0.230655 0.193149 0.072480
0.259525 0.196872 0.077668
0.291173 0.201694 0.083009
0.325902 0.206882 0.087282
0.362829 0.210788 0.090181
0.401984 0.214511 0.093141
0.442298 0.217502 0.095766
0.483284 0.219699 0.099367
0.524346 0.220706 0.102602
0.564904 0.221042 0.106386
0.606012 0.220432 0.110536
0.647181 0.219547 0.115114
0.686793 0.218357 0.120424
0.724239 0.216129 0.127199
0.759426 0.214389 0.135561
0.793027 0.212528 0.145022
0.826017 0.212619 0.156100
0.858183 0.213321 0.168978
0.889494 0.216159 0.183566
0.919829 0.221958 0.200717
0.949157 0.231174 0.220768
0.977325 0.245731 0.244083
1.000000 0.266423 0.272465
0.028809 0.210849 0.060670
0.047944 0.210971 0.060853
0.064271 0.211398 0.060822
0.083314 0.212222 0.061646
0.106325 0.213535 0.063203
0.130648 0.215030 0.064759
0.155886 0.216892 0.066041
0.181918 0.218875 0.067994
0.208774 0.221042 0.070192
0.237034 0.224247 0.071717
0.266239 0.227512 0.077119
0.298192 0.232181 0.082490
0.333532 0.238285 0.087587
0.371740 0.245304 0.092439
0.411078 0.250095 0.095949
0.451331 0.253758 0.098543
0.492134 0.256535 0.100740
0.533043 0.258366 0.104250
0.573144 0.259220 0.107790
0.613794 0.259556 0.111849
0.654200 0.259312 0.116518
0.692836 0.258030 0.122469
0.729488 0.256596 0.129671
0.764034 0.255253 0.138094
0.797055 0.254124 0.148135
0.829526 0.253452 0.159396
0.861204 0.254154 0.172671
0.892088 0.256748 0.187839
0.921996 0.261448 0.205325
0.950896 0.269413 0.225742
0.978668 0.281712 0.249668
1.000000 0.300145 0.278569
0.029725 0.242863 0.063813
0.048371 0.243168 0.063905
0.065370 0.243595 0.064271
0.084810 0.244419 0.065003
0.108492 0.245579 0.066346
0.134096 0.247410 0.067384
0.160372 0.249516 0.069490
0.187137 0.251560 0.071107
0.214817 0.253880 0.072786
0.243107 0.256504 0.075288
0.273381 0.260197 0.076967
0.306371 0.265202 0.080842
0.341741 0.271244 0.085908
0.379706 0.278050 0.090517
0.419898 0.285313 0.095491
0.461433 0.291844 0.100435
0.501732 0.294774 0.103029
0.541924 0.296696 0.106081
0.581659 0.298070 0.109285
0.621820 0.298772 0.113558
0.661555 0.298894 0.118685
0.699580 0.298222 0.124666
0.735439 0.297154 0.132113
0.769223 0.295659 0.141146
0.801816 0.294285 0.152102
0.833738 0.293828 0.163882
0.864836 0.294347 0.177310
0.895109 0.296452 0.192813
0.924407 0.300206 0.210727
0.952758 0.307195 0.231327
0.980011 0.317967 0.255863
1.000000 0.334356 0.285130
0.021851 0.278447 0.066438
0.045075 0.278660 0.066499
0.064271 0.279240 0.066743
0.085786 0.279881 0.067750
0.111025 0.281132 0.068482
0.137575 0.282963 0.069703
0.165042 0.285039 0.071778
0.193057 0.287480 0.073243
0.221592 0.289921 0.074891
0.251102 0.292546 0.076905
0.281682 0.295659 0.078065
0.313970 0.299779 0.080049
0.350622 0.306645 0.082094
0.388769 0.313298 0.087343
0.428565 0.320195 0.091676
0.469917 0.327184 0.097505
0.511711 0.333379 0.103090
0.552453 0.337255 0.108064
0.591791 0.338537 0.111543
0.631342 0.339147 0.116091
0.670039 0.339391 0.121492
0.706813 0.338476 0.127718
0.741604 0.337255 0.135683
0.774502 0.335607 0.145754
0.806546 0.334264 0.156252
0.837827 0.333501 0.168887
0.868376 0.333684 0.182712
0.898100 0.335393 0.198734
0.926940 0.338720 0.217166
0.954742 0.344823 0.238285
0.981506 0.354528 0.263584
1.000000 0.369207 0.293248
0.010468 0.317327 0.067170
0.036011 0.317571 0.067597
0.061219 0.317906 0.068269
0.085725 0.318791 0.068635
0.113222 0.320073 0.069154
0.140780 0.321904 0.070161
0.169680 0.324224 0.072145
0.199405 0.326726 0.073884
0.229435 0.329320 0.075044
0.260166 0.332189 0.076509
0.291539 0.335149 0.077607
0.323949 0.338354 0.079561
0.352911 0.337835 0.080934
0.392493 0.345922 0.081697
0.431830 0.352728 0.086671
0.472450 0.359289 0.092317
0.513909 0.365637 0.098421
0.555200 0.371191 0.105318
0.596460 0.376135 0.112947
0.636042 0.377874 0.117922
0.674128 0.377935 0.123354
0.710353 0.377264 0.130404
0.744686 0.375769 0.139162
0.777279 0.374212 0.148836
0.808957 0.372625 0.160220
0.839933 0.371862 0.173190
0.870115 0.371862 0.187381
0.899535 0.373022 0.203922
0.928038 0.375860 0.222995
0.955505 0.381109 0.244999
0.981933 0.389929 0.270756
1.000000 0.403143 0.300908
0.000000 0.357000 0.066072
0.017762 0.357366 0.066377
0.054475 0.357977 0.066041
0.083986 0.358923 0.067048
0.113436 0.360601 0.067536
0.143526 0.362493 0.068177
0.174197 0.365026 0.069825
0.204746 0.367742 0.071504
0.236484 0.370825 0.073701
0.268223 0.373144 0.074739
0.300359 0.375616 0.075746
0.333257 0.378271 0.077546
0.366857 0.381231 0.078492
0.401678 0.384436 0.080385
0.442695 0.392279 0.079316
0.482643 0.398199 0.085115
0.523400 0.403723 0.092073
0.564080 0.408759 0.099641
0.604730 0.413336 0.108064
0.645380 0.417517 0.117708
0.684138 0.420417 0.127291
0.718990 0.418921 0.135378
0.752102 0.416938 0.144289
0.783780 0.414588 0.155367
0.814817 0.412940 0.166873
0.845029 0.411719 0.180331
0.874540 0.411322 0.195254
0.903227 0.412116 0.212467
0.931029 0.414435 0.232090
0.957855 0.418982 0.254673
0.983673 0.426886 0.280705
1.000000 0.438941 0.311620
0.000000 0.402197 0.062501
0.000000 0.402472 0.062409
0.034852 0.402838 0.062989
0.080201 0.403937 0.062928
0.113405 0.405371 0.063813
0.145754 0.407385 0.064912
0.178500 0.409705 0.065919
0.210666 0.412360 0.067628
0.243778 0.415320 0.069184
0.277409 0.418128 0.070497
0.310674 0.420356 0.071839
0.344671 0.422827 0.072602
0.379248 0.425452 0.074250
0.414740 0.428260 0.075898
0.451087 0.431586 0.077485
0.493294 0.439002 0.075257
0.533379 0.443763 0.083223
0.573449 0.448005 0.092866
0.613306 0.451850 0.102113
0.652888 0.455207 0.112886
0.690883 0.457710 0.125216
0.726772 0.459327 0.139040
0.759579 0.458503 0.151553
0.790433 0.455909 0.162295
0.820584 0.453437 0.174960
0.850065 0.451606 0.188876
0.878813 0.450721 0.204532
0.906767 0.450996 0.222080
0.933928 0.452766 0.242252
0.960052 0.456825 0.265324
0.985168 0.463783 0.292485
1.000000 0.474800 0.323552
0.000000 0.448341 0.053498
0.000000 0.448554 0.053346
0.009949 0.449042 0.053254
0.073060 0.450050 0.055482
0.111635 0.451484 0.056550
0.146853 0.453407 0.058076
0.181460 0.455634 0.059510
0.215702 0.458015 0.061067
0.249973 0.460761 0.062867
0.285130 0.463722 0.064820
0.319738 0.465949 0.066438
0.354650 0.468025 0.067781
0.390234 0.470344 0.069551
0.426398 0.472999 0.070039
0.463325 0.475868 0.072206
0.501152 0.478981 0.073365
0.543297 0.485389 0.070100
0.582696 0.488624 0.081941
0.621851 0.491615 0.093629
0.660426 0.493996 0.106752
0.697261 0.495430 0.121157
0.732143 0.496101 0.136049
0.765072 0.496315 0.152804
0.797024 0.496712 0.170535
0.826596 0.494301 0.184390
0.855192 0.491890 0.198764
0.883055 0.490333 0.215000
0.910155 0.489998 0.233310
0.936431 0.491127 0.253696
0.961822 0.494179 0.277043
0.986267 0.500237 0.304295
1.000000 0.510033 0.335546
0.000000 0.494820 0.034699
0.000000 0.495033 0.036591
0.000000 0.495369 0.036744
0.063203 0.496040 0.037781
0.108705 0.497383 0.038727
0.146883 0.499062 0.040467
0.182986 0.500816 0.044587
0.218906 0.503105 0.046509
0.254734 0.505486 0.050355
0.290593 0.508110 0.055207
0.327001 0.511009 0.058961
0.362982 0.513024 0.061616
0.399268 0.515221 0.063081
0.436286 0.517601 0.064881
0.473793 0.520134 0.066438
0.511986 0.523003 0.067689
0.550591 0.525902 0.070802
0.591913 0.530602 0.069093
0.630518 0.532525 0.082887
0.667628 0.533501 0.099489
0.703273 0.533745 0.115084
0.737087 0.533135 0.133059
0.769284 0.532433 0.150607
0.800565 0.531975 0.169741
0.830930 0.532067 0.189883
0.859953 0.532097 0.210147
0.887022 0.529900 0.226596
0.913329 0.528832 0.245548
0.938842 0.529320 0.266819
0.963592 0.531792 0.290440
0.987427 0.537072 0.318029
1.000000 0.545983 0.349981
0.000000 0.541161 0.012146
0.000000 0.541405 0.011597
0.000000 0.541741 0.015900
0.040192 0.542473 0.016480
0.104402 0.543450 0.016571
0.145571 0.544945 0.020233
0.184176 0.546563 0.023804
0.221530 0.548425 0.026856
0.258305 0.550591 0.033387
0.295506 0.552880 0.038270
0.332647 0.555444 0.047333
0.370031 0.557824 0.051057
0.406928 0.559686 0.055879
0.444221 0.561517 0.059480
0.482002 0.563714 0.061921
0.520409 0.566064 0.063691
0.559075 0.568536 0.067323
0.598230 0.571069 0.071351
0.638392 0.574060 0.071504
0.675135 0.574304 0.089113
0.709651 0.573022 0.109621
0.742428 0.571221 0.128725
0.773922 0.569329 0.148714
0.804623 0.567987 0.169375
0.834379 0.567193 0.190799
0.863096 0.567132 0.213291
0.890776 0.568017 0.237644
0.916777 0.568170 0.260075
0.941497 0.567895 0.281621
0.965454 0.569574 0.305669
0.988617 0.573877 0.333379
1.000000 0.581781 0.365454
0.000000 0.585870 0.000000
0.000000 0.585992 0.000000
0.000000 0.582147 0.000000
0.012329 0.582757 0.000000
0.097688 0.583795 0.000000
0.143252 0.585077 0.000549
0.182650 0.586786 0.006592
0.221286 0.588586 0.010193
0.259678 0.590631 0.013886
0.297276 0.592889 0.022309
0.334936 0.595361 0.030793
0.372808 0.597864 0.041962
0.410620 0.600092 0.047822
0.448310 0.601862 0.053986
0.486397 0.603754 0.058442
0.524559 0.605737 0.063142
0.563195 0.607904 0.067597
0.602014 0.609918 0.072297
0.641016 0.611872 0.077363
0.679530 0.613275 0.082795
0.714351 0.611872 0.100313
0.746273 0.608850 0.124147
0.777371 0.605951 0.145754
0.807675 0.603754 0.167666
0.837064 0.602075 0.190341
0.865476 0.601221 0.214420
0.892851 0.601343 0.240208
0.919036 0.602716 0.267460
0.943938 0.605890 0.297154
0.967254 0.607324 0.322667
0.989715 0.610742 0.350347
1.000000 0.617670 0.382605
0.000000 0.628809 0.000000
0.000000 0.628443 0.000000
0.000000 0.628138 0.000000
0.000000 0.628229 0.000000
0.092714 0.628595 0.000000
0.140719 0.629633 0.000000
0.183261 0.630854 0.000000
0.223117 0.632288 0.000000
0.261967 0.634089 0.003967
0.300298 0.635828 0.012055
0.338476 0.637842 0.022065
0.376745 0.639796 0.033875
0.415259 0.642115 0.050263
0.453101 0.643519 0.058320
0.491157 0.644862 0.063020
0.529198 0.646296 0.068147
0.567559 0.647791 0.073121
0.605859 0.649226 0.078920
0.644251 0.650538 0.085023
0.682551 0.651759 0.092134
0.719234 0.651514 0.100038
0.751614 0.648219 0.119081
0.782010 0.644190 0.143496
0.811643 0.640803 0.167575
0.840452 0.637995 0.191653
0.868345 0.636072 0.216434
0.895201 0.635126 0.242710
0.920928 0.635462 0.271244
0.945403 0.637385 0.301640
0.968658 0.641505 0.334813
0.990631 0.647456 0.369085
1.000000 0.653346 0.401160
0.000000 0.670802 0.000000
0.000000 0.670466 0.000000
0.000000 0.670222 0.000000
0.000000 0.670253 0.000000
0.088228 0.670619 0.000000
0.139376 0.671351 0.000000
0.183139 0.672328 0.000000
0.223819 0.673396 0.000000
0.263371 0.674708 0.005798
0.302220 0.676081 0.016571
0.340581 0.677577 0.033021
0.378851 0.679072 0.048615
0.417487 0.680751 0.060487
0.455787 0.682338 0.068544
0.493568 0.683192 0.073610
0.531395 0.684047 0.079408
0.569299 0.684993 0.085359
0.607080 0.685878 0.091798
0.644800 0.686641 0.099214
0.682429 0.687282 0.106020
0.719783 0.687861 0.113527
0.755184 0.686824 0.123201
0.786526 0.682856 0.140383
0.815518 0.678218 0.166812
0.843748 0.674372 0.192386
0.871122 0.671321 0.218784
0.897520 0.669215 0.246098
0.922850 0.668482 0.275242
0.946929 0.669245 0.306462
0.969818 0.672084 0.340032
0.991516 0.677699 0.376684
1.000000 0.686824 0.417609
0.000000 0.709560 0.000000
0.000000 0.709285 0.000000
0.000000 0.708980 0.000000
0.000000 0.708980 0.000000
0.088258 0.709194 0.000000
0.139834 0.709682 0.003998
0.183566 0.710445 0.011444
0.224674 0.711299 0.018555
0.264256 0.712245 0.034028
0.303319 0.713283 0.047456
0.341741 0.714321 0.059815
0.380102 0.715480 0.067597
0.418250 0.716670 0.076020
0.456672 0.717952 0.083742
0.494270 0.718746 0.091402
0.531701 0.719203 0.097108
0.569024 0.719570 0.103304
0.606165 0.720027 0.109651
0.643366 0.720241 0.116213
0.680293 0.720424 0.122713
0.716854 0.720546 0.130068
0.753323 0.720607 0.138430
0.787930 0.719326 0.147860
0.818112 0.714900 0.165103
0.845792 0.709804 0.192172
0.872648 0.705653 0.219913
0.898619 0.702449 0.248081
0.923552 0.700526 0.277592
0.947356 0.700099 0.309422
0.970031 0.701656 0.343267
0.991485 0.705837 0.380560
1.000000 0.713466 0.421637
0.000000 0.743648 0.024964
0.000000 0.743618 0.027344
0.000000 0.743557 0.029297
0.000000 0.743709 0.029603
0.090578 0.743984 0.037415
0.142306 0.744411 0.043641
0.185550 0.744991 0.052888
0.226261 0.745602 0.061341
0.265385 0.746304 0.065980
0.304234 0.746975 0.071962
0.342199 0.747799 0.079896
0.380468 0.748562 0.086213
0.418219 0.749538 0.093690
0.455909 0.750546 0.102022
0.493812 0.751644 0.110292
0.531029 0.751949 0.116030
0.567926 0.752163 0.122072
0.604700 0.752407 0.128603
0.641291 0.752560 0.135225
0.677821 0.752590 0.142336
0.714076 0.752621 0.150484
0.749996 0.752590 0.158572
0.785763 0.752529 0.166964
0.819883 0.751461 0.176822
0.848997 0.746792 0.193851
0.875425 0.741421 0.222354
0.900877 0.736965 0.252049
0.925353 0.733883 0.282567
0.948760 0.732296 0.314672
0.971130 0.732540 0.349035
0.992279 0.735348 0.386816
1.000000 0.741451 0.428473
0.000000 0.777371 0.069459
0.000000 0.777310 0.070375
0.000000 0.777279 0.070985
0.004456 0.777310 0.071595
0.100252 0.777493 0.074250
0.147829 0.777859 0.077577
0.189670 0.778347 0.081361
0.229465 0.778866 0.084871
0.268193 0.779416 0.090089
0.306249 0.779995 0.096010
0.344152 0.780636 0.101106
0.381689 0.781277 0.107942
0.418952 0.781949 0.115023
0.456428 0.782712 0.122621
0.493935 0.783444 0.130312
0.530907 0.784115 0.138521
0.567254 0.784146 0.144594
0.603540 0.784115 0.151217
0.639582 0.784024 0.158083
0.675502 0.783902 0.164889
0.711147 0.783658 0.172519
0.746487 0.783413 0.180880
0.781460 0.783139 0.189120
0.816129 0.782803 0.198276
0.850278 0.782528 0.209903
0.878172 0.777462 0.227176
0.903288 0.772000 0.256687
0.927337 0.767636 0.288060
0.950378 0.764797 0.320806
0.972320 0.763790 0.356115
0.993194 0.765133 0.394079
1.000000 0.769711 0.436042
0.000000 0.808560 0.096498
0.000000 0.808469 0.096834
0.000000 0.808347 0.097353
0.059937 0.808499 0.098451
0.113771 0.808713 0.099763
0.156313 0.809079 0.102632
0.196323 0.809445 0.105837
0.234440 0.809964 0.109957
0.272404 0.810513 0.114290
0.309392 0.811063 0.119997
0.346593 0.811643 0.125887
0.383551 0.812192 0.131258
0.420478 0.812741 0.138521
0.457282 0.813413 0.145998
0.494087 0.814084 0.153841
0.531029 0.814786 0.162387
0.567254 0.815030 0.169924
0.603052 0.814878 0.176669
0.638575 0.814694 0.183139
0.673762 0.814328 0.190768
0.708705 0.813962 0.198672
0.743374 0.813535 0.206241
0.777768 0.813077 0.215366
0.811856 0.812680 0.224338
0.845518 0.812314 0.234195
0.878416 0.811734 0.244572
0.904875 0.806455 0.263554
0.928985 0.801144 0.293431
0.951720 0.797055 0.327062
0.973358 0.794797 0.362829
0.993988 0.794766 0.401373
1.000000 0.797818 0.443549
0.000000 0.839475 0.124727
0.000000 0.839353 0.124636
0.048768 0.839322 0.124605
0.093996 0.839384 0.126009
0.133089 0.839536 0.127565
0.169772 0.839780 0.130678
0.206424 0.840055 0.133181
0.242863 0.840391 0.136965
0.278965 0.840757 0.141085
0.315160 0.841062 0.145693
0.351019 0.841489 0.151583
0.387030 0.841825 0.157504
0.423163 0.842161 0.163943
0.459174 0.842557 0.170809
0.495369 0.842985 0.178622
0.531243 0.843442 0.187076
0.567346 0.843778 0.196262
0.602350 0.843595 0.203128
0.637201 0.843198 0.210300
0.671717 0.842771 0.217563
0.705928 0.842222 0.225254
0.739925 0.841703 0.233463
0.773556 0.841154 0.242191
0.806882 0.840604 0.251041
0.839841 0.840116 0.261112
0.872435 0.839658 0.270970
0.904417 0.839200 0.281956
0.929656 0.833982 0.302159
0.952636 0.828916 0.332738
0.973999 0.825376 0.368872
0.994354 0.823972 0.407691
1.000000 0.825406 0.450324
0.077272 0.868589 0.153506
0.088991 0.868467 0.153750
0.102815 0.868498 0.154238
0.126955 0.868559 0.155489
0.156374 0.868650 0.156893
0.187839 0.868894 0.159335
0.220768 0.869169 0.162570
0.254551 0.869413 0.165591
0.288701 0.869627 0.170138
0.323186 0.869841 0.174807
0.357794 0.870054 0.179812
0.392584 0.870207 0.185733
0.427741 0.870390 0.191928
0.462867 0.870573 0.199039
0.498085 0.870787 0.206271
0.533227 0.871000 0.214817
0.568444 0.871214 0.223819
0.603174 0.871214 0.232670
0.637201 0.870756 0.239750
0.670832 0.870176 0.247105
0.704311 0.869566 0.255039
0.737484 0.868925 0.263340
0.770382 0.868284 0.272160
0.802853 0.867674 0.281010
0.834989 0.867033 0.290715
0.866728 0.866453 0.301244
0.897948 0.865904 0.312016
0.928618 0.865415 0.322942
0.952972 0.860746 0.345068
0.974914 0.856199 0.376013
0.994995 0.853422 0.415442
1.000000 0.853452 0.458595
0.128389 0.896513 0.185489
0.135256 0.896452 0.185611
0.143893 0.896422 0.186160
0.160861 0.896452 0.186831
0.183871 0.896513 0.188663
0.210452 0.896574 0.190951
0.239536 0.896574 0.193484
0.270054 0.896574 0.196323
0.301579 0.896483 0.200229
0.333776 0.896422 0.204440
0.366644 0.896300 0.209201
0.399908 0.896178 0.214115
0.433326 0.896086 0.220401
0.467201 0.896025 0.226719
0.501244 0.895964 0.234226
0.535363 0.895995 0.242496
0.569512 0.895995 0.251011
0.603571 0.895964 0.260380
0.637049 0.895598 0.269108
0.669825 0.894987 0.276158
0.702327 0.894316 0.284367
0.734737 0.893645 0.292699
0.766751 0.892943 0.301183
0.798428 0.892302 0.310399
0.829740 0.891630 0.320653
0.860655 0.890959 0.330816
0.890959 0.890410 0.341711
0.920836 0.889830 0.352880
0.950103 0.889342 0.364721
0.973785 0.885435 0.387732
0.994781 0.881712 0.420203
1.000000 0.880186 0.463996
0.170626 0.921904 0.216861
0.175296 0.921874 0.217350
0.182010 0.921843 0.217685
0.194583 0.921874 0.219028
0.213474 0.921935 0.220615
0.236118 0.921996 0.222904
0.261723 0.922026 0.225254
0.289097 0.922026 0.228550
0.318059 0.921996 0.232059
0.348302 0.921935 0.236851
0.379339 0.921843 0.241703
0.411078 0.921752 0.247166
0.443122 0.921630 0.252842
0.475776 0.921477 0.259983
0.508568 0.921355 0.267338
0.541466 0.921233 0.275456
