cubelut/Landscape7.cube
# Created by Adobe Lightroom plugin Export LUT (1.18.0)
# www.johnrellis.com/lightroom/exportlut.htm
# Preset: Landscape7
# Color profile: /Library/Application Support/Adobe/Color/Profiles/Recommended/AdobeRGB1998.icc
LUT_3D_SIZE 8
DOMAIN_MIN 0.000000 0.000000 0.000000
DOMAIN_MAX 0.903226 0.903226 0.903226
0.000000 0.000000 0.000000
0.089357 0.045899 0.051270
0.197879 0.072908 0.081849
0.372168 0.079438 0.108064
0.594568 0.099916 0.160098
0.803311 0.168612 0.236301
0.941863 0.301335 0.340795
1.000000 0.476600 0.473976
0.038911 0.097993 0.046967
0.094972 0.099519 0.055970
0.202945 0.113954 0.082460
0.377905 0.137057 0.110842
0.600122 0.164950 0.163546
0.806882 0.217380 0.240024
0.943023 0.328496 0.344762
1.000000 0.490944 0.477577
0.073396 0.209171 0.073121
0.119814 0.210330 0.075685
0.214450 0.219211 0.083558
0.385290 0.251072 0.115236
0.610895 0.289311 0.171389
0.811795 0.330205 0.248386
0.943053 0.403021 0.352697
1.000000 0.532555 0.485634
0.104524 0.369940 0.086854
0.155276 0.371588 0.089387
0.263218 0.376165 0.097871
0.400458 0.395819 0.111116
0.605188 0.433967 0.168917
0.819791 0.462776 0.260746
0.944762 0.507469 0.368078
1.000000 0.600092 0.502220
0.155428 0.559045 0.112703
0.203494 0.560052 0.115175
0.317144 0.563165 0.123873
0.456550 0.572473 0.139742
0.622034 0.596307 0.164309
0.803342 0.614710 0.250370
0.941955 0.628870 0.380163
1.000000 0.681819 0.526177
0.230442 0.742275 0.164187
0.268498 0.741970 0.166415
0.371954 0.743282 0.175509
0.504845 0.745052 0.191958
0.654017 0.754940 0.220157
0.809354 0.769039 0.260807
0.927031 0.755703 0.370733
1.000000 0.770321 0.533196
0.339055 0.880644 0.260594
0.364233 0.880278 0.263066
0.441840 0.879606 0.272465
0.551415 0.878019 0.289128
0.674556 0.875669 0.313939
0.803494 0.878935 0.355871
0.924041 0.882170 0.409339
0.993561 0.862394 0.531365
0.492592 0.969329 0.400244
0.507378 0.968902 0.402808
0.555810 0.967224 0.412116
0.631159 0.964172 0.428656
0.723140 0.960510 0.455665
0.818875 0.956542 0.492195
0.910674 0.954528 0.543999
0.988708 0.953918 0.601587
0.023133 0.024140 0.107576
0.098756 0.032166 0.105379
0.200717 0.085054 0.126711
0.366613 0.116304 0.170016
0.589685 0.146883 0.222324
0.800473 0.215305 0.290257
0.938628 0.344396 0.384344
1.000000 0.513390 0.509087
0.024720 0.102876 0.105684
0.097078 0.106203 0.108766
0.200229 0.129946 0.135775
0.371283 0.156344 0.171176
0.593957 0.192172 0.223850
0.802945 0.252323 0.292363
0.939635 0.366613 0.387213
1.000000 0.525994 0.512352
0.059113 0.211185 0.118654
0.119234 0.212924 0.128450
0.213352 0.220615 0.136080
0.384619 0.254429 0.173892
0.606531 0.300420 0.227787
0.808804 0.349462 0.297673
0.940490 0.431647 0.393744
1.000000 0.562737 0.519493
0.064424 0.372534 0.128328
0.149203 0.372839 0.146700
0.261357 0.377386 0.153384
0.400153 0.396826 0.167361
0.607813 0.438209 0.223514
0.818692 0.474037 0.306859
0.942565 0.526818 0.406561
1.000000 0.623529 0.534356
0.146609 0.559167 0.170108
0.197726 0.560357 0.171939
0.314672 0.563745 0.179141
0.455818 0.572625 0.192386
0.622065 0.597284 0.215183
0.803799 0.618036 0.293950
0.940490 0.638788 0.416358
1.000000 0.698024 0.555474
0.230167 0.742580 0.212894
0.268772 0.742947 0.214969
0.372839 0.744167 0.222416
0.505974 0.745785 0.236393
0.654353 0.754849 0.261265
0.808713 0.769039 0.298955
0.925811 0.758877 0.403693
1.000000 0.778958 0.560662
0.348638 0.880583 0.296391
0.373602 0.880461 0.298894
0.449226 0.879667 0.307195
0.556725 0.877928 0.322148
0.678004 0.875425 0.345006
0.805142 0.878721 0.385290
0.923644 0.882475 0.437690
0.991882 0.865599 0.556817
0.506767 0.968353 0.425574
0.520775 0.967834 0.427924
0.567346 0.966217 0.436652
0.640314 0.963226 0.452644
0.728695 0.959289 0.477058
0.822416 0.955596 0.512963
0.912047 0.954131 0.563378
0.988006 0.954009 0.618616
0.061097 0.027039 0.236057
0.125704 0.020356 0.234073
0.222049 0.024170 0.226413
0.383032 0.000000 0.248386
0.587610 0.152224 0.308537
0.786893 0.306615 0.397498
0.925780 0.439185 0.481758
0.997742 0.599634 0.595087
0.000000 0.111269 0.230137
0.112062 0.113680 0.229099
0.219821 0.112184 0.226413
0.381476 0.134646 0.252750
0.587091 0.222629 0.320348
0.789822 0.326909 0.397375
0.926696 0.454658 0.483894
0.997742 0.608331 0.597314
0.000000 0.224094 0.225254
0.100954 0.225345 0.226505
0.227726 0.242283 0.242557
0.383490 0.277714 0.279667
0.594476 0.330846 0.335393
0.796323 0.398779 0.401373
0.928405 0.502770 0.489570
0.997467 0.635889 0.603479
0.000000 0.373724 0.245609
0.115023 0.376013 0.246372
0.257023 0.387182 0.261418
0.400580 0.401526 0.276738
0.610101 0.448066 0.337621
0.807126 0.503136 0.408972
0.931029 0.577813 0.499947
0.996918 0.681056 0.614221
0.056184 0.561273 0.266331
0.146517 0.562646 0.267338
0.308354 0.566461 0.291447
0.452216 0.571405 0.302190
0.618036 0.596185 0.325597
0.801755 0.627344 0.400397
0.933349 0.670008 0.513909
0.996216 0.739254 0.629969
0.162966 0.744381 0.286717
0.219730 0.744564 0.290867
0.377234 0.743618 0.330266
0.509850 0.745602 0.341680
0.655207 0.752895 0.362371
0.805966 0.768612 0.397955
0.921202 0.769741 0.496681
0.992615 0.802762 0.634363
0.324926 0.881071 0.350408
0.377996 0.879149 0.372045
0.472786 0.876768 0.397833
0.574121 0.875425 0.411078
0.689204 0.873533 0.430976
0.809659 0.876585 0.467536
0.920562 0.881865 0.517510
0.985931 0.873472 0.623957
0.533684 0.965545 0.485389
0.562249 0.963622 0.500938
0.603815 0.962188 0.509056
0.669001 0.959411 0.523217
0.749020 0.956085 0.544976
0.833524 0.952911 0.574762
0.915648 0.952697 0.618860
0.985321 0.953826 0.666560
0.111086 0.000000 0.403937
0.171664 0.000000 0.401526
0.292760 0.000000 0.396765
0.412451 0.000000 0.386389
0.602655 0.000000 0.398291
0.796353 0.175357 0.444739
0.925048 0.430518 0.532525
0.986847 0.659541 0.669001
0.063264 0.113436 0.394995
0.147463 0.108766 0.394354
0.281285 0.086854 0.392798
0.409857 0.064118 0.385229
0.601648 0.000000 0.397406
0.795224 0.248661 0.452125
0.922454 0.471534 0.546624
0.984070 0.680995 0.681636
0.000000 0.259709 0.392187
0.059785 0.254948 0.391455
0.251896 0.246983 0.391669
0.409766 0.244083 0.388739
0.601373 0.287968 0.411353
0.790280 0.413306 0.484596
0.912078 0.587182 0.596124
0.981964 0.710628 0.694026
0.000000 0.398077 0.381445
0.075776 0.398688 0.381933
0.245914 0.405310 0.387640
0.430091 0.434211 0.412787
0.611841 0.481209 0.457191
0.794095 0.553918 0.524224
0.915129 0.648829 0.611078
0.982696 0.742458 0.701747
0.000000 0.561273 0.393713
0.134615 0.563043 0.394965
0.287510 0.570764 0.401526
0.463264 0.586664 0.428046
0.622553 0.603998 0.449317
0.802945 0.652003 0.529229
0.920134 0.717098 0.624384
0.983612 0.784634 0.712581
0.163149 0.742763 0.414374
0.219577 0.742672 0.416205
0.353155 0.744930 0.426703
0.523552 0.747463 0.462898
0.659724 0.750515 0.479225
0.802792 0.769100 0.517021
0.914702 0.789456 0.613428
0.983581 0.832517 0.720516
0.325658 0.880095 0.446174
0.360967 0.879271 0.451881
0.463539 0.876555 0.474006
0.605890 0.871183 0.522972
0.709407 0.870146 0.541100
0.816892 0.873167 0.572107
0.916197 0.881621 0.617151
0.979004 0.885039 0.706264
0.519066 0.966278 0.529351
0.542351 0.964874 0.538323
0.613306 0.960418 0.568780
0.706691 0.954131 0.613275
0.774685 0.951904 0.630426
0.847013 0.949798 0.652491
0.919493 0.950988 0.688228
0.981628 0.953857 0.727352
0.185519 0.000000 0.578271
0.235416 0.000000 0.576684
0.356298 0.000000 0.573419
0.502953 0.000000 0.569146
0.634577 0.000000 0.555413
0.800839 0.000000 0.547784
0.932250 0.277836 0.567071
0.998596 0.573236 0.661280
0.153353 0.100618 0.572259
0.212070 0.092164 0.571130
0.342992 0.033539 0.569268
0.495979 0.000000 0.566857
0.632563 0.000000 0.554528
0.799680 0.000000 0.547814
0.930297 0.332158 0.574060
0.995697 0.600916 0.672511
0.000000 0.257420 0.566155
0.103639 0.259129 0.564446
0.305669 0.259556 0.563470
0.476905 0.243778 0.562890
0.628626 0.245731 0.554070
0.796841 0.289525 0.550683
0.923186 0.477028 0.603510
0.986603 0.680262 0.708919
0.000000 0.441413 0.560113
0.049165 0.440070 0.560113
0.270817 0.437415 0.561395
0.458778 0.437690 0.564050
0.629633 0.437873 0.560571
0.794186 0.498848 0.576165
0.910826 0.648402 0.663478
0.974548 0.774289 0.761410
0.000000 0.591394 0.545708
0.113344 0.591547 0.545922
0.288884 0.593927 0.548272
0.462165 0.604059 0.558129
0.649683 0.633509 0.586572
0.799100 0.687861 0.641627
0.908324 0.756588 0.712428
0.973663 0.820493 0.781521
0.164248 0.742336 0.544091
0.221378 0.742916 0.545281
0.354742 0.745357 0.551202
0.514031 0.750851 0.566857
0.679316 0.760372 0.604364
0.803372 0.774624 0.633478
0.912474 0.813443 0.717342
0.976287 0.858640 0.791531
0.336584 0.878325 0.559564
0.370581 0.877653 0.562890
0.469612 0.875303 0.575921
0.601129 0.871672 0.603510
0.731258 0.868956 0.647181
0.822629 0.870665 0.667140
0.912322 0.882872 0.706722
0.974243 0.897978 0.782162
0.531395 0.964843 0.610468
0.553460 0.963561 0.616815
0.619593 0.959503 0.637812
0.704952 0.954040 0.668940
0.794705 0.948821 0.710292
0.858091 0.947997 0.727657
0.921782 0.949828 0.753994
0.977935 0.954559 0.787076
0.243839 0.000000 0.740993
0.285252 0.000000 0.740383
0.396246 0.000000 0.738949
0.539147 0.000000 0.736477
0.694118 0.000000 0.733730
0.821897 0.000000 0.715999
0.932189 0.162478 0.676722
1.000000 0.406653 0.674525
0.224826 0.090486 0.739071
0.269902 0.081941 0.738674
0.387030 0.013367 0.737453
0.533776 0.000000 0.735378
0.691615 0.000000 0.732815
0.820584 0.000000 0.715694
0.930938 0.230747 0.678126
1.000000 0.446326 0.681971
0.164218 0.282292 0.732509
0.225315 0.281132 0.732448
0.361089 0.276219 0.731838
0.517998 0.266148 0.730556
0.681575 0.249485 0.729061
0.815488 0.278050 0.714382
0.925872 0.377874 0.683742
1.000000 0.560266 0.709041
0.000000 0.451789 0.730526
0.156008 0.450629 0.729824
0.324620 0.449073 0.727779
0.507347 0.460334 0.725399
0.668971 0.453468 0.724697
0.808072 0.468727 0.714412
0.917052 0.539239 0.697108
0.986633 0.692531 0.752651
0.109834 0.616266 0.721645
0.191318 0.616480 0.721492
0.343511 0.618555 0.721340
0.508629 0.626459 0.723140
0.670222 0.638209 0.725185
0.804044 0.642298 0.721187
0.908202 0.701961 0.731930
0.973693 0.809079 0.806943
0.191470 0.763302 0.708553
0.245090 0.762966 0.708370
0.374334 0.762692 0.708736
0.526879 0.763821 0.711238
0.677150 0.769772 0.719203
0.811612 0.788998 0.741329
0.907530 0.834073 0.793301
0.969574 0.879179 0.846799
0.344457 0.877317 0.687190
0.376318 0.876341 0.688106
0.470558 0.873198 0.692378
0.596368 0.869780 0.703670
0.720302 0.869047 0.723659
0.830289 0.873594 0.757839
0.909026 0.885405 0.786038
0.971984 0.912688 0.850675
0.540490 0.962829 0.704555
0.560723 0.961730 0.708217
0.621942 0.958190 0.720302
0.702968 0.953521 0.739040
0.787137 0.949432 0.764126
0.865965 0.947143 0.797848
0.922057 0.948760 0.814939
0.974334 0.955871 0.844114
0.285191 0.000000 0.869871
0.318456 0.000000 0.869383
0.414160 0.000000 0.868467
0.542931 0.000000 0.866911
0.685695 0.000000 0.864866
0.827146 0.000000 0.862364
0.938720 0.176455 0.841337
1.000000 0.383642 0.786862
0.279637 0.132265 0.869169
0.313909 0.130465 0.868772
0.411322 0.125032 0.867918
0.541466 0.116396 0.866514
0.684840 0.110842 0.864591
0.826688 0.137789 0.862303
0.937896 0.243748 0.841917
1.000000 0.419898 0.789944
0.276890 0.312413 0.864775
0.311864 0.312413 0.864591
0.410559 0.313390 0.864012
0.540703 0.315007 0.862852
0.682673 0.318456 0.861265
0.823575 0.329656 0.859190
0.932372 0.385901 0.840665
1.000000 0.514183 0.797513
0.259403 0.463844 0.860868
0.304204 0.468208 0.860319
0.443244 0.498207 0.857725
0.558740 0.500237 0.856748
0.688167 0.503532 0.855558
0.820401 0.507195 0.854032
0.923278 0.543664 0.839445
0.991272 0.630121 0.810605
0.295415 0.618280 0.857450
0.336278 0.621546 0.857115
0.448371 0.633845 0.855650
0.585046 0.653132 0.852689
0.710445 0.670253 0.850431
0.819608 0.669947 0.850004
0.914397 0.685908 0.841062
0.981842 0.739651 0.828122
0.350103 0.756100 0.848936
0.383368 0.757321 0.848631
0.480201 0.762264 0.847745
0.603479 0.771603 0.846738
0.721492 0.784451 0.847349
0.824216 0.796201 0.848142
0.907286 0.799771 0.845060
0.972656 0.840787 0.855589
0.410101 0.880156 0.838560
0.437018 0.879728 0.838285
0.519097 0.878599 0.837736
0.624628 0.877165 0.837430
0.731380 0.876951 0.838682
0.826871 0.879942 0.843565
0.908873 0.891783 0.858824
0.969696 0.926207 0.902892
0.552148 0.962829 0.816617
0.570062 0.961791 0.817655
0.623224 0.958190 0.820554
0.698299 0.953460 0.826383
0.779751 0.949218 0.836240
0.856046 0.947875 0.851591
0.922179 0.950347 0.875120
0.971466 0.958312 0.897459
0.333501 0.152224 0.965087
0.358923 0.154726 0.964843
0.436530 0.165866 0.964324
0.546471 0.185061 0.963134
0.671382 0.214817 0.961425
0.799924 0.254276 0.959289
0.917632 0.319188 0.956481
1.000000 0.416419 0.934386
0.341100 0.221683 0.964446
0.365820 0.223697 0.964233
0.442084 0.231968 0.963653
0.550774 0.247471 0.962524
0.674189 0.271611 0.960815
0.801144 0.304723 0.958679
0.917601 0.360571 0.955962
1.000000 0.448493 0.934569
0.379675 0.374670 0.961456
0.401465 0.376318 0.961273
0.470680 0.382879 0.960754
0.570764 0.393530 0.959442
0.686610 0.410773 0.957855
0.806302 0.434211 0.955901
0.917205 0.472663 0.953368
0.999268 0.538445 0.934325
0.472602 0.550805 0.955413
0.488350 0.551904 0.955200
0.540551 0.556298 0.954742
0.620691 0.563775 0.953735
0.716976 0.574670 0.952392
0.818936 0.588312 0.950866
0.917235 0.607446 0.949096
0.991669 0.646296 0.934081
0.483009 0.653376 0.953491
0.507591 0.658991 0.952819
0.581598 0.678004 0.950866
0.686671 0.713069 0.947326
0.756405 0.716609 0.946746
0.835264 0.721065 0.946105
0.917937 0.726101 0.945312
0.983398 0.748928 0.934722
0.523400 0.763699 0.949432
0.544854 0.767208 0.949096
0.608576 0.778378 0.948028
0.692958 0.794919 0.946319
0.777951 0.812497 0.944152
0.851804 0.824430 0.942473
0.917144 0.824582 0.942199
0.975891 0.834440 0.936095
0.574640 0.866911 0.943725
0.591455 0.868193 0.943542
0.642481 0.872190 0.942931
0.713344 0.878416 0.942016
0.788724 0.886320 0.941344
0.858091 0.895079 0.941680
0.918944 0.902007 0.942138
0.970886 0.904295 0.940124
0.624598 0.958312 0.938567
0.637476 0.958129 0.938506
0.677790 0.957427 0.938170
0.736324 0.956329 0.937591
0.801114 0.955291 0.937194
0.863005 0.954894 0.937560
0.918547 0.955962 0.939605
0.969543 0.962066 0.948180
