cubelut/Landscape6.cube
# Created by Adobe Lightroom plugin Export LUT (1.18.0)
# www.johnrellis.com/lightroom/exportlut.htm
# Preset: Landscape6
# Color profile: /Library/Application Support/Adobe/Color/Profiles/Recommended/AdobeRGB1998.icc
LUT_3D_SIZE 8
DOMAIN_MIN 0.000000 0.000000 0.000000
DOMAIN_MAX 0.903226 0.903226 0.903226
0.000000 0.000000 0.000000
0.096376 0.001434 0.016632
0.183536 0.037171 0.059846
0.299687 0.030671 0.076905
0.455055 0.000000 0.093202
0.624292 0.000000 0.110658
0.783078 0.000000 0.138094
0.915435 0.000000 0.190249
0.001923 0.106294 0.011322
0.101442 0.108095 0.025757
0.190677 0.110719 0.065064
0.309758 0.116365 0.080476
0.466346 0.114961 0.095705
0.634485 0.092958 0.111940
0.788724 0.055360 0.140780
0.918364 0.087678 0.194247
0.028809 0.210849 0.060670
0.106325 0.213535 0.063203
0.208774 0.221042 0.070192
0.333532 0.238285 0.087587
0.492134 0.256535 0.100740
0.654200 0.259312 0.116518
0.797055 0.254124 0.148135
0.921996 0.261448 0.205325
0.000000 0.357000 0.066072
0.113436 0.360601 0.067536
0.236484 0.370825 0.073701
0.366857 0.381231 0.078492
0.523400 0.403723 0.092073
0.684138 0.420417 0.127291
0.814817 0.412940 0.166873
0.931029 0.414435 0.232090
0.000000 0.541161 0.012146
0.104402 0.543450 0.016571
0.258305 0.550591 0.033387
0.406928 0.559686 0.055879
0.559075 0.568536 0.067323
0.709651 0.573022 0.109621
0.834379 0.567193 0.190799
0.941497 0.567895 0.281621
0.000000 0.709560 0.000000
0.088258 0.709194 0.000000
0.264256 0.712245 0.034028
0.418250 0.716670 0.076020
0.569024 0.719570 0.103304
0.716854 0.720546 0.130068
0.845792 0.709804 0.192172
0.947356 0.700099 0.309422
0.000000 0.839475 0.124727
0.133089 0.839536 0.127565
0.278965 0.840757 0.141085
0.423163 0.842161 0.163943
0.567346 0.843778 0.196262
0.705928 0.842222 0.225254
0.839841 0.840116 0.261112
0.952636 0.828916 0.332738
0.214939 0.947051 0.253971
0.249119 0.947051 0.257206
0.340398 0.946777 0.268467
0.456611 0.945861 0.288670
0.583764 0.945892 0.322789
0.708248 0.943633 0.359045
0.826780 0.940337 0.395544
0.939055 0.937896 0.441474
0.000000 0.000000 0.105318
0.097139 0.009430 0.108034
0.188693 0.065705 0.120974
0.307103 0.015625 0.129152
0.463294 0.000000 0.141207
0.631800 0.000000 0.154543
0.786893 0.000000 0.177157
0.917357 0.000000 0.222599
0.009705 0.104738 0.110292
0.100679 0.109346 0.113191
0.193423 0.113741 0.121675
0.314366 0.114412 0.132265
0.471687 0.100984 0.142947
0.639338 0.051789 0.156252
0.791714 0.000000 0.179721
0.920195 0.072480 0.227268
0.020203 0.212985 0.120729
0.104494 0.215976 0.121431
0.209689 0.222782 0.126802
0.337896 0.240421 0.140291
0.497261 0.252903 0.149264
0.658930 0.252445 0.161685
0.801175 0.247898 0.187808
0.924224 0.260410 0.238224
0.000000 0.361639 0.129000
0.099031 0.364721 0.125521
0.234104 0.374060 0.130739
0.371588 0.386084 0.135073
0.531945 0.407813 0.147402
0.690211 0.420142 0.174350
0.818662 0.412482 0.207004
0.932769 0.416266 0.265415
0.000000 0.543755 0.115419
0.063050 0.546349 0.117067
0.251041 0.553429 0.121889
0.406836 0.563714 0.129976
0.563165 0.572534 0.136568
0.713069 0.574640 0.165835
0.836301 0.568902 0.232700
0.941772 0.570397 0.313176
0.000000 0.711879 0.118898
0.002045 0.712642 0.121218
0.256748 0.715328 0.129854
0.416327 0.719051 0.145113
0.569421 0.721431 0.163607
0.717922 0.721553 0.183139
0.846342 0.710597 0.235080
0.947295 0.702724 0.341680
0.000000 0.841337 0.178195
0.127077 0.841855 0.181918
0.278172 0.842741 0.192172
0.423957 0.843534 0.210239
0.568841 0.844602 0.238468
0.707515 0.843168 0.264652
0.841093 0.841276 0.297398
0.952819 0.830564 0.364477
0.225925 0.947448 0.287694
0.258152 0.947326 0.290318
0.347051 0.946929 0.300969
0.461707 0.945922 0.319402
0.586145 0.944732 0.348669
0.710384 0.942992 0.384436
0.828305 0.940276 0.419928
0.939422 0.938201 0.464057
0.013977 0.000000 0.201755
0.096956 0.019959 0.204532
0.195590 0.054597 0.214786
0.329107 0.023011 0.238468
0.475502 0.000000 0.260868
0.627802 0.000000 0.279973
0.784146 0.000000 0.264775
0.913725 0.000000 0.303716
0.006348 0.094575 0.207645
0.101442 0.105531 0.210697
0.199680 0.114473 0.219364
0.331579 0.112093 0.239322
0.477852 0.091493 0.259617
0.636805 0.000000 0.263310
0.788266 0.000000 0.268254
0.915831 0.000000 0.307958
0.000000 0.210330 0.220493
0.091981 0.213504 0.222934
0.208743 0.224155 0.230320
0.339666 0.225528 0.237491
0.496712 0.222080 0.246006
0.657252 0.214603 0.257755
0.798428 0.216861 0.278965
0.920836 0.250645 0.321935
0.000000 0.360937 0.246006
0.057649 0.364538 0.244114
0.212345 0.376074 0.237186
0.371740 0.386938 0.245182
0.534356 0.402319 0.261601
0.686854 0.404486 0.277653
0.814603 0.401770 0.302434
0.928405 0.416052 0.349310
0.000000 0.543694 0.264103
0.000000 0.546715 0.258366
0.213260 0.555566 0.243565
0.396704 0.565057 0.254459
0.562646 0.572229 0.262364
0.712764 0.572045 0.288518
0.834226 0.571832 0.341497
0.937285 0.574578 0.396063
0.000000 0.711696 0.269505
0.000000 0.713069 0.264317
0.228183 0.716548 0.260746
0.407752 0.720089 0.274205
0.568536 0.722774 0.291081
0.718929 0.722560 0.306645
0.844846 0.711482 0.347204
0.943389 0.709529 0.431434
0.000000 0.840421 0.295384
0.112276 0.840848 0.297459
0.277684 0.841855 0.307500
0.427222 0.842863 0.322850
0.573083 0.843900 0.346075
0.710445 0.842679 0.368109
0.840604 0.840604 0.392737
0.948669 0.831235 0.448554
0.251560 0.946014 0.373816
0.287907 0.945708 0.380926
0.370123 0.945403 0.390265
0.478737 0.944121 0.405737
0.599023 0.942992 0.430426
0.719692 0.941436 0.462623
0.832517 0.939086 0.491768
0.939055 0.937499 0.527214
0.061830 0.000000 0.327581
0.113558 0.000000 0.330480
0.211276 0.000000 0.341741
0.338689 0.000000 0.360174
0.523857 0.000000 0.399634
0.670192 0.000000 0.409857
0.794980 0.000000 0.420569
0.907836 0.134432 0.449042
0.037110 0.095460 0.333288
0.107881 0.095979 0.336370
0.212009 0.098970 0.346410
0.342626 0.095308 0.363928
0.528008 0.000000 0.399725
0.670253 0.000000 0.408667
0.794339 0.032502 0.421241
0.906615 0.188724 0.451423
0.000000 0.198367 0.345281
0.000000 0.195560 0.348394
0.206699 0.211917 0.360876
0.355627 0.223880 0.377111
0.526818 0.220706 0.396399
0.665675 0.223697 0.406073
0.787015 0.246983 0.422889
0.911833 0.254337 0.433845
0.000000 0.356268 0.368505
0.000000 0.359503 0.371160
0.190249 0.370520 0.380316
0.373632 0.389868 0.394598
0.530816 0.387213 0.398993
0.679927 0.385351 0.407111
0.806394 0.392004 0.423011
0.920500 0.419196 0.456153
0.000000 0.541802 0.402228
0.000000 0.545098 0.401678
0.184329 0.554376 0.399725
0.382971 0.565423 0.403815
0.563561 0.573022 0.415900
0.709834 0.573541 0.440223
0.825772 0.572930 0.466377
0.928893 0.582055 0.500786
0.000000 0.709163 0.414313
0.000000 0.709621 0.412299
0.206790 0.713863 0.410681
0.402777 0.717830 0.421637
0.571038 0.721462 0.440742
0.718868 0.721981 0.452918
0.839658 0.714870 0.486488
0.936339 0.724178 0.549493
0.000000 0.838865 0.425147
0.099031 0.838987 0.426337
0.280735 0.839261 0.435035
0.442634 0.839109 0.456886
0.584619 0.840238 0.477058
0.717464 0.840574 0.498024
0.840482 0.839780 0.516869
0.942840 0.834653 0.560662
0.255131 0.944366 0.468482
0.291051 0.943877 0.473091
0.392218 0.942260 0.491676
0.509728 0.940307 0.516930
0.621637 0.939513 0.537591
0.734463 0.938750 0.563500
0.839200 0.937469 0.584558
0.938842 0.936858 0.607935
0.096468 0.000000 0.477729
0.140505 0.000000 0.480415
0.239384 0.000000 0.490639
0.361669 0.000000 0.507103
0.518120 0.000000 0.529534
0.699855 0.000000 0.555444
0.826413 0.000000 0.551995
0.927153 0.155612 0.560327
0.071199 0.072541 0.482826
0.127901 0.069764 0.484688
0.234958 0.056886 0.494026
0.362127 0.005646 0.510460
0.521569 0.000000 0.532708
0.701991 0.000000 0.555871
0.825315 0.000000 0.552239
0.925841 0.208042 0.562097
0.000000 0.172946 0.493416
0.000000 0.187930 0.496956
0.213962 0.196078 0.506310
0.362890 0.203250 0.521508
0.532769 0.210025 0.542748
0.708949 0.221439 0.559319
0.821164 0.264012 0.555596
0.921111 0.327092 0.569635
0.000000 0.341741 0.508019
0.000000 0.340581 0.510674
0.144350 0.335790 0.519005
0.364996 0.366583 0.536858
0.548119 0.392798 0.556481
0.705440 0.411139 0.563622
0.809628 0.425605 0.563989
0.910307 0.454963 0.581231
0.000000 0.526726 0.535485
0.000000 0.529229 0.537499
0.152071 0.537957 0.544549
0.368353 0.553491 0.556573
0.568597 0.576410 0.574304
0.698482 0.570001 0.573999
0.811826 0.568933 0.579095
0.918395 0.582605 0.597650
0.000000 0.708492 0.556115
0.000000 0.709651 0.556207
0.188357 0.713375 0.557855
0.398932 0.717159 0.564721
0.582116 0.720455 0.585534
0.721798 0.723476 0.597955
0.833951 0.723995 0.620264
0.929107 0.731350 0.646540
0.000000 0.837095 0.555749
0.083070 0.837400 0.556817
0.279423 0.837705 0.562188
0.448798 0.837034 0.577569
0.603082 0.836698 0.603815
0.729091 0.839445 0.622827
0.841825 0.840208 0.633722
0.938628 0.839048 0.662898
0.266209 0.943389 0.576776
0.301061 0.942992 0.579980
0.398962 0.941436 0.591913
0.521386 0.938109 0.612665
0.639216 0.936400 0.636286
0.745144 0.936645 0.655085
0.845182 0.936797 0.672328
0.939513 0.937072 0.687892
0.137392 0.000000 0.630610
0.174472 0.000000 0.632532
0.267460 0.000000 0.639887
0.385321 0.000000 0.651484
0.522606 0.000000 0.667140
0.686885 0.000000 0.685023
0.833951 0.000000 0.686091
0.947021 0.181094 0.681544
0.115175 0.000000 0.635340
0.159884 0.000000 0.637293
0.260777 0.000000 0.643793
0.383520 0.000000 0.654719
0.523095 0.000000 0.669734
0.689021 0.000000 0.686915
0.834836 0.000000 0.687007
0.945953 0.233371 0.683253
0.000000 0.175265 0.642206
0.064790 0.175051 0.644068
0.230167 0.174258 0.650141
0.373236 0.175357 0.660426
0.523613 0.188479 0.674617
0.693446 0.208377 0.690944
0.835935 0.269139 0.689876
0.941192 0.353979 0.688746
0.000000 0.297368 0.646448
0.000000 0.295689 0.649439
0.102144 0.302403 0.658503
0.361761 0.341558 0.667781
0.529168 0.367864 0.680110
0.698909 0.400946 0.695521
0.835813 0.446937 0.697200
0.931914 0.486671 0.697932
0.000000 0.493782 0.664363
0.000000 0.493416 0.665553
0.081147 0.493233 0.669459
0.334905 0.497444 0.675532
0.547478 0.542535 0.688228
0.708766 0.579095 0.704097
0.830961 0.600916 0.708339
0.919860 0.605798 0.707515
0.000000 0.679225 0.684169
0.000000 0.680232 0.684871
0.164309 0.684627 0.688014
0.381628 0.692744 0.693629
0.566827 0.705104 0.702480
0.724239 0.724453 0.717891
0.821530 0.714839 0.713100
0.918669 0.714473 0.717464
0.000000 0.832517 0.687098
0.000000 0.832609 0.687373
0.267948 0.833249 0.689265
0.439734 0.833036 0.695125
0.596460 0.833005 0.706935
0.732113 0.836454 0.724758
0.842741 0.840299 0.736507
0.934142 0.843534 0.757168
0.271794 0.941070 0.689418
0.305760 0.940703 0.691188
0.400610 0.939239 0.697627
0.519036 0.936797 0.708553
0.637507 0.934844 0.722988
0.750973 0.934295 0.742367
0.850706 0.936095 0.759670
0.940002 0.937255 0.769986
0.175570 0.000000 0.770169
0.206363 0.000000 0.770779
0.289555 0.000000 0.774228
0.399023 0.000000 0.780209
0.523980 0.000000 0.788968
0.664576 0.000000 0.799710
0.820066 0.000000 0.811612
0.943847 0.180240 0.803586
0.157504 0.000000 0.772519
0.192416 0.000000 0.773129
0.281834 0.000000 0.776486
0.395636 0.000000 0.782467
0.523552 0.000000 0.791135
0.666072 0.000000 0.801846
0.822171 0.000000 0.813626
0.944915 0.238895 0.805753
0.014740 0.151949 0.774533
0.126009 0.151186 0.775418
0.250858 0.149020 0.778897
0.381537 0.148959 0.784756
0.519860 0.162692 0.793149
0.666560 0.203952 0.803250
0.822751 0.258885 0.814054
0.942565 0.358373 0.807248
0.000000 0.264195 0.777279
0.000000 0.276249 0.778408
0.198398 0.308171 0.781674
0.365545 0.320470 0.786831
0.519829 0.344884 0.794553
0.670222 0.386542 0.803830
0.823209 0.432166 0.814389
0.939361 0.499001 0.812009
0.000000 0.443519 0.781888
0.000000 0.442115 0.782559
0.000000 0.437751 0.784176
0.312871 0.453559 0.789822
0.532128 0.512078 0.796292
0.685359 0.552697 0.805936
0.827085 0.593042 0.817899
0.937865 0.631403 0.820737
0.000000 0.631128 0.794003
0.000000 0.631403 0.794278
0.132998 0.632807 0.795315
0.349828 0.636805 0.796475
0.526421 0.648463 0.797971
0.701076 0.692042 0.807156
0.831998 0.723995 0.822507
0.933654 0.743069 0.828244
0.000000 0.801816 0.806180
0.000000 0.802213 0.806271
0.259068 0.804105 0.807309
0.423682 0.807645 0.809079
0.578882 0.813901 0.812833
0.717037 0.823941 0.820066
0.845396 0.842466 0.835721
0.925322 0.832822 0.829801
0.273747 0.938384 0.810056
0.306310 0.938079 0.810391
0.394781 0.936156 0.810971
0.510033 0.934417 0.813474
0.628443 0.933257 0.818387
0.743557 0.932616 0.826963
0.851530 0.934691 0.841917
0.940917 0.938201 0.852934
0.208927 0.000000 0.901152
0.235019 0.000000 0.901396
0.310033 0.000000 0.903227
0.411749 0.000000 0.905882
0.528374 0.000000 0.909728
0.654841 0.000000 0.914549
0.792721 0.000000 0.919432
0.932647 0.190860 0.924712
0.194430 0.000000 0.902098
0.223056 0.000000 0.902373
0.302525 0.000000 0.904082
0.407813 0.000000 0.906798
0.526940 0.000000 0.910552
0.655085 0.000000 0.915221
0.793729 0.095338 0.920073
0.933196 0.241642 0.925261
0.131289 0.127199 0.903532
0.174746 0.126589 0.903868
0.275547 0.125429 0.905638
0.394079 0.128145 0.907561
0.522240 0.149386 0.911223
0.656519 0.201907 0.915679
0.795682 0.274327 0.920226
0.933013 0.359136 0.925109
0.000000 0.289982 0.904173
0.021332 0.291112 0.904448
0.235691 0.297063 0.905913
0.380072 0.309453 0.908019
0.521599 0.333562 0.911070
0.662074 0.374945 0.915007
0.799649 0.432471 0.919219
0.932006 0.494728 0.924254
0.000000 0.400214 0.906310
0.000000 0.400885 0.906462
0.000000 0.406775 0.907622
0.377050 0.468482 0.907103
0.530755 0.494179 0.910094
0.675868 0.533257 0.913848
0.807645 0.581811 0.918334
0.931792 0.622522 0.924224
0.000000 0.590784 0.910185
0.000000 0.590784 0.910307
0.119844 0.591028 0.910430
0.330968 0.592126 0.909819
0.511742 0.615625 0.909667
0.690455 0.670375 0.911315
0.816129 0.703700 0.916808
0.931853 0.737087 0.924529
0.000000 0.763485 0.915465
0.135073 0.764126 0.915557
0.277104 0.766201 0.915618
0.420356 0.770413 0.915099
0.557885 0.776364 0.914336
0.683833 0.781796 0.913268
0.825193 0.814755 0.917205
0.935424 0.844572 0.928649
0.311101 0.914336 0.921630
0.337285 0.914733 0.921752
0.411902 0.915587 0.921874
0.511711 0.916747 0.921782
0.619226 0.918700 0.922087
0.729885 0.922026 0.923186
0.838743 0.927672 0.926390
0.944335 0.942138 0.938598
