cubelut/Landscape5.cube
# Created by Adobe Lightroom plugin Export LUT (1.18.0)
# www.johnrellis.com/lightroom/exportlut.htm
# Preset: Landscape5
# Color profile: /Library/Application Support/Adobe/Color/Profiles/Recommended/AdobeRGB1998.icc
LUT_3D_SIZE 32
0.000000 0.000000 0.000000
0.014984 0.002136 0.002686
0.035370 0.003357 0.005280
0.065949 0.007324 0.011353
0.084413 0.012634 0.019135
0.103456 0.015839 0.026551
0.123293 0.017395 0.033478
0.144289 0.016449 0.038758
0.166629 0.011902 0.042267
0.190524 0.004761 0.044862
0.216220 0.000000 0.047303
0.243992 0.000000 0.048981
0.274022 0.000000 0.051026
0.307073 0.000000 0.053559
0.343236 0.000000 0.055085
0.382910 0.000000 0.054963
0.425940 0.000000 0.053742
0.471565 0.000000 0.049500
0.519341 0.000000 0.042817
0.570184 0.000000 0.033265
0.622217 0.000000 0.019287
0.674525 0.000000 0.003174
0.726375 0.000000 0.000000
0.775906 0.000000 0.000000
0.821805 0.000000 0.000000
0.864134 0.000000 0.000000
0.902953 0.000000 0.000000
0.938781 0.000000 0.000000
0.971832 0.000000 0.000000
1.000000 0.000000 0.000000
1.000000 0.000000 0.000000
1.000000 0.000000 0.029511
0.000031 0.020966 0.003693
0.014435 0.022126 0.003235
0.035035 0.022156 0.005921
0.065400 0.025116 0.012085
0.084047 0.029267 0.019959
0.103243 0.031250 0.026398
0.123140 0.031617 0.033417
0.143923 0.032105 0.038605
0.166354 0.027527 0.042145
0.190280 0.020386 0.044739
0.216007 0.010132 0.047150
0.243809 0.000000 0.048829
0.274022 0.000000 0.050660
0.307073 0.000000 0.053223
0.343267 0.000000 0.055421
0.382971 0.000000 0.055207
0.426001 0.000000 0.053834
0.471809 0.000000 0.049470
0.519585 0.000000 0.042481
0.570520 0.000000 0.031708
0.622583 0.000000 0.017517
0.674952 0.000000 0.001404
0.726772 0.000000 0.000000
0.776364 0.000000 0.000000
0.822202 0.000000 0.000000
0.864439 0.000000 0.000000
0.903258 0.000000 0.000000
0.939025 0.000000 0.000000
0.972045 0.000000 0.000000
1.000000 0.000000 0.000000
1.000000 0.000000 0.000000
1.000000 0.000000 0.028443
0.000031 0.049317 0.007813
0.011505 0.050507 0.008453
0.034943 0.052918 0.007568
0.064912 0.050080 0.012177
0.083467 0.049744 0.020447
0.102724 0.051240 0.027955
0.122530 0.051667 0.033906
0.143465 0.051118 0.039185
0.165927 0.049500 0.042542
0.189761 0.043458 0.045136
0.215549 0.033204 0.047456
0.243412 0.019928 0.048981
0.273594 0.001007 0.050843
0.306584 0.000000 0.054170
0.342748 0.000000 0.055390
0.382666 0.000000 0.055085
0.425666 0.000000 0.052735
0.471382 0.000000 0.048310
0.519280 0.000000 0.041871
0.570123 0.000000 0.030976
0.622278 0.000000 0.015381
0.674647 0.000000 0.000000
0.726528 0.000000 0.000000
0.776120 0.000000 0.000000
0.822049 0.000000 0.000000
0.864347 0.000000 0.000000
0.903166 0.000000 0.000000
0.938964 0.000000 0.000000
0.972015 0.000000 0.000000
1.000000 0.000000 0.000000
1.000000 0.000000 0.000000
1.000000 0.000000 0.025757
0.000793 0.075624 0.018097
0.012512 0.076112 0.017639
0.029267 0.076692 0.018128
0.064302 0.077882 0.015473
0.082887 0.073732 0.022644
0.101534 0.071534 0.027710
0.121309 0.072206 0.033600
0.142275 0.071626 0.039002
0.164584 0.071077 0.042359
0.188602 0.069520 0.044770
0.214267 0.066865 0.047059
0.242069 0.062440 0.048554
0.272160 0.055482 0.051820
0.305211 0.036194 0.054261
0.341466 0.007111 0.054475
0.381170 0.000000 0.053956
0.424231 0.000000 0.051392
0.470008 0.000000 0.047547
0.517876 0.000000 0.039460
0.568872 0.000000 0.028077
0.621302 0.000000 0.012024
0.673793 0.000000 0.000000
0.725734 0.000000 0.000000
0.775387 0.000000 0.000000
0.821317 0.000000 0.000000
0.863584 0.000000 0.000000
0.902464 0.000000 0.000000
0.938354 0.000000 0.000000
0.971496 0.000000 0.000000
1.000000 0.000000 0.000000
1.000000 0.000000 0.000000
1.000000 0.000000 0.019806
0.001740 0.096834 0.032166
0.012421 0.096712 0.031922
0.026459 0.097230 0.032441
0.058137 0.098329 0.030060
0.082612 0.099428 0.026703
0.101137 0.095186 0.031678
0.120394 0.092988 0.036378
0.140505 0.091402 0.039094
0.162905 0.091310 0.042390
0.186709 0.090944 0.045747
0.212375 0.089815 0.047669
0.240177 0.088167 0.048920
0.270146 0.085420 0.051270
0.303044 0.081147 0.053407
0.339147 0.073732 0.053498
0.378607 0.060792 0.052735
0.421515 0.016785 0.049928
0.467048 0.000000 0.044312
0.515007 0.000000 0.036652
0.566064 0.000000 0.023590
0.618616 0.000000 0.007050
0.671504 0.000000 0.000000
0.723629 0.000000 0.000000
0.773587 0.000000 0.000000
0.819791 0.000000 0.000000
0.862303 0.000000 0.000000
0.901366 0.000000 0.000000
0.937469 0.000000 0.000000
0.970825 0.000000 0.000000
1.000000 0.000000 0.000000
1.000000 0.000000 0.000000
1.000000 0.000000 0.010346
0.000885 0.117830 0.044434
0.010040 0.117983 0.044099
0.024475 0.118196 0.043641
0.051301 0.118837 0.044770
0.077119 0.120638 0.039124
0.101534 0.121431 0.036286
0.120516 0.116823 0.039094
0.140322 0.114778 0.042206
0.160891 0.112032 0.043793
0.183993 0.111818 0.046265
0.209506 0.112062 0.047852
0.237095 0.111727 0.049744
0.266972 0.111086 0.050965
0.299687 0.109316 0.052125
0.335576 0.105959 0.051942
0.374914 0.100221 0.050874
0.417487 0.091066 0.047669
0.462745 0.075471 0.040833
0.510552 0.032136 0.031647
0.561761 0.000000 0.017792
0.614496 0.000000 0.000397
0.667628 0.000000 0.000000
0.714473 0.000000 0.000000
0.765469 0.000000 0.000000
0.812772 0.000000 0.000000
0.856321 0.000000 0.000000
0.896361 0.000000 0.000000
0.933318 0.000000 0.000000
0.967346 0.000000 0.000000
0.998871 0.000000 0.000000
1.000000 0.000000 0.000000
1.000000 0.000000 0.000000
0.000000 0.139376 0.052644
0.005402 0.139467 0.052399
0.018494 0.139681 0.052064
0.047791 0.140169 0.052888
0.070802 0.140932 0.053285
0.096345 0.143587 0.045045
0.120851 0.143618 0.042969
0.140139 0.138613 0.045869
0.160891 0.136568 0.047211
0.182345 0.134615 0.048493
0.204837 0.132357 0.049073
0.232181 0.133333 0.049104
0.261631 0.133791 0.050263
0.294072 0.134096 0.051057
0.329595 0.133333 0.050568
0.368536 0.131441 0.048249
0.410895 0.127291 0.044007
0.456001 0.119936 0.036439
0.503593 0.108644 0.025513
0.554589 0.090028 0.011200
0.607202 0.052735 0.000000
0.660304 0.000000 0.000000
0.712734 0.000000 0.000000
0.763485 0.000000 0.000000
0.810697 0.000000 0.000000
0.854368 0.000000 0.000000
0.894682 0.000000 0.000000
0.931914 0.000000 0.000000
0.966247 0.000000 0.000000
0.998016 0.000000 0.000000
1.000000 0.000000 0.000000
1.000000 0.000000 0.000000
0.000000 0.162539 0.059541
0.000000 0.162600 0.059419
0.010071 0.162905 0.059632
0.040101 0.163302 0.059205
0.068452 0.163912 0.059388
0.090394 0.165316 0.057923
0.117128 0.167727 0.050202
0.141970 0.167697 0.049714
0.161898 0.161959 0.051301
0.183841 0.160403 0.050813
0.206577 0.158480 0.049714
0.230289 0.156344 0.048676
0.257267 0.155550 0.047883
0.289311 0.157107 0.047578
0.324468 0.158236 0.047425
0.363012 0.158511 0.043946
0.405005 0.157473 0.038483
0.449897 0.154330 0.030091
0.497414 0.148745 0.018311
0.548455 0.139895 0.002838
0.601526 0.126375 0.000000
0.655116 0.105226 0.000000
0.708095 0.069673 0.000000
0.759518 0.000000 0.000000
0.807431 0.000000 0.000000
0.851621 0.000000 0.000000
0.892424 0.000000 0.000000
0.930083 0.000000 0.000000
0.964813 0.000000 0.000000
0.996918 0.000000 0.000000
1.000000 0.000000 0.000000
1.000000 0.000000 0.000000
0.000000 0.187137 0.063508
0.000000 0.187228 0.063386
0.000000 0.187320 0.063630
0.029206 0.187778 0.063142
0.064973 0.188388 0.063325
0.086152 0.189059 0.063691
0.111666 0.191073 0.060578
0.139101 0.193088 0.053895
0.164736 0.192935 0.051911
0.185275 0.186923 0.052766
0.208591 0.185306 0.050721
0.232731 0.183536 0.048707
0.258122 0.181796 0.046296
0.284916 0.179629 0.045106
0.318181 0.180911 0.042634
0.356298 0.183169 0.038117
0.397864 0.184329 0.031891
0.442451 0.184207 0.022461
0.489784 0.182223 0.009613
0.540887 0.178042 0.000000
0.594324 0.171145 0.000000
0.648463 0.160281 0.000000
0.702144 0.144778 0.000000
0.754299 0.123323 0.000000
0.803006 0.092287 0.000000
0.848081 0.003754 0.000000
0.889494 0.000000 0.000000
0.927703 0.000000 0.000000
0.962921 0.000000 0.000000
0.995483 0.000000 0.000000
1.000000 0.000000 0.000000
1.000000 0.000000 0.000000
0.000000 0.213199 0.066499
0.000000 0.213230 0.066377
0.000000 0.213443 0.066560
0.012940 0.213809 0.066529
0.059541 0.214298 0.066651
0.083558 0.214939 0.066560
0.105409 0.215793 0.066590
0.134646 0.218357 0.061524
0.162905 0.220066 0.054810
0.189548 0.219699 0.051301
0.210483 0.213321 0.052338
0.235630 0.211582 0.048554
0.261509 0.210391 0.045533
0.288701 0.209049 0.040375
0.317418 0.207095 0.035950
0.348608 0.205509 0.030671
0.389502 0.208530 0.023621
0.433539 0.210575 0.013367
0.480537 0.211246 0.000000
0.531518 0.210513 0.000000
0.585595 0.207706 0.000000
0.640497 0.202152 0.000000
0.695094 0.193668 0.000000
0.748348 0.181643 0.000000
0.798123 0.165774 0.000000
0.844022 0.145693 0.000000
0.886198 0.120424 0.000000
0.925017 0.084871 0.000000
0.960754 0.000000 0.000000
0.993744 0.000000 0.000000
1.000000 0.000000 0.000000
1.000000 0.000000 0.000000
0.000000 0.241184 0.069368
0.000000 0.241306 0.069215
0.000000 0.241459 0.069398
0.000000 0.241733 0.069337
0.047639 0.242130 0.069459
0.079835 0.242710 0.069306
0.103822 0.243381 0.069306
0.128939 0.244785 0.067536
0.159609 0.247623 0.060487
0.188876 0.248631 0.053895
0.216556 0.248173 0.048615
0.238071 0.241306 0.049073
0.265354 0.239719 0.044038
0.293217 0.239109 0.036805
0.322393 0.237949 0.030304
0.353185 0.236576 0.023896
0.385473 0.234257 0.013672
0.423835 0.234409 0.002625
0.470588 0.237339 0.000000
0.521477 0.239261 0.000000
0.575891 0.239933 0.000000
0.631342 0.237980 0.000000
0.686793 0.233677 0.000000
0.741024 0.226719 0.000000
0.791989 0.216953 0.000000
0.838926 0.204349 0.000000
0.882048 0.189303 0.000000
0.921721 0.172030 0.000000
0.958190 0.151827 0.000000
0.991699 0.128298 0.000000
1.000000 0.099825 0.000000
1.000000 0.061036 0.000000
0.000000 0.271122 0.072175
0.000000 0.271214 0.072023
0.000000 0.271336 0.072175
0.000000 0.271580 0.072145
0.024414 0.271946 0.071839
0.073640 0.272587 0.071992
0.101198 0.273167 0.071931
0.125856 0.273960 0.071565
0.155154 0.275883 0.067048
0.186954 0.278813 0.058686
0.217319 0.279301 0.048890
0.246281 0.278569 0.040162
0.266087 0.269078 0.041321
0.295659 0.267887 0.033021
0.325170 0.267521 0.024445
0.356359 0.266819 0.014893
0.389044 0.265690 0.003235
0.422950 0.263676 0.000000
0.458442 0.260899 0.000000
0.506645 0.263828 0.000000
0.561273 0.267216 0.000000
0.617578 0.268650 0.000000
0.674250 0.267796 0.000000
0.729946 0.264683 0.000000
0.782712 0.258946 0.000000
0.831174 0.250553 0.000000
0.875639 0.240208 0.000000
0.916533 0.228336 0.000000
0.954009 0.214847 0.000000
0.988495 0.200198 0.000000
1.000000 0.184756 0.000000
1.000000 0.168887 0.000000
0.000000 0.302129 0.074342
0.000000 0.302312 0.074159
0.000000 0.302495 0.074281
0.000000 0.302770 0.074159
0.000000 0.303349 0.074067
0.065248 0.303929 0.073793
0.097078 0.304631 0.073579
0.124331 0.305303 0.073152
0.149844 0.306126 0.072786
0.183169 0.308812 0.064820
0.216678 0.311620 0.049958
0.247745 0.311162 0.039582
0.277897 0.310063 0.028840
0.300114 0.301762 0.027955
0.331945 0.300206 0.016419
0.363622 0.300145 0.003326
0.396735 0.299474 0.000000
0.431067 0.298222 0.000000
0.466926 0.296330 0.000000
0.505760 0.294255 0.000000
0.549462 0.292943 0.000000
0.606470 0.297185 0.000000
0.663996 0.299321 0.000000
0.720882 0.299138 0.000000
0.775051 0.296513 0.000000
0.824887 0.291295 0.000000
0.870603 0.284001 0.000000
0.912474 0.275120 0.000000
0.950866 0.264988 0.000000
0.986053 0.254093 0.000000
1.000000 0.242679 0.000000
1.000000 0.231052 0.000000
0.000000 0.337194 0.075654
0.000000 0.337316 0.075471
0.000000 0.337469 0.075593
0.000000 0.337774 0.075776
0.000000 0.338231 0.075319
0.046693 0.338842 0.074922
0.091493 0.339452 0.074647
0.122316 0.340185 0.074067
0.150118 0.340795 0.073640
0.179507 0.342107 0.070558
0.214878 0.344854 0.059236
0.250340 0.347753 0.031769
0.282658 0.346502 0.019471
0.314366 0.345159 0.005737
0.338994 0.337621 0.003693
0.371679 0.334539 0.000000
0.405219 0.334386 0.000000
0.439948 0.333684 0.000000
0.476387 0.332464 0.000000
0.515587 0.331334 0.000000
0.557397 0.329839 0.000000
0.600855 0.327459 0.000000
0.652338 0.327825 0.000000
0.710475 0.330449 0.000000
0.766232 0.330632 0.000000
0.817563 0.328069 0.000000
0.864652 0.323217 0.000000
0.907713 0.316777 0.000000
0.947143 0.308965 0.000000
0.983215 0.300267 0.000000
1.000000 0.291081 0.000000
1.000000 0.281712 0.000000
0.000000 0.374853 0.075502
0.000000 0.374914 0.075685
0.000000 0.375006 0.075471
0.000000 0.375372 0.075227
0.000000 0.375769 0.074708
0.001373 0.376471 0.074495
0.082216 0.377050 0.074098
0.118715 0.377630 0.073426
0.149569 0.378210 0.072480
0.178531 0.378851 0.071504
0.212558 0.380713 0.063600
0.249821 0.383490 0.039704
0.286809 0.385657 0.005463
0.320897 0.384314 0.000000
0.354528 0.382666 0.000000
0.381933 0.375921 0.000000
0.414557 0.370489 0.000000
0.449775 0.370153 0.000000
0.486580 0.369543 0.000000
0.526207 0.369177 0.000000
0.567987 0.368475 0.000000
0.611200 0.366857 0.000000
0.655604 0.364263 0.000000
0.700893 0.360449 0.000000
0.756283 0.361913 0.000000
0.809354 0.361913 0.000000
0.857877 0.359350 0.000000
0.902281 0.354833 0.000000
0.942748 0.348943 0.000000
0.979736 0.341924 0.000000
1.000000 0.334356 0.000000
1.000000 0.326390 0.000000
0.000000 0.415045 0.072999
0.000000 0.415076 0.073182
0.000000 0.415229 0.072908
0.000000 0.415381 0.072694
0.000000 0.415717 0.072511
0.000000 0.416114 0.071992
0.067414 0.416632 0.070771
0.112428 0.417182 0.069947
0.147738 0.417639 0.068727
0.179324 0.418128 0.067567
0.209171 0.418585 0.066011
0.248569 0.421363 0.044923
0.288090 0.424170 0.002472
0.326726 0.425696 0.000000
0.362646 0.423957 0.000000
0.398047 0.422156 0.000000
0.428260 0.416083 0.000000
0.459937 0.408270 0.000000
0.497749 0.407904 0.000000
0.537621 0.408026 0.000000
0.579065 0.407691 0.000000
0.621851 0.406561 0.000000
0.665614 0.404608 0.000000
0.710079 0.401740 0.000000
0.754574 0.397559 0.000000
0.799771 0.393164 0.000000
0.850065 0.392798 0.000000
0.895995 0.390387 0.000000
0.937865 0.386145 0.000000
0.975982 0.380652 0.000000
1.000000 0.374304 0.000000
1.000000 0.367590 0.000000
0.000000 0.457465 0.068208
0.000000 0.457588 0.067964
0.000000 0.457588 0.068086
0.000000 0.457893 0.067720
0.000000 0.458106 0.067109
0.000000 0.458503 0.066407
0.023560 0.458869 0.065431
0.103670 0.459266 0.064393
0.144320 0.459663 0.062440
0.179202 0.459998 0.060975
0.211673 0.460426 0.058412
0.246098 0.461341 0.046052
0.287938 0.464057 0.001373
0.329503 0.466651 0.000000
0.369635 0.467231 0.000000
0.407233 0.465217 0.000000
0.444282 0.463020 0.000000
0.477607 0.457923 0.000000
0.508598 0.448219 0.000000
0.549859 0.448188 0.000000
0.591058 0.448005 0.000000
0.633295 0.447120 0.000000
0.676448 0.445594 0.000000
0.720150 0.443183 0.000000
0.763333 0.439460 0.000000
0.805264 0.434363 0.000000
0.845975 0.427893 0.000000
0.889403 0.423957 0.000000
0.932708 0.421393 0.000000
0.972076 0.417273 0.000000
1.000000 0.412146 0.000000
1.000000 0.406409 0.000000
0.000000 0.501366 0.059602
0.000000 0.501274 0.059480
0.000000 0.498756 0.059937
0.000000 0.498970 0.059510
0.000000 0.499245 0.059083
0.000000 0.499641 0.057069
0.000000 0.500023 0.055421
0.088808 0.500450 0.051301
0.137758 0.500908 0.048737
0.176913 0.501274 0.043824
0.212039 0.501793 0.037781
0.245457 0.502098 0.030793
0.285405 0.503990 0.000000
0.329290 0.506859 0.000000
0.373114 0.509667 0.000000
0.414557 0.509545 0.000000
0.454200 0.507591 0.000000
0.493141 0.505333 0.000000
0.529625 0.501366 0.000000
0.559197 0.489174 0.000000
0.602258 0.488594 0.000000
0.644068 0.487831 0.000000
0.686580 0.486488 0.000000
0.729427 0.484413 0.000000
0.771420 0.480964 0.000000
0.812253 0.476234 0.000000
0.851957 0.470344 0.000000
0.890562 0.463478 0.000000
0.927886 0.455695 0.000000
0.967895 0.452308 0.000000
1.000000 0.448341 0.000000
1.000000 0.443488 0.000000
0.000000 0.547051 0.034119
0.000000 0.546746 0.034424
0.000000 0.546410 0.034485
0.000000 0.546258 0.033173
0.000000 0.546258 0.030396
0.000000 0.546471 0.029328
0.000000 0.546838 0.024506
0.064973 0.547173 0.019715
0.129458 0.547631 0.014435
0.173953 0.547997 0.008087
0.212894 0.548333 0.001526
0.249149 0.548669 0.000000
0.283909 0.549157 0.000000
0.329870 0.551568 0.000000
0.375769 0.554162 0.000000
0.421515 0.556542 0.000000
0.464393 0.555505 0.000000
0.505577 0.553216 0.000000
0.546166 0.550713 0.000000
0.585840 0.547631 0.000000
0.612573 0.532158 0.000000
0.656580 0.530480 0.000000
0.698207 0.528954 0.000000
0.739803 0.526604 0.000000
0.780331 0.522942 0.000000
0.819821 0.518151 0.000000
0.858274 0.512413 0.000000
0.895659 0.505852 0.000000
0.931975 0.498543 0.000000
0.967010 0.490517 0.000000
1.000000 0.483192 0.000000
1.000000 0.479347 0.000000
0.000000 0.595087 0.000000
0.000000 0.594781 0.000000
0.000000 0.594537 0.000000
0.000000 0.594385 0.000000
0.000000 0.594354 0.000000
0.000000 0.594537 0.000000
0.000000 0.594751 0.000000
0.000000 0.595056 0.000000
0.116487 0.595392 0.000000
0.168734 0.595636 0.000000
0.211978 0.595972 0.000000
0.251316 0.596216 0.000000
0.288518 0.596490 0.000000
0.328161 0.597345 0.000000
0.376501 0.599542 0.000000
0.424140 0.601648 0.000000
0.471504 0.603693 0.000000
0.515251 0.601617 0.000000
0.557855 0.599084 0.000000
0.599695 0.596155 0.000000
0.640772 0.593011 0.000000
0.665766 0.575372 0.000000
0.709987 0.572320 0.000000
0.750088 0.569390 0.000000
0.789273 0.565301 0.000000
0.827390 0.560266 0.000000
0.864591 0.554376 0.000000
0.900877 0.547906 0.000000
0.936095 0.540764 0.000000
0.970184 0.533074 0.000000
1.000000 0.524926 0.000000
1.000000 0.516442 0.000000
0.000000 0.643214 0.000000
0.000000 0.642969 0.000000
0.000000 0.642695 0.000000
0.000000 0.642542 0.000000
0.000000 0.642451 0.000000
0.000000 0.642542 0.000000
0.000000 0.642786 0.000000
0.000000 0.643061 0.000000
0.097505 0.643275 0.000000
0.160891 0.643458 0.000000
0.209110 0.643732 0.000000
0.251682 0.643915 0.000000
0.291356 0.644068 0.000000
0.329412 0.644221 0.000000
0.374884 0.645380 0.000000
0.424414 0.647120 0.000000
0.473243 0.648646 0.000000
0.521324 0.649683 0.000000
0.565789 0.646937 0.000000
0.609216 0.643824 0.000000
0.651698 0.640589 0.000000
0.693385 0.637049 0.000000
0.716518 0.617304 0.000000
0.759213 0.611933 0.000000
0.796933 0.607233 0.000000
0.833738 0.601801 0.000000
0.869718 0.595666 0.000000
0.904906 0.589014 0.000000
0.939147 0.581842 0.000000
0.972381 0.574334 0.000000
1.000000 0.566491 0.000000
1.000000 0.558312 0.000000
0.000000 0.689601 0.000000
0.000000 0.689509 0.000000
0.000000 0.689387 0.000000
0.000000 0.689387 0.000000
0.000000 0.689448 0.000000
0.000000 0.689570 0.000000
0.000000 0.689754 0.000000
0.000000 0.689906 0.000000
0.066194 0.690028 0.000000
0.149844 0.690059 0.000000
0.203861 0.690150 0.000000
0.249973 0.690181 0.000000
0.292149 0.690272 0.000000
0.332128 0.690272 0.000000
0.370733 0.690272 0.000000
0.421637 0.691463 0.000000
0.471839 0.692622 0.000000
0.521324 0.693477 0.000000
0.569482 0.693385 0.000000
0.614588 0.690303 0.000000
0.658625 0.687098 0.000000
0.701595 0.683589 0.000000
0.743709 0.680049 0.000000
0.765042 0.658442 0.000000
0.805661 0.650599 0.000000
0.841184 0.644465 0.000000
0.875914 0.637812 0.000000
0.909911 0.630823 0.000000
0.943084 0.623438 0.000000
0.975372 0.615778 0.000000
1.000000 0.607874 0.000000
1.000000 0.599878 0.000000
0.000000 0.735134 0.000000
0.000000 0.735042 0.000000
0.000000 0.734981 0.000000
0.000000 0.734920 0.000000
0.000000 0.734951 0.000000
0.000000 0.734981 0.000000
0.000000 0.735134 0.000000
0.000000 0.735195 0.000000
0.000000 0.735225 0.000000
0.135500 0.735225 0.000000
0.196567 0.735164 0.000000
0.246403 0.735073 0.000000
0.290990 0.734920 0.000000
0.332921 0.734707 0.000000
0.373114 0.734554 0.000000
0.415900 0.734585 0.000000
0.467628 0.735164 0.000000
0.517967 0.735561 0.000000
0.567498 0.735683 0.000000
0.615290 0.734463 0.000000
0.660517 0.731197 0.000000
0.704616 0.727626 0.000000
0.747646 0.724025 0.000000
0.789639 0.720241 0.000000
0.810086 0.697780 0.000000
0.848417 0.687922 0.000000
0.882139 0.680385 0.000000
0.915038 0.672786 0.000000
0.947143 0.665064 0.000000
0.978485 0.657069 0.000000
1.000000 0.649012 0.000000
1.000000 0.640955 0.000000
0.000000 0.776669 0.000000
0.000000 0.776547 0.000000
0.000000 0.776486 0.000000
0.000000 0.776486 0.000000
0.000000 0.776486 0.000000
0.000000 0.776608 0.000000
0.000000 0.776669 0.000000
0.000000 0.776761 0.000000
0.000000 0.776791 0.000000
0.117983 0.776761 0.000000
0.187686 0.776699 0.000000
0.241001 0.776577 0.000000
0.287999 0.776394 0.000000
0.331609 0.776150 0.000000
0.372961 0.775906 0.000000
0.413092 0.775601 0.000000
0.460548 0.775631 0.000000
0.512016 0.775723 0.000000
0.562188 0.775631 0.000000
0.611261 0.775174 0.000000
0.658503 0.773098 0.000000
0.703609 0.769650 0.000000
0.747585 0.766110 0.000000
0.790494 0.762448 0.000000
0.832273 0.758816 0.000000
0.851164 0.735042 0.000000
0.887205 0.723751 0.000000
0.919646 0.714778 0.000000
0.950805 0.706508 0.000000
0.981262 0.698146 0.000000
1.000000 0.689845 0.000000
1.000000 0.681514 0.000000
0.000000 0.816190 0.000000
0.000000 0.816068 0.000000
0.000000 0.816007 0.000000
0.000000 0.815976 0.000000
0.000000 0.815946 0.000000
0.000000 0.815976 0.000000
0.000000 0.816007 0.000000
0.000000 0.815976 0.000000
0.000000 0.815915 0.000000
0.097292 0.815793 0.000000
0.177981 0.815640 0.000000
0.234958 0.815366 0.000000
0.283879 0.815091 0.000000
0.328771 0.814694 0.000000
0.371374 0.814328 0.000000
0.412116 0.813901 0.000000
0.451911 0.813382 0.000000
0.503136 0.813230 0.000000
0.553857 0.812863 0.000000
0.603418 0.812253 0.000000
0.651881 0.811368 0.000000
0.698451 0.808774 0.000000
0.743252 0.805356 0.000000
0.786862 0.801877 0.000000
0.829374 0.798337 0.000000
0.870726 0.794827 0.000000
0.889403 0.771054 0.000000
0.922850 0.758145 0.000000
0.953918 0.747768 0.000000
0.983490 0.738918 0.000000
1.000000 0.730159 0.000000
1.000000 0.721645 0.000000
0.000000 0.852720 0.000000
0.000000 0.852659 0.000000
0.000000 0.852598 0.000000
0.000000 0.852628 0.000000
0.000000 0.852598 0.000000
0.000000 0.852659 0.000000
0.000000 0.852659 0.000000
0.000000 0.852598 0.000000
0.000000 0.852476 0.000000
0.074311 0.852323 0.000000
0.168795 0.852079 0.000000
0.229038 0.851774 0.000000
0.279606 0.851438 0.000000
0.325780 0.851011 0.000000
0.368872 0.850584 0.000000
0.410376 0.850126 0.000000
0.450507 0.849546 0.000000
0.493141 0.848966 0.000000
0.544366 0.848447 0.000000
0.594141 0.847745 0.000000
0.642786 0.846830 0.000000
0.690578 0.845670 0.000000
0.736294 0.842741 0.000000
0.780575 0.839414 0.000000
0.823606 0.836057 0.000000
0.865537 0.832700 0.000000
0.906279 0.829313 0.000000
0.926513 0.807279 0.000000
0.955993 0.791592 0.000000
0.985809 0.779904 0.000000
1.000000 0.770687 0.000000
1.000000 0.761746 0.000000
0.000000 0.887114 0.000000
0.000000 0.887053 0.000000
0.000000 0.887022 0.000000
0.000000 0.886992 0.000000
0.000000 0.886931 0.000000
0.000000 0.886870 0.000000
0.000000 0.886748 0.000000
0.000000 0.886534 0.000000
0.000000 0.886290 0.000000
0.045319 0.885924 0.000000
0.161440 0.885557 0.000000
0.223880 0.885130 0.000000
0.275578 0.884611 0.000000
0.322179 0.884123 0.000000
0.365850 0.883574 0.000000
0.407477 0.883055 0.000000
0.447944 0.882475 0.000000
0.487129 0.881834 0.000000
0.533074 0.881132 0.000000
0.582910 0.880400 0.000000
0.631495 0.879454 0.000000
0.679164 0.878325 0.000000
0.725978 0.877073 0.000000
0.770840 0.873960 0.000000
0.814450 0.870787 0.000000
0.856809 0.867643 0.000000
0.898039 0.864439 0.000000
0.938109 0.861295 0.000000
0.959686 0.841062 0.000000
0.985779 0.823056 0.000000
1.000000 0.810361 0.000000
1.000000 0.801053 0.000000
0.000000 0.918425 0.050263
0.000000 0.918395 0.049744
0.000000 0.918395 0.049714
0.000000 0.918395 0.048676
0.000000 0.918364 0.047395
0.000000 0.918334 0.045594
0.000000 0.918273 0.041108
0.000000 0.918120 0.036439
0.000000 0.917906 0.029389
0.029725 0.917662 0.023896
0.159335 0.917388 0.014618
0.222507 0.917021 0.004852
0.274510 0.916655 0.000000
0.321141 0.916197 0.000000
0.364782 0.915709 0.000000
0.406409 0.915221 0.000000
