cubelut/Landscape2.cube
# Created by Adobe Lightroom plugin Export LUT (1.18.0)
# www.johnrellis.com/lightroom/exportlut.htm
# Preset: Landscape2
# Color profile: /Library/Application Support/Adobe/Color/Profiles/Recommended/AdobeRGB1998.icc
LUT_3D_SIZE 5
DOMAIN_MIN 0.000000 0.000000 0.000000
DOMAIN_MAX 0.903226 0.903226 0.903226
0.000000 0.000000 0.000000
0.173007 0.054078 0.000000
0.384771 0.105135 0.000000
0.619043 0.120150 0.000000
0.877134 0.103212 0.000000
0.000000 0.228122 0.033997
0.162448 0.224826 0.000000
0.353704 0.250187 0.033021
0.601526 0.265629 0.000000
0.869017 0.267338 0.000000
0.000000 0.515038 0.100710
0.000000 0.501061 0.000000
0.398047 0.480629 0.000000
0.576013 0.464424 0.113222
0.836149 0.498787 0.127260
0.000000 0.780453 0.185824
0.000000 0.773526 0.000000
0.367590 0.730770 0.000000
0.658930 0.720577 0.000000
0.874876 0.720180 0.203525
0.000000 0.974609 0.287694
0.000000 0.973266 0.204990
0.258274 0.960540 0.000000
0.613642 0.937682 0.000000
0.873808 0.926818 0.148470
0.044831 0.000000 0.202213
0.169223 0.069490 0.182467
0.408698 0.000000 0.192355
0.639582 0.000000 0.143679
0.885954 0.000000 0.108064
0.000000 0.218662 0.200870
0.182773 0.229984 0.181094
0.403082 0.229496 0.165774
0.634852 0.222782 0.142336
0.883604 0.206424 0.100404
0.000000 0.532647 0.271275
0.114931 0.510155 0.211032
0.410681 0.482216 0.179477
0.574945 0.462196 0.211337
0.850309 0.488685 0.196201
0.000000 0.786526 0.333593
0.000000 0.776059 0.275547
0.372259 0.737423 0.129274
0.666377 0.720027 0.186618
0.872313 0.716609 0.282628
0.000000 0.972839 0.416663
0.000000 0.971588 0.364477
0.290410 0.961517 0.197757
0.621393 0.936400 0.143587
0.878538 0.925780 0.268376
0.131044 0.000000 0.514641
0.218418 0.062196 0.477272
0.408545 0.106874 0.417395
0.702296 0.000000 0.453407
0.911345 0.000000 0.407141
0.145144 0.242405 0.526635
0.254948 0.264652 0.486946
0.416876 0.252750 0.416358
0.695979 0.211337 0.435126
0.907286 0.000000 0.382452
0.000000 0.523796 0.524804
0.214298 0.518425 0.502434
0.457160 0.488167 0.418830
0.672145 0.445380 0.374395
0.897124 0.407691 0.334844
0.000000 0.822904 0.590295
0.226627 0.809415 0.569848
0.473152 0.758633 0.476753
0.692348 0.718227 0.433173
0.859403 0.699641 0.439277
0.258457 0.982727 0.611597
0.373358 0.976135 0.608820
0.523186 0.959106 0.555718
0.653040 0.934142 0.418769
0.894713 0.923644 0.484688
0.220706 0.065949 0.792477
0.292790 0.112673 0.776547
0.425879 0.161166 0.712856
0.666163 0.153017 0.670344
0.943145 0.175601 0.720485
0.304784 0.316716 0.797147
0.353918 0.317266 0.782315
0.458686 0.304265 0.720546
0.672267 0.281041 0.669764
0.942473 0.298528 0.717769
0.322179 0.513817 0.830045
0.458015 0.551385 0.821500
0.600305 0.582208 0.751827
0.695491 0.504356 0.668788
0.933623 0.479591 0.683711
0.349248 0.766567 0.808927
0.451514 0.770596 0.801785
0.628534 0.772976 0.773465
0.735897 0.721187 0.671046
0.910674 0.653712 0.596765
0.458747 0.994446 0.859251
0.528832 0.989136 0.853208
0.670863 0.973724 0.828672
0.775082 0.944945 0.746944
0.915496 0.921080 0.695460
0.316167 0.217044 0.977234
0.364874 0.236454 0.972808
0.484321 0.273350 0.955413
0.607691 0.265904 0.915740
0.872160 0.273930 0.906126
0.418616 0.393744 0.977539
0.450538 0.398413 0.973358
0.536522 0.402411 0.956817
0.632166 0.365759 0.918364
0.876524 0.360876 0.905943
0.626673 0.650996 0.982727
0.673274 0.677943 0.977142
0.703639 0.664698 0.962737
0.724453 0.594873 0.927886
0.890715 0.549065 0.904662
0.642542 0.768368 0.987884
0.689204 0.783963 0.986450
0.797482 0.823545 0.982727
0.860807 0.831632 0.954772
0.912291 0.741573 0.903899
0.658686 0.916930 0.979400
0.695888 0.921721 0.978546
0.791135 0.935546 0.975525
0.891875 0.952636 0.969940
0.939666 0.924041 0.907805
