cubelut/Landscape10.cube
# Created by Adobe Lightroom plugin Export LUT (1.18.0)
# www.johnrellis.com/lightroom/exportlut.htm
# Preset: Landscape10
# Color profile: /Library/Application Support/Adobe/Color/Profiles/Recommended/AdobeRGB1998.icc
LUT_3D_SIZE 5
DOMAIN_MIN 0.000000 0.000000 0.000000
DOMAIN_MAX 0.903226 0.903226 0.903226
0.117647 0.092592 0.096315
0.241520 0.086549 0.101167
0.456031 0.062959 0.105623
0.702083 0.089784 0.114656
0.929534 0.152041 0.147280
0.116030 0.202670 0.134707
0.233158 0.206912 0.105867
0.457282 0.214481 0.110903
0.702113 0.244236 0.116152
0.930083 0.275273 0.151766
0.062135 0.388342 0.213718
0.092927 0.397955 0.161593
0.433326 0.430671 0.112459
0.705562 0.477272 0.120089
0.926879 0.494057 0.164797
0.000000 0.622065 0.315618
0.000000 0.630091 0.279881
0.067323 0.656153 0.000000
0.645777 0.708461 0.096407
0.923949 0.724300 0.200137
0.000000 0.886595 0.440803
0.000000 0.890867 0.413062
0.000000 0.904692 0.285283
0.400397 0.924804 0.000000
0.837705 0.934142 0.233860
0.143923 0.089570 0.203738
0.243656 0.089662 0.207248
0.453101 0.053773 0.221164
0.697078 0.000000 0.230503
0.926238 0.132113 0.254490
0.145418 0.190188 0.205692
0.252384 0.206668 0.212894
0.456092 0.208316 0.220645
0.698116 0.226688 0.231357
0.925902 0.265721 0.257145
0.121248 0.387030 0.272190
0.210605 0.398077 0.260166
0.437598 0.427802 0.216861
0.701778 0.469856 0.235172
0.924773 0.491402 0.268986
0.000000 0.621454 0.367041
0.075013 0.630518 0.346258
0.154818 0.657832 0.184817
0.648524 0.707729 0.219699
0.922179 0.723629 0.297642
0.000000 0.883940 0.485481
0.000000 0.888212 0.460334
0.000000 0.904082 0.351507
0.390967 0.924804 0.163790
0.841032 0.933776 0.315923
0.205386 0.057527 0.409583
0.282811 0.048646 0.414343
0.458473 0.025605 0.424262
0.697414 0.000000 0.457435
0.922881 0.119234 0.470161
0.176303 0.174899 0.410315
0.279698 0.192020 0.414771
0.461463 0.203647 0.427741
0.698390 0.203037 0.454902
0.922148 0.264897 0.473121
0.161654 0.367864 0.402594
0.252171 0.380133 0.409583
0.474281 0.441810 0.443275
0.702388 0.459876 0.455055
0.919127 0.498268 0.487007
0.000000 0.615473 0.480293
0.158877 0.624964 0.480049
0.381384 0.661250 0.465064
0.663539 0.709499 0.442481
0.915557 0.726833 0.510277
0.000000 0.879423 0.585504
0.000000 0.882750 0.578180
0.255894 0.894865 0.534844
0.349676 0.921172 0.350591
0.851072 0.930266 0.505577
0.276127 0.000000 0.675654
0.337835 0.000000 0.679255
0.492744 0.000000 0.692500
0.696254 0.000000 0.701137
0.917052 0.137575 0.702052
0.258518 0.164981 0.674495
0.326238 0.164889 0.678279
0.489265 0.179141 0.691249
0.695888 0.202945 0.701167
0.915557 0.271916 0.702358
0.066743 0.351598 0.670161
0.214572 0.352361 0.675441
0.476539 0.415320 0.689021
0.696590 0.459113 0.703944
0.911406 0.509819 0.709926
0.039521 0.592950 0.649226
0.202121 0.600519 0.653071
0.420111 0.634485 0.669673
0.704494 0.724392 0.716670
0.906065 0.741573 0.731960
0.000000 0.873716 0.731289
0.000000 0.876646 0.728573
0.284245 0.886748 0.718105
0.585016 0.902037 0.701411
0.871824 0.925841 0.723201
0.331701 0.000000 0.912932
0.379614 0.000000 0.913848
0.511101 0.000000 0.917052
0.686610 0.076204 0.922606
0.906554 0.178225 0.923064
0.318486 0.134737 0.912139
0.369879 0.138094 0.913054
0.507500 0.161837 0.916289
0.686885 0.234745 0.921630
0.905882 0.294774 0.922393
0.197696 0.336492 0.911101
0.321141 0.371099 0.910735
0.496254 0.406622 0.913329
0.690730 0.467353 0.918425
0.904112 0.521141 0.920562
0.000000 0.573266 0.905699
0.161929 0.575463 0.906401
0.413428 0.594965 0.909209
0.699336 0.697993 0.912047
0.903593 0.747829 0.919554
0.000000 0.821195 0.894896
0.061463 0.824338 0.895018
0.379736 0.838407 0.895567
0.643214 0.869749 0.897917
0.911528 0.930327 0.925383
