cubelut/Landscape10.cube
# Created by Adobe Lightroom plugin Export LUT (1.18.0)
# www.johnrellis.com/lightroom/exportlut.htm
# Preset: Landscape10
# Color profile: /Library/Application Support/Adobe/Color/Profiles/Recommended/AdobeRGB1998.icc
LUT_3D_SIZE 8
DOMAIN_MIN 0.000000 0.000000 0.000000
DOMAIN_MAX 0.903226 0.903226 0.903226
0.117647 0.092592 0.096315
0.168093 0.091463 0.098543
0.269047 0.084291 0.101534
0.390539 0.068147 0.103487
0.523156 0.061555 0.107820
0.665370 0.081147 0.113222
0.806394 0.114748 0.122774
0.929534 0.152041 0.147280
0.118959 0.138766 0.111055
0.164767 0.139071 0.100679
0.270054 0.133028 0.102846
0.389990 0.129549 0.105287
0.521965 0.133303 0.109255
0.663172 0.148623 0.113527
0.803922 0.170993 0.122621
0.927977 0.196933 0.147738
0.114595 0.226017 0.144411
0.120516 0.229984 0.123659
0.258793 0.232853 0.107759
0.393957 0.238529 0.110933
0.524987 0.251408 0.112978
0.665644 0.270481 0.115511
0.806760 0.289647 0.125521
0.929412 0.304387 0.152499
0.092714 0.330602 0.188754
0.099123 0.333562 0.173251
0.133852 0.343603 0.104738
0.373327 0.358373 0.112947
0.533654 0.382177 0.118227
0.670680 0.404486 0.118074
0.807004 0.421271 0.129000
0.928069 0.429328 0.159945
0.000000 0.449226 0.240238
0.000000 0.451728 0.228061
0.058808 0.461128 0.175601
0.255009 0.477913 0.096284
0.492561 0.505943 0.109377
0.671077 0.540215 0.120607
0.805112 0.556207 0.133944
0.925963 0.559808 0.171847
0.000000 0.583764 0.298833
0.000000 0.587396 0.289036
0.000000 0.595697 0.247623
0.000000 0.611170 0.128695
0.377905 0.634943 0.059449
0.615747 0.669245 0.096071
0.805722 0.694026 0.146242
0.924681 0.691890 0.193423
0.000000 0.737575 0.367559
0.000000 0.739773 0.358709
0.000000 0.745876 0.323125
0.000000 0.757656 0.241154
0.000000 0.772732 0.000000
0.497688 0.793576 0.000000
0.729793 0.813809 0.127230
0.922026 0.819760 0.224582
0.000000 0.886595 0.440803
0.000000 0.887785 0.432898
0.000000 0.892424 0.403082
0.000000 0.901305 0.339818
0.000000 0.911406 0.200931
0.297124 0.922637 0.000000
0.613581 0.930846 0.123201
0.837705 0.934142 0.233860
0.127291 0.092622 0.139986
0.169223 0.091066 0.140841
0.267399 0.089296 0.144747
0.387274 0.074586 0.149691
0.519829 0.058961 0.154208
0.660883 0.069886 0.158663
0.802243 0.103212 0.166567
0.926635 0.146273 0.186099
0.127138 0.131991 0.141238
0.173190 0.137819 0.142855
0.269017 0.136080 0.146944
0.387945 0.131533 0.150546
0.519829 0.131472 0.154482
0.660151 0.142306 0.158877
0.800534 0.163394 0.166659
0.925078 0.192264 0.185885
0.132265 0.224277 0.171817
0.165652 0.226963 0.167666
0.262760 0.231785 0.148196
0.392096 0.237430 0.153689
0.522545 0.248936 0.156680
0.661860 0.265873 0.160281
0.801877 0.284092 0.168032
0.925994 0.300725 0.189639
0.125216 0.329229 0.212985
0.145144 0.332219 0.204410
0.159213 0.343633 0.143801
0.373510 0.355474 0.151583
0.528191 0.376898 0.160098
0.664637 0.398291 0.161685
0.801938 0.416175 0.170382
0.924804 0.426307 0.195224
0.089235 0.449012 0.263005
0.096742 0.451270 0.251774
0.118624 0.460243 0.205600
0.252964 0.475837 0.132021
0.491432 0.502556 0.149935
0.667811 0.536461 0.163363
0.802487 0.553277 0.174685
0.923857 0.558007 0.206088
0.000000 0.582361 0.316747
0.000000 0.584649 0.307500
0.000000 0.593103 0.268986
0.006378 0.608972 0.168856
0.375860 0.633021 0.112184
0.615900 0.668055 0.143252
0.804379 0.692470 0.186313
0.923125 0.690639 0.225803
0.000000 0.734676 0.382025
0.000000 0.736141 0.372992
0.000000 0.742702 0.339544
0.000000 0.755184 0.263615
0.000000 0.771511 0.000000
0.495949 0.791867 0.092805
0.729183 0.811917 0.166171
0.919982 0.818082 0.252934
0.000000 0.884428 0.453285
0.000000 0.885893 0.445686
0.000000 0.890684 0.416785
0.000000 0.899718 0.356420
0.000000 0.912016 0.230198
0.292027 0.922850 0.000000
0.613153 0.930266 0.159792
0.837919 0.933318 0.259007
0.150668 0.087312 0.229129
0.183780 0.087037 0.230320
0.271550 0.088075 0.232944
0.389502 0.071778 0.243168
0.520775 0.000061 0.252201
0.662623 0.000000 0.256107
0.803464 0.000000 0.265629
0.927031 0.127749 0.282658
0.148989 0.127169 0.229526
0.188724 0.134218 0.230503
0.273045 0.135775 0.233982
0.389990 0.128573 0.242771
0.521080 0.114290 0.250217
0.661860 0.104829 0.255650
0.802243 0.131075 0.265354
0.926207 0.179843 0.282719
0.150118 0.212161 0.230076
0.184756 0.216281 0.232151
0.281865 0.234073 0.240269
0.394965 0.234684 0.244053
0.525017 0.241032 0.250431
0.663630 0.252506 0.257298
0.802426 0.270359 0.266972
0.925536 0.294682 0.285496
0.135561 0.328435 0.266850
0.170657 0.331670 0.266697
0.256107 0.343755 0.260288
0.384680 0.357824 0.241947
0.530114 0.374914 0.254154
0.666377 0.393256 0.259861
0.803037 0.410193 0.270298
0.924743 0.424170 0.291508
0.104494 0.447639 0.309941
0.146059 0.451087 0.308934
0.224735 0.462928 0.295811
0.249577 0.479896 0.215183
0.499001 0.505455 0.243656
0.668788 0.535088 0.263432
0.802457 0.550408 0.275547
0.923125 0.557397 0.301091
0.000000 0.581628 0.362951
0.065248 0.584955 0.361181
0.164492 0.594903 0.341863
0.189914 0.610285 0.269535
0.370367 0.633051 0.207645
0.619318 0.667506 0.244999
0.802853 0.690547 0.286046
0.921996 0.690822 0.318364
0.000000 0.734249 0.427558
0.000000 0.736019 0.424445
0.000000 0.742306 0.399817
0.000000 0.754116 0.336797
0.130953 0.771206 0.196506
0.492439 0.791104 0.204379
0.732753 0.812100 0.265385
0.919554 0.818753 0.342779
0.000000 0.882353 0.496437
0.000000 0.883055 0.492348
0.000000 0.887663 0.466163
0.000000 0.897124 0.413611
0.000000 0.909422 0.312596
0.270268 0.922118 0.173098
0.612604 0.929686 0.247898
0.841489 0.932921 0.337682
0.184848 0.072053 0.343664
0.213565 0.071626 0.345281
0.290196 0.072694 0.349889
0.393652 0.066682 0.354040
0.522057 0.000000 0.371527
0.661707 0.000000 0.386633
0.800900 0.000000 0.394354
0.924071 0.114626 0.404303
0.186831 0.125063 0.343999
0.214817 0.124819 0.345495
0.291325 0.126650 0.350134
0.394507 0.126131 0.354742
0.522972 0.112032 0.371527
0.661677 0.092775 0.385107
0.800504 0.099245 0.392798
0.923491 0.172702 0.404730
0.149630 0.200473 0.344396
0.183383 0.201358 0.346502
0.291722 0.224247 0.351843
0.398535 0.233616 0.358618
0.526604 0.235355 0.371954
0.665095 0.238254 0.382666
0.803067 0.254002 0.392309
0.923949 0.295109 0.409430
0.161227 0.311955 0.340826
0.191867 0.315618 0.342962
0.279301 0.330266 0.351171
0.409308 0.365606 0.369696
0.532280 0.370977 0.373754
0.666957 0.383581 0.381994
0.801724 0.401862 0.394720
0.922484 0.426062 0.415167
0.120363 0.445991 0.379950
0.158083 0.449104 0.380865
0.251377 0.461494 0.384009
0.367681 0.486244 0.381781
0.514092 0.511589 0.367651
0.670314 0.533776 0.388098
0.801846 0.547814 0.401740
0.920836 0.560327 0.425025
0.000000 0.580529 0.428168
0.075837 0.584649 0.428565
0.208499 0.595789 0.426703
0.319371 0.615961 0.410712
0.359228 0.637568 0.318944
0.629145 0.670588 0.370825
0.801511 0.689876 0.412970
0.919127 0.693294 0.441505
0.000000 0.732052 0.487861
0.000000 0.734188 0.486213
0.106294 0.741543 0.479408
0.247379 0.754238 0.452064
0.278233 0.771298 0.359045
0.486183 0.791135 0.319097
0.739559 0.812009 0.388495
0.916625 0.819333 0.463294
0.000000 0.881682 0.552056
0.000000 0.882628 0.549432
0.000000 0.885649 0.539757
0.138216 0.892760 0.507134
0.198734 0.905119 0.428656
0.262791 0.920958 0.287358
0.611322 0.928283 0.353979
0.847715 0.931762 0.447944
0.226017 0.008209 0.480140
0.249607 0.003388 0.481666
0.318425 0.000000 0.486427
0.412909 0.000000 0.495918
0.525566 0.000000 0.500847
0.661463 0.000000 0.521782
0.798764 0.000000 0.532738
0.921538 0.123262 0.536492
0.223850 0.108125 0.479774
0.247929 0.106996 0.481483
0.317449 0.104982 0.486610
0.412818 0.110567 0.495735
0.525872 0.107759 0.501457
0.661830 0.089570 0.521508
0.798856 0.102693 0.532280
0.921263 0.178927 0.536858
0.182223 0.193820 0.480140
0.229709 0.207431 0.481453
0.311803 0.215763 0.486397
0.412848 0.226749 0.496559
0.527214 0.234134 0.503319
0.662501 0.236667 0.520623
0.798398 0.252659 0.530907
0.919585 0.297673 0.539025
0.146487 0.305699 0.476295
0.180972 0.307225 0.478340
0.271550 0.313939 0.486793
0.411444 0.351263 0.499611
0.531884 0.370397 0.509850
0.665949 0.380072 0.522179
0.798520 0.399878 0.532372
0.917388 0.436805 0.548272
0.157259 0.426551 0.467018
0.188205 0.429816 0.468971
0.273289 0.442573 0.476814
0.391028 0.470649 0.492714
0.539849 0.523125 0.521477
0.669337 0.531365 0.526146
0.797574 0.547539 0.538567
0.915190 0.569451 0.558221
0.000000 0.574853 0.506554
0.093538 0.578027 0.507866
0.214450 0.589075 0.511986
0.340856 0.610193 0.518608
0.477516 0.641871 0.517540
0.643946 0.673762 0.514916
0.797635 0.689754 0.549065
0.913939 0.698726 0.571832
0.000000 0.727718 0.564324
0.000000 0.729519 0.563653
0.096864 0.736416 0.561120
0.280034 0.749325 0.555322
0.413062 0.767575 0.533349
0.469184 0.788571 0.439551
0.749416 0.810849 0.525261
0.911711 0.819852 0.587304
0.000000 0.877897 0.623377
0.000000 0.878691 0.621546
0.000000 0.881682 0.614801
0.204318 0.888243 0.602716
0.349279 0.897246 0.570184
0.386481 0.913603 0.471595
0.607507 0.924926 0.468971
0.856107 0.929198 0.567529
0.266819 0.000000 0.637018
0.287419 0.000000 0.638209
0.349096 0.000000 0.641688
0.437964 0.000000 0.649683
0.542718 0.000000 0.660548
0.663111 0.000000 0.662715
0.796078 0.000000 0.671443
0.918517 0.136233 0.669642
0.262272 0.068116 0.635431
0.283238 0.065156 0.636500
0.346197 0.056855 0.640467
0.436164 0.058656 0.648768
0.541527 0.087709 0.659876
0.662593 0.082429 0.662257
0.795712 0.107210 0.670893
0.918029 0.187472 0.669581
0.242863 0.200656 0.635462
0.266728 0.200839 0.636713
0.336339 0.202640 0.641047
0.431983 0.210452 0.649073
0.540826 0.230900 0.660456
0.663447 0.236973 0.663813
0.795834 0.255863 0.670832
0.916960 0.304601 0.671168
0.094942 0.282475 0.635706
0.147738 0.282902 0.636896
0.288579 0.308171 0.641291
0.423224 0.342412 0.650141
0.541039 0.367132 0.662165
0.666102 0.382818 0.668086
0.796262 0.403906 0.672938
0.915038 0.442206 0.676722
0.098482 0.429084 0.625086
0.146883 0.430549 0.626703
0.250523 0.436439 0.632990
0.374609 0.451057 0.645594
0.535332 0.504021 0.660487
0.667048 0.532616 0.671138
0.794064 0.551293 0.675624
0.910521 0.581415 0.686275
0.097627 0.557794 0.610742
0.144289 0.560662 0.612543
0.244144 0.570367 0.618128
0.363287 0.590295 0.628809
0.503929 0.625971 0.646723
0.672877 0.687587 0.680568
0.793210 0.696101 0.686915
0.907897 0.710811 0.700740
0.000000 0.729061 0.659358
0.000000 0.730343 0.659113
0.083803 0.734096 0.657435
0.275944 0.744808 0.657618
0.434607 0.762325 0.659571
0.601892 0.786374 0.663691
0.766995 0.812589 0.674495
0.907713 0.824155 0.711269
0.000000 0.874815 0.708583
0.000000 0.875547 0.707546
0.000000 0.878416 0.703792
0.183810 0.884031 0.696681
0.378607 0.891234 0.686946
0.536461 0.900847 0.670649
0.602045 0.919341 0.595300
0.868406 0.926574 0.693233
0.301915 0.000000 0.786252
0.319249 0.000000 0.787045
0.374182 0.000000 0.789273
0.455360 0.000000 0.793545
0.552300 0.000000 0.799496
0.663935 0.000000 0.804959
0.790524 0.000000 0.805692
0.913664 0.147738 0.799374
0.296941 0.000000 0.785397
0.314946 0.000000 0.786252
0.370916 0.000000 0.788540
0.453223 0.000000 0.792630
0.551202 0.000000 0.798672
0.663020 0.100282 0.804440
0.789853 0.117830 0.805081
0.912902 0.194461 0.798795
0.278569 0.184909 0.784787
0.298497 0.185214 0.785489
0.359533 0.187076 0.787655
0.446998 0.195132 0.791836
0.548852 0.215244 0.797848
0.662165 0.247990 0.804562
0.789944 0.261204 0.805478
0.912383 0.309636 0.799680
0.181827 0.282261 0.784390
0.231052 0.293187 0.784512
0.337194 0.321233 0.786038
0.435584 0.332616 0.790402
0.545220 0.354528 0.796658
0.661952 0.392493 0.804990
0.789975 0.406683 0.806027
0.910704 0.444648 0.801328
0.000000 0.407355 0.779843
0.073823 0.407385 0.780575
0.223575 0.408728 0.783719
0.375769 0.433173 0.788083
0.537621 0.491218 0.793301
0.663203 0.531060 0.802213
0.788907 0.553399 0.805814
0.907469 0.583948 0.804837
0.000000 0.557122 0.769772
0.005127 0.558068 0.770535
0.209751 0.562188 0.773159
0.344182 0.572198 0.778592
0.491096 0.598016 0.787472
0.665187 0.667292 0.798764
0.789822 0.697688 0.807858
0.904784 0.715114 0.811734
0.000000 0.692287 0.757076
0.000000 0.693874 0.757687
0.183841 0.699489 0.759640
0.322271 0.711025 0.763485
0.469764 0.732265 0.770138
0.631891 0.768124 0.783261
0.795346 0.822538 0.814420
0.904906 0.828611 0.820645
0.000000 0.877653 0.811948
0.000000 0.878080 0.811215
0.000000 0.879789 0.808713
0.164920 0.882109 0.802884
0.372259 0.885924 0.795560
0.556481 0.893675 0.793484
0.724941 0.906188 0.795163
0.884581 0.924834 0.811276
0.331701 0.000000 0.912932
0.346624 0.000000 0.913237
0.394446 0.000000 0.914122
0.467872 0.000000 0.915892
0.557763 0.000000 0.918425
0.659510 0.000000 0.921660
0.776852 0.132265 0.923430
0.906554 0.178225 0.923064
0.327886 0.000000 0.912535
0.343084 0.000000 0.912902
0.391852 0.000000 0.913787
0.466194 0.000000 0.915526
0.557000 0.000000 0.918090
0.659388 0.123232 0.921294
0.776608 0.182712 0.923095
0.906157 0.218570 0.922728
0.313939 0.174014 0.911803
0.330358 0.174899 0.912108
0.382544 0.178927 0.912932
0.460883 0.190005 0.914885
0.554864 0.213138 0.917357
0.659571 0.253269 0.920439
0.776669 0.296696 0.922515
0.905577 0.324224 0.922118
0.287144 0.311315 0.910552
0.306584 0.312627 0.910857
0.366125 0.317845 0.911711
0.451820 0.329931 0.913481
0.551934 0.351843 0.915923
0.661006 0.388098 0.918975
0.777981 0.432746 0.921569
0.904784 0.453437 0.921263
0.000000 0.372717 0.911467
0.044373 0.373938 0.911742
0.263279 0.399817 0.911589
0.435950 0.463142 0.910826
0.547478 0.487587 0.913176
0.663691 0.524163 0.916228
0.781094 0.572900 0.919951
0.903532 0.590021 0.919951
0.000000 0.534752 0.906889
0.000000 0.535241 0.907103
0.203861 0.537743 0.907897
0.343420 0.546380 0.909575
0.497902 0.582818 0.911070
0.668116 0.657862 0.912139
0.788540 0.699702 0.917357
0.903471 0.718441 0.919524
0.000000 0.682918 0.901061
0.000000 0.683711 0.901183
0.180392 0.686580 0.901732
0.328374 0.694636 0.902831
0.476265 0.713252 0.904509
0.629908 0.747738 0.907805
0.790921 0.806821 0.913817
0.905028 0.830320 0.920378
0.000000 0.821195 0.894896
0.000000 0.822049 0.894896
0.134585 0.825528 0.895048
0.304479 0.832853 0.895354
0.454231 0.845426 0.895872
0.605768 0.864164 0.897185
0.755917 0.889433 0.902342
0.911528 0.930327 0.925383
