cubelut/Landscape7.cube
# Created by Adobe Lightroom plugin Export LUT (1.18.0)
# www.johnrellis.com/lightroom/exportlut.htm
# Preset: Landscape7
# Color profile: /Library/Application Support/Adobe/Color/Profiles/Recommended/AdobeRGB1998.icc
LUT_3D_SIZE 32
0.000000 0.000000 0.000000
0.010681 0.002777 0.003815
0.033448 0.008148 0.011444
0.068971 0.024048 0.029236
0.089357 0.045899 0.051270
0.111971 0.059052 0.063020
0.137087 0.065522 0.070314
0.165408 0.069429 0.076356
0.197879 0.072908 0.081849
0.235019 0.075471 0.087282
0.276738 0.076753 0.093324
0.322545 0.078218 0.099977
0.372168 0.079438 0.108064
0.424964 0.082368 0.118837
0.480385 0.086732 0.131167
0.537194 0.092409 0.144961
0.594568 0.099916 0.160098
0.650996 0.111208 0.176822
0.705409 0.125917 0.194858
0.756710 0.144533 0.214633
0.803311 0.168612 0.236301
0.845090 0.196780 0.259648
0.882017 0.228428 0.285100
0.914153 0.263584 0.312169
0.941863 0.301335 0.340795
0.965545 0.341802 0.371344
0.985534 0.384588 0.403479
1.000000 0.429541 0.437568
1.000000 0.476600 0.473976
1.000000 0.525658 0.512810
1.000000 0.576287 0.554345
1.000000 0.626398 0.597192
0.002411 0.014740 0.003052
0.012726 0.015351 0.003815
0.037201 0.019287 0.010437
0.069276 0.036835 0.028168
0.090028 0.053773 0.050568
0.112367 0.064088 0.063020
0.137819 0.069459 0.070344
0.165957 0.074281 0.076295
0.198581 0.077729 0.081758
0.235752 0.080659 0.087434
0.277653 0.082979 0.093324
0.323522 0.085145 0.100160
0.373083 0.087068 0.108400
0.426062 0.090517 0.119234
0.481575 0.095277 0.131472
0.538354 0.100984 0.145602
0.595666 0.108675 0.160769
0.652186 0.119417 0.177371
0.706538 0.133333 0.195529
0.757687 0.151400 0.215335
0.804196 0.174411 0.236851
0.845823 0.201602 0.260288
0.882597 0.232731 0.285740
0.914611 0.267277 0.312810
0.942229 0.304631 0.341558
0.965820 0.344701 0.372076
0.985748 0.386938 0.404150
1.000000 0.431800 0.438453
1.000000 0.478523 0.474708
1.000000 0.527337 0.513542
1.000000 0.577722 0.554986
1.000000 0.627588 0.597803
0.006104 0.044434 0.008118
0.021302 0.046540 0.009705
0.041932 0.047547 0.011231
0.070069 0.054017 0.028687
0.090669 0.062898 0.051118
0.113130 0.069825 0.063783
0.138399 0.075471 0.070527
0.166720 0.080110 0.076417
0.199283 0.084230 0.081788
0.236484 0.088014 0.087648
0.278264 0.091279 0.093690
0.324376 0.093507 0.100435
0.373999 0.096162 0.109010
0.427008 0.100740 0.119661
0.482338 0.105684 0.132143
0.539422 0.111513 0.145968
0.596643 0.119417 0.161318
0.653071 0.129671 0.177829
0.707362 0.142550 0.196139
0.758389 0.159762 0.215854
0.804776 0.181704 0.237400
0.846311 0.208042 0.260777
0.882963 0.238193 0.286229
0.914885 0.271794 0.313329
0.942443 0.308598 0.342260
0.965972 0.347906 0.372625
0.985840 0.389868 0.404791
1.000000 0.434211 0.439033
1.000000 0.480629 0.475319
1.000000 0.529137 0.514153
1.000000 0.579248 0.555596
1.000000 0.628931 0.598413
0.020722 0.075624 0.024048
0.036072 0.075898 0.025727
0.055238 0.075837 0.028443
0.072663 0.076539 0.032563
0.091585 0.077577 0.052491
0.114534 0.081575 0.063783
0.139651 0.086885 0.070832
0.168124 0.091890 0.076570
0.200595 0.096712 0.082094
0.238010 0.101320 0.087770
0.279789 0.105684 0.094148
0.325902 0.109804 0.101106
0.375402 0.114199 0.109621
0.428534 0.119173 0.120668
0.483986 0.125032 0.132876
0.540917 0.131472 0.146944
0.598169 0.139284 0.162325
0.654566 0.148775 0.179019
0.708766 0.161013 0.197024
0.759640 0.176699 0.216800
0.805875 0.196689 0.238560
0.847196 0.221134 0.262119
0.883696 0.249424 0.287480
0.915343 0.281376 0.314519
0.942748 0.316503 0.343206
0.966125 0.354650 0.373602
0.985870 0.395392 0.405646
1.000000 0.438941 0.439857
1.000000 0.484657 0.476143
1.000000 0.532464 0.514977
1.000000 0.582086 0.556451
1.000000 0.631281 0.599176
0.038911 0.097993 0.046967
0.052735 0.097932 0.047486
0.063661 0.098207 0.049439
0.077699 0.098512 0.052644
0.094972 0.099519 0.055970
0.114870 0.100679 0.063447
0.140932 0.104097 0.070924
0.170291 0.108095 0.076600
0.202945 0.113954 0.082460
0.240177 0.119783 0.088441
0.282231 0.125551 0.094697
0.328161 0.131258 0.101808
0.377905 0.137057 0.110842
0.430884 0.143374 0.121675
0.486244 0.150240 0.134218
0.542962 0.157107 0.148013
0.600122 0.164950 0.163546
0.656153 0.174289 0.180362
0.710323 0.185336 0.198459
0.760983 0.199313 0.218235
0.806882 0.217380 0.240024
0.848081 0.239567 0.263584
0.884306 0.265537 0.289006
0.915801 0.295384 0.316106
0.943023 0.328496 0.344762
0.966278 0.364935 0.375067
0.985901 0.404211 0.407172
1.000000 0.446265 0.441260
1.000000 0.490944 0.477577
1.000000 0.537865 0.516411
1.000000 0.586633 0.557885
1.000000 0.635035 0.600519
0.053101 0.122225 0.059541
0.061982 0.122164 0.059815
0.069734 0.122164 0.060487
0.083467 0.122316 0.061280
0.100404 0.123201 0.063447
0.119783 0.124666 0.065156
0.141024 0.125521 0.070008
0.170596 0.130220 0.076509
0.204929 0.134646 0.082918
0.242924 0.140871 0.089113
0.284794 0.148196 0.095705
0.330785 0.155398 0.103304
0.380346 0.162570 0.112276
0.433448 0.170169 0.123201
0.488808 0.177890 0.135653
0.545464 0.185519 0.149783
0.602289 0.193820 0.165347
0.658137 0.203067 0.181949
0.711940 0.213413 0.200137
0.762295 0.226169 0.219760
0.807858 0.242130 0.241642
0.848753 0.261784 0.265293
0.881804 0.282353 0.288090
0.913695 0.309514 0.315190
0.941192 0.340368 0.343816
0.964752 0.374609 0.374182
0.984680 0.412055 0.406195
1.000000 0.452583 0.440436
1.000000 0.495949 0.476753
1.000000 0.541772 0.515648
1.000000 0.589715 0.557214
1.000000 0.637415 0.599908
0.061433 0.148043 0.064851
0.067445 0.147982 0.065095
0.075044 0.147951 0.065278
0.088777 0.148165 0.066346
0.106233 0.148531 0.067506
0.125643 0.150057 0.068940
0.146822 0.152071 0.071046
0.169406 0.153048 0.076051
0.203433 0.159426 0.082338
0.242527 0.166049 0.089662
0.286442 0.172335 0.097017
0.332250 0.180697 0.104341
0.381628 0.189303 0.113680
0.434699 0.197971 0.124483
0.489998 0.206699 0.137148
0.546624 0.215183 0.151278
0.603418 0.224063 0.166567
0.659144 0.233188 0.183383
0.712703 0.243137 0.201511
0.762631 0.254612 0.221286
0.807797 0.268986 0.242863
0.848234 0.286168 0.266300
0.883879 0.306737 0.291356
0.914977 0.331121 0.318120
0.941955 0.359167 0.346471
0.965179 0.390814 0.376715
0.984863 0.426246 0.408820
1.000000 0.464881 0.443030
1.000000 0.506462 0.479347
1.000000 0.550866 0.518242
1.000000 0.597345 0.559655
1.000000 0.643824 0.602228
0.066926 0.176699 0.068879
0.073182 0.176913 0.069062
0.080812 0.176974 0.069581
0.094850 0.177157 0.070192
0.112703 0.177707 0.071504
0.132723 0.178592 0.073152
0.154604 0.180789 0.074891
0.178256 0.183536 0.077363
0.202640 0.184726 0.082612
0.241550 0.193423 0.089296
0.285466 0.202029 0.096834
0.334264 0.209689 0.105348
0.385779 0.218021 0.115145
0.438788 0.227848 0.126253
0.493965 0.237461 0.139162
0.550378 0.246891 0.153170
0.607019 0.256138 0.168795
0.662470 0.265446 0.185855
0.715633 0.275090 0.203922
0.765072 0.285985 0.223819
0.809781 0.298741 0.245731
0.849790 0.314092 0.269108
0.885069 0.332647 0.294255
0.915892 0.354528 0.321019
0.942565 0.379980 0.349401
0.965515 0.409583 0.379797
0.984985 0.442542 0.411872
1.000000 0.479011 0.445930
1.000000 0.518822 0.482368
1.000000 0.561395 0.521172
1.000000 0.606378 0.562585
1.000000 0.651240 0.604883
0.073396 0.209171 0.073121
0.079469 0.209293 0.073274
0.087098 0.209415 0.073701
0.101503 0.209689 0.074525
0.119814 0.210330 0.075685
0.140658 0.210971 0.077119
0.163394 0.212924 0.078889
0.188144 0.215824 0.080934
0.214450 0.219211 0.083558
0.240482 0.220401 0.089204
0.284062 0.231235 0.096254
0.332311 0.241428 0.104799
0.385290 0.251072 0.115236
0.442237 0.259617 0.128023
0.498268 0.269505 0.141268
0.554498 0.279698 0.155520
0.610895 0.289311 0.171389
0.666041 0.298924 0.188174
0.718715 0.308354 0.206607
0.767575 0.318517 0.226474
0.811795 0.330205 0.248386
0.851377 0.343725 0.271916
0.886259 0.360174 0.297246
0.916716 0.379889 0.324071
0.943053 0.403021 0.352697
0.965789 0.429938 0.382971
0.985077 0.460670 0.415167
1.000000 0.494911 0.449226
1.000000 0.532555 0.485634
1.000000 0.573419 0.524559
1.000000 0.616510 0.565759
1.000000 0.659693 0.607813
0.080568 0.245243 0.076570
0.086275 0.245335 0.077363
0.093904 0.245518 0.077424
0.108827 0.245914 0.078065
0.127810 0.246555 0.079316
0.149874 0.247288 0.080537
0.173159 0.248264 0.082551
0.198703 0.251255 0.084443
0.226200 0.255009 0.086732
0.255344 0.259098 0.089509
0.282475 0.259495 0.095918
0.330419 0.272190 0.104067
0.382971 0.284123 0.114412
0.439460 0.295140 0.127138
0.498909 0.304845 0.141482
0.559197 0.313146 0.157748
0.615137 0.323369 0.173556
0.669795 0.332921 0.190616
0.721798 0.342321 0.209079
0.770016 0.351781 0.229404
0.813870 0.362432 0.251347
0.853025 0.374670 0.275242
0.887572 0.389258 0.300603
0.917662 0.406836 0.327703
0.943755 0.427741 0.356390
0.966186 0.452338 0.386786
0.985199 0.480537 0.418952
1.000000 0.512444 0.453071
1.000000 0.547936 0.489509
1.000000 0.586572 0.528222
1.000000 0.627680 0.569299
1.000000 0.668879 0.610864
0.087068 0.284672 0.080140
0.093385 0.284794 0.080232
0.101472 0.285008 0.080507
0.116457 0.285344 0.081361
0.136507 0.285893 0.082124
0.159243 0.286809 0.083650
0.183749 0.287877 0.085664
0.209903 0.289616 0.087831
0.238407 0.293339 0.089906
0.268467 0.297581 0.092622
0.300450 0.302434 0.095705
0.328496 0.301762 0.102815
0.380346 0.316228 0.112551
0.436683 0.329534 0.125216
0.495644 0.341405 0.139773
0.556207 0.351598 0.156466
0.617090 0.359899 0.174746
0.674159 0.368109 0.193423
0.725643 0.377111 0.212100
0.773251 0.386114 0.232395
0.816281 0.395697 0.254795
0.854887 0.406500 0.278660
0.888914 0.419471 0.304265
0.918547 0.435004 0.331518
0.944274 0.453681 0.360327
0.966430 0.475837 0.390814
0.985199 0.501732 0.422980
1.000000 0.531365 0.457313
1.000000 0.564538 0.493629
1.000000 0.601038 0.532372
1.000000 0.640040 0.573297
1.000000 0.679255 0.614557
0.095155 0.326757 0.083253
0.101686 0.326940 0.083284
0.109834 0.327092 0.083833
0.125002 0.327398 0.084657
0.145602 0.328099 0.085756
0.169284 0.328893 0.087068
0.194827 0.329900 0.089052
0.221805 0.331090 0.091035
0.250797 0.333989 0.093507
0.281926 0.338354 0.096071
0.314702 0.343267 0.099001
0.349493 0.348547 0.102480
0.374853 0.344121 0.110567
0.429969 0.359991 0.122194
0.488258 0.373938 0.136782
0.548455 0.386053 0.153323
0.609216 0.396399 0.171603
0.668788 0.404852 0.191440
0.725460 0.411383 0.212924
0.773800 0.419287 0.234257
0.816556 0.428077 0.256718
0.854917 0.437720 0.280980
0.888792 0.448981 0.306859
0.918334 0.462837 0.334264
0.943969 0.479408 0.363226
0.965972 0.499367 0.393835
0.984649 0.522911 0.426215
1.000000 0.550072 0.460487
1.000000 0.581109 0.496986
1.000000 0.615503 0.535851
1.000000 0.652399 0.576684
1.000000 0.689479 0.617548
0.104524 0.369940 0.086854
0.110384 0.370092 0.087160
0.118502 0.370306 0.087648
0.134035 0.370794 0.088502
0.155276 0.371588 0.089387
0.179721 0.372473 0.090944
0.206027 0.373632 0.092531
0.233921 0.374914 0.095186
0.263218 0.376165 0.097871
0.294896 0.380438 0.100191
0.328405 0.385077 0.103548
0.363561 0.390204 0.106844
0.400458 0.395819 0.111116
0.428412 0.392187 0.120455
0.485084 0.408026 0.133822
0.544671 0.422004 0.150484
0.605188 0.433967 0.168917
0.664668 0.443732 0.188998
0.721553 0.451484 0.210941
0.773770 0.457404 0.234928
0.819791 0.462776 0.260746
0.857389 0.471138 0.285130
0.890562 0.481056 0.311345
0.919554 0.492958 0.338994
0.944762 0.507469 0.368078
0.966369 0.525231 0.398718
0.984741 0.546532 0.431250
1.000000 0.571527 0.465766
1.000000 0.600092 0.502220
1.000000 0.632288 0.541161
1.000000 0.666590 0.581476
1.000000 0.701503 0.621942
0.115053 0.416541 0.092103
0.121584 0.416541 0.092134
0.129488 0.416846 0.092500
0.144747 0.417273 0.093507
0.165988 0.417945 0.094514
0.190951 0.418830 0.095796
0.218296 0.419928 0.097810
0.247044 0.421149 0.100099
0.277073 0.422431 0.103029
0.308659 0.424689 0.105898
0.342809 0.429206 0.109071
0.378546 0.434333 0.112551
0.415991 0.439796 0.116915
0.455238 0.445838 0.121309
0.485817 0.443244 0.131594
0.540520 0.456489 0.146853
0.600610 0.470100 0.165530
0.660090 0.481392 0.186191
0.717189 0.490303 0.208255
0.769711 0.496925 0.232792
0.816709 0.501884 0.259525
0.858000 0.506584 0.287968
0.892332 0.513512 0.316136
0.920775 0.523583 0.343999
0.945464 0.536248 0.373266
0.966674 0.551843 0.404120
0.984741 0.570825 0.436683
0.999847 0.593500 0.471199
1.000000 0.619806 0.507774
1.000000 0.649592 0.546654
1.000000 0.681544 0.586633
1.000000 0.714076 0.626490
0.127413 0.463752 0.097658
0.133333 0.463874 0.097871
0.140932 0.464057 0.097993
0.156527 0.464607 0.098756
0.178012 0.465217 0.099855
0.202945 0.466133 0.101350
0.230533 0.467140 0.103578
0.259983 0.468147 0.105776
0.290776 0.469368 0.108736
0.322667 0.470649 0.111788
0.356512 0.473945 0.115145
0.392767 0.478828 0.118837
0.430549 0.484199 0.123293
0.470039 0.490211 0.128054
0.511101 0.496468 0.133669
0.544213 0.494881 0.144259
0.595544 0.504967 0.161532
0.654902 0.517662 0.182132
0.712276 0.527886 0.204746
0.765316 0.535332 0.229862
0.812589 0.540429 0.257176
0.854398 0.544701 0.286076
0.890562 0.549126 0.316625
0.921599 0.555077 0.348699
0.946197 0.565423 0.378729
0.966979 0.578912 0.409735
0.984680 0.595697 0.442359
0.999481 0.616083 0.476997
1.000000 0.639979 0.513481
1.000000 0.667292 0.552117
1.000000 0.696590 0.591485
1.000000 0.726741 0.630823
0.140963 0.511437 0.104128
0.146395 0.511589 0.104524
0.153933 0.511711 0.104829
0.168978 0.512078 0.105592
0.190188 0.512566 0.106783
0.215244 0.513298 0.108309
0.242771 0.514122 0.110292
0.272557 0.515160 0.112551
0.303899 0.516167 0.115389
0.336248 0.517327 0.118624
0.369604 0.518517 0.122286
0.406134 0.523217 0.126345
0.443946 0.528496 0.130831
0.483589 0.534264 0.135988
0.524651 0.540398 0.141512
0.567285 0.546990 0.147768
0.602197 0.546197 0.158968
0.649439 0.552636 0.177676
0.707057 0.564263 0.200626
0.760342 0.572534 0.226383
0.808042 0.577966 0.253971
0.850278 0.581781 0.283635
0.886839 0.585321 0.314824
0.918273 0.589715 0.347265
0.945006 0.596307 0.381048
0.967163 0.606256 0.415564
0.984497 0.620844 0.448219
0.999023 0.638911 0.482826
1.000000 0.660609 0.519554
1.000000 0.685481 0.557916
1.000000 0.712367 0.596979
1.000000 0.740261 0.635859
0.155428 0.559045 0.112703
0.161013 0.559136 0.112642
0.168032 0.559258 0.113344
0.182864 0.559594 0.113954
0.203494 0.560052 0.115175
0.228275 0.560723 0.116518
0.255711 0.561486 0.118807
0.285649 0.562249 0.121035
0.317144 0.563165 0.123873
0.349737 0.564202 0.127077
0.383551 0.565240 0.131014
0.418738 0.567468 0.134981
0.456550 0.572473 0.139742
0.495918 0.577813 0.144808
0.536706 0.583612 0.150668
0.578698 0.589807 0.157076
0.622034 0.596307 0.164309
0.658778 0.596643 0.175326
0.701656 0.599390 0.196201
0.755123 0.608881 0.221927
0.803342 0.614710 0.250370
0.845975 0.618372 0.280644
0.883024 0.621057 0.312627
0.914885 0.624170 0.345830
0.941955 0.628870 0.380163
0.964752 0.636255 0.415869
0.983703 0.647150 0.452918
0.998627 0.662470 0.489570
1.000000 0.681819 0.526177
1.000000 0.704372 0.564477
1.000000 0.728603 0.602808
1.000000 0.754116 0.641047
0.171511 0.605737 0.122347
0.176852 0.605676 0.122530
0.182589 0.603693 0.122438
0.196963 0.603937 0.123018
0.216770 0.604395 0.124453
0.240726 0.605005 0.125978
0.268101 0.605768 0.128115
0.297551 0.606592 0.130190
0.328923 0.607477 0.133181
0.361669 0.608515 0.136660
0.395544 0.609613 0.140261
0.430304 0.610834 0.144533
0.467323 0.614374 0.149081
0.506493 0.619684 0.154391
0.546960 0.625360 0.160433
0.588556 0.631403 0.166873
0.631281 0.637659 0.174380
0.674647 0.644038 0.182376
0.712032 0.644770 0.193881
0.748836 0.642939 0.216922
0.797391 0.649866 0.245365
0.840726 0.653590 0.276555
0.878416 0.655726 0.309178
0.910826 0.657710 0.343145
0.938445 0.660792 0.378363
0.961730 0.666255 0.414893
0.981079 0.674708 0.452705
0.996918 0.687007 0.492042
1.000000 0.703395 0.532738
1.000000 0.723354 0.571160
1.000000 0.745205 0.608972
1.000000 0.768368 0.646632
0.189090 0.652033 0.133730
0.193851 0.651789 0.133852
0.200259 0.651606 0.134035
0.213443 0.651667 0.134615
0.232334 0.651881 0.135958
0.255985 0.652308 0.137514
0.282628 0.652979 0.139376
0.311772 0.653773 0.141817
0.343084 0.654658 0.144533
0.375586 0.655573 0.147890
0.409491 0.656580 0.151492
0.444343 0.657618 0.155764
0.480140 0.658808 0.160678
0.518639 0.663447 0.165988
0.558434 0.668574 0.172244
0.599115 0.673732 0.179294
0.640558 0.679133 0.187076
0.682551 0.684627 0.195590
0.724941 0.690028 0.205020
0.761990 0.690883 0.217227
0.792691 0.684443 0.241703
0.835904 0.688808 0.272404
0.874113 0.690394 0.305882
0.906950 0.691371 0.340703
0.935027 0.692897 0.376654
0.958709 0.696254 0.413733
0.978424 0.702388 0.452155
0.994568 0.712123 0.492103
1.000000 0.725734 0.533471
1.000000 0.742763 0.575372
1.000000 0.762020 0.615412
1.000000 0.782834 0.652338
0.208743 0.698604 0.147097
0.213169 0.698421 0.147463
0.219089 0.698299 0.147585
0.231266 0.698268 0.148318
0.249821 0.698390 0.149355
0.272099 0.698756 0.151003
0.298283 0.699214 0.153140
0.326726 0.699794 0.155612
0.357427 0.700435 0.158480
0.389563 0.701106 0.161776
0.423102 0.701869 0.165682
0.457740 0.702602 0.169924
0.493111 0.703395 0.174685
0.529656 0.705287 0.180148
0.568414 0.709468 0.186862
0.607904 0.713863 0.194369
0.648096 0.718379 0.202274
0.688594 0.722866 0.211276
0.729274 0.727382 0.220920
0.769986 0.731868 0.231388
0.806363 0.732723 0.243992
0.831327 0.722560 0.269169
0.869413 0.724605 0.301823
0.902800 0.724575 0.337530
0.931365 0.724697 0.374456
0.955505 0.726223 0.412299
0.975616 0.730159 0.451453
0.992157 0.737331 0.492042
1.000000 0.748348 0.534142
1.000000 0.762600 0.576257
1.000000 0.779202 0.617334
1.000000 0.797604 0.657130
0.230442 0.742275 0.164187
0.234623 0.742092 0.164370
0.239841 0.741970 0.164492
0.251377 0.741970 0.165194
0.268498 0.741970 0.166415
0.289952 0.742184 0.168032
0.314733 0.742458 0.169955
0.342168 0.742885 0.172671
0.371954 0.743282 0.175509
0.403449 0.743679 0.178988
0.436255 0.744137 0.182773
0.470192 0.744594 0.187167
0.504845 0.745052 0.191958
0.540185 0.745571 0.197482
0.577142 0.747921 0.204013
0.615290 0.751431 0.211673
0.654017 0.754940 0.220157
0.692927 0.758602 0.229068
0.731960 0.762112 0.238834
0.770871 0.765591 0.249485
0.809354 0.769039 0.260807
0.844694 0.769986 0.273716
0.864622 0.756619 0.298772
0.897887 0.756802 0.333074
0.927031 0.755703 0.370733
0.951690 0.755459 0.409461
0.972320 0.757259 0.449409
0.989288 0.762051 0.490578
1.000000 0.770321 0.533196
1.000000 0.781918 0.575799
1.000000 0.796078 0.617395
1.000000 0.812161 0.657527
0.253819 0.781643 0.183780
0.257511 0.781582 0.183902
0.262303 0.781521 0.184207
0.272923 0.781582 0.185031
0.288823 0.781643 0.186160
0.308904 0.781796 0.187930
0.332372 0.781979 0.190005
0.358495 0.782071 0.192691
0.386938 0.782315 0.195590
0.417365 0.782406 0.198825
0.448981 0.782620 0.202884
0.481880 0.782803 0.207187
0.515526 0.783017 0.212131
0.549981 0.783169 0.217380
0.584833 0.783352 0.223239
0.621637 0.785977 0.231174
0.658778 0.788754 0.239719
0.696223 0.791562 0.249027
0.733639 0.794339 0.259068
0.770932 0.797055 0.269749
0.807828 0.799741 0.281285
0.844175 0.802396 0.293370
0.878264 0.803677 0.306981
0.893980 0.788144 0.331518
0.923003 0.786984 0.367437
0.948180 0.785183 0.407080
0.969268 0.785000 0.447883
0.986664 0.787472 0.489967
1.000000 0.793240 0.533288
1.000000 0.802213 0.576379
1.000000 0.813809 0.618311
1.000000 0.827634 0.658808
0.279911 0.818296 0.206973
0.283238 0.818265 0.207156
0.287663 0.818204 0.207218
0.297337 0.818143 0.207980
0.311589 0.818173 0.209293
0.330083 0.818173 0.210880
0.351934 0.818265 0.213107
0.376349 0.818296 0.215579
0.403571 0.818265 0.218570
0.432288 0.818265 0.221958
0.462745 0.818204 0.225986
0.494270 0.818112 0.230350
0.526604 0.818051 0.235172
0.559869 0.817868 0.240726
0.593530 0.817777 0.246464
0.627924 0.818235 0.253330
0.663539 0.820279 0.261997
0.699397 0.822324 0.271366
0.735195 0.824338 0.281621
0.770748 0.826352 0.292424
0.805997 0.828275 0.303960
0.840604 0.830198 0.316106
0.874510 0.832120 0.329168
0.907164 0.833646 0.342870
0.919554 0.816892 0.366949
0.944640 0.814786 0.404639
0.966186 0.812772 0.446265
0.983978 0.813016 0.489204
0.998474 0.816342 0.533227
1.000000 0.822751 0.577020
1.000000 0.831907 0.619257
1.000000 0.843412 0.660151
0.307866 0.850889 0.232212
0.310735 0.850797 0.232395
0.314824 0.850706 0.232639
0.323278 0.850675 0.233463
0.336339 0.850645 0.234623
0.353155 0.850645 0.236301
0.373236 0.850614 0.238437
0.396094 0.850553 0.241001
0.421424 0.850431 0.243992
0.448524 0.850309 0.247532
0.477424 0.850126 0.251621
0.507317 0.849882 0.256016
0.538262 0.849607 0.260838
0.570062 0.849271 0.266300
0.602411 0.848936 0.272343
0.635065 0.848569 0.278782
0.668757 0.849302 0.287022
0.702998 0.850736 0.296544
0.737087 0.852201 0.306676
0.770993 0.853513 0.317418
0.804532 0.854826 0.329076
0.837461 0.856138 0.341222
0.869688 0.857450 0.354314
0.901183 0.858732 0.368109
0.931609 0.860105 0.382666
0.941344 0.842802 0.404578
0.962921 0.840116 0.444404
0.981170 0.838468 0.487770
0.996094 0.839384 0.532769
1.000000 0.843351 0.577081
1.000000 0.850095 0.619928
1.000000 0.859342 0.661280
0.339055 0.880644 0.260594
0.341466 0.880552 0.260838
0.345068 0.880491 0.261051
0.352605 0.880400 0.261875
0.364233 0.880278 0.263066
0.379400 0.880186 0.264714
0.397620 0.880034 0.266880
0.418524 0.879881 0.269444
0.441840 0.879606 0.272465
0.467140 0.879301 0.275914
0.493935 0.878965 0.279820
0.522210 0.878477 0.284215
0.551415 0.878019 0.289128
0.581445 0.877470 0.294377
0.612146 0.876921 0.300389
0.643244 0.876341 0.306828
0.674556 0.875669 0.313939
0.707027 0.876463 0.323278
0.739437 0.877348 0.333379
0.771664 0.878172 0.344305
0.803494 0.878935 0.355871
0.834775 0.879698 0.368170
0.865385 0.880491 0.381079
0.895201 0.881315 0.394751
0.924041 0.882170 0.409339
0.951781 0.883085 0.424598
0.960113 0.866575 0.445045
0.978271 0.863432 0.486458
0.993561 0.862394 0.531365
1.000000 0.863890 0.576501
1.000000 0.868223 0.619989
1.000000 0.875242 0.661860
0.372656 0.907073 0.291386
0.374914 0.906981 0.291661
0.377966 0.906950 0.291905
0.384771 0.906828 0.292699
0.395026 0.906706 0.293889
0.408576 0.906584 0.295628
0.424872 0.906371 0.297673
0.443854 0.906096 0.300267
0.465248 0.905730 0.303349
0.488380 0.905303 0.306645
0.513176 0.904814 0.310613
0.539391 0.904234 0.315007
0.566705 0.903624 0.319890
0.594965 0.902922 0.325353
0.623774 0.902190 0.331273
0.653101 0.901427 0.337682
0.682765 0.900603 0.344671
0.712703 0.900053 0.352789
0.743404 0.900481 0.362921
0.773861 0.900847 0.373816
0.803983 0.901183 0.385321
0.833555 0.901518 0.397620
0.862486 0.901854 0.410620
0.890593 0.902220 0.424353
0.917815 0.902647 0.438758
0.943969 0.903136 0.453956
0.968872 0.903685 0.469947
0.976776 0.889128 0.490059
0.991150 0.885222 0.531426
1.000000 0.884764 0.576043
1.000000 0.886778 0.620142
1.000000 0.891600 0.662745
0.409705 0.930663 0.324987
0.411658 0.930602 0.325292
0.414282 0.930541 0.325658
0.420020 0.930449 0.326238
0.429084 0.930266 0.327367
0.441047 0.930022 0.329107
0.455421 0.929686 0.331090
0.472297 0.929259 0.333501
0.491402 0.928771 0.336339
0.512352 0.928191 0.339635
0.534874 0.927520 0.343420
0.558862 0.926787 0.347509
0.583978 0.925994 0.352270
0.610071 0.925170 0.357549
0.636988 0.924285 0.363439
0.664363 0.923369 0.369909
0.692195 0.922423 0.376928
0.720089 0.921416 0.384497
0.748592 0.921019 0.393896
0.777279 0.921019 0.404669
0.805570 0.920989 0.416236
0.833433 0.920989 0.428504
0.860685 0.920958 0.441352
0.887205 0.920989 0.455024
0.912779 0.921050 0.469490
0.937346 0.921202 0.484657
0.960754 0.921447 0.500328
0.982940 0.921782 0.516777
0.990356 0.909178 0.536248
1.000000 0.904814 0.575402
1.000000 0.905028 0.618860
1.000000 0.907652 0.662287
0.448676 0.951080 0.360327
0.450324 0.951019 0.360540
0.452827 0.950958 0.361059
0.457801 0.950866 0.361730
0.465797 0.950652 0.363012
0.476265 0.950408 0.364660
0.489082 0.950072 0.366766
0.504082 0.949676 0.369238
0.521141 0.949157 0.372168
0.540154 0.948547 0.375647
0.560632 0.947875 0.379492
0.582513 0.947143 0.383795
0.605524 0.946319 0.388769
0.629603 0.945434 0.394202
0.654322 0.944488 0.400092
0.679713 0.943481 0.406744
