cubelut/Landscape10.cube
# Created by Adobe Lightroom plugin Export LUT (1.18.0)
# www.johnrellis.com/lightroom/exportlut.htm
# Preset: Landscape10
# Color profile: /Library/Application Support/Adobe/Color/Profiles/Recommended/AdobeRGB1998.icc
LUT_3D_SIZE 32
0.117647 0.092592 0.096315
0.123110 0.092500 0.096376
0.130434 0.092439 0.096864
0.146639 0.092134 0.097505
0.168093 0.091463 0.098543
0.190829 0.090608 0.099611
0.215457 0.089052 0.100435
0.241520 0.086549 0.101167
0.269047 0.084291 0.101534
0.297917 0.080262 0.101839
0.327916 0.075685 0.102174
0.358801 0.071839 0.102724
0.390539 0.068147 0.103487
0.423102 0.064851 0.104616
0.456031 0.062959 0.105623
0.489357 0.062196 0.106783
0.523156 0.061555 0.107820
0.557275 0.065339 0.109041
0.591791 0.068635 0.110384
0.628656 0.074067 0.111482
0.665370 0.081147 0.113222
0.702083 0.089784 0.114656
0.738338 0.097597 0.116518
0.773098 0.106416 0.119265
0.806394 0.114748 0.122774
0.838468 0.123018 0.127138
0.869596 0.132784 0.132784
0.899901 0.142214 0.139132
0.929534 0.152041 0.147280
0.958587 0.163058 0.157046
0.987121 0.175357 0.168093
1.000000 0.188876 0.181552
0.118013 0.097749 0.097871
0.122652 0.097871 0.096956
0.130953 0.097627 0.096956
0.147005 0.097627 0.098054
0.168399 0.097566 0.098543
0.191012 0.096254 0.099672
0.215610 0.094789 0.100465
0.241520 0.092866 0.101198
0.268986 0.090211 0.101869
0.297917 0.086763 0.102144
0.327703 0.083467 0.102205
0.358618 0.079774 0.102785
0.390295 0.076997 0.103517
0.422705 0.074311 0.104891
0.455634 0.072816 0.105653
0.488899 0.072358 0.107057
0.522637 0.073152 0.108034
0.556786 0.075563 0.109071
0.591211 0.079286 0.110384
0.627832 0.084779 0.111482
0.664454 0.091432 0.112795
0.701076 0.098482 0.114351
0.737240 0.104952 0.116457
0.772061 0.113344 0.118990
0.805386 0.120943 0.122713
0.837522 0.129549 0.127016
0.868742 0.138125 0.132540
0.899138 0.147555 0.139193
0.928862 0.157076 0.147158
0.957977 0.167514 0.156954
0.986542 0.179171 0.167758
1.000000 0.192569 0.181094
0.118471 0.104860 0.100008
0.119478 0.105745 0.097414
0.130037 0.104829 0.097597
0.147555 0.104982 0.098146
0.168734 0.104738 0.098939
0.191562 0.103700 0.100008
0.215854 0.102205 0.100832
0.241611 0.100496 0.101564
0.269078 0.098085 0.101747
0.297856 0.095369 0.101991
0.327703 0.092714 0.102296
0.358465 0.089540 0.103120
0.390112 0.087190 0.103853
0.422583 0.085817 0.104677
0.455268 0.084932 0.106172
0.488624 0.084749 0.107088
0.522423 0.086305 0.108217
0.556390 0.087922 0.109316
0.590936 0.091798 0.110353
0.627497 0.096864 0.111208
0.663996 0.102541 0.113191
0.700587 0.108614 0.114351
0.736721 0.115236 0.116609
0.771542 0.122805 0.118959
0.804929 0.130282 0.122621
0.837064 0.137850 0.126955
0.868254 0.146090 0.132296
0.898711 0.154726 0.139132
0.928466 0.163760 0.146944
0.957610 0.173648 0.156893
0.986206 0.184726 0.167727
1.000000 0.197299 0.181094
0.118685 0.120027 0.104524
0.119234 0.121065 0.101808
0.122499 0.121675 0.098482
0.145754 0.120241 0.099001
0.169680 0.118959 0.099763
0.192233 0.118105 0.100832
0.216464 0.116854 0.101381
0.242191 0.115145 0.101656
0.269566 0.113375 0.102052
0.298100 0.111177 0.102571
0.327764 0.109285 0.103090
0.358495 0.107485 0.103609
0.390051 0.106172 0.104494
0.422278 0.105501 0.105806
0.455207 0.105379 0.106538
0.488411 0.106386 0.107362
0.522087 0.107973 0.108705
0.556146 0.109865 0.109529
0.590845 0.113405 0.110475
0.627100 0.117494 0.112032
0.663325 0.122683 0.113191
0.699672 0.128145 0.114748
0.735897 0.134707 0.116487
0.770809 0.140658 0.119265
0.804379 0.147402 0.122652
0.836698 0.154543 0.126894
0.868070 0.161288 0.132784
0.898558 0.169375 0.139559
0.928374 0.177462 0.147311
0.957519 0.186404 0.156985
0.986023 0.196719 0.167910
1.000000 0.208286 0.181430
0.118959 0.138766 0.111055
0.119783 0.139406 0.108339
0.120577 0.140291 0.104158
0.132692 0.140902 0.100343
0.164767 0.139071 0.100679
0.193515 0.137240 0.101320
0.217472 0.135836 0.101930
0.242985 0.134463 0.102205
0.270054 0.133028 0.102846
0.298314 0.132082 0.103517
0.328008 0.130922 0.103975
0.358556 0.130129 0.104433
0.389990 0.129549 0.105287
0.422248 0.130190 0.105989
0.455024 0.130556 0.107149
0.488289 0.131899 0.108125
0.521965 0.133303 0.109255
0.555993 0.136477 0.110109
0.591058 0.139773 0.111116
0.627070 0.143893 0.112215
0.663172 0.148623 0.113527
0.699397 0.154116 0.114778
0.735531 0.159670 0.116732
0.770382 0.165377 0.119203
0.803922 0.170993 0.122621
0.836301 0.177127 0.127016
0.867643 0.183078 0.133028
0.898192 0.189639 0.139498
0.927977 0.196933 0.147738
0.957122 0.204776 0.157229
0.985657 0.213809 0.168460
1.000000 0.224247 0.182162
0.118868 0.158694 0.118318
0.119478 0.159304 0.115816
0.120424 0.160037 0.112367
0.122225 0.161776 0.103914
0.148775 0.161410 0.101808
0.185763 0.159915 0.101930
0.218936 0.157870 0.102602
0.244236 0.156863 0.103120
0.270878 0.155947 0.103731
0.299168 0.155428 0.104341
0.328435 0.155062 0.104982
0.359167 0.154940 0.105562
0.390326 0.155215 0.106600
0.422553 0.155886 0.107271
0.455238 0.157321 0.108034
0.488472 0.159121 0.109133
0.522087 0.161654 0.110079
0.556146 0.164584 0.110628
0.591547 0.168246 0.111666
0.627405 0.172732 0.112825
0.663386 0.177310 0.113802
0.699641 0.182254 0.115206
0.742153 0.189883 0.117586
0.776699 0.195102 0.120729
0.809689 0.200046 0.124483
0.841520 0.205081 0.129427
0.872313 0.210575 0.135164
0.902281 0.216007 0.142428
0.931640 0.222110 0.150698
0.960327 0.229038 0.160189
0.988403 0.237003 0.171756
1.000000 0.246403 0.185336
0.117464 0.180362 0.126253
0.118318 0.180850 0.123934
0.119081 0.181613 0.120546
0.121065 0.182986 0.113252
0.126558 0.184909 0.102327
0.168399 0.183902 0.102693
0.209140 0.182773 0.103731
0.246494 0.181369 0.104463
0.273106 0.180789 0.105257
0.301183 0.180880 0.105989
0.330632 0.181064 0.106508
0.361120 0.181643 0.106996
0.392218 0.182559 0.107851
0.424384 0.184115 0.108370
0.456977 0.185733 0.109255
0.490059 0.187991 0.110231
0.523491 0.191073 0.110780
0.558068 0.194522 0.111482
0.593622 0.198764 0.112276
0.629511 0.203037 0.113283
0.665919 0.208194 0.114534
0.702754 0.213291 0.115602
0.739254 0.218936 0.117678
0.774533 0.223728 0.120394
0.808164 0.228367 0.124727
0.840391 0.232975 0.129519
0.871427 0.237583 0.135744
0.901488 0.242588 0.142763
0.930877 0.247654 0.151064
0.959564 0.253574 0.161227
0.987671 0.260410 0.172732
1.000000 0.268589 0.186038
0.116030 0.202670 0.134707
0.116854 0.202976 0.132937
0.117556 0.203647 0.130007
0.119356 0.204959 0.123171
0.122011 0.206943 0.111330
0.144533 0.208072 0.103700
0.190249 0.207492 0.104677
0.233158 0.206912 0.105867
0.274388 0.206332 0.107424
0.302403 0.206607 0.107881
0.331518 0.207401 0.108278
0.361669 0.208591 0.108644
0.392859 0.210239 0.109133
0.424811 0.212100 0.109773
0.457282 0.214481 0.110903
0.490272 0.217350 0.111055
0.523949 0.220645 0.111635
0.558648 0.224765 0.112520
0.593866 0.228977 0.113008
0.629480 0.234012 0.113802
0.665614 0.238712 0.115267
0.702113 0.244236 0.116152
0.738613 0.249302 0.118166
0.773709 0.254063 0.121004
0.807309 0.258427 0.124880
0.839506 0.262547 0.130190
0.870512 0.266575 0.136202
0.900664 0.270848 0.143221
0.930083 0.275273 0.151766
0.958770 0.280400 0.161898
0.986938 0.286351 0.173648
1.000000 0.293431 0.187594
0.114595 0.226017 0.144411
0.115145 0.226505 0.142611
0.116091 0.227085 0.140108
0.117952 0.228031 0.133913
0.120516 0.229984 0.123659
0.124117 0.232456 0.107332
0.165866 0.232792 0.105440
0.213748 0.232792 0.106325
0.258793 0.232853 0.107759
0.303471 0.234501 0.109499
0.332952 0.234653 0.110201
0.362951 0.236362 0.110414
0.393957 0.238529 0.110933
0.425635 0.240940 0.111391
0.457923 0.243931 0.111940
0.490974 0.247318 0.112490
0.524987 0.251408 0.112978
0.559472 0.255619 0.113497
0.594324 0.260288 0.113802
0.629755 0.265110 0.114931
0.665644 0.270481 0.115511
0.702113 0.275669 0.116915
0.738338 0.281041 0.118563
0.773220 0.285588 0.121340
0.806760 0.289647 0.125521
0.838865 0.293156 0.130678
0.869902 0.296941 0.136477
0.900023 0.300511 0.143801
0.929412 0.304387 0.152499
0.958129 0.308598 0.162936
0.986297 0.313787 0.174838
1.000000 0.319860 0.188846
0.112032 0.250553 0.154757
0.112398 0.250889 0.152987
0.113161 0.251438 0.150515
0.114992 0.252445 0.144991
0.117586 0.254185 0.135744
0.121096 0.256382 0.121187
0.132387 0.258610 0.105745
0.189151 0.259190 0.106325
0.238926 0.259800 0.107698
0.285313 0.260655 0.109743
0.333013 0.264622 0.110994
0.364202 0.264591 0.112490
0.394995 0.267308 0.112856
0.426429 0.270359 0.113130
0.459174 0.273991 0.113527
0.492592 0.278264 0.113710
0.526482 0.282658 0.113954
0.560693 0.287266 0.114687
0.595300 0.292363 0.114748
0.630457 0.297276 0.115541
0.666102 0.302770 0.116152
0.702144 0.307958 0.117250
0.738003 0.313115 0.118685
0.772610 0.317479 0.122011
0.805844 0.321294 0.126192
0.837919 0.324681 0.131258
0.868986 0.327825 0.137240
0.899199 0.331060 0.144533
0.928679 0.334264 0.153902
0.957519 0.338109 0.164187
0.985748 0.342504 0.176547
1.000000 0.347875 0.190738
0.107698 0.275914 0.165469
0.108309 0.276219 0.163943
0.108797 0.276707 0.161685
0.110811 0.277714 0.156313
0.113527 0.279240 0.147921
0.117037 0.281468 0.135103
0.121462 0.284276 0.116487
0.155337 0.286076 0.105867
0.213993 0.287205 0.107118
0.265171 0.288548 0.108797
0.312993 0.290379 0.111086
0.362524 0.295689 0.112703
0.396460 0.296788 0.114900
0.428382 0.300603 0.114992
0.460914 0.304906 0.115114
0.493874 0.309453 0.115541
0.527489 0.314122 0.115389
0.561395 0.319219 0.115480
0.595911 0.324376 0.115572
0.630793 0.329625 0.116335
0.666316 0.335271 0.116548
0.702113 0.340673 0.117830
0.737850 0.345769 0.119539
0.772274 0.350195 0.122530
0.805417 0.353765 0.126680
0.837400 0.356786 0.132113
0.868376 0.359472 0.138582
0.898558 0.362341 0.145968
0.927977 0.365118 0.155306
0.956786 0.368292 0.165957
0.985046 0.372045 0.178439
1.000000 0.376776 0.193393
0.101198 0.302434 0.176577
0.101839 0.302770 0.175143
0.103029 0.303105 0.173068
0.104799 0.304021 0.168276
0.107698 0.305547 0.160464
0.111208 0.307622 0.148623
0.115938 0.310216 0.131960
0.121065 0.313390 0.107057
0.181216 0.315007 0.106172
0.240330 0.316747 0.107332
0.292546 0.319158 0.109682
0.341894 0.322423 0.111910
0.394018 0.330510 0.114839
0.433753 0.334997 0.116915
0.466346 0.339696 0.116884
0.499428 0.344640 0.116732
0.533074 0.349798 0.116823
0.566888 0.355016 0.117006
0.601129 0.360357 0.116854
0.635767 0.365881 0.117098
0.670832 0.371191 0.117617
0.706355 0.376471 0.118959
0.741360 0.381292 0.121035
0.775204 0.385229 0.123903
0.807858 0.388312 0.128450
0.839445 0.391058 0.133883
0.870085 0.393256 0.140841
0.899901 0.395392 0.148898
0.929046 0.397650 0.158267
0.957641 0.400244 0.169039
0.985626 0.403326 0.182254
1.000000 0.407324 0.197024
0.092714 0.330602 0.188754
0.093050 0.331060 0.187289
0.094148 0.331304 0.185183
0.096162 0.332189 0.180636
0.099123 0.333562 0.173251
0.103456 0.335424 0.162936
0.108431 0.337774 0.147738
0.114076 0.340703 0.126040
0.133852 0.343603 0.104738
0.208103 0.346319 0.105837
0.268376 0.349767 0.107515
0.322362 0.353674 0.109895
0.373327 0.358373 0.112947
0.422797 0.363745 0.116793
0.467414 0.371283 0.118837
0.500298 0.376715 0.118379
0.533654 0.382177 0.118227
0.567315 0.387610 0.117769
0.601312 0.393225 0.117769
0.635828 0.398779 0.117830
0.670680 0.404486 0.118074
0.705989 0.409796 0.119265
0.740719 0.414557 0.121065
0.774441 0.418311 0.124483
0.807004 0.421271 0.129000
0.838499 0.423621 0.134951
0.869078 0.425818 0.141665
0.898894 0.427588 0.149996
0.928069 0.429328 0.159945
0.956664 0.431373 0.171450
0.984710 0.434028 0.184604
1.000000 0.437415 0.199985
0.080964 0.358770 0.201022
0.081666 0.359075 0.199374
0.082399 0.359442 0.197513
0.085023 0.360204 0.193515
0.088808 0.361456 0.186740
0.093233 0.363287 0.176730
0.098604 0.365820 0.162875
0.104799 0.368963 0.143984
0.111910 0.372656 0.116182
0.163210 0.375555 0.103853
0.236637 0.379217 0.105165
0.296910 0.383459 0.107424
0.351568 0.388373 0.109957
0.403418 0.393957 0.113161
0.453468 0.400183 0.117098
0.501244 0.409033 0.119600
0.534203 0.414771 0.119234
0.567681 0.420600 0.119081
0.601526 0.426276 0.118685
0.635798 0.432105 0.118288
0.670497 0.437873 0.119142
0.705715 0.443427 0.119844
0.740383 0.448127 0.122103
0.773892 0.451972 0.125185
0.806332 0.454749 0.130037
0.837736 0.456916 0.136110
0.868315 0.458564 0.143526
0.898131 0.460029 0.151797
0.927276 0.461555 0.162051
0.955901 0.463111 0.173617
0.983948 0.465278 0.187900
1.000000 0.468177 0.203342
0.062135 0.388342 0.213718
0.062745 0.388769 0.212345
0.064942 0.388952 0.210727
0.067811 0.389837 0.206729
0.072694 0.391150 0.200229
0.078065 0.392889 0.191165
0.085451 0.395117 0.178653
0.092927 0.397955 0.161593
0.100649 0.401312 0.137484
0.110475 0.405432 0.101686
0.194034 0.408606 0.102235
0.265507 0.413123 0.104097
0.325566 0.418311 0.106081
0.380865 0.424140 0.108980
0.433326 0.430671 0.112459
0.484169 0.437659 0.117067
0.535027 0.447883 0.120424
0.568353 0.453986 0.119966
0.601953 0.459907 0.119509
0.636011 0.465858 0.118898
0.670527 0.471626 0.119356
0.705562 0.477272 0.120089
0.739925 0.482033 0.122377
0.773373 0.485634 0.126009
0.805661 0.488258 0.131167
0.837095 0.490211 0.137545
0.867735 0.491646 0.144900
0.897612 0.492866 0.154574
0.926879 0.494057 0.164797
0.955566 0.495430 0.177249
0.983734 0.497230 0.191684
1.000000 0.499702 0.208286
0.007111 0.418738 0.227115
0.007813 0.419074 0.225681
0.012268 0.419348 0.223880
0.021485 0.420172 0.220249
0.035676 0.421332 0.214267
0.052491 0.423041 0.205600
0.063996 0.425238 0.193942
0.073671 0.428046 0.178256
0.084535 0.431373 0.157015
0.094789 0.435187 0.126528
0.130404 0.438544 0.098451
0.224765 0.443091 0.099886
0.294438 0.448280 0.101534
0.354681 0.454108 0.104250
0.410132 0.460639 0.107149
0.463020 0.467872 0.111574
0.514366 0.475776 0.116548
0.568078 0.488075 0.119539
0.602380 0.493782 0.120211
0.636408 0.499947 0.120058
0.670924 0.505943 0.120180
0.705867 0.511681 0.121431
0.740200 0.516320 0.123415
0.773373 0.519829 0.127352
0.805631 0.522301 0.132418
0.836973 0.524041 0.139437
0.867491 0.525292 0.147494
0.897368 0.526207 0.156893
0.926574 0.527062 0.168368
0.955169 0.527977 0.181247
0.983246 0.529229 0.195895
1.000000 0.531151 0.213077
0.000000 0.449226 0.240238
0.000000 0.449439 0.239170
0.000000 0.449775 0.237308
0.000000 0.450507 0.233829
0.000000 0.451728 0.228061
0.000000 0.453285 0.220249
0.000122 0.455360 0.209171
0.027893 0.457984 0.194705
0.058808 0.461128 0.175601
0.073701 0.464698 0.149447
0.087098 0.469032 0.110109
0.166293 0.472541 0.094759
0.255009 0.477913 0.096284
0.323339 0.483894 0.098421
0.383673 0.490578 0.101472
0.439246 0.497932 0.104677
0.492561 0.505943 0.109377
0.544823 0.514824 0.114992
0.600702 0.529229 0.117647
0.636652 0.534051 0.120729
0.671077 0.540215 0.120607
0.705806 0.545922 0.121492
0.739834 0.550469 0.124361
0.772915 0.553857 0.128542
0.805112 0.556207 0.133944
0.836332 0.557671 0.141268
0.866850 0.558709 0.150179
0.896757 0.559289 0.160037
0.925963 0.559808 0.171847
0.954559 0.560449 0.185122
0.982635 0.561303 0.200473
1.000000 0.562860 0.218143
0.000000 0.480385 0.253880
0.000000 0.480659 0.252781
0.000000 0.484077 0.252689
0.000000 0.484779 0.249058
0.000000 0.485878 0.243534
0.000000 0.487343 0.235721
0.000000 0.489296 0.225742
0.000000 0.491615 0.212131
0.000000 0.494514 0.194125
0.008789 0.498085 0.171054
0.053101 0.502068 0.137789
0.087068 0.506371 0.089387
0.201907 0.510582 0.089601
0.286473 0.516686 0.090913
0.354131 0.523644 0.093538
0.414160 0.531121 0.096407
0.470527 0.539330 0.100954
0.524407 0.547784 0.105989
0.577264 0.556756 0.112703
0.635340 0.572656 0.115846
0.672847 0.576349 0.121889
0.707271 0.581842 0.122896
0.741024 0.586023 0.125765
0.773709 0.589044 0.130404
0.805478 0.590814 0.136660
0.836393 0.591882 0.144167
0.866667 0.592401 0.152956
0.896239 0.592554 0.163912
0.925322 0.592706 0.175967
0.953887 0.592859 0.189792
0.981933 0.593378 0.205783
1.000000 0.594415 0.224277
0.000000 0.513725 0.268345
0.000000 0.514336 0.267338
0.000000 0.515099 0.266087
0.000000 0.516197 0.263127
0.000000 0.517632 0.257969
0.000000 0.519219 0.250736
0.000000 0.521202 0.241032
0.000000 0.523552 0.228031
0.000000 0.526513 0.211978
0.000000 0.529900 0.190921
0.000000 0.533898 0.162264
0.000000 0.538323 0.119142
0.114809 0.542016 0.080720
0.236454 0.548180 0.080842
0.316777 0.555047 0.083528
0.383520 0.562341 0.086915
0.443671 0.570245 0.090608
0.499794 0.578637 0.096010
0.554314 0.587457 0.102480
0.607721 0.596612 0.110750
0.668208 0.614008 0.113375
0.707179 0.616327 0.123812
0.740688 0.620386 0.127016
0.773373 0.623102 0.132204
0.804990 0.624750 0.138857
0.835874 0.625635 0.146792
0.866087 0.625910 0.156497
0.895659 0.625757 0.167849
0.924712 0.625513 0.180667
0.953246 0.625330 0.195010
0.981231 0.625422 0.211521
1.000000 0.626093 0.230900
0.000000 0.547875 0.283207
0.000000 0.548516 0.282170
0.000000 0.549340 0.281041
0.000000 0.550439 0.278264
0.000000 0.551812 0.273320
0.000000 0.553460 0.266361
0.000000 0.555322 0.257115
0.000000 0.557702 0.244968
0.000000 0.560571 0.229923
0.000000 0.563806 0.210300
0.000000 0.567742 0.184421
0.000000 0.572076 0.148684
0.000000 0.576837 0.088472
0.160037 0.580804 0.068055
0.269474 0.587427 0.069642
0.347417 0.594476 0.072786
0.413214 0.602167 0.077211
0.473182 0.610285 0.082887
0.529625 0.618738 0.090639
0.584619 0.627741 0.098604
0.638819 0.636988 0.108492
0.701228 0.655360 0.112276
0.740597 0.654963 0.128634
0.773037 0.657374 0.134371
0.804623 0.658717 0.141512
0.835386 0.659266 0.150332
0.865476 0.659144 0.160830
0.894987 0.658747 0.172213
0.923980 0.658137 0.185855
0.952453 0.657588 0.200961
0.980407 0.657374 0.218082
1.000000 0.657588 0.237736
0.000000 0.583764 0.298833
0.000000 0.584283 0.297734
0.000000 0.585046 0.296666
0.000000 0.586145 0.293675
0.000000 0.587396 0.289036
0.000000 0.588983 0.282414
0.000000 0.590845 0.273564
0.000000 0.593103 0.262364
0.000000 0.595697 0.247623
0.000000 0.598901 0.229618
0.000000 0.602625 0.206027
0.000000 0.606653 0.175021
0.000000 0.611170 0.128695
0.000000 0.615686 0.043580
0.203281 0.620569 0.043519
0.302464 0.627497 0.049683
0.377905 0.634943 0.059449
0.443214 0.643061 0.066072
0.503288 0.651545 0.074800
0.560266 0.660395 0.085084
0.615747 0.669245 0.096071
0.670588 0.677913 0.108919
0.732479 0.693874 0.116732
0.774228 0.692958 0.138460
0.805722 0.694026 0.146242
0.836393 0.694179 0.155642
0.866392 0.693721 0.166964
0.895781 0.692866 0.179538
0.924681 0.691890 0.193423
0.953002 0.690913 0.209049
0.980835 0.690211 0.226993
1.000000 0.690028 0.247593
0.000000 0.622065 0.315618
0.000000 0.622522 0.314672
0.000000 0.622889 0.313603
0.000000 0.623713 0.310582
0.000000 0.624811 0.305760
0.000000 0.626215 0.299321
0.000000 0.627955 0.290837
0.000000 0.630091 0.279881
0.000000 0.632746 0.266239
0.000000 0.635859 0.249332
0.000000 0.639429 0.227878
0.000000 0.643366 0.199435
0.000000 0.647761 0.160586
0.000000 0.652491 0.096834
0.067323 0.656153 0.000000
0.242283 0.662409 0.000000
0.335149 0.669520 0.006226
0.408911 0.677028 0.022217
0.473548 0.684901 0.047364
0.533410 0.692866 0.066011
0.590356 0.700801 0.081483
0.645777 0.708461 0.096407
0.700557 0.715877 0.112947
0.760098 0.728115 0.126009
0.805325 0.727718 0.150423
0.835904 0.727565 0.160403
0.865812 0.726833 0.172274
0.895171 0.725643 0.185397
0.923949 0.724300 0.200137
0.952270 0.722927 0.216526
0.980011 0.721798 0.234989
1.000000 0.721187 0.256535
0.000000 0.659693 0.332036
0.000000 0.660121 0.331334
0.000000 0.660609 0.330144
0.000000 0.661280 0.327428
0.000000 0.662379 0.322881
0.000000 0.663691 0.316686
0.000000 0.665309 0.308232
0.000000 0.667353 0.297978
0.000000 0.669917 0.284886
0.000000 0.672724 0.268650
0.000000 0.676143 0.248692
0.000000 0.679927 0.222873
0.000000 0.684077 0.189517
0.000000 0.688594 0.139986
0.000000 0.693507 0.000000
0.141543 0.697353 0.000000
0.279332 0.703700 0.000000
0.367071 0.710475 0.000000
0.439155 0.717525 0.000000
0.503044 0.724727 0.023316
0.562280 0.731899 0.063111
0.619257 0.738888 0.082887
0.674678 0.745663 0.102327
0.729458 0.751949 0.121340
0.786160 0.760006 0.137453
0.834531 0.761044 0.164462
0.864897 0.759274 0.178042
0.894194 0.757809 0.191745
0.922942 0.756130 0.206729
0.951202 0.754421 0.223911
0.978973 0.752926 0.243198
1.000000 0.752010 0.265385
0.000000 0.699611 0.350225
0.000000 0.700038 0.349493
0.000000 0.700404 0.348241
0.000000 0.701045 0.345312
0.000000 0.701991 0.340887
0.000000 0.703120 0.334813
0.000000 0.704585 0.327062
0.000000 0.706386 0.316716
0.000000 0.708492 0.304265
0.000000 0.711086 0.288701
0.000000 0.714046 0.269688
0.000000 0.717342 0.246006
0.000000 0.721096 0.215427
0.000000 0.725093 0.174044
0.000000 0.729427 0.107820
0.000000 0.733394 0.000000
0.196933 0.737545 0.000000
0.314885 0.743252 0.000000
0.398352 0.749447 0.000000
0.468421 0.755764 0.000000
0.531365 0.762173 0.015320
0.590295 0.768429 0.065126
0.646998 0.774472 0.089662
0.702235 0.780056 0.111940
0.756558 0.785153 0.133181
0.811917 0.790951 0.153475
0.863096 0.793881 0.180423
0.893584 0.790005 0.199496
0.922210 0.787869 0.215122
0.950378 0.785794 0.232517
0.978058 0.783932 0.252720
1.000000 0.782589 0.275731
0.000000 0.737575 0.367559
0.000000 0.737972 0.366827
0.000000 0.738399 0.365454
0.000000 0.738979 0.363043
0.000000 0.739773 0.358709
0.000000 0.740841 0.352789
0.000000 0.742153 0.345098
0.000000 0.743801 0.335180
0.000000 0.745876 0.323125
0.000000 0.748287 0.308659
0.000000 0.751064 0.290806
0.000000 0.754208 0.268467
0.000000 0.757656 0.241154
0.000000 0.761349 0.205203
0.000000 0.765408 0.154513
0.000000 0.769741 0.028840
0.000000 0.772732 0.000000
0.243931 0.777432 0.000000
0.349401 0.782589 0.000000
0.429328 0.788052 0.000000
0.497688 0.793576 0.000000
0.559960 0.799069 0.030091
0.618524 0.804379 0.076387
0.674769 0.809323 0.102724
0.729793 0.813809 0.127230
0.784054 0.817716 0.149996
0.837888 0.821134 0.172946
0.891417 0.825620 0.200931
0.922026 0.819760 0.224582
0.950072 0.817197 0.242893
0.977691 0.815000 0.263828
1.000000 0.813230 0.287785
0.000000 0.775418 0.385290
0.000000 0.775753 0.384375
0.000000 0.776028 0.383429
0.000000 0.776486 0.380652
0.000000 0.777188 0.376562
0.000000 0.778103 0.370855
0.000000 0.779294 0.363348
0.000000 0.780789 0.353735
0.000000 0.782620 0.342290
0.000000 0.784817 0.328374
0.000000 0.787350 0.311345
0.000000 0.790280 0.290745
0.000000 0.793423 0.265690
0.000000 0.796933 0.233616
0.000000 0.800656 0.191562
0.000000 0.804593 0.126131
0.000000 0.808865 0.000000
0.114076 0.811337 0.000000
0.285954 0.815640 0.000000
0.382788 0.820218 0.000000
0.459419 0.824918 0.000000
0.526513 0.829587 0.000000
0.587854 0.834104 0.062379
0.645869 0.838346 0.094942
0.701930 0.842222 0.121492
0.756619 0.845579 0.146120
0.810575 0.848447 0.170138
0.864042 0.850736 0.194247
0.918791 0.855589 0.224094
0.949340 0.847837 0.253696
0.976928 0.845182 0.275212
1.000000 0.843015 0.299687
0.000000 0.812253 0.402930
0.000000 0.812497 0.402136
0.000000 0.812772 0.401038
0.000000 0.813230 0.398627
0.000000 0.813901 0.394507
0.000000 0.814878 0.389044
0.000000 0.816190 0.381933
0.000000 0.817868 0.373144
0.000000 0.819821 0.362371
0.000000 0.822141 0.349187
0.000000 0.824765 0.333257
0.000000 0.827726 0.314122
0.000000 0.830869 0.290929
0.000000 0.834226 0.262333
0.000000 0.837797 0.225406
0.000000 0.841489 0.174533
0.000000 0.845457 0.082734
0.000000 0.848814 0.000000
0.192172 0.851499 0.000000
0.326421 0.855070 0.000000
0.416541 0.858793 0.000000
0.490669 0.862608 0.000000
0.556237 0.866209 0.046937
0.616968 0.869657 0.091127
0.674647 0.872709 0.120668
0.730343 0.875364 0.147677
0.784787 0.877623 0.172610
0.838407 0.879332 0.197299
0.891325 0.880522 0.223148
0.947265 0.885863 0.254520
0.977447 0.876188 0.290227
1.000000 0.873411 0.315984
0.000000 0.850523 0.422156
0.000000 0.850736 0.421424
0.000000 0.850919 0.420294
0.000000 0.851316 0.417914
0.000000 0.851865 0.414038
0.000000 0.852659 0.408545
0.000000 0.853727 0.401801
0.000000 0.855131 0.393317
0.000000 0.856809 0.382696
0.000000 0.858732 0.370031
0.000000 0.860929 0.354894
0.000000 0.863462 0.337011
0.000000 0.866239 0.315190
0.000000 0.869169 0.288853
0.000000 0.872343 0.256291
0.000000 0.875792 0.214389
