cubelut/Landscape8.cube
# Created by Adobe Lightroom plugin Export LUT (1.18.0)
# www.johnrellis.com/lightroom/exportlut.htm
# Preset: Landscape8
# Color profile: /Library/Application Support/Adobe/Color/Profiles/Recommended/AdobeRGB1998.icc
LUT_3D_SIZE 32
0.110872 0.101137 0.108827
0.111849 0.101198 0.109010
0.116976 0.101228 0.109957
0.130983 0.101808 0.112062
0.148348 0.104707 0.114839
0.165743 0.107576 0.118013
0.184634 0.110506 0.121157
0.204898 0.113527 0.124941
0.227695 0.116274 0.128725
0.253025 0.119051 0.132815
0.281254 0.121950 0.136873
0.312047 0.125216 0.141512
0.345251 0.128634 0.146639
0.380987 0.132753 0.152499
0.419196 0.137942 0.159457
0.459907 0.143801 0.167056
0.502586 0.150729 0.175479
0.546746 0.158480 0.184268
0.591394 0.167178 0.193790
0.637079 0.177218 0.204685
0.682429 0.189090 0.216403
0.727199 0.202701 0.229770
0.770932 0.218845 0.244877
0.811765 0.238041 0.262333
0.849577 0.259586 0.282170
0.884123 0.284489 0.304234
0.915129 0.312200 0.329198
0.942870 0.342657 0.356512
0.967468 0.376532 0.387213
0.989227 0.413489 0.420233
1.000000 0.454231 0.456886
1.000000 0.499031 0.497292
0.111391 0.102571 0.109133
0.113375 0.102968 0.109285
0.118532 0.103975 0.110140
0.133089 0.105898 0.111910
0.150210 0.108400 0.114473
0.167697 0.111086 0.117891
0.186496 0.113863 0.121004
0.206760 0.116670 0.125002
0.229679 0.119448 0.128756
0.255131 0.122377 0.132967
0.283635 0.125185 0.137148
0.314397 0.128603 0.141756
0.347936 0.132174 0.146944
0.384039 0.136873 0.153140
0.422675 0.141756 0.159731
0.463783 0.148104 0.167605
0.506615 0.155032 0.176181
0.550652 0.162783 0.185336
0.595636 0.171664 0.194827
0.641321 0.181704 0.205356
0.686427 0.193515 0.217411
0.730983 0.207248 0.231022
0.774350 0.223606 0.246098
0.814755 0.242405 0.263706
0.852140 0.264195 0.283604
0.886290 0.288853 0.306065
0.916899 0.316258 0.331273
0.944366 0.346746 0.358679
0.968719 0.380255 0.388830
0.990234 0.417182 0.422309
1.000000 0.457893 0.459144
1.000000 0.502434 0.499580
0.114199 0.107973 0.110597
0.117067 0.108400 0.110933
0.121920 0.109895 0.110872
0.134554 0.112215 0.112428
0.152071 0.114199 0.114778
0.170108 0.116121 0.117403
0.188571 0.118288 0.121340
0.209049 0.120882 0.124941
0.231846 0.123873 0.129030
0.257359 0.126589 0.133028
0.285679 0.129793 0.137514
0.316991 0.133089 0.142031
0.350378 0.136995 0.147341
0.386664 0.141573 0.153445
0.425391 0.146883 0.160525
0.466468 0.153140 0.168185
0.509514 0.160403 0.176516
0.553521 0.168399 0.185824
0.598657 0.177310 0.195193
0.644007 0.187381 0.206119
0.688991 0.199222 0.218082
0.733394 0.212497 0.231724
0.776394 0.228733 0.246891
0.816464 0.247288 0.264744
0.853666 0.268742 0.284916
0.887572 0.293126 0.307073
0.918029 0.320256 0.332097
0.945251 0.350439 0.359777
0.969390 0.383825 0.390295
0.990753 0.420447 0.423651
1.000000 0.460822 0.460487
1.000000 0.505486 0.501274
0.121859 0.120882 0.114168
0.125612 0.121065 0.114870
0.130770 0.121401 0.115297
0.140627 0.124331 0.114107
0.154299 0.125338 0.116609
0.171969 0.127657 0.119326
0.191501 0.128908 0.122072
0.212680 0.130556 0.125277
0.235447 0.132998 0.129000
0.261082 0.136019 0.133089
0.289433 0.139132 0.137697
0.320714 0.142702 0.142458
0.354223 0.146853 0.148104
0.390448 0.152041 0.154086
0.429358 0.157351 0.161044
0.470619 0.164096 0.168917
0.513664 0.171389 0.177127
0.557977 0.179355 0.186526
0.603174 0.188479 0.196201
0.648493 0.198459 0.207156
0.693416 0.210117 0.219089
0.737514 0.223514 0.232670
0.779873 0.239170 0.248539
0.819181 0.257115 0.266056
0.855589 0.277714 0.285893
0.888792 0.301152 0.307927
0.918730 0.327153 0.332982
0.945678 0.356451 0.360357
0.969726 0.389014 0.390661
0.991058 0.425025 0.424109
1.000000 0.465248 0.461585
1.000000 0.509392 0.502312
0.132509 0.135744 0.119966
0.135714 0.135958 0.120607
0.140017 0.136110 0.121248
0.149081 0.137758 0.121584
0.161532 0.141299 0.120394
0.175540 0.141512 0.122347
0.194705 0.143648 0.124727
0.215946 0.146029 0.127382
0.239963 0.148013 0.130404
0.266789 0.150484 0.133883
0.295567 0.153658 0.138003
0.326635 0.157687 0.142977
0.360327 0.162203 0.148623
0.396551 0.167391 0.154757
0.435096 0.173220 0.161959
0.475776 0.180026 0.169711
0.518456 0.187472 0.177920
0.562341 0.195407 0.186954
0.607172 0.204562 0.196841
0.652247 0.214420 0.207919
0.696925 0.225864 0.220005
0.740871 0.238987 0.233463
0.782742 0.253941 0.249485
0.821653 0.270970 0.266880
0.857511 0.290532 0.286748
0.890318 0.312810 0.309209
0.919951 0.337896 0.334112
0.946624 0.366094 0.361975
0.970550 0.397742 0.392218
0.991669 0.433082 0.426123
1.000000 0.472328 0.463325
1.000000 0.515862 0.504326
0.142641 0.150607 0.125978
0.145418 0.150637 0.126436
0.149203 0.151003 0.127016
0.157290 0.151369 0.128359
0.169223 0.155245 0.127535
0.183413 0.159182 0.126406
0.198184 0.159579 0.128084
0.219272 0.162051 0.130434
0.243046 0.165835 0.132998
0.269932 0.169131 0.136416
0.299657 0.172457 0.139834
0.331792 0.176516 0.144381
0.366125 0.181064 0.149355
0.402167 0.186435 0.155642
0.440528 0.192599 0.162509
0.481117 0.199466 0.170382
0.523339 0.207034 0.178683
0.566735 0.215305 0.187808
0.611048 0.224155 0.197177
0.655604 0.234043 0.207828
0.699611 0.245060 0.220279
0.742977 0.257359 0.233799
0.766171 0.262455 0.241855
0.806882 0.278080 0.259068
0.844694 0.296086 0.278080
0.879393 0.316716 0.300206
0.910887 0.340185 0.324773
0.939147 0.366705 0.352270
0.964477 0.396918 0.382544
0.986877 0.430640 0.416083
1.000000 0.468910 0.453529
1.000000 0.511803 0.495064
0.152377 0.164706 0.131746
0.154757 0.164889 0.132021
0.157961 0.165133 0.132418
0.165103 0.165377 0.133516
0.175387 0.166171 0.135134
0.189395 0.172549 0.132876
0.204807 0.176883 0.132082
0.220218 0.177432 0.133211
0.243168 0.180972 0.135927
0.269108 0.185580 0.138949
0.297642 0.191257 0.142061
0.329229 0.195590 0.146029
0.363317 0.200595 0.150881
0.400366 0.206363 0.155764
0.440162 0.212894 0.161868
0.480720 0.220127 0.169406
0.522850 0.227970 0.177890
0.566064 0.236210 0.186526
0.609888 0.244877 0.196170
0.653254 0.254154 0.206790
0.695857 0.264225 0.218235
0.737392 0.275151 0.231357
0.777188 0.287358 0.245457
0.814664 0.301030 0.262394
0.849882 0.317144 0.281102
0.882963 0.335790 0.302800
0.913542 0.357763 0.327459
0.941283 0.382818 0.354742
0.966094 0.411597 0.385534
0.988190 0.444343 0.419623
1.000000 0.481117 0.456855
1.000000 0.522911 0.498634
0.163912 0.181399 0.137881
0.166049 0.181704 0.138430
0.169039 0.181765 0.138827
0.175296 0.182315 0.139681
0.185061 0.183108 0.141207
0.197330 0.185916 0.142031
0.214481 0.194095 0.139559
0.231266 0.198978 0.139010
0.248203 0.200198 0.139651
0.273930 0.204868 0.142611
0.302403 0.210666 0.145815
0.333593 0.217624 0.149447
0.367651 0.224643 0.153780
0.404700 0.230991 0.158785
0.444587 0.238193 0.164950
0.486519 0.245884 0.171450
0.530266 0.254002 0.178500
0.573816 0.262181 0.187259
0.617182 0.270909 0.196902
0.660090 0.280156 0.207553
0.702052 0.290043 0.219364
0.743221 0.300450 0.232334
0.782345 0.312047 0.246983
0.819181 0.324926 0.263798
0.853758 0.339666 0.283268
0.886290 0.357244 0.305058
0.916197 0.377630 0.329747
0.943450 0.401251 0.357794
0.967834 0.428473 0.388586
0.989563 0.459480 0.422431
1.000000 0.495094 0.460426
1.000000 0.535302 0.502251
0.176486 0.199710 0.145113
0.178683 0.199863 0.145327
0.181277 0.200259 0.145968
0.187381 0.200717 0.146639
0.196139 0.201480 0.148226
0.207706 0.202579 0.150057
0.222568 0.208560 0.149355
0.242374 0.218051 0.146639
0.260563 0.223423 0.146242
0.278202 0.225071 0.146761
0.306889 0.231388 0.149508
0.337957 0.238285 0.152895
0.371862 0.246769 0.157229
0.408759 0.256321 0.161685
0.448188 0.264775 0.167941
0.490059 0.273198 0.174685
0.533532 0.281865 0.181735
0.578058 0.290654 0.189517
0.622705 0.299413 0.198001
0.666163 0.308354 0.207584
0.707698 0.317815 0.219577
0.748287 0.327550 0.232853
0.786770 0.338415 0.248203
0.823056 0.350286 0.265171
0.857115 0.364233 0.284642
0.889036 0.380194 0.306828
0.918517 0.399176 0.331853
0.945312 0.421149 0.359930
0.969390 0.446693 0.391089
0.990753 0.476326 0.425666
1.000000 0.510338 0.463905
1.000000 0.549126 0.506157
0.190616 0.219883 0.152560
0.192325 0.220035 0.152773
0.195193 0.220340 0.153079
0.200687 0.220951 0.154116
0.209110 0.221897 0.155428
0.220096 0.223026 0.157290
0.233341 0.224674 0.159335
0.251133 0.233951 0.157534
0.273594 0.245121 0.154635
0.292973 0.250950 0.154025
0.311437 0.252628 0.154726
0.343297 0.260960 0.156893
0.377173 0.269413 0.161196
0.413458 0.279026 0.166171
0.452399 0.289952 0.171328
0.493324 0.301183 0.177310
0.536187 0.310246 0.184543
0.580041 0.319493 0.192020
0.624201 0.328588 0.200626
0.667903 0.337591 0.210208
0.711208 0.347021 0.220859
0.753140 0.356542 0.233249
0.791714 0.366888 0.248661
0.827604 0.378088 0.266728
0.861387 0.390936 0.286564
0.892699 0.405768 0.309514
0.921477 0.423041 0.334600
0.947570 0.443244 0.362860
0.971038 0.466926 0.394354
0.991943 0.494484 0.428748
1.000000 0.526635 0.467231
1.000000 0.563256 0.509209
0.205936 0.242100 0.160647
0.207736 0.242405 0.160830
0.210056 0.242710 0.161257
0.215640 0.243198 0.161929
0.223514 0.243992 0.163149
0.233982 0.245151 0.165011
0.246647 0.246677 0.167086
0.262058 0.250828 0.168093
0.282200 0.261723 0.165805
0.307469 0.274479 0.162325
0.327794 0.280735 0.162325
0.346685 0.282353 0.162936
0.382300 0.293217 0.164523
0.418494 0.303075 0.169924
0.457069 0.314122 0.175540
0.497688 0.326085 0.181521
0.540032 0.338476 0.187778
0.583490 0.349920 0.194827
0.627466 0.359472 0.203799
0.670863 0.368658 0.213596
0.713802 0.378149 0.224491
0.755337 0.387518 0.237186
0.794553 0.397131 0.251621
0.831144 0.407080 0.268070
0.864622 0.418555 0.287785
0.895476 0.432044 0.311101
0.923766 0.447791 0.336980
0.949462 0.466529 0.365545
0.972595 0.488563 0.397467
0.993164 0.514275 0.432258
1.000000 0.544579 0.470924
1.000000 0.579431 0.513207
0.221958 0.265415 0.168917
0.223697 0.265568 0.169070
0.226078 0.265812 0.169467
0.230961 0.266361 0.170108
0.238621 0.267185 0.171359
0.248539 0.268284 0.172976
0.260899 0.269780 0.174899
0.275090 0.271489 0.177249
0.292729 0.279118 0.177096
0.315557 0.291600 0.174380
0.343206 0.305821 0.170565
0.364446 0.312261 0.170840
0.373266 0.305364 0.169741
0.411109 0.318517 0.170718
0.448341 0.329442 0.176638
0.487892 0.341314 0.182528
0.529412 0.354101 0.188815
0.572412 0.367315 0.195865
0.616083 0.380957 0.203189
0.660182 0.391791 0.212589
0.703670 0.401862 0.223789
0.746395 0.412177 0.236240
0.786923 0.422248 0.251041
0.824704 0.432441 0.268009
0.859922 0.443275 0.287022
0.892271 0.455238 0.308690
0.921660 0.469215 0.333715
0.947814 0.486305 0.362890
0.971313 0.506676 0.395209
0.992157 0.530785 0.430732
1.000000 0.559289 0.469734
1.000000 0.592462 0.512810
0.236271 0.286168 0.176150
0.237980 0.286381 0.176425
0.240269 0.286900 0.176638
0.245212 0.287602 0.177554
0.252567 0.288853 0.178805
0.262425 0.290379 0.180362
0.274235 0.292058 0.182345
0.287907 0.293858 0.184787
0.303349 0.295659 0.187411
0.323644 0.307256 0.185306
0.348058 0.320653 0.182376
0.376867 0.335393 0.178286
0.397742 0.341375 0.178775
0.415503 0.341772 0.180484
0.455970 0.356817 0.180331
0.494636 0.368414 0.186648
0.535515 0.381048 0.193393
0.578088 0.394385 0.200565
0.621363 0.407996 0.207980
0.664912 0.421668 0.217166
0.707851 0.434974 0.227512
0.750057 0.445045 0.240818
0.790097 0.454902 0.256016
0.827420 0.464668 0.273533
0.862028 0.474952 0.293309
0.893980 0.486122 0.315648
0.923186 0.498878 0.340551
0.949615 0.513817 0.368505
0.973419 0.531579 0.399329
0.993805 0.553765 0.435187
1.000000 0.580346 0.474708
1.000000 0.611322 0.517723
0.254063 0.312078 0.185367
0.255772 0.312261 0.185367
0.257939 0.312688 0.185702
0.262577 0.313481 0.186435
0.269810 0.314672 0.187686
0.279210 0.316197 0.189334
0.290776 0.317845 0.191287
0.304082 0.319646 0.193668
0.318975 0.321599 0.196292
0.336339 0.326574 0.197726
0.358953 0.339788 0.195285
0.385931 0.354742 0.191592
0.417121 0.371344 0.187442
0.439033 0.377630 0.188724
0.458686 0.379370 0.190890
0.501244 0.396307 0.190341
0.541894 0.409064 0.197330
0.584100 0.422492 0.204898
0.626825 0.435981 0.212863
0.669673 0.449592 0.222385
0.712245 0.463142 0.232853
0.753567 0.476570 0.245487
0.792752 0.487861 0.260563
0.829496 0.497078 0.278599
0.863615 0.506554 0.299138
0.895048 0.517021 0.322393
0.923827 0.528801 0.347753
0.949920 0.542626 0.376349
0.973358 0.559106 0.407599
0.994110 0.578790 0.442115
1.000000 0.602319 0.480201
1.000000 0.630457 0.522210
0.272465 0.338506 0.194278
0.273899 0.338598 0.194644
0.275883 0.339025 0.194949
0.280400 0.339879 0.195834
0.287419 0.341039 0.196872
0.296696 0.342657 0.198367
0.307805 0.344335 0.200381
0.320470 0.346197 0.202701
0.335180 0.348089 0.205020
0.351049 0.349981 0.208164
0.371099 0.359136 0.207645
0.396063 0.373877 0.205081
0.425025 0.390387 0.201511
0.458259 0.408392 0.197360
0.481819 0.415808 0.199283
0.503563 0.418982 0.202060
0.547570 0.437476 0.200778
0.589593 0.450996 0.208560
0.631769 0.464393 0.217258
0.674189 0.477943 0.227543
0.716335 0.491371 0.238804
0.757168 0.504509 0.251804
0.795682 0.517021 0.266697
0.831540 0.529229 0.284337
0.865110 0.538537 0.305272
0.895964 0.548028 0.328588
0.924132 0.558679 0.354986
0.949645 0.571221 0.383825
0.972595 0.586023 0.415229
0.992981 0.603998 0.449714
1.000000 0.625574 0.487617
1.000000 0.650507 0.527886
0.291020 0.365393 0.203799
0.292454 0.365545 0.203922
0.294255 0.365759 0.204227
0.298528 0.366491 0.204837
0.304967 0.367498 0.206058
0.313695 0.368750 0.207431
0.324224 0.370275 0.209018
0.336461 0.372045 0.211093
0.350530 0.373846 0.213687
0.365972 0.375891 0.216526
0.383093 0.377996 0.219608
0.406531 0.392523 0.217929
0.434119 0.409216 0.215030
0.465949 0.427863 0.211734
0.501457 0.447700 0.207980
0.526848 0.456489 0.210544
0.550286 0.460945 0.213962
0.594446 0.479500 0.212955
0.636744 0.493477 0.221439
0.678370 0.506493 0.232090
0.719661 0.519493 0.243809
0.759609 0.532097 0.257359
0.797360 0.543999 0.273106
0.832700 0.555444 0.291020
0.865507 0.566979 0.311254
0.895811 0.578302 0.334112
0.923613 0.587884 0.360723
0.948852 0.599298 0.390265
0.971618 0.612970 0.422553
0.991791 0.629664 0.457923
1.000000 0.649836 0.496498
1.000000 0.673182 0.536980
0.310307 0.393256 0.213443
0.311650 0.393530 0.213626
0.313634 0.393805 0.213809
0.317571 0.394507 0.214603
0.323644 0.395483 0.215640
0.332097 0.396765 0.216983
0.342107 0.398199 0.218784
0.354009 0.399847 0.220706
0.367681 0.401770 0.223117
0.382849 0.403723 0.225742
0.399542 0.406012 0.228641
0.418921 0.412116 0.230655
0.444800 0.428656 0.228580
0.474556 0.447028 0.225834
0.508873 0.467536 0.222263
0.545953 0.488624 0.219303
0.572625 0.498268 0.222354
0.597375 0.503624 0.226902
0.639612 0.520867 0.227848
0.683009 0.536248 0.236606
0.723903 0.548943 0.249119
0.763058 0.560937 0.263737
0.800198 0.572229 0.280064
0.834897 0.583124 0.298802
0.867124 0.593774 0.319646
0.896788 0.604822 0.342870
0.923888 0.616693 0.368963
0.948638 0.628321 0.398138
0.971008 0.640711 0.431250
0.990906 0.656062 0.467201
1.000000 0.674464 0.505699
1.000000 0.695918 0.546258
0.329503 0.421241 0.222904
0.330632 0.421180 0.223056
0.327703 0.414862 0.221012
0.331518 0.415503 0.221653
0.337591 0.416632 0.222599
0.345342 0.417975 0.223911
0.355169 0.419715 0.225742
0.366766 0.421607 0.227604
0.379980 0.423804 0.230045
0.394781 0.426093 0.232670
0.410986 0.428534 0.235660
0.428717 0.431403 0.239109
0.451331 0.443000 0.239689
0.479652 0.461402 0.237705
0.511833 0.481819 0.235294
0.548638 0.504387 0.231632
0.587091 0.526604 0.229435
0.614099 0.536522 0.234012
0.639033 0.542077 0.239597
0.679164 0.557946 0.242588
0.723690 0.574914 0.251957
0.762783 0.586847 0.267247
0.799710 0.597894 0.284581
0.834379 0.608484 0.303990
0.866667 0.618952 0.325963
0.896483 0.629755 0.350774
0.923705 0.641199 0.377661
0.948302 0.653864 0.407599
0.970367 0.668086 0.439979
0.989990 0.682551 0.476814
1.000000 0.699336 0.515618
1.000000 0.719020 0.556298
0.348272 0.448859 0.232181
0.348974 0.448157 0.231998
0.349981 0.447456 0.231815
0.352972 0.447303 0.232334
0.358404 0.447669 0.232822
0.365698 0.448798 0.234318
0.375189 0.450385 0.235874
0.386389 0.452308 0.237797
0.399390 0.454566 0.240116
0.413825 0.456886 0.242802
0.429908 0.459571 0.245792
0.447395 0.462440 0.249058
0.466560 0.466011 0.252811
0.493294 0.483680 0.251835
0.524102 0.504204 0.250126
0.559106 0.526635 0.247654
0.597314 0.550225 0.244480
0.635676 0.572198 0.243565
0.662074 0.581353 0.249760
0.686519 0.586389 0.256474
0.723507 0.599908 0.262211
0.766415 0.616480 0.273289
0.802548 0.626703 0.291386
0.836484 0.636408 0.311772
0.868101 0.646052 0.334600
0.897276 0.655848 0.359655
0.924010 0.666407 0.387549
0.948211 0.678157 0.417975
0.969909 0.691493 0.451392
0.989136 0.706966 0.487465
1.000000 0.723903 0.525292
1.000000 0.741878 0.566247
0.370245 0.481270 0.242710
0.370794 0.480568 0.242466
0.371862 0.479927 0.242374
0.374701 0.479835 0.242771
0.379980 0.480232 0.243381
0.387243 0.481300 0.244633
0.396429 0.482979 0.246311
0.407477 0.484932 0.248295
0.420294 0.487098 0.250370
0.434546 0.489631 0.253147
0.450416 0.492439 0.256138
0.467781 0.495613 0.259342
0.486641 0.499214 0.263157
0.508873 0.507408 0.265904
0.538506 0.527855 0.264805
0.571221 0.549615 0.263401
0.606989 0.572412 0.261570
0.645502 0.596063 0.259464
0.683192 0.617090 0.260105
0.708553 0.625208 0.267460
0.731716 0.629297 0.276249
0.763973 0.639307 0.285039
0.804990 0.655390 0.297734
0.838224 0.664302 0.318944
0.869352 0.672999 0.342718
0.898070 0.682063 0.368872
0.924346 0.691737 0.397681
0.948241 0.702571 0.429053
0.969574 0.715053 0.463233
0.988525 0.729397 0.499702
1.000000 0.745602 0.537499
1.000000 0.764157 0.577508
0.393530 0.515984 0.253605
0.394110 0.515251 0.253330
0.395026 0.514672 0.253391
0.397955 0.514549 0.253696
0.403113 0.514977 0.254490
0.410101 0.516136 0.255680
0.419257 0.517693 0.257084
0.430121 0.519799 0.259068
0.442695 0.522210 0.261326
0.456947 0.524834 0.264012
0.472541 0.527825 0.267033
0.489845 0.531121 0.270420
0.508629 0.534752 0.274235
0.528862 0.538872 0.278538
0.554437 0.552728 0.280003
0.584955 0.573480 0.279667
0.618189 0.595148 0.278721
0.653712 0.617334 0.277379
0.691249 0.639765 0.276005
0.726802 0.658747 0.278233
0.749416 0.664515 0.287419
0.770291 0.666773 0.297551
0.797971 0.673396 0.308385
0.836912 0.689052 0.323125
0.867491 0.696895 0.347082
0.895872 0.704952 0.373877
0.921996 0.713649 0.402808
0.945739 0.723537 0.434699
0.967102 0.734920 0.469368
0.986145 0.748074 0.505913
1.000000 0.763180 0.544244
1.000000 0.780331 0.584100
0.415686 0.549218 0.263737
0.416571 0.549096 0.263798
0.417700 0.548943 0.263951
0.421088 0.549310 0.264317
0.426184 0.550195 0.265415
0.433295 0.551537 0.266697
0.442176 0.553094 0.268162
0.452674 0.555077 0.270085
0.464912 0.557244 0.272374
0.478614 0.559594 0.275029
0.493996 0.562432 0.278080
0.510796 0.565454 0.281346
0.529198 0.568902 0.285161
0.548821 0.572839 0.289708
0.569970 0.577264 0.294621
0.598505 0.596338 0.295140
0.629572 0.617151 0.295323
0.662959 0.638605 0.295079
0.698054 0.660060 0.295232
0.734188 0.681056 0.295201
0.767727 0.698421 0.299901
0.788540 0.702632 0.311315
0.807919 0.704158 0.323827
0.831907 0.708309 0.337560
0.868803 0.723934 0.355169
0.896727 0.731044 0.382910
0.922362 0.738857 0.413184
0.945708 0.747646 0.445777
0.966674 0.758053 0.481331
0.985534 0.770016 0.518181
1.000000 0.783841 0.556481
1.000000 0.799741 0.596490
0.441169 0.587274 0.276493
0.442145 0.587030 0.276371
0.443305 0.586908 0.276463
0.446418 0.587182 0.276921
0.451423 0.587976 0.277897
0.458503 0.589258 0.279149
0.467109 0.591028 0.280919
0.477424 0.592981 0.283055
0.489631 0.595117 0.285222
0.503136 0.597498 0.287999
0.518090 0.600183 0.291264
0.534600 0.603113 0.294713
0.552483 0.606470 0.298711
0.571862 0.610163 0.303227
0.592462 0.614252 0.308354
0.615778 0.622675 0.312505
0.644984 0.642481 0.313390
0.675837 0.662562 0.314580
0.708064 0.682551 0.315801
0.741268 0.702083 0.317235
0.775326 0.721035 0.318914
0.806363 0.736172 0.325963
0.824643 0.738552 0.339483
0.842008 0.738888 0.353796
0.863737 0.742458 0.372198
0.897795 0.757290 0.393561
0.923278 0.764492 0.424689
0.946166 0.772335 0.458442
0.966796 0.781582 0.494453
0.985290 0.792325 0.531579
1.000000 0.804807 0.570001
1.000000 0.819303 0.609735
0.465614 0.623011 0.289128
0.466407 0.622766 0.289006
0.467720 0.622675 0.289189
0.470680 0.623163 0.289830
0.475868 0.624048 0.290684
0.482673 0.625513 0.292088
0.491218 0.627314 0.294133
0.501579 0.629511 0.296239
0.513542 0.631830 0.298985
0.527001 0.634516 0.301946
0.542046 0.637446 0.305333
0.558282 0.640558 0.309239
0.576074 0.644007 0.313603
0.595148 0.647791 0.318425
0.615595 0.652033 0.323857
0.637201 0.656580 0.329900
0.662776 0.669795 0.333776
0.691585 0.688777 0.336248
0.721279 0.707332 0.338842
0.751797 0.725338 0.341680
0.782895 0.742855 0.344640
0.814603 0.759701 0.348058
0.843168 0.773037 0.358373
0.859312 0.773922 0.374212
0.874968 0.773739 0.391211
0.891508 0.773587 0.409247
0.922332 0.787503 0.435584
0.946075 0.795804 0.469642
0.966522 0.804013 0.506310
0.984833 0.813626 0.543816
1.000000 0.824918 0.582513
1.000000 0.838010 0.622339
0.493812 0.663325 0.305089
0.494301 0.662989 0.305180
0.495583 0.662959 0.305394
0.498665 0.663386 0.305913
0.503502 0.664240 0.306859
0.510124 0.665583 0.308476
0.518425 0.667201 0.310430
0.528344 0.669123 0.312749
0.539940 0.671229 0.315373
0.552911 0.673518 0.318608
0.567376 0.676112 0.322026
0.583093 0.678767 0.325963
0.600153 0.681727 0.330449
0.618494 0.685054 0.335424
0.638087 0.688716 0.341283
0.658747 0.692622 0.347448
0.680323 0.696773 0.354345
0.706508 0.713283 0.358038
0.733822 0.730343 0.361791
0.761807 0.747036 0.365728
0.790463 0.763180 0.370062
0.819577 0.778836 0.374884
0.849119 0.793973 0.380346
0.875029 0.805386 0.393133
0.889158 0.805356 0.411322
0.902983 0.804501 0.430396
0.916320 0.802914 0.450263
0.943816 0.815885 0.480323
0.965606 0.824949 0.515801
0.983734 0.833341 0.553765
0.999786 0.843351 0.592615
1.000000 0.855070 0.632227
0.521996 0.702602 0.323369
0.522820 0.702419 0.323400
0.523949 0.702510 0.323705
0.527092 0.703029 0.324407
0.531853 0.703944 0.325566
0.538293 0.705257 0.327306
0.546349 0.706813 0.329412
0.556054 0.708553 0.331823
0.567102 0.710475 0.334813
0.579583 0.712459 0.338201
0.593530 0.714656 0.341894
0.608637 0.717037 0.346014
0.624994 0.719539 0.350774
0.642573 0.722438 0.356085
0.661372 0.725643 0.362188
0.681239 0.729152 0.368841
0.701961 0.732845 0.376287
0.724117 0.739681 0.383093
0.749203 0.755337 0.388128
0.774929 0.770657 0.393194
0.801114 0.785489 0.398718
0.827756 0.799863 0.404852
0.854673 0.813718 0.411505
0.881682 0.827054 0.418952
0.904631 0.836484 0.435126
0.916930 0.835752 0.455390
0.928832 0.834470 0.476173
0.940337 0.832761 0.497078
0.963531 0.843900 0.529046
0.983307 0.853727 0.565576
0.999207 0.862455 0.604883
1.000000 0.872892 0.644373
0.552117 0.742245 0.345769
0.552819 0.742184 0.346014
0.554101 0.742275 0.346166
0.557000 0.742672 0.346868
0.561303 0.743313 0.348180
0.567376 0.744137 0.349676
0.574701 0.744991 0.351537
0.583459 0.745937 0.353796
0.593439 0.746975 0.356512
0.604761 0.748104 0.359380
0.617456 0.749294 0.362799
0.631373 0.750820 0.366735
0.646540 0.752560 0.371283
0.663111 0.754665 0.376440
0.680720 0.757198 0.382422
0.699580 0.760128 0.389288
0.719326 0.763363 0.396918
0.739620 0.766690 0.405188
0.761807 0.776486 0.412024
0.785428 0.790494 0.418097
0.809384 0.804105 0.424720
0.833921 0.817411 0.431617
0.858549 0.830198 0.439490
0.883452 0.842618 0.447852
0.908354 0.854551 0.456977
0.928557 0.862272 0.475593
0.939300 0.861173 0.496559
0.949645 0.859648 0.517723
0.959503 0.857877 0.539178
0.979156 0.867491 0.571923
0.997192 0.878141 0.610040
1.000000 0.887388 0.650019
0.579919 0.777005 0.369055
0.580713 0.777005 0.369268
0.582025 0.777188 0.369574
0.584863 0.777646 0.370459
0.589197 0.778378 0.371954
0.595087 0.779263 0.373816
0.602228 0.780301 0.376165
0.610773 0.781430 0.378729
0.620691 0.782620 0.381842
0.631861 0.783963 0.385473
0.644312 0.785428 0.389532
0.657954 0.787076 0.394079
0.672755 0.788937 0.399298
0.688746 0.791012 0.405310
0.705745 0.793362 0.411933
0.723720 0.795926 0.419318
