cubelut/Landscape9.cube
# Created by Adobe Lightroom plugin Export LUT (1.18.0)
# www.johnrellis.com/lightroom/exportlut.htm
# Preset: Landscape9
# Color profile: /Library/Application Support/Adobe/Color/Profiles/Recommended/AdobeRGB1998.icc
LUT_3D_SIZE 32
0.021393 0.019074 0.023835
0.021393 0.019074 0.023835
0.039246 0.019532 0.026581
0.073701 0.024964 0.037446
0.095888 0.038056 0.050416
0.118257 0.053803 0.059876
0.142519 0.064363 0.065400
0.169558 0.072908 0.069368
0.199771 0.081910 0.074067
0.232609 0.091798 0.079194
0.268101 0.102327 0.085115
0.305364 0.114443 0.091676
0.344518 0.127687 0.099428
0.385657 0.142367 0.108705
0.428260 0.158938 0.119173
0.472419 0.176333 0.130922
0.517723 0.195041 0.143679
0.563775 0.214847 0.157473
0.609888 0.235080 0.172122
0.655299 0.256138 0.187839
0.699580 0.277562 0.204868
0.742397 0.299687 0.223545
0.783352 0.322454 0.243992
0.821622 0.345922 0.266545
0.856657 0.369909 0.290990
0.887694 0.394690 0.317723
0.914244 0.420050 0.346227
0.936584 0.446235 0.376776
0.955138 0.473610 0.409155
0.970459 0.502434 0.443397
0.982940 0.533074 0.479774
0.992798 0.565972 0.518334
0.021393 0.019074 0.023835
0.021210 0.020264 0.023743
0.044190 0.022248 0.026246
0.075990 0.034455 0.034333
0.097871 0.049012 0.046052
0.119814 0.060731 0.056855
0.144289 0.069215 0.063600
0.171267 0.077760 0.067994
0.201511 0.086641 0.073091
0.234562 0.096254 0.078553
0.270054 0.106813 0.084749
0.307561 0.118990 0.091188
0.346929 0.132174 0.099367
0.388159 0.147127 0.108522
0.431067 0.163088 0.119112
0.475380 0.180667 0.131106
0.520806 0.199374 0.144045
0.566949 0.218997 0.157870
0.613153 0.239200 0.172641
0.658473 0.260105 0.188357
0.702541 0.281376 0.205417
0.745144 0.303288 0.224186
0.785855 0.325994 0.244907
0.823819 0.349187 0.267552
0.858457 0.372992 0.292088
0.889220 0.397620 0.318914
0.915465 0.422644 0.347387
0.937469 0.448798 0.378119
0.955810 0.475959 0.410437
0.970977 0.504631 0.444770
0.983337 0.535119 0.480995
0.993133 0.567864 0.519615
0.020630 0.043885 0.021851
0.024048 0.047730 0.021424
0.053559 0.048219 0.020539
0.078981 0.055024 0.026764
0.100252 0.061372 0.038788
0.121889 0.067689 0.052277
0.146181 0.075227 0.060700
0.173159 0.083864 0.066072
0.203372 0.092775 0.071931
0.236423 0.102052 0.077729
0.271855 0.112795 0.083864
0.309453 0.124514 0.090608
0.348791 0.137667 0.098726
0.390173 0.152407 0.108064
0.433021 0.168399 0.118837
0.477485 0.185702 0.130770
0.522972 0.204379 0.143771
0.569085 0.223911 0.157717
0.615290 0.243900 0.172427
0.660365 0.264469 0.188266
0.704311 0.285588 0.205539
0.746700 0.307195 0.224216
0.787198 0.329686 0.244999
0.825010 0.352483 0.267643
0.859495 0.376165 0.292454
0.890043 0.400427 0.319158
0.916106 0.425269 0.347875
0.937957 0.451118 0.378485
0.956237 0.478035 0.410834
0.971283 0.506554 0.445197
0.983581 0.536797 0.481453
0.993286 0.569421 0.520165
0.018830 0.077241 0.016083
0.034638 0.077516 0.015595
0.062470 0.076692 0.014832
0.083772 0.076661 0.013153
0.104707 0.077607 0.019287
0.125765 0.083040 0.037598
0.149813 0.088869 0.051759
0.176425 0.096498 0.062989
0.206394 0.104738 0.069459
0.239292 0.114107 0.075319
0.274693 0.124453 0.081758
0.312200 0.135927 0.088869
0.351598 0.149020 0.096925
0.392889 0.163302 0.106783
0.435859 0.178836 0.117311
0.480262 0.196017 0.129610
0.525780 0.214115 0.142824
0.572045 0.233341 0.156710
0.618219 0.253086 0.171817
0.663355 0.273259 0.187747
0.707271 0.294011 0.205081
0.749447 0.315282 0.224125
0.789548 0.336980 0.244968
0.826749 0.359228 0.267582
0.860685 0.382116 0.292088
0.890745 0.405493 0.318730
0.916472 0.429603 0.347143
0.938201 0.454810 0.377752
0.956359 0.481239 0.410101
0.971435 0.509209 0.444434
0.983734 0.539208 0.480964
0.993469 0.571618 0.519921
0.023560 0.100740 0.008545
0.048493 0.100343 0.008026
0.066865 0.100130 0.007202
0.088746 0.099550 0.005524
0.109957 0.100069 0.003967
0.132326 0.101625 0.012024
0.155367 0.107362 0.037049
0.181521 0.115389 0.057130
0.211551 0.122713 0.065064
0.244236 0.131868 0.071351
0.279423 0.141726 0.078279
0.316777 0.153048 0.085725
0.356085 0.165621 0.094423
0.397070 0.179446 0.104097
0.439612 0.194491 0.115175
0.483680 0.210880 0.127260
0.528771 0.228397 0.140597
0.574609 0.246830 0.154665
0.620539 0.265965 0.169772
0.665492 0.285527 0.185855
0.709224 0.305516 0.203372
0.751308 0.326177 0.222629
0.791165 0.347265 0.243534
0.828183 0.368750 0.266300
0.861784 0.390661 0.290990
0.891569 0.413275 0.317723
0.917113 0.436591 0.346288
0.938720 0.460853 0.376837
0.956817 0.486580 0.409308
0.971801 0.513939 0.443854
0.984039 0.543236 0.480446
0.993744 0.575036 0.519463
0.040192 0.124269 0.004761
0.059785 0.123934 0.005310
0.072541 0.123751 0.004517
0.093416 0.123476 0.004852
0.115053 0.123812 0.005310
0.136873 0.125032 0.005707
0.161868 0.127901 0.010437
0.187442 0.134554 0.036988
0.216617 0.144411 0.057954
0.249027 0.153323 0.065400
0.283818 0.163027 0.072999
0.320928 0.173678 0.081117
0.359808 0.185702 0.090089
0.400610 0.199039 0.100282
0.442908 0.213565 0.111360
0.486702 0.229191 0.123720
0.531426 0.246098 0.137179
0.576867 0.263859 0.151369
0.622339 0.282017 0.166537
0.666896 0.300786 0.182681
0.710231 0.320043 0.200381
0.752041 0.339513 0.219760
0.777951 0.351080 0.232700
0.816434 0.371893 0.255192
0.851804 0.393256 0.279637
0.883421 0.415015 0.306218
0.910796 0.437629 0.334905
0.933867 0.461189 0.365759
0.953155 0.486061 0.398566
0.969177 0.512566 0.433326
0.982208 0.541161 0.470314
0.992645 0.572381 0.509941
0.055329 0.147341 0.006226
0.066773 0.147250 0.005615
0.077760 0.147127 0.005921
0.096986 0.146914 0.006287
0.120851 0.146670 0.006622
0.141543 0.148165 0.007813
0.164065 0.150027 0.008850
0.190585 0.154025 0.007904
0.218601 0.161746 0.035370
0.249790 0.172183 0.054688
0.283787 0.184451 0.065492
0.319951 0.194369 0.073793
0.358190 0.205783 0.083375
0.398596 0.218509 0.093538
0.440833 0.232670 0.104829
0.484504 0.247990 0.117433
0.529198 0.264317 0.131014
0.574609 0.281346 0.145205
0.619684 0.298772 0.160403
0.663600 0.316442 0.176547
0.706081 0.334234 0.193912
0.746731 0.352178 0.212558
0.785245 0.370428 0.232670
0.821530 0.389014 0.254612
0.855100 0.408301 0.278599
0.885588 0.428443 0.304906
0.912261 0.449561 0.333623
0.934966 0.471809 0.364477
0.954040 0.495399 0.397467
0.969879 0.520836 0.432532
0.982849 0.548272 0.469581
0.993194 0.578546 0.509422
0.066682 0.174502 0.007568
0.075257 0.174563 0.006867
0.085634 0.174563 0.007019
0.104005 0.174472 0.007263
0.126955 0.174594 0.006165
0.150637 0.175113 0.007111
0.172457 0.177218 0.008667
0.196384 0.179934 0.009552
0.223575 0.184237 0.010529
0.255741 0.193820 0.024842
0.289189 0.205173 0.047639
0.325231 0.218601 0.063172
0.363592 0.232151 0.074159
0.403662 0.244327 0.085298
0.445624 0.258000 0.097383
0.489052 0.272740 0.110475
0.533623 0.288518 0.124483
0.578759 0.304936 0.139406
0.623590 0.321630 0.154788
0.667201 0.338476 0.171633
0.709407 0.355291 0.189456
0.749813 0.372259 0.208560
0.788113 0.389380 0.229068
0.824094 0.406867 0.251591
0.857298 0.424872 0.275822
0.887388 0.443732 0.302556
0.913695 0.463386 0.331456
0.936095 0.484108 0.362524
0.954925 0.506340 0.395697
0.970611 0.530297 0.430854
0.983459 0.556573 0.468208
0.993683 0.585565 0.508171
0.077333 0.204105 0.007416
0.085023 0.204135 0.006683
0.094453 0.204105 0.006806
0.111879 0.204196 0.006806
0.134279 0.204288 0.006622
0.158999 0.204471 0.005158
0.182284 0.206058 0.005158
0.205570 0.208896 0.004273
0.230838 0.212100 0.003662
0.258610 0.216342 0.000092
0.293767 0.227604 0.008087
0.329290 0.239933 0.031464
0.367407 0.254459 0.058259
0.407965 0.271153 0.073213
0.449744 0.285344 0.086885
0.492927 0.299565 0.101015
0.537255 0.314611 0.115724
0.582238 0.330602 0.131014
0.626612 0.346502 0.147341
0.669947 0.362524 0.164675
0.711849 0.378515 0.183017
0.752102 0.394324 0.202609
0.790249 0.410285 0.223911
0.825986 0.426551 0.246677
0.858946 0.443275 0.271580
0.888792 0.460578 0.298741
0.914794 0.478706 0.327977
0.936980 0.497902 0.359411
0.955688 0.518456 0.392798
0.971283 0.540978 0.428321
0.984039 0.565789 0.465980
0.994263 0.593408 0.506157
0.087678 0.235386 0.000000
0.094575 0.235477 0.000183
0.103273 0.235630 0.000000
0.120119 0.235721 0.000000
0.141787 0.235935 0.000000
0.166506 0.236149 0.000000
0.192935 0.236393 0.000000
0.215885 0.239200 0.000000
0.240696 0.242527 0.000000
0.267094 0.246281 0.000000
0.295354 0.250340 0.000000
0.333501 0.263401 0.000000
0.371008 0.276738 0.007904
0.410834 0.292302 0.043305
0.452827 0.309850 0.068605
0.496498 0.328344 0.087221
0.540093 0.342626 0.103151
0.584466 0.357671 0.119875
0.628443 0.372778 0.136995
0.671595 0.387945 0.155337
0.713649 0.403204 0.174594
0.754116 0.418311 0.195285
0.792508 0.433448 0.217258
0.828275 0.448676 0.241123
0.861204 0.464088 0.266758
0.890654 0.479866 0.294438
0.916289 0.496284 0.324041
0.938079 0.513542 0.355718
0.956512 0.532311 0.389410
0.971893 0.552911 0.424811
0.984558 0.575860 0.462531
0.994720 0.601678 0.502770
0.096803 0.268864 0.000000
0.103365 0.268864 0.000000
0.112001 0.268956 0.000000
0.128206 0.269047 0.000000
0.149813 0.269139 0.000000
0.174136 0.269291 0.000000
0.200534 0.269444 0.000000
0.226658 0.270451 0.000000
0.250767 0.273716 0.000000
0.276799 0.277531 0.000000
0.304387 0.281834 0.000000
0.332921 0.285710 0.000000
0.373663 0.300389 0.000000
0.413275 0.314977 0.000000
0.454658 0.331487 0.013184
0.498085 0.349889 0.060426
0.542901 0.369635 0.084260
0.587884 0.387427 0.104768
0.631495 0.401801 0.123995
0.674403 0.416114 0.143740
0.716152 0.430396 0.164309
0.756313 0.444434 0.185946
0.794400 0.458412 0.208927
0.829953 0.472206 0.233555
0.862608 0.486091 0.259892
0.891844 0.500298 0.288304
0.917235 0.515007 0.318608
0.938933 0.530510 0.350835
0.957244 0.547448 0.384863
0.972564 0.566217 0.420783
0.985199 0.587396 0.458839
0.995331 0.611536 0.499397
0.105928 0.302953 0.000000
0.112337 0.302983 0.000000
0.120485 0.303044 0.000000
0.136172 0.303044 0.000000
0.157321 0.303166 0.000000
0.181643 0.303258 0.000000
0.207950 0.303380 0.000000
0.235599 0.303441 0.000000
0.261082 0.305425 0.000000
0.286564 0.309178 0.000000
0.313573 0.313420 0.000000
0.342199 0.318242 0.000000
0.362402 0.314244 0.000000
0.404578 0.330053 0.000000
0.445045 0.345464 0.000000
0.487282 0.362768 0.000000
0.531426 0.381750 0.037507
0.576837 0.401984 0.076783
0.622583 0.422858 0.102663
0.666316 0.438361 0.125338
0.708797 0.452399 0.147219
0.749844 0.466224 0.170321
0.788937 0.479713 0.194369
0.825528 0.493019 0.220066
0.859068 0.506004 0.247349
0.889067 0.518944 0.276524
0.915129 0.532189 0.307561
0.937377 0.546075 0.340459
0.956207 0.561303 0.375158
0.971954 0.578241 0.411749
0.984924 0.597620 0.450507
0.995361 0.619837 0.491463
0.114443 0.333623 0.000000
0.120027 0.333806 0.000000
0.127718 0.334020 0.000000
0.142885 0.334356 0.000000
0.163729 0.334874 0.000000
0.187625 0.335485 0.000000
0.213962 0.335790 0.000000
0.241398 0.336034 0.000000
0.269902 0.335912 0.000000
0.294652 0.339208 0.000000
0.320500 0.342931 0.000000
0.347662 0.346868 0.000000
0.376287 0.351354 0.000000
0.404059 0.354162 0.000000
0.447120 0.370123 0.000000
0.489021 0.386542 0.000000
0.532677 0.404578 0.000000
0.577783 0.424048 0.000000
0.623377 0.444221 0.068177
0.668605 0.464576 0.101472
0.712337 0.483497 0.130770
0.753048 0.496223 0.156252
0.791867 0.508629 0.182437
0.828092 0.520470 0.209751
0.861295 0.532006 0.238254
0.890898 0.543267 0.268376
0.916655 0.554650 0.300389
0.938598 0.566613 0.334142
0.957244 0.579736 0.369360
0.972808 0.594659 0.406470
0.985687 0.611841 0.445441
0.996063 0.631983 0.486885
0.123079 0.369818 0.000000
0.129152 0.369818 0.000000
0.136629 0.370092 0.000000
0.151125 0.370367 0.000000
0.171725 0.370825 0.000000
0.195499 0.371374 0.000000
0.221653 0.371740 0.000000
0.249210 0.371893 0.000000
0.277714 0.371862 0.000000
0.305577 0.372625 0.000000
0.330907 0.376379 0.000000
0.357824 0.380438 0.000000
0.386023 0.385016 0.000000
0.415900 0.390295 0.000000
0.446204 0.395117 0.000000
0.487709 0.409308 0.000000
0.532799 0.427985 0.000000
0.577874 0.446998 0.000000
0.623377 0.466499 0.000000
0.668544 0.486183 0.053956
0.712703 0.505516 0.100374
0.755032 0.524254 0.136049
0.794308 0.538720 0.167300
0.830167 0.549248 0.196658
0.863005 0.559136 0.226841
0.892332 0.568688 0.258488
0.917723 0.578149 0.291386
0.939513 0.588098 0.325902
0.957977 0.599176 0.362005
0.973480 0.611933 0.399603
0.986328 0.626947 0.439124
0.996735 0.644831 0.480873
0.132876 0.406012 0.000000
0.137942 0.406073 0.000000
0.145174 0.406165 0.000000
0.159518 0.406622 0.000000
0.179721 0.407019 0.000000
0.203281 0.407630 0.000000
0.229099 0.408026 0.000000
0.256565 0.408240 0.000000
0.285130 0.408148 0.000000
0.314397 0.407782 0.000000
0.341283 0.409888 0.000000
0.367651 0.413977 0.000000
0.395514 0.418677 0.000000
0.424872 0.424048 0.000000
0.456031 0.430121 0.000000
0.488960 0.437201 0.000000
0.528344 0.448859 0.000000
0.576379 0.469947 0.000000
0.622217 0.489204 0.000000
0.667567 0.508354 0.000000
0.711940 0.527092 0.026459
0.754574 0.545159 0.100008
0.794797 0.562310 0.141604
0.831998 0.578332 0.179873
0.864622 0.587579 0.213138
0.893523 0.595361 0.246342
0.918517 0.602777 0.280552
0.940032 0.610559 0.315953
0.958312 0.619318 0.352392
0.973754 0.629694 0.390295
0.986603 0.642237 0.429969
0.997101 0.657649 0.471931
0.141604 0.442634 0.000000
0.147158 0.442542 0.000000
0.153719 0.442603 0.000000
0.167636 0.442786 0.000000
0.187137 0.443000 0.000000
0.210300 0.443244 0.000000
0.235813 0.443458 0.000000
0.262943 0.443519 0.000000
0.291447 0.443458 0.000000
0.320684 0.443183 0.000000
0.350561 0.442756 0.000000
0.376989 0.447120 0.000000
0.404608 0.452186 0.000000
0.433906 0.457923 0.000000
0.464729 0.464302 0.000000
0.497322 0.471504 0.000000
0.531304 0.479316 0.000000
0.570123 0.490089 0.000000
0.619715 0.511955 0.000000
0.665309 0.530755 0.000000
0.709743 0.548913 0.000000
0.752560 0.566217 0.000000
0.793027 0.582574 0.101167
0.830503 0.597528 0.148470
0.864317 0.611322 0.190982
0.893828 0.622553 0.231052
0.918700 0.628077 0.266789
0.940124 0.633906 0.303410
0.958465 0.640589 0.341131
0.973999 0.648768 0.379828
0.986999 0.659113 0.420508
0.997650 0.672328 0.463203
0.150973 0.479866 0.000000
0.156130 0.479896 0.000000
0.162722 0.479988 0.000000
0.176059 0.480201 0.000000
0.195071 0.480446 0.000000
0.217838 0.480629 0.000000
0.243046 0.480781 0.000000
0.270237 0.480812 0.000000
0.298558 0.480659 0.000000
0.327825 0.480476 0.000000
0.357794 0.480110 0.000000
0.387030 0.481086 0.000000
0.414130 0.486183 0.000000
0.442817 0.491890 0.000000
0.473182 0.498299 0.000000
0.505150 0.505486 0.000000
0.538781 0.513420 0.000000
0.574029 0.522026 0.000000
0.612604 0.532280 0.000000
0.662287 0.553674 0.000000
0.707424 0.571771 0.000000
0.750698 0.588617 0.000000
0.791592 0.604273 0.000000
0.829435 0.618433 0.105013
0.863615 0.631067 0.158450
0.893553 0.642237 0.205081
0.919127 0.652399 0.249454
0.940581 0.658930 0.290105
0.958862 0.663447 0.329046
0.974395 0.669398 0.368841
0.987427 0.677333 0.409918
0.998169 0.688045 0.453285
0.159854 0.516930 0.000000
0.164797 0.516716 0.000000
0.169223 0.509880 0.000000
0.181979 0.510063 0.000000
0.200504 0.510307 0.000000
0.222385 0.510735 0.000000
0.247135 0.511131 0.000000
0.273838 0.511498 0.000000
0.302007 0.511742 0.000000
0.331151 0.511894 0.000000
0.361028 0.511925 0.000000
0.391394 0.511986 0.000000
0.420020 0.515465 0.000000
0.448402 0.521569 0.000000
0.478401 0.528466 0.000000
0.509911 0.536034 0.000000
0.543114 0.544244 0.000000
0.577630 0.552789 0.000000
0.613336 0.561669 0.000000
0.650996 0.570977 0.000000
0.700465 0.591608 0.000000
0.744808 0.608789 0.000000
0.786770 0.624384 0.000000
0.825620 0.638331 0.000000
0.860868 0.650446 0.110292
0.891844 0.660945 0.169589
0.918242 0.669947 0.220035
0.940520 0.678370 0.267735
0.959136 0.686854 0.314427
0.974762 0.691188 0.356146
0.987915 0.696834 0.398260
0.998779 0.705165 0.442573
0.168887 0.553735 0.000000
0.173007 0.552789 0.000000
0.179141 0.551904 0.000000
0.191287 0.551232 0.000000
0.208927 0.550866 0.000000
0.230686 0.550896 0.000000
0.255375 0.551232 0.000000
0.281926 0.551598 0.000000
0.310155 0.551934 0.000000
0.339391 0.552178 0.000000
0.369482 0.552361 0.000000
0.400244 0.552544 0.000000
0.431617 0.552911 0.000000
0.459907 0.558709 0.000000
0.489418 0.565484 0.000000
0.520287 0.572808 0.000000
0.552728 0.580682 0.000000
0.586450 0.588861 0.000000
0.621332 0.597253 0.000000
0.657160 0.605768 0.000000
0.693294 0.613214 0.000000
0.741024 0.631647 0.000000
0.783841 0.647211 0.000000
0.823392 0.660609 0.000000
0.859098 0.671962 0.000000
0.890593 0.681331 0.120943
0.917540 0.688991 0.184085
0.940276 0.695796 0.237675
0.959350 0.702510 0.287846
0.975189 0.709926 0.337102
0.988312 0.717464 0.385046
0.999329 0.723293 0.430213
0.178470 0.594934 0.000000
0.182773 0.594141 0.000000
0.188479 0.593317 0.000000
0.200351 0.592676 0.000000
0.217899 0.592279 0.000000
0.239384 0.592340 0.000000
0.263798 0.592584 0.000000
0.290349 0.592889 0.000000
0.318364 0.593225 0.000000
0.347723 0.593408 0.000000
0.377935 0.593591 0.000000
0.408820 0.593805 0.000000
0.440436 0.594079 0.000000
0.471412 0.596033 0.000000
0.500267 0.602472 0.000000
0.530510 0.609461 0.000000
0.562158 0.616907 0.000000
0.594965 0.624628 0.000000
0.628931 0.632532 0.000000
0.663783 0.640436 0.000000
0.699428 0.648371 0.000000
0.733608 0.653834 0.000000
0.778500 0.669093 0.000000
0.820005 0.683223 0.000000
0.856718 0.694118 0.000000
0.888914 0.702663 0.000000
0.916533 0.709163 0.134920
0.939879 0.714534 0.200565
0.959503 0.719570 0.256718
0.975860 0.725063 0.309453
0.989319 0.731838 0.361456
1.000000 0.740658 0.414221
0.187839 0.636286 0.000000
0.192050 0.635492 0.000000
0.197848 0.634760 0.000000
0.209476 0.634150 0.000000
0.226627 0.633753 0.000000
0.247868 0.633753 0.000000
0.271977 0.633997 0.000000
0.298375 0.634333 0.000000
0.326452 0.634577 0.000000
0.355718 0.634791 0.000000
0.386023 0.635035 0.000000
0.417151 0.635218 0.000000
0.448798 0.635492 0.000000
0.481056 0.635889 0.000000
0.511192 0.639643 0.000000
0.540581 0.645991 0.000000
0.571130 0.652583 0.000000
0.602716 0.659449 0.000000
0.635248 0.666316 0.000000
0.668574 0.673182 0.000000
0.702663 0.680049 0.000000
0.737484 0.686885 0.000000
0.769619 0.690181 0.000000
0.811246 0.702144 0.000000
0.850858 0.714412 0.000000
0.884276 0.722621 0.000000
0.912963 0.728328 0.000000
0.937316 0.732601 0.146181
0.957824 0.736172 0.214267
0.975067 0.739986 0.272709
0.989319 0.744747 0.328283
1.000000 0.751339 0.383551
0.196506 0.674159 0.000000
0.200778 0.673793 0.000000
0.206027 0.673518 0.000000
0.217838 0.673365 0.000000
0.234653 0.673365 0.000000
0.255467 0.673579 0.000000
0.279240 0.673762 0.000000
0.305486 0.673915 0.000000
0.333379 0.674098 0.000000
0.362493 0.674098 0.000000
0.392523 0.674189 0.000000
0.423560 0.674220 0.000000
0.455177 0.674464 0.000000
0.487404 0.674739 0.000000
0.520104 0.675105 0.000000
0.549157 0.680629 0.000000
0.578851 0.686763 0.000000
0.609674 0.693111 0.000000
0.641352 0.699580 0.000000
0.673823 0.706020 0.000000
0.707118 0.712520 0.000000
0.741024 0.718898 0.000000
0.775631 0.725277 0.000000
0.806210 0.726986 0.000000
0.844511 0.735500 0.000000
0.881468 0.745357 0.000000
0.911070 0.750423 0.000000
0.936278 0.753506 0.028779
0.957488 0.755673 0.163424
0.975341 0.757778 0.233097
0.990204 0.760616 0.294377
1.000000 0.765011 0.353277
0.205997 0.714717 0.000000
0.209934 0.714382 0.000000
0.215152 0.714107 0.000000
0.226688 0.713893 0.000000
0.243046 0.713893 0.000000
0.263493 0.714046 0.000000
0.287053 0.714321 0.000000
0.312871 0.714534 0.000000
0.340581 0.714717 0.000000
0.369604 0.714778 0.000000
0.399756 0.714809 0.000000
0.430701 0.714839 0.000000
0.462287 0.714931 0.000000
0.494514 0.715053 0.000000
0.527184 0.715297 0.000000
0.559045 0.716854 0.000000
0.587854 0.722255 0.000000
0.617639 0.727871 0.000000
0.648249 0.733516 0.000000
0.679683 0.739193 0.000000
0.711727 0.744778 0.000000
0.744381 0.750271 0.000000
0.777523 0.755673 0.000000
0.811124 0.760952 0.000000
0.841337 0.762356 0.000000
0.876066 0.767361 0.000000
0.909239 0.773587 0.000000
0.935210 0.775814 0.000000
0.957214 0.776669 0.076509
0.975738 0.777157 0.182834
0.991150 0.778073 0.254337
1.000000 0.780362 0.318578
0.214511 0.751980 0.000000
0.218204 0.751614 0.000000
0.223423 0.751369 0.000000
0.234348 0.751308 0.000000
0.250431 0.751492 0.000000
0.270512 0.751705 0.000000
0.293614 0.752071 0.000000
0.319219 0.752529 0.000000
0.346868 0.752865 0.000000
0.375647 0.753170 0.000000
0.405707 0.753475 0.000000
0.436530 0.753689 0.000000
0.468238 0.753872 0.000000
0.500450 0.754147 0.000000
0.533288 0.754513 0.000000
0.566583 0.754910 0.000000
0.597131 0.757992 0.000000
0.626184 0.763058 0.000000
0.655940 0.768032 0.000000
0.686213 0.772824 0.000000
0.717037 0.777493 0.000000
0.748440 0.782101 0.000000
0.780392 0.786648 0.000000
0.812802 0.791104 0.000000
0.845579 0.795499 0.000000
0.872557 0.793851 0.000000
0.903807 0.795773 0.000000
0.933318 0.798520 0.000000
0.956298 0.798489 0.000000
0.975647 0.797574 0.102266
0.991821 0.796780 0.202335
1.000000 0.796994 0.276493
0.223789 0.790951 0.000000
0.227359 0.790616 0.000000
0.232334 0.790402 0.000000
0.242802 0.790341 0.000000
0.258579 0.790402 0.000000
0.278050 0.790616 0.000000
0.300847 0.790829 0.000000
0.325933 0.791043 0.000000
0.353155 0.791196 0.000000
0.381659 0.791318 0.000000
0.411383 0.791379 0.000000
0.442054 0.791318 0.000000
0.473426 0.791287 0.000000
0.505364 0.791318 0.000000
0.537835 0.791409 0.000000
0.570855 0.791501 0.000000
0.604273 0.791501 0.000000
0.632776 0.795407 0.000000
0.661341 0.799557 0.000000
0.690547 0.803555 0.000000
0.720241 0.807370 0.000000
0.750454 0.811124 0.000000
0.781064 0.814786 0.000000
0.812100 0.818326 0.000000
0.843412 0.821683 0.000000
0.874907 0.824857 0.000000
0.900542 0.822202 0.000000
0.928130 0.820920 0.000000
0.954253 0.820554 0.000000
0.974701 0.818631 0.000000
0.991791 0.816312 0.122194
1.000000 0.814664 0.221073
0.232486 0.827329 0.000000
0.236088 0.827115 0.000000
0.240757 0.827024 0.000000
0.251041 0.827054 0.000000
0.266117 0.827176 0.000000
0.285222 0.827390 0.000000
0.307378 0.827573 0.000000
0.332097 0.827756 0.000000
0.358953 0.827848 0.000000
0.386969 0.827787 0.000000
0.416449 0.827695 0.000000
0.446632 0.827512 0.000000
0.477699 0.827268 0.000000
0.509422 0.827085 0.000000
0.541650 0.826932 0.000000
0.574334 0.826810 0.000000
0.607385 0.826596 0.000000
0.639185 0.827207 0.000000
0.666804 0.830503 0.000000
0.694850 0.833646 0.000000
0.723384 0.836637 0.000000
0.752377 0.839414 0.000000
0.781674 0.842130 0.000000
0.811307 0.844694 0.000000
0.841215 0.847135 0.000000
0.871305 0.849393 0.000000
0.901427 0.851408 0.000000
0.927214 0.849149 0.000000
0.950408 0.844205 0.000000
0.973449 0.841062 0.000000
0.991974 0.837675 0.000000
1.000000 0.834348 0.144076
0.241093 0.862119 0.000000
0.244480 0.861936 0.000000
0.249271 0.861845 0.000000
0.258946 0.861814 0.000000
0.273594 0.861753 0.000000
0.292027 0.861692 0.000000
0.313512 0.861448 0.000000
0.337377 0.861082 0.000000
0.363409 0.860563 0.000000
0.390723 0.859983 0.000000
0.419348 0.859251 0.000000
0.448890 0.858549 0.000000
0.479286 0.857847 0.000000
0.510277 0.857206 0.000000
0.541955 0.856626 0.000000
0.574029 0.856199 0.000000
0.606592 0.855741 0.000000
0.639399 0.855192 0.000000
0.668635 0.856321 0.000000
0.695583 0.858701 0.000000
0.722988 0.860929 0.000000
0.750759 0.863035 0.000000
0.778927 0.865049 0.000000
0.807401 0.866941 0.000000
0.836088 0.868681 0.000000
0.864958 0.870298 0.000000
0.893889 0.871702 0.000000
0.922850 0.872892 0.000000
0.948882 0.871214 0.000000
0.968688 0.863554 0.000000
0.989502 0.858549 0.000000
1.000000 0.854215 0.000000
0.248417 0.891112 0.000000
0.251774 0.890990 0.000000
0.256077 0.890990 0.000000
0.265476 0.891020 0.000000
0.279606 0.890990 0.000000
0.297398 0.890959 0.000000
0.318242 0.890837 0.000000
0.341527 0.890654 0.000000
0.366857 0.890349 0.000000
0.393805 0.889921 0.000000
0.422126 0.889403 0.000000
0.451301 0.888853 0.000000
0.481270 0.888243 0.000000
0.511955 0.887633 0.000000
0.543175 0.887022 0.000000
0.574823 0.886381 0.000000
