cubelut/Landscape3.cube
# Created by Adobe Lightroom plugin Export LUT (1.18.0)
# www.johnrellis.com/lightroom/exportlut.htm
# Preset: Landscape3
# Color profile: /Library/Application Support/Adobe/Color/Profiles/Recommended/AdobeRGB1998.icc
LUT_3D_SIZE 8
DOMAIN_MIN 0.000000 0.000000 0.000000
DOMAIN_MAX 0.903226 0.903226 0.903226
0.053498 0.061769 0.073915
0.110628 0.056672 0.076020
0.199863 0.028382 0.083986
0.317479 0.000000 0.093050
0.456641 0.000000 0.101564
0.604059 0.000000 0.108614
0.756588 0.000000 0.116884
0.888670 0.000000 0.135348
0.039338 0.120424 0.089631
0.111177 0.120699 0.082551
0.209201 0.108125 0.087953
0.330694 0.088869 0.095583
0.470893 0.000000 0.102876
0.618738 0.000000 0.109621
0.766293 0.000000 0.118074
0.893736 0.000000 0.138003
0.000000 0.228336 0.130007
0.000000 0.234379 0.106294
0.211490 0.226902 0.100740
0.343816 0.217105 0.101930
0.491035 0.208927 0.104707
0.634058 0.177127 0.110384
0.770504 0.112062 0.119265
0.894835 0.000000 0.141268
0.000000 0.381811 0.187350
0.000000 0.387762 0.168643
0.000000 0.402716 0.104555
0.345983 0.364538 0.110384
0.486732 0.338384 0.113344
0.656306 0.342016 0.108400
0.788388 0.315984 0.123934
0.905150 0.283238 0.153536
0.000000 0.565850 0.253635
0.000000 0.569848 0.239078
0.000000 0.581323 0.166171
0.253330 0.575189 0.114717
0.505547 0.521996 0.118135
0.645655 0.472755 0.126986
0.801236 0.471748 0.138521
0.918425 0.450172 0.176699
0.000000 0.727901 0.313359
0.000000 0.726741 0.301701
0.000000 0.733974 0.258946
0.000000 0.745205 0.159640
0.421180 0.722103 0.155001
0.656489 0.669825 0.143709
0.781247 0.595148 0.156771
0.911254 0.586816 0.197604
0.000000 0.848936 0.367926
0.000000 0.849546 0.361181
0.000000 0.854459 0.337041
0.000000 0.861997 0.281834
0.174533 0.869230 0.247044
0.564752 0.835538 0.233371
0.779782 0.792599 0.210361
0.899199 0.710323 0.219120
0.100984 0.938537 0.429694
0.110140 0.939330 0.426093
0.135256 0.941680 0.412879
0.167361 0.945403 0.385779
0.229587 0.953460 0.349493
0.443610 0.947326 0.350072
0.689326 0.921538 0.333074
0.879179 0.893523 0.311406
0.018158 0.061769 0.138430
0.111849 0.062806 0.137758
0.205234 0.070008 0.149142
0.326940 0.000000 0.153140
0.468666 0.000000 0.148806
0.617823 0.000000 0.152895
0.766018 0.000000 0.158633
0.894377 0.000000 0.173556
0.035767 0.126558 0.142824
0.111116 0.122408 0.145266
0.210971 0.111666 0.145632
0.335729 0.078370 0.147097
0.477455 0.000000 0.150301
0.626673 0.000000 0.154025
0.773495 0.000000 0.160616
0.899351 0.000000 0.176699
0.016632 0.232029 0.168826
0.094209 0.233036 0.171664
0.213962 0.230442 0.152102
0.353735 0.219791 0.148501
0.498817 0.204654 0.152010
0.643244 0.167269 0.155764
0.781308 0.089418 0.162753
0.901610 0.000000 0.180819
0.000000 0.388220 0.226688
0.000000 0.390539 0.219089
0.070527 0.404852 0.159487
0.355505 0.374090 0.158572
0.505180 0.348730 0.157595
0.670863 0.344915 0.157687
0.799161 0.315587 0.170108
0.911284 0.282200 0.193454
0.000000 0.565148 0.288853
0.000000 0.569818 0.277379
0.000000 0.582574 0.221958
0.248295 0.584161 0.170535
0.514611 0.530724 0.166995
0.656153 0.479500 0.169772
0.808377 0.474617 0.181460
0.921599 0.451301 0.213260
0.000000 0.729274 0.341680
0.000000 0.731106 0.333043
0.000000 0.738003 0.297398
0.000000 0.748684 0.210178
0.422156 0.726772 0.202548
0.659449 0.672389 0.186770
0.785183 0.598230 0.192874
0.914336 0.589380 0.229892
0.000000 0.850919 0.392004
0.000000 0.852628 0.387121
0.000000 0.856870 0.365789
0.000000 0.863279 0.318425
0.214878 0.869993 0.282506
0.568414 0.838254 0.267826
0.783474 0.795895 0.244175
0.903197 0.714565 0.248692
0.201755 0.938323 0.449683
0.204593 0.938842 0.446143
0.216831 0.941070 0.433783
0.235325 0.944610 0.409003
0.264347 0.950591 0.369329
0.452033 0.946471 0.370733
0.692805 0.921904 0.354559
0.880919 0.894591 0.332372
0.000000 0.066041 0.246616
0.101564 0.069245 0.244480
0.211917 0.070314 0.247898
0.337255 0.000000 0.257939
0.469429 0.000000 0.275425
0.606439 0.000000 0.293187
0.757534 0.000000 0.271550
0.889464 0.000000 0.258854
0.000000 0.142275 0.250675
0.084169 0.123690 0.253361
0.214603 0.123384 0.253941
0.341588 0.095216 0.261509
0.474067 0.012482 0.277440
0.616602 0.000000 0.279240
0.765774 0.000000 0.253422
0.892790 0.000000 0.261753
0.000000 0.242832 0.262272
0.095430 0.240543 0.263096
0.214664 0.231113 0.265690
0.348882 0.209567 0.258549
0.490303 0.177707 0.255772
0.636164 0.119905 0.255344
0.776364 0.000000 0.257786
0.898528 0.000000 0.267552
0.000000 0.383581 0.288121
0.086000 0.384375 0.292058
0.203769 0.386114 0.297856
0.355810 0.373510 0.266514
0.514061 0.347906 0.259617
0.663142 0.328344 0.260929
0.792844 0.297795 0.265537
0.906981 0.266209 0.278294
0.000000 0.564813 0.343236
0.000000 0.564141 0.345617
0.182315 0.565393 0.342901
0.225132 0.583276 0.286473
0.513603 0.528466 0.273198
0.663020 0.482612 0.268559
0.812558 0.473213 0.278050
0.918486 0.446723 0.295964
0.000000 0.726162 0.391363
0.000000 0.725246 0.394324
0.182071 0.727504 0.389593
0.195315 0.740200 0.337377
0.420691 0.730648 0.309911
0.663630 0.675105 0.287572
0.791135 0.603449 0.282567
0.915648 0.591608 0.308751
0.145632 0.845762 0.438911
0.202243 0.845304 0.443702
0.251041 0.848295 0.437659
0.263828 0.855955 0.406317
0.315312 0.864897 0.368505
0.576165 0.839017 0.352087
0.784298 0.794766 0.321965
0.902098 0.715419 0.315648
0.336950 0.932677 0.499733
0.362585 0.932219 0.504753
0.369146 0.934783 0.495003
0.375402 0.938018 0.474098
0.390997 0.944305 0.444434
0.488869 0.944884 0.436439
0.703426 0.920989 0.414862
0.882475 0.893523 0.386725
0.000000 0.071260 0.379980
0.065553 0.069551 0.377508
0.239719 0.070558 0.372869
0.358099 0.000000 0.379583
0.505241 0.000000 0.384222
0.641566 0.000000 0.392981
0.769467 0.000000 0.401831
0.884428 0.000000 0.411475
0.000000 0.135103 0.379736
0.000000 0.125307 0.380591
0.234440 0.125185 0.376989
0.359136 0.105287 0.381537
0.508171 0.000000 0.384558
0.642786 0.000000 0.393530
0.770169 0.000000 0.402319
0.884337 0.000000 0.411749
0.000000 0.279728 0.386572
0.000000 0.274174 0.386816
0.200076 0.234226 0.391516
0.364569 0.233066 0.390356
0.507073 0.200656 0.387243
0.637232 0.176181 0.392889
0.761257 0.135286 0.398993
0.888426 0.000000 0.387427
0.000000 0.402960 0.400336
0.009827 0.401770 0.401007
0.221683 0.394293 0.401526
0.366033 0.376013 0.400671
0.512169 0.347356 0.389624
0.655085 0.315160 0.381659
0.785977 0.278386 0.376501
0.901396 0.246128 0.377661
0.058503 0.552483 0.409155
0.133730 0.554101 0.412787
0.255406 0.557061 0.423316
0.372778 0.552331 0.430091
0.519554 0.528527 0.395178
0.677119 0.491127 0.386603
0.807919 0.467445 0.387579
0.912810 0.442298 0.392645
0.037354 0.721584 0.447486
0.141482 0.718624 0.449165
0.280217 0.716884 0.459785
0.394324 0.715206 0.466468
0.427344 0.730709 0.427039
0.667994 0.673823 0.398596
0.798184 0.611475 0.388922
0.918517 0.599573 0.407172
0.220523 0.843687 0.485389
0.259281 0.842618 0.489204
0.361364 0.839353 0.503227
0.449714 0.838224 0.511650
0.454871 0.849790 0.475319
0.596124 0.837949 0.454688
0.788693 0.793759 0.418402
0.904204 0.721736 0.405646
0.375769 0.929808 0.535698
0.400214 0.928771 0.540826
0.474403 0.925780 0.558953
0.528038 0.925780 0.565057
0.536065 0.932586 0.541802
0.568170 0.938842 0.524254
0.725154 0.919554 0.500114
0.886534 0.892485 0.463874
0.000000 0.074617 0.500328
0.000000 0.067445 0.499306
0.253849 0.036866 0.496620
0.407080 0.033906 0.490089
0.528740 0.000000 0.498238
0.673457 0.000000 0.496956
0.799832 0.000000 0.493629
0.902739 0.000000 0.494331
0.000000 0.131624 0.501396
0.000000 0.127138 0.500420
0.241825 0.118898 0.497993
0.405921 0.121584 0.493019
0.530510 0.016754 0.499947
0.674952 0.000000 0.497261
0.799191 0.000000 0.493690
0.902159 0.000000 0.494728
0.000000 0.300145 0.502220
0.000000 0.288029 0.503166
0.187564 0.237522 0.507591
0.398199 0.243381 0.502373
0.536309 0.227604 0.505638
0.682063 0.179385 0.499702
0.798001 0.157595 0.495735
0.900694 0.152163 0.496803
0.000000 0.440558 0.511894
0.000000 0.437568 0.512047
0.194339 0.424231 0.511131
0.365545 0.380865 0.514305
0.539147 0.380987 0.511559
0.679408 0.350866 0.502434
0.790005 0.334203 0.498329
0.893523 0.318090 0.498054
0.000000 0.583062 0.526085
0.064942 0.581018 0.525902
0.250340 0.574121 0.525475
0.400946 0.558862 0.523583
0.542382 0.534264 0.519951
0.677913 0.500694 0.505333
0.797879 0.467964 0.493141
0.905943 0.442756 0.487282
0.238865 0.711543 0.515465
0.270726 0.711513 0.518425
0.359869 0.712062 0.528923
0.472816 0.710872 0.545678
0.574670 0.706294 0.557122
0.684352 0.678035 0.515007
0.811978 0.631556 0.503349
0.917784 0.612940 0.508080
0.312078 0.839933 0.546441
0.340124 0.839780 0.550317
0.422034 0.837980 0.563226
0.529229 0.832456 0.584344
0.613855 0.829831 0.597467
0.638788 0.840879 0.567834
0.799588 0.795163 0.523461
0.909697 0.737118 0.509209
0.439185 0.928130 0.589380
0.460304 0.927276 0.594263
0.522667 0.924529 0.609888
0.598962 0.919585 0.630091
0.661738 0.919005 0.643000
0.667201 0.928313 0.615381
0.754665 0.919738 0.595117
0.894194 0.892912 0.552392
0.000000 0.074983 0.612848
0.000000 0.064393 0.612818
0.259953 0.001007 0.612238
0.430335 0.000000 0.608515
0.584070 0.000000 0.604700
0.698390 0.000000 0.610254
0.815610 0.000000 0.594324
0.922423 0.000000 0.581048
0.000000 0.133913 0.617762
0.000000 0.128573 0.618158
0.247074 0.116213 0.616815
0.428107 0.108522 0.612634
0.586450 0.125582 0.607141
0.700435 0.000000 0.612146
0.816892 0.000000 0.595392
0.922393 0.000000 0.582147
0.000000 0.298497 0.616968
0.000000 0.275700 0.618585
0.179019 0.241337 0.621088
0.408270 0.243473 0.617151
0.582696 0.260014 0.610803
0.701198 0.225132 0.614649
0.817716 0.200076 0.596918
0.919799 0.201999 0.584802
0.000000 0.467750 0.617090
0.000000 0.461402 0.618280
0.205600 0.437232 0.620691
0.362676 0.382849 0.623285
0.567468 0.394263 0.615930
0.698329 0.384131 0.616297
0.816709 0.361486 0.598871
0.913420 0.355291 0.588891
0.000000 0.604242 0.631586
0.000000 0.601923 0.631342
0.233982 0.593500 0.630060
0.387030 0.576745 0.627100
0.543572 0.537957 0.628412
0.700984 0.540978 0.624628
0.814084 0.516716 0.608148
0.904509 0.500847 0.599664
0.156741 0.742123 0.643915
0.207584 0.739712 0.643214
0.326055 0.733486 0.642725
0.461494 0.721920 0.641932
0.589624 0.705104 0.640009
0.701167 0.678950 0.632898
0.805020 0.646265 0.614282
0.904692 0.619104 0.601465
0.399451 0.826047 0.617975
0.422431 0.824949 0.619867
0.495125 0.822568 0.628351
0.578973 0.820676 0.643854
0.660273 0.820188 0.662867
0.733516 0.817777 0.675898
0.810147 0.794461 0.631128
0.913695 0.759091 0.621729
0.517266 0.919890 0.653193
0.531853 0.919554 0.656733
0.576532 0.918395 0.668086
0.636469 0.916869 0.684047
0.707424 0.914122 0.705165
0.768093 0.913542 0.720516
0.788083 0.921172 0.696773
0.901549 0.892760 0.646845
0.000000 0.081849 0.733516
0.000000 0.072023 0.733394
0.249943 0.040528 0.731991
0.431739 0.003723 0.728817
0.597345 0.083742 0.724361
0.736995 0.117525 0.723903
0.835935 0.000000 0.719539
0.927337 0.018860 0.689998
0.000000 0.140047 0.734737
0.000000 0.135409 0.734707
0.233494 0.127016 0.733608
0.426490 0.126497 0.730648
0.595575 0.152590 0.725887
0.737423 0.179416 0.724697
0.836393 0.088441 0.720638
0.927764 0.143282 0.691279
0.000000 0.276066 0.735195
0.000000 0.254734 0.735927
0.166018 0.251041 0.736263
0.405188 0.256626 0.733486
0.586969 0.276280 0.728542
0.736385 0.303868 0.724819
0.834806 0.263462 0.721920
0.926268 0.276524 0.693568
0.000000 0.472999 0.732296
0.000000 0.467445 0.732906
0.215976 0.439582 0.734798
0.366339 0.394781 0.737301
0.571283 0.410834 0.732235
0.734157 0.442481 0.724666
0.831388 0.415625 0.724147
0.923796 0.413733 0.698695
0.000000 0.616114 0.735561
0.000000 0.614252 0.735409
0.238499 0.607141 0.734371
0.407202 0.585504 0.735134
0.547326 0.547082 0.737850
0.722438 0.567590 0.730526
0.827695 0.560510 0.728847
0.920745 0.549767 0.708064
0.178836 0.742611 0.746334
0.223148 0.741268 0.746120
0.331029 0.736660 0.745174
0.456489 0.727810 0.742977
0.577203 0.713313 0.738979
0.701289 0.683955 0.738369
0.823239 0.687465 0.734493
0.914336 0.670497 0.719203
0.348760 0.858793 0.753597
0.374334 0.857267 0.753506
0.449622 0.852323 0.753750
0.546258 0.844114 0.753902
0.647272 0.833066 0.753964
0.740719 0.818784 0.752316
0.821805 0.796750 0.743954
0.906218 0.769284 0.724483
0.562493 0.912261 0.726131
0.575921 0.911650 0.728023
0.616602 0.909667 0.733913
0.676997 0.907378 0.744289
0.741207 0.906371 0.759762
0.797604 0.907927 0.778744
0.851194 0.908721 0.793576
0.908080 0.893034 0.747219
0.000000 0.101045 0.846525
0.000000 0.094453 0.846494
0.215915 0.093599 0.845670
0.413153 0.112978 0.843473
0.583734 0.164157 0.839902
0.739345 0.243290 0.834653
0.854826 0.262882 0.836545
0.938140 0.193332 0.824033
0.000000 0.152834 0.847074
0.000000 0.149874 0.847044
0.199649 0.149264 0.846403
0.408179 0.165499 0.844175
0.581872 0.206149 0.840513
0.738460 0.274449 0.835233
0.854704 0.296117 0.836728
0.937804 0.236362 0.824765
0.000000 0.266239 0.847868
0.000000 0.265934 0.847837
0.135439 0.264530 0.848020
0.390234 0.277165 0.845640
0.574762 0.308507 0.841764
0.734890 0.361059 0.836332
0.853696 0.388098 0.836301
0.935607 0.341863 0.826139
0.000000 0.475257 0.844297
0.000000 0.464851 0.844816
0.155001 0.425025 0.846921
0.362402 0.407141 0.847593
0.563226 0.431098 0.843656
0.728756 0.472480 0.837827
0.851926 0.504326 0.835111
0.931426 0.467201 0.828367
0.057374 0.621424 0.843015
0.151278 0.618372 0.843046
0.293370 0.608789 0.843503
0.440406 0.593927 0.843839
0.546838 0.556939 0.846464
0.718288 0.584009 0.841001
0.850431 0.618067 0.834348
0.926116 0.591669 0.832120
0.225711 0.742916 0.847044
0.259342 0.742184 0.846891
0.348913 0.739437 0.846281
0.458717 0.733577 0.844724
0.587243 0.719448 0.843809
0.699763 0.691035 0.845731
0.838071 0.711055 0.838956
0.920378 0.703944 0.837003
0.375036 0.854032 0.853605
0.395972 0.853361 0.853544
0.458350 0.850767 0.853269
0.544305 0.845823 0.852537
0.637354 0.838285 0.851133
0.725734 0.826413 0.848356
0.818296 0.801236 0.848203
0.916136 0.804562 0.844846
0.516350 0.945220 0.856535
0.529656 0.944305 0.856687
0.571618 0.941131 0.857267
0.634272 0.935637 0.858122
0.706691 0.928557 0.859342
0.780117 0.920439 0.860868
0.850034 0.911070 0.861814
0.913329 0.894713 0.855283
