cubelut/Landscape5.cube
# Created by Adobe Lightroom plugin Export LUT (1.18.0)
# www.johnrellis.com/lightroom/exportlut.htm
# Preset: Landscape5
# Color profile: /Library/Application Support/Adobe/Color/Profiles/Recommended/AdobeRGB1998.icc
LUT_3D_SIZE 5
DOMAIN_MIN 0.000000 0.000000 0.000000
DOMAIN_MAX 0.903226 0.903226 0.903226
0.000000 0.000000 0.000000
0.144289 0.016449 0.038758
0.343236 0.000000 0.055085
0.674525 0.000000 0.003174
0.971832 0.000000 0.000000
0.000000 0.162539 0.059541
0.141970 0.167697 0.049714
0.324468 0.158236 0.047425
0.655116 0.105226 0.000000
0.964813 0.000000 0.000000
0.000000 0.374853 0.075502
0.118715 0.377630 0.073426
0.354528 0.382666 0.000000
0.611200 0.366857 0.000000
0.942748 0.348943 0.000000
0.000000 0.689601 0.000000
0.000000 0.689906 0.000000
0.370733 0.690272 0.000000
0.701595 0.683589 0.000000
0.943084 0.623438 0.000000
0.000000 0.948730 0.102602
0.000000 0.948302 0.099397
0.367102 0.946868 0.089021
0.658045 0.941619 0.000000
0.958373 0.926360 0.000000
0.000000 0.048219 0.168185
0.136629 0.062501 0.171176
0.356237 0.016876 0.209415
0.703944 0.000000 0.200839
0.980835 0.000000 0.191592
0.000000 0.168399 0.170871
0.140902 0.175998 0.180087
0.349737 0.158083 0.180758
0.685115 0.000000 0.176669
0.974609 0.000000 0.177584
0.000000 0.378729 0.208927
0.113100 0.384100 0.191348
0.358587 0.388281 0.168124
0.618769 0.353399 0.122744
0.951873 0.328344 0.110811
0.000000 0.691768 0.240391
0.000000 0.694575 0.181491
0.366278 0.693996 0.168978
0.702724 0.684993 0.057282
0.944640 0.615259 0.000000
0.000000 0.945953 0.290623
0.000000 0.948333 0.236576
0.377173 0.945861 0.230014
0.656092 0.941009 0.188540
0.957702 0.926024 0.000000
0.000000 0.074464 0.348028
0.116304 0.070161 0.345678
0.341497 0.000000 0.363622
0.730282 0.000000 0.442878
0.987243 0.000000 0.459297
0.000000 0.214359 0.352911
0.084413 0.178470 0.354650
0.349462 0.169253 0.369360
0.731624 0.000000 0.436194
0.985168 0.153994 0.461311
0.000000 0.397833 0.372747
0.110292 0.402411 0.377111
0.404089 0.430426 0.405188
0.719509 0.377935 0.390448
0.976135 0.341924 0.397864
0.000000 0.705409 0.426886
0.008881 0.707607 0.423835
0.401251 0.712062 0.407660
0.715267 0.695399 0.362097
0.949065 0.584466 0.294163
0.101228 0.947356 0.456611
0.273075 0.945281 0.462623
0.483375 0.941436 0.461067
0.685756 0.937346 0.448035
0.957885 0.926085 0.364996
0.000000 0.091859 0.579767
0.045777 0.066804 0.577020
0.384070 0.000000 0.568017
0.686091 0.000000 0.611353
0.989532 0.000000 0.651698
0.000000 0.215457 0.585534
0.000000 0.182712 0.584039
0.372808 0.125154 0.575525
0.691402 0.000000 0.614954
0.989014 0.210483 0.654749
0.000000 0.482826 0.601740
0.000000 0.474098 0.602991
0.335119 0.394568 0.608331
0.714168 0.388922 0.630793
0.979126 0.521324 0.672328
0.000000 0.721584 0.632990
0.000000 0.722225 0.634974
0.453956 0.723751 0.643488
0.772366 0.741634 0.676753
0.964721 0.708339 0.661128
0.301946 0.947753 0.656550
0.397650 0.945281 0.661799
0.601953 0.937560 0.679927
0.782010 0.930999 0.694423
0.957458 0.925841 0.646815
0.000000 0.133211 0.873991
0.000000 0.109560 0.873350
0.383886 0.000000 0.870603
0.684138 0.000000 0.865446
0.955566 0.000000 0.891478
0.000000 0.225467 0.876188
0.000000 0.213474 0.875578
0.356817 0.149783 0.872862
0.676204 0.000000 0.867979
0.955810 0.000000 0.892363
0.000000 0.527581 0.877562
0.000000 0.513237 0.877501
0.292454 0.416876 0.878996
0.654688 0.349035 0.874083
0.954070 0.421027 0.892454
0.000000 0.752285 0.885985
0.215549 0.751431 0.885740
0.490883 0.747982 0.883421
0.699855 0.700435 0.880308
0.949889 0.720485 0.891936
0.361913 0.955871 0.900237
0.440864 0.954101 0.900542
0.624445 0.947509 0.900389
0.807797 0.940459 0.902861
0.962615 0.946899 0.923003
