cubelut/Landscape4.cube
# Created by Adobe Lightroom plugin Export LUT (1.18.0)
# www.johnrellis.com/lightroom/exportlut.htm
# Preset: Landscape1
# Color profile: /Library/Application Support/Adobe/Color/Profiles/Recommended/AdobeRGB1998.icc
LUT_3D_SIZE 32
0.000000 0.000000 0.000000
0.000000 0.000000 0.000000
0.021729 0.000000 0.000000
0.076997 0.000000 0.000000
0.106081 0.000000 0.000000
0.132448 0.000000 0.000000
0.159121 0.000000 0.000000
0.186740 0.000000 0.000000
0.215274 0.000000 0.000000
0.244633 0.000000 0.000000
0.274784 0.000000 0.000000
0.305638 0.000000 0.000000
0.337163 0.000000 0.000000
0.369635 0.000000 0.000000
0.403174 0.000000 0.000000
0.437568 0.000000 0.000000
0.472694 0.000000 0.000000
0.507958 0.000000 0.000000
0.543053 0.000000 0.000000
0.579522 0.000000 0.000000
0.617029 0.000000 0.000000
0.654902 0.000000 0.000000
0.693324 0.000000 0.000000
0.731746 0.000000 0.000000
0.769345 0.000000 0.000000
0.805936 0.000000 0.000000
0.841489 0.000000 0.000000
0.876158 0.000000 0.000000
0.910063 0.000000 0.000000
0.943328 0.000000 0.000000
0.976074 0.000000 0.000000
1.000000 0.000000 0.000000
0.000000 0.000000 0.000000
0.000000 0.000000 0.000000
0.025605 0.000000 0.000000
0.078309 0.000000 0.000000
0.106477 0.000000 0.000000
0.132967 0.000000 0.000000
0.160220 0.000000 0.000000
0.187778 0.000000 0.000000
0.216403 0.000000 0.000000
0.245884 0.000000 0.000000
0.276280 0.000000 0.000000
0.307286 0.000000 0.000000
0.338994 0.000000 0.000000
0.371740 0.000000 0.000000
0.405341 0.000000 0.000000
0.439826 0.000000 0.000000
0.475105 0.000000 0.000000
0.510491 0.000000 0.000000
0.545769 0.000000 0.000000
0.582300 0.000000 0.000000
0.619684 0.000000 0.000000
0.657496 0.000000 0.000000
0.695827 0.000000 0.000000
0.734157 0.000000 0.000000
0.771511 0.000000 0.000000
0.807889 0.000000 0.000000
0.843259 0.000000 0.000000
0.877745 0.000000 0.000000
0.911467 0.000000 0.000000
0.944640 0.000000 0.000000
0.977264 0.000000 0.000000
1.000000 0.000000 0.000000
0.000000 0.016846 0.000000
0.000000 0.020447 0.000000
0.034699 0.017792 0.000000
0.078492 0.013336 0.000000
0.107240 0.001129 0.000000
0.133761 0.000000 0.000000
0.161013 0.000000 0.000000
0.188754 0.000000 0.000000
0.217655 0.000000 0.000000
0.247196 0.000000 0.000000
0.277592 0.000000 0.000000
0.308629 0.000000 0.000000
0.340429 0.000000 0.000000
0.373358 0.000000 0.000000
0.406958 0.000000 0.000000
0.441718 0.000000 0.000000
0.476997 0.000000 0.000000
0.512261 0.000000 0.000000
0.547662 0.000000 0.000000
0.584131 0.000000 0.000000
0.621485 0.000000 0.000000
0.659174 0.000000 0.000000
0.697414 0.000000 0.000000
0.735592 0.000000 0.000000
0.772824 0.000000 0.000000
0.809110 0.000000 0.000000
0.844327 0.000000 0.000000
0.878752 0.000000 0.000000
0.912383 0.000000 0.000000
0.945434 0.000000 0.000000
0.977966 0.000000 0.000000
1.000000 0.000000 0.000000
0.000000 0.063447 0.000000
0.000000 0.064729 0.000000
0.045899 0.062104 0.000000
0.083375 0.059480 0.000000
0.107820 0.047486 0.000000
0.134401 0.036103 0.000000
0.162051 0.020081 0.000000
0.190158 0.003021 0.000000
0.219181 0.000000 0.000000
0.248966 0.000000 0.000000
0.279545 0.000000 0.000000
0.310857 0.000000 0.000000
0.342748 0.000000 0.000000
0.375647 0.000000 0.000000
0.409583 0.000000 0.000000
0.444312 0.000000 0.000000
0.479713 0.000000 0.000000
0.515160 0.000000 0.000000
0.550652 0.000000 0.000000
0.587274 0.000000 0.000000
0.624689 0.000000 0.000000
0.662348 0.000000 0.000000
0.700313 0.000000 0.000000
0.738003 0.000000 0.000000
0.774685 0.000000 0.000000
0.810452 0.000000 0.000000
0.845304 0.000000 0.000000
0.879454 0.000000 0.000000
0.912932 0.000000 0.000000
0.945922 0.000000 0.000000
0.978485 0.000000 0.000000
1.000000 0.000000 0.000000
0.000000 0.087678 0.000000
0.000000 0.087709 0.000000
0.044984 0.086030 0.000000
0.087587 0.083162 0.000000
0.113619 0.080720 0.000000
0.136690 0.073945 0.000000
0.164584 0.070680 0.000000
0.192996 0.066255 0.000000
0.222141 0.059541 0.000000
0.252262 0.048066 0.000000
0.282902 0.029358 0.000000
0.314275 0.009552 0.000000
0.346441 0.000000 0.000000
0.379522 0.000000 0.000000
0.413214 0.000000 0.000000
0.447944 0.000000 0.000000
0.482979 0.000000 0.000000
0.518242 0.000000 0.000000
0.553704 0.000000 0.000000
0.590356 0.000000 0.000000
0.627527 0.000000 0.000000
0.665187 0.018372 0.000000
0.703029 0.041169 0.000000
0.740475 0.058625 0.000000
0.776791 0.060914 0.000000
0.812284 0.059236 0.000000
0.846860 0.046937 0.000000
0.880827 0.017700 0.000000
0.914183 0.000000 0.000000
0.947082 0.000000 0.000000
0.979522 0.000000 0.000000
1.000000 0.000000 0.000000
0.000000 0.111574 0.000000
0.000000 0.111177 0.000000
0.047517 0.110262 0.000000
0.089662 0.108217 0.000000
0.119905 0.105531 0.000000
0.145022 0.103304 0.000000
0.167544 0.096986 0.000000
0.196048 0.095216 0.000000
0.225101 0.094270 0.000000
0.255100 0.090913 0.000000
0.285954 0.087068 0.000000
0.317540 0.083162 0.000000
0.349889 0.079164 0.000000
0.383062 0.075471 0.000000
0.416815 0.072724 0.000000
0.451453 0.072419 0.000000
0.486488 0.074891 0.000000
0.521508 0.079561 0.000000
0.556756 0.084962 0.000000
0.593225 0.093050 0.000000
0.630121 0.101045 0.000000
0.667445 0.108492 0.000000
0.692439 0.108431 0.000000
0.730404 0.115175 0.000000
0.767544 0.118044 0.000000
0.803769 0.119020 0.000000
0.839200 0.117922 0.000000
0.873869 0.112856 0.000000
0.907897 0.104494 0.000000
0.941405 0.091035 0.000000
0.974426 0.070619 0.000000
1.000000 0.003876 0.000000
0.000000 0.134829 0.000000
0.010529 0.134188 0.000000
0.056672 0.133822 0.000000
0.092409 0.132265 0.000000
0.127382 0.129885 0.000000
0.151431 0.128054 0.000000
0.175723 0.126009 0.000000
0.196902 0.119600 0.000000
0.225864 0.119295 0.000000
0.255497 0.119478 0.000000
0.285466 0.119936 0.000000
0.317021 0.118227 0.000000
0.349248 0.117098 0.000000
0.382513 0.116762 0.000000
0.416693 0.117128 0.000000
0.451637 0.119326 0.000000
0.486793 0.123079 0.000000
0.521965 0.127749 0.000000
0.556970 0.133700 0.000000
0.592920 0.140139 0.000000
0.628931 0.147036 0.000000
0.664912 0.152956 0.000000
0.701076 0.158724 0.000000
0.737179 0.162356 0.000000
0.772549 0.164828 0.000000
0.807614 0.165621 0.000000
0.842344 0.164614 0.000000
0.876616 0.161471 0.000000
0.910307 0.155978 0.000000
0.943511 0.148318 0.000000
0.976349 0.137301 0.000000
1.000000 0.121706 0.000000
0.000000 0.161959 0.000000
0.022431 0.161624 0.000000
0.062959 0.161166 0.000000
0.096437 0.160250 0.000000
0.131411 0.158511 0.000000
0.162417 0.156558 0.000000
0.186099 0.155032 0.000000
0.210330 0.153231 0.000000
0.231083 0.146639 0.000000
0.261021 0.147433 0.000000
0.291447 0.148714 0.000000
0.322423 0.150790 0.000000
0.354376 0.152529 0.000000
0.387915 0.154147 0.000000
0.422156 0.156741 0.000000
0.457160 0.160372 0.000000
0.492500 0.165255 0.000000
0.527581 0.171023 0.000000
0.562646 0.176974 0.000000
0.598444 0.183749 0.000000
0.634302 0.190249 0.000000
0.670130 0.196139 0.000000
0.706111 0.201419 0.000000
0.741726 0.205081 0.000000
0.776730 0.207309 0.000000
0.811490 0.208316 0.000000
0.845701 0.207309 0.000000
0.879576 0.204654 0.000000
0.912871 0.200717 0.000000
0.945769 0.194064 0.000000
0.978332 0.186099 0.000000
1.000000 0.174838 0.000000
0.000000 0.191836 0.000000
0.033692 0.191653 0.000000
0.068513 0.191196 0.000000
0.101320 0.190341 0.000000
0.136233 0.189151 0.000000
0.170718 0.187564 0.000000
0.198581 0.186130 0.000000
0.222568 0.184939 0.000000
0.246830 0.183230 0.000000
0.266423 0.176150 0.000000
0.297673 0.178195 0.000000
0.328801 0.180911 0.000000
0.360754 0.184756 0.000000
0.393469 0.189700 0.000000
0.427680 0.194034 0.000000
0.462806 0.199161 0.000000
0.498177 0.205203 0.000000
0.533318 0.211460 0.000000
0.568292 0.217838 0.000000
0.603906 0.225132 0.000000
0.639521 0.231937 0.000000
0.675196 0.237461 0.000000
0.710872 0.242496 0.000000
0.746090 0.246159 0.000000
0.780728 0.247959 0.000000
0.814939 0.248447 0.000000
0.848875 0.247532 0.000000
0.882383 0.245792 0.000000
0.915343 0.241794 0.000000
0.947967 0.236759 0.000000
0.980255 0.229252 0.000000
1.000000 0.220493 0.000000
0.001587 0.224338 0.000000
0.042664 0.224369 0.000000
0.073426 0.224125 0.000000
0.106355 0.223697 0.000000
0.141604 0.222843 0.000000
0.176883 0.221897 0.000000
0.212100 0.220371 0.000000
0.236576 0.219425 0.000000
0.260990 0.218418 0.000000
0.285435 0.217166 0.000000
0.303685 0.208988 0.000000
0.336736 0.212833 0.000000
0.368902 0.217166 0.000000
0.401617 0.222721 0.000000
0.434943 0.229709 0.000000
0.468788 0.237644 0.000000
0.503777 0.244266 0.000000
0.538598 0.251164 0.000000
0.573510 0.258457 0.000000
0.608911 0.265537 0.000000
0.644648 0.272618 0.000000
0.680354 0.278721 0.000000
0.716182 0.283513 0.000000
0.751247 0.286687 0.000000
0.785550 0.288579 0.000000
0.819425 0.288853 0.000000
0.852811 0.287938 0.000000
0.885679 0.285466 0.000000
0.918120 0.281956 0.000000
0.950195 0.276921 0.000000
0.981994 0.270726 0.000000
1.000000 0.262455 0.000000
0.000000 0.261570 0.000000
0.045838 0.261509 0.000000
0.075227 0.261357 0.000000
0.110262 0.261051 0.000000
0.146670 0.260319 0.000000
0.182834 0.259648 0.000000
0.219669 0.258701 0.000000
0.252049 0.257725 0.000000
0.276463 0.256870 0.000000
0.301061 0.255863 0.000000
0.325719 0.255039 0.000000
0.342687 0.245518 0.000000
0.377539 0.252049 0.000000
0.410529 0.258213 0.000000
0.444099 0.265843 0.000000
0.477760 0.274632 0.000000
0.511254 0.283879 0.000000
0.545220 0.292576 0.000000
0.580163 0.300145 0.000000
0.615412 0.307408 0.000000
0.650843 0.314153 0.000000
0.686213 0.319829 0.000000
0.721523 0.324407 0.000000
0.755947 0.327214 0.000000
0.789883 0.328710 0.000000
0.823270 0.328679 0.000000
0.856291 0.327489 0.000000
0.888823 0.324956 0.000000
0.920928 0.321233 0.000000
0.952636 0.316442 0.000000
0.984131 0.310307 0.000000
1.000000 0.302892 0.000000
0.000000 0.302434 0.000000
0.042756 0.302495 0.000000
0.075624 0.302342 0.000000
0.112856 0.302068 0.000000
0.151186 0.301701 0.000000
0.189120 0.301152 0.000000
0.226841 0.300694 0.000000
0.264103 0.299962 0.000000
0.293278 0.299321 0.000000
0.317967 0.298741 0.000000
0.342809 0.298039 0.000000
0.367559 0.297612 0.000000
0.374365 0.278019 0.000000
0.410773 0.287205 0.000000
0.444160 0.295293 0.000000
0.477638 0.304326 0.000000
0.511284 0.313970 0.000000
0.544610 0.324132 0.000000
0.578119 0.334478 0.000000
0.613275 0.342962 0.000000
0.648951 0.350256 0.000000
0.684657 0.356664 0.000000
0.720363 0.361547 0.000000
0.755245 0.364874 0.000000
0.789273 0.366430 0.000000
0.822782 0.366491 0.000000
0.855772 0.365301 0.000000
0.888365 0.362921 0.000000
0.920500 0.359289 0.000000
0.952300 0.354589 0.000000
0.983764 0.348760 0.000000
1.000000 0.341711 0.000000
0.000000 0.342840 0.000000
0.024720 0.342992 0.000000
0.072511 0.343145 0.000000
0.113008 0.343450 0.000000
0.153201 0.343786 0.000000
0.192996 0.344274 0.000000
0.232395 0.344427 0.000000
0.271153 0.344396 0.000000
0.309087 0.344182 0.000000
0.334112 0.343481 0.000000
0.358312 0.342504 0.000000
0.382361 0.341283 0.000000
0.406409 0.340642 0.000000
0.419043 0.326543 0.000000
0.456306 0.337713 0.000000
0.489509 0.346746 0.000000
0.522850 0.356390 0.000000
0.556054 0.366186 0.000000
0.589349 0.376135 0.000000
0.622858 0.385870 0.000000
0.656825 0.394537 0.000000
0.692195 0.400305 0.000000
0.727321 0.404639 0.000000
0.761501 0.406958 0.000000
0.795010 0.407813 0.000000
0.827970 0.407233 0.000000
0.860441 0.405554 0.000000
0.892515 0.402594 0.000000
0.924102 0.398535 0.000000
0.955352 0.393469 0.000000
0.986358 0.387366 0.000000
1.000000 0.380316 0.000000
0.000000 0.394385 0.000000
0.000000 0.394263 0.000000
0.064179 0.394659 0.000000
0.111238 0.395056 0.000000
0.155978 0.395544 0.000000
0.198184 0.396277 0.000000
0.239872 0.396918 0.000000
0.280491 0.397375 0.000000
0.319829 0.397620 0.000000
0.354314 0.397528 0.000000
0.378729 0.396704 0.000000
0.403082 0.395850 0.000000
0.427253 0.394965 0.000000
0.451514 0.394903 0.000000
0.465217 0.381415 0.000000
0.501793 0.392676 0.000000
0.535027 0.401984 0.000000
0.568322 0.411627 0.000000
0.601068 0.420294 0.000000
0.634089 0.428870 0.000000
0.667323 0.436896 0.000000
0.700465 0.443946 0.000000
0.734096 0.448402 0.000000
0.767666 0.449744 0.000000
0.800534 0.449653 0.000000
0.832883 0.448310 0.000000
0.864775 0.445686 0.000000
0.896269 0.442267 0.000000
0.927367 0.437629 0.000000
0.958129 0.432136 0.000000
0.988647 0.425971 0.000000
1.000000 0.418677 0.000000
0.000000 0.450080 0.000000
0.000000 0.450172 0.000000
0.030121 0.450446 0.000000
0.105287 0.451026 0.000000
0.155673 0.451759 0.000000
0.201846 0.452766 0.000000
0.246311 0.453620 0.000000
0.288273 0.454292 0.000000
0.329290 0.455085 0.000000
0.368780 0.455634 0.000000
0.398840 0.455207 0.000000
0.423316 0.454414 0.000000
0.447639 0.453620 0.000000
0.472389 0.453651 0.000000
0.497169 0.453986 0.000000
0.511925 0.441016 0.000000
0.547448 0.450843 0.000000
0.580468 0.459541 0.000000
0.612940 0.466987 0.000000
0.645472 0.474037 0.000000
0.678279 0.480568 0.000000
0.710842 0.486030 0.000000
0.742824 0.490120 0.000000
0.774136 0.492958 0.000000
0.806119 0.492103 0.000000
0.837797 0.489845 0.000000
0.868925 0.486397 0.000000
0.899657 0.481880 0.000000
0.929992 0.476722 0.000000
0.960082 0.470649 0.000000
0.989990 0.463813 0.000000
1.000000 0.456245 0.000000
0.000000 0.509483 0.000000
0.000000 0.509422 0.000000
0.000000 0.509361 0.000000
0.095277 0.509850 0.000000
0.151888 0.510338 0.000000
0.202365 0.511070 0.000000
0.249424 0.511559 0.000000
0.293065 0.512535 0.000000
0.335637 0.513085 0.000000
0.376745 0.514153 0.000000
0.416144 0.515190 0.000000
0.441871 0.515038 0.000000
0.466987 0.515099 0.000000
0.492287 0.515251 0.000000
0.517845 0.516014 0.000000
0.543786 0.517235 0.000000
0.559655 0.504692 0.000000
0.592218 0.509667 0.000000
0.624964 0.515984 0.000000
0.656947 0.521172 0.000000
0.688930 0.525536 0.000000
0.720546 0.528893 0.000000
0.751492 0.530999 0.000000
0.781918 0.532128 0.000000
0.811948 0.532280 0.000000
0.841917 0.531151 0.000000
0.872435 0.526787 0.000000
0.902617 0.521630 0.000000
0.932464 0.515740 0.000000
0.962127 0.509117 0.000000
0.991760 0.501732 0.000000
1.000000 0.493996 0.000000
0.000000 0.571313 0.000000
0.000000 0.571374 0.000000
0.000000 0.571557 0.000000
0.073854 0.571832 0.000000
0.145235 0.572290 0.000000
0.201297 0.572900 0.000000
0.250492 0.573510 0.000000
0.297276 0.574090 0.000000
0.341253 0.574762 0.000000
0.383215 0.575525 0.000000
0.423621 0.576593 0.000000
0.459297 0.577203 0.000000
0.484199 0.576806 0.000000
0.509697 0.576745 0.000000
0.535546 0.576959 0.000000
0.561791 0.577783 0.000000
0.588586 0.578882 0.000000
0.605737 0.566400 0.000000
0.635279 0.565759 0.000000
0.669001 0.570733 0.000000
0.700404 0.572961 0.000000
0.731044 0.573907 0.000000
0.761105 0.573846 0.000000
0.790707 0.572961 0.000000
0.819821 0.571405 0.000000
0.848661 0.569238 0.000000
0.877256 0.566644 0.000000
0.906279 0.561822 0.000000
0.935546 0.555047 0.000000
0.964660 0.547692 0.000000
0.993713 0.539879 0.000000
1.000000 0.531365 0.000000
0.000000 0.629877 0.000000
0.000000 0.629633 0.000000
0.000000 0.619837 0.000000
0.013153 0.620020 0.000000
0.133547 0.620691 0.000000
0.193271 0.621302 0.000000
0.245731 0.621973 0.000000
0.294133 0.622950 0.000000
0.339055 0.623957 0.000000
0.382483 0.624781 0.000000
0.423255 0.626123 0.000000
0.463294 0.627344 0.000000
0.494392 0.628138 0.000000
0.520165 0.628504 0.000000
0.546441 0.629236 0.000000
0.573175 0.630152 0.000000
0.600671 0.631220 0.000000
0.628779 0.632593 0.000000
0.647395 0.620752 0.000000
0.674250 0.615076 0.000000
0.708583 0.618372 0.000000
0.738796 0.617395 0.000000
0.768368 0.615534 0.000000
0.797482 0.613001 0.000000
0.826200 0.609918 0.000000
0.854643 0.606592 0.000000
0.882872 0.602716 0.000000
0.910857 0.598566 0.000000
0.938689 0.594171 0.000000
0.967254 0.586328 0.000000
0.995789 0.577813 0.000000
1.000000 0.568841 0.000000
0.000000 0.683131 0.000000
0.000000 0.682002 0.000000
0.000000 0.680812 0.000000
0.000000 0.679927 0.000000
0.116335 0.679347 0.000000
0.185977 0.679286 0.000000
0.241642 0.679744 0.000000
0.291875 0.680415 0.000000
0.338964 0.681025 0.000000
0.382757 0.681697 0.000000
0.424994 0.682612 0.000000
0.465797 0.683650 0.000000
0.505943 0.685176 0.000000
0.532952 0.685359 0.000000
0.559625 0.685817 0.000000
0.586786 0.686458 0.000000
0.614740 0.687068 0.000000
0.643519 0.687861 0.000000
0.672877 0.688319 0.000000
0.692866 0.676753 0.000000
0.715908 0.664881 0.000000
0.749386 0.664515 0.000000
0.778103 0.660151 0.000000
0.806241 0.655390 0.000000
0.834134 0.650446 0.000000
0.861692 0.645167 0.000000
0.889067 0.639704 0.000000
0.916228 0.634119 0.000000
0.943328 0.628382 0.000000
0.970428 0.622461 0.000000
0.997894 0.615595 0.000000
1.000000 0.606012 0.000000
0.000000 0.736568 0.000000
0.000000 0.735622 0.000000
0.000000 0.734676 0.000000
0.000000 0.733791 0.000000
0.092622 0.733303 0.000000
0.174319 0.733120 0.000000
0.234775 0.733150 0.000000
0.287114 0.733516 0.000000
0.335363 0.733791 0.000000
0.380529 0.734157 0.000000
0.423651 0.734585 0.000000
0.465187 0.735164 0.000000
0.505943 0.735988 0.000000
0.542504 0.736751 0.000000
0.569329 0.736751 0.000000
0.596704 0.736873 0.000000
0.624903 0.737148 0.000000
0.653895 0.737179 0.000000
0.683650 0.737148 0.000000
0.714137 0.736873 0.000000
0.735195 0.725216 0.000000
0.754543 0.708522 0.000000
0.787472 0.705196 0.000000
0.814847 0.698268 0.000000
0.841917 0.691279 0.000000
0.868711 0.684230 0.000000
0.895323 0.677180 0.000000
0.921782 0.670039 0.000000
0.948150 0.663020 0.000000
0.974578 0.655909 0.000000
1.000000 0.648798 0.000000
1.000000 0.641749 0.000000
0.000000 0.784329 0.000000
0.000000 0.783474 0.000000
0.000000 0.782559 0.000000
0.000000 0.781735 0.000000
0.051575 0.781125 0.000000
0.159945 0.780819 0.000000
0.225528 0.780728 0.000000
0.279881 0.780758 0.000000
0.329686 0.780758 0.000000
0.375616 0.780819 0.000000
0.419165 0.781033 0.000000
0.461494 0.781155 0.000000
0.502617 0.781491 0.000000
0.543420 0.781918 0.000000
0.575982 0.781827 0.000000
0.603265 0.781460 0.000000
0.631312 0.780880 0.000000
0.660121 0.780301 0.000000
0.689570 0.779416 0.000000
0.719783 0.778256 0.000000
0.750790 0.776822 0.000000
0.772671 0.765042 0.000000
0.788693 0.744686 0.000000
0.820920 0.739193 0.000000
0.847074 0.730282 0.000000
0.873136 0.721614 0.000000
0.899016 0.712978 0.000000
0.924743 0.704646 0.000000
0.950500 0.696345 0.000000
0.976379 0.688258 0.000000
1.000000 0.680232 0.000000
1.000000 0.672328 0.000000
0.000000 0.823423 0.000000
0.000000 0.823087 0.000000
0.000000 0.822690 0.000000
0.000000 0.822385 0.000000
0.000000 0.822019 0.000000
0.141695 0.821805 0.000000
0.213138 0.821592 0.000000
0.270207 0.821286 0.000000
0.321355 0.820951 0.000000
0.368200 0.820645 0.000000
0.412116 0.820340 0.000000
0.454841 0.820127 0.000000
0.496284 0.820035 0.000000
0.537133 0.820005 0.000000
0.578149 0.819974 0.000000
0.606470 0.819455 0.000000
0.634394 0.818692 0.000000
0.663050 0.817899 0.000000
0.692531 0.816922 0.000000
0.722957 0.815579 0.000000
0.754116 0.814206 0.000000
0.786221 0.812467 0.000000
0.809689 0.801572 0.000000
0.823026 0.778866 0.000000
0.854826 0.771359 0.000000
0.880095 0.760952 0.000000
0.905211 0.750790 0.000000
0.930236 0.740932 0.000000
0.955261 0.731289 0.000000
0.980407 0.721950 0.000000
1.000000 0.712764 0.000000
1.000000 0.703883 0.000000
0.000000 0.861021 0.000000
0.000000 0.860624 0.000000
0.000000 0.860319 0.000000
0.000000 0.859892 0.000000
0.000000 0.859495 0.000000
0.120943 0.859190 0.000000
0.200198 0.858854 0.000000
0.259403 0.858518 0.000000
0.311742 0.858122 0.000000
0.359747 0.857603 0.000000
0.404547 0.857115 0.000000
0.447333 0.856626 0.000000
0.488808 0.856168 0.000000
0.530053 0.855741 0.000000
0.570977 0.855314 0.000000
0.608820 0.854673 0.000000
0.636378 0.853635 0.000000
0.664851 0.852567 0.000000
0.694057 0.851255 0.000000
0.724208 0.849729 0.000000
0.755154 0.847959 0.000000
0.786984 0.845945 0.000000
0.819791 0.843656 0.000000
0.844327 0.833158 0.000000
0.856474 0.809873 0.000000
0.887205 0.800473 0.000000
0.911864 0.788815 0.000000
0.936156 0.777432 0.000000
0.960449 0.766445 0.000000
0.984894 0.755795 0.000000
1.000000 0.745449 0.000000
1.000000 0.735500 0.000000
0.000000 0.892393 0.000000
0.000000 0.892058 0.000000
0.000000 0.891752 0.000000
0.000000 0.891478 0.000000
0.000000 0.891173 0.000000
0.096010 0.890898 0.000000
0.184726 0.890623 0.000000
0.247379 0.890288 0.000000
0.301518 0.889891 0.000000
0.349859 0.889464 0.000000
0.395300 0.889006 0.000000
0.438361 0.888548 0.000000
0.480232 0.887999 0.000000
0.521294 0.887510 0.000000
0.562219 0.886961 0.000000
0.603784 0.886229 0.000000
0.637232 0.885344 0.000000
0.665431 0.884215 0.000000
0.694453 0.882811 0.000000
0.724239 0.881071 0.000000
0.754788 0.879149 0.000000
0.786404 0.876890 0.000000
0.818967 0.874540 0.000000
0.852598 0.871946 0.000000
0.878691 0.862303 0.000000
0.887297 0.836790 0.000000
0.916655 0.825711 0.000000
0.941405 0.813321 0.000000
0.965118 0.801114 0.000000
0.988922 0.789334 0.000000
1.000000 0.777951 0.000000
1.000000 0.766873 0.000000
0.000000 0.922484 0.000000
0.000000 0.922118 0.000000
0.000000 0.921874 0.000000
0.000000 0.921599 0.000000
0.000000 0.921202 0.000000
0.048737 0.920836 0.000000
0.168765 0.920409 0.000000
0.234592 0.919951 0.000000
0.290013 0.919341 0.000000
0.339391 0.918700 0.000000
0.385107 0.917998 0.000000
0.428443 0.917235 0.000000
0.470344 0.916411 0.000000
0.511498 0.915587 0.000000
0.552270 0.914672 0.000000
0.593286 0.913695 0.000000
0.634699 0.912444 0.000000
0.663722 0.911162 0.000000
0.692164 0.909697 0.000000
0.721523 0.907958 0.000000
0.751705 0.905943 0.000000
0.782864 0.903685 0.000000
0.814969 0.901305 0.000000
0.848173 0.898680 0.000000
0.882444 0.895781 0.000000
0.909758 0.886687 0.000000
0.916625 0.860777 0.000000
0.944366 0.848142 0.000000
0.968902 0.834989 0.000000
0.992004 0.822141 0.000000
1.000000 0.809689 0.000000
1.000000 0.797696 0.000000
0.000000 0.948760 0.000000
0.000000 0.948486 0.000000
0.000000 0.948302 0.000000
0.000000 0.948089 0.000000
0.000000 0.947753 0.000000
0.000000 0.947387 0.000000
0.150088 0.946929 0.000000
0.220829 0.946380 0.000000
0.278141 0.945708 0.000000
0.328069 0.944945 0.000000
0.374395 0.944091 0.000000
0.417945 0.943175 0.000000
0.459937 0.942199 0.000000
0.501061 0.941161 0.000000
0.541466 0.940093 0.000000
0.582208 0.938903 0.000000
0.623285 0.937499 0.000000
0.661372 0.935943 0.000000
0.689418 0.934417 0.000000
0.718227 0.932677 0.000000
0.747951 0.930694 0.000000
0.778622 0.928435 0.000000
0.810178 0.926024 0.000000
0.842802 0.923430 0.000000
0.876585 0.920531 0.000000
0.911437 0.917357 0.000000
0.939971 0.908751 0.000000
0.946685 0.883635 0.000000
0.971496 0.868803 0.000000
0.995727 0.854978 0.000000
1.000000 0.841520 0.000000
1.000000 0.828580 0.000000
0.000000 0.972747 0.000000
0.000000 0.972564 0.000000
0.000000 0.972381 0.000000
0.000000 0.972137 0.000000
0.000000 0.971710 0.000000
0.000000 0.971160 0.000000
0.128420 0.970428 0.000000
0.206607 0.969543 0.000000
0.265202 0.968536 0.000000
0.316167 0.967407 0.000000
0.362799 0.966186 0.000000
0.406439 0.964935 0.000000
0.448188 0.963684 0.000000
0.488960 0.962402 0.000000
0.529168 0.961059 0.000000
0.569329 0.959716 0.000000
0.609735 0.958221 0.000000
0.650690 0.956451 0.000000
0.684169 0.954711 0.000000
0.712367 0.953002 0.000000
0.741421 0.951080 0.000000
0.771389 0.948943 0.000000
0.802426 0.946593 0.000000
0.834318 0.944091 0.000000
0.867338 0.941283 0.000000
0.901427 0.938262 0.000000
0.936614 0.934905 0.000000
0.966308 0.926879 0.000000
0.972839 0.902434 0.000000
0.995117 0.886076 0.000000
1.000000 0.871794 0.000000
1.000000 0.858122 0.000000
0.000000 0.992767 0.000000
0.000000 0.992615 0.000000
0.000000 0.992493 0.000000
0.000000 0.992248 0.000000
0.000000 0.991913 0.000000
0.000000 0.991424 0.000000
0.100191 0.990814 0.000000
0.188754 0.990051 0.000000
0.251164 0.989166 0.000000
0.303532 0.988220 0.000000
0.350744 0.987152 0.000000
0.394842 0.986023 0.000000
0.436896 0.984833 0.000000
0.477577 0.983612 0.000000
0.517510 0.982269 0.000000
0.557427 0.980835 0.000000
