cubelut/Landscape4.cube
# Created by Adobe Lightroom plugin Export LUT (1.18.0)
# www.johnrellis.com/lightroom/exportlut.htm
# Preset: Landscape1
# Color profile: /Library/Application Support/Adobe/Color/Profiles/Recommended/AdobeRGB1998.icc
LUT_3D_SIZE 5
DOMAIN_MIN 0.000000 0.000000 0.000000
DOMAIN_MAX 0.903226 0.903226 0.903226
0.000000 0.000000 0.000000
0.186740 0.000000 0.000000
0.403174 0.000000 0.000000
0.654902 0.000000 0.000000
0.910063 0.000000 0.000000
0.000000 0.161959 0.000000
0.210330 0.153231 0.000000
0.422156 0.156741 0.000000
0.670130 0.196139 0.000000
0.912871 0.200717 0.000000
0.000000 0.450080 0.000000
0.288273 0.454292 0.000000
0.497169 0.453986 0.000000
0.710842 0.486030 0.000000
0.929992 0.476722 0.000000
0.000000 0.823423 0.000000
0.270207 0.821286 0.000000
0.578149 0.819974 0.000000
0.786221 0.812467 0.000000
0.955261 0.731289 0.000000
0.000000 1.000000 0.000000
0.170230 1.000000 0.000000
0.506340 1.000000 0.000000
0.759823 0.988922 0.000000
0.988891 0.967895 0.000000
0.092287 0.000000 0.198703
0.198978 0.000000 0.190433
0.418402 0.000000 0.183841
0.664240 0.000000 0.113619
0.916136 0.000000 0.000000
0.000000 0.143893 0.202304
0.194949 0.150149 0.195163
0.425757 0.081331 0.155856
0.677058 0.025025 0.105898
0.920562 0.000000 0.000000
0.000000 0.452796 0.258762
0.174197 0.454963 0.162905
0.495125 0.457649 0.150271
0.714076 0.471717 0.042359
0.933471 0.445106 0.000000
0.000000 0.824582 0.193332
0.000000 0.824033 0.000000
0.547082 0.821225 0.000000
0.783566 0.812802 0.000000
0.955993 0.724971 0.000000
0.000000 1.000000 0.000000
0.000000 1.000000 0.000000
0.472328 1.000000 0.000000
0.750912 0.989502 0.000000
0.986938 0.967834 0.000000
0.235721 0.000000 0.437781
0.300084 0.000000 0.427680
0.438087 0.000000 0.419409
0.707301 0.000000 0.462318
0.926421 0.000000 0.389715
0.147585 0.076051 0.450141
0.271000 0.051942 0.441047
0.442908 0.000000 0.426093
0.704829 0.000000 0.441535
0.925414 0.000000 0.350042
0.000000 0.389899 0.470344
0.135897 0.392859 0.466133
0.437903 0.415717 0.441016
0.700435 0.345739 0.368902
0.933654 0.283391 0.299596
0.000000 0.821439 0.553307
0.000000 0.822171 0.528618
0.415381 0.817288 0.426032
0.763363 0.806973 0.422950
0.950530 0.708217 0.345525
0.000000 1.000000 0.482704
0.000000 1.000000 0.461433
0.394598 1.000000 0.410590
0.732296 0.991760 0.386389
0.979950 0.968688 0.367956
0.387549 0.000000 0.701900
0.430640 0.000000 0.695186
0.542901 0.000000 0.671382
0.708492 0.000000 0.671931
0.956054 0.000000 0.664790
0.347478 0.000000 0.711086
0.401892 0.000000 0.705074
0.534234 0.000000 0.681483
0.712184 0.000000 0.676387
0.958587 0.000000 0.662776
0.000000 0.280186 0.737819
0.000000 0.257572 0.736019
0.480079 0.319615 0.711666
0.716091 0.288304 0.688167
0.950164 0.283482 0.638209
0.000000 0.696132 0.746151
0.000000 0.701900 0.744900
0.411261 0.729763 0.735439
0.697871 0.769436 0.704311
0.926970 0.670497 0.613550
0.000000 1.000000 0.788846
0.000000 1.000000 0.778012
0.421424 0.999512 0.750607
0.722835 0.986297 0.728511
0.961730 0.967895 0.722683
0.454444 0.000000 0.930510
0.488441 0.000000 0.928923
0.593896 0.000000 0.922789
0.757076 0.000000 0.910124
0.954253 0.000000 0.894560
0.426612 0.000000 0.933410
0.464149 0.000000 0.931792
0.577661 0.000000 0.925536
0.748898 0.000000 0.912779
0.954742 0.000000 0.896117
0.276249 0.228275 0.942931
0.364813 0.270939 0.940520
0.517205 0.244205 0.933928
0.714382 0.000000 0.920745
0.952483 0.000000 0.899901
0.000000 0.534417 0.950927
0.000000 0.541253 0.950256
0.391974 0.591089 0.945647
0.692775 0.684169 0.926268
0.931853 0.664363 0.903593
0.000000 0.870359 0.949706
0.000000 0.877195 0.949004
0.435218 0.904784 0.945312
0.714595 0.939574 0.939452
0.920134 0.955779 0.922698
