cubelut/Landscape2.cube
# Created by Adobe Lightroom plugin Export LUT (1.18.0)
# www.johnrellis.com/lightroom/exportlut.htm
# Preset: Landscape2
# Color profile: /Library/Application Support/Adobe/Color/Profiles/Recommended/AdobeRGB1998.icc
LUT_3D_SIZE 32
0.000000 0.000000 0.000000
0.001343 0.000000 0.000000
0.027741 0.000000 0.001617
0.071595 0.000000 0.003723
0.096162 0.000946 0.001556
0.120790 0.016266 0.000000
0.146670 0.034028 0.000000
0.173007 0.054078 0.000000
0.201022 0.064607 0.000000
0.229923 0.072663 0.000000
0.259831 0.079744 0.000000
0.290288 0.087251 0.000000
0.321233 0.094087 0.000000
0.352880 0.099855 0.000000
0.384771 0.105135 0.000000
0.417029 0.109346 0.000000
0.449531 0.112886 0.000000
0.482002 0.115694 0.000000
0.514397 0.117891 0.000000
0.547814 0.119722 0.000000
0.582727 0.120333 0.000000
0.619043 0.120150 0.000000
0.655787 0.119417 0.000000
0.692653 0.118105 0.000000
0.729610 0.116030 0.000000
0.766567 0.112917 0.000000
0.803433 0.110079 0.000000
0.840238 0.106844 0.000000
0.877134 0.103212 0.000000
0.914031 0.100557 0.000000
0.950774 0.098451 0.000000
0.987274 0.097993 0.000000
0.000000 0.004822 0.000702
0.001190 0.009186 0.000305
0.026246 0.016724 0.001190
0.069612 0.030579 0.001617
0.094270 0.043275 0.001556
0.119417 0.054749 0.000000
0.145144 0.064363 0.000000
0.171939 0.071809 0.000000
0.200259 0.078401 0.000000
0.229648 0.085145 0.000000
0.259861 0.091188 0.000000
0.290501 0.097292 0.000000
0.321569 0.103243 0.000000
0.353246 0.108888 0.000000
0.385229 0.113130 0.000000
0.417548 0.117128 0.000000
0.450019 0.120577 0.000000
0.482521 0.123354 0.000000
0.514916 0.125154 0.000000
0.548363 0.126558 0.000000
0.583276 0.127504 0.000000
0.619715 0.127199 0.000000
0.656367 0.126711 0.000000
0.693202 0.125307 0.000000
0.730159 0.123293 0.000000
0.767056 0.120882 0.000000
0.803891 0.118044 0.000000
0.840726 0.115023 0.000000
0.877531 0.112032 0.000000
0.914427 0.109346 0.000000
0.951141 0.107759 0.000000
0.987610 0.107637 0.000000
0.000000 0.050172 0.002441
0.000000 0.054536 0.000000
0.024567 0.056275 0.000000
0.064576 0.065827 0.006531
0.089204 0.072267 0.008331
0.115328 0.077577 0.004913
0.141573 0.083040 0.000366
0.169039 0.088746 0.000000
0.197726 0.094270 0.000000
0.227573 0.099702 0.000000
0.257969 0.105348 0.000000
0.289036 0.110445 0.000000
0.320531 0.115236 0.000000
0.352605 0.119814 0.000000
0.384894 0.123873 0.000000
0.417578 0.127077 0.000000
0.450233 0.130098 0.000000
0.482643 0.132662 0.000000
0.515129 0.134432 0.000000
0.548547 0.135714 0.000000
0.583551 0.136507 0.000000
0.619928 0.136233 0.000000
0.656611 0.135775 0.000000
0.693446 0.134279 0.000000
0.730373 0.132845 0.000000
0.767300 0.130404 0.000000
0.804074 0.128054 0.000000
0.840879 0.125551 0.000000
0.877745 0.122316 0.000000
0.914580 0.120424 0.000000
0.951293 0.118746 0.000000
0.987762 0.118868 0.000000
0.000000 0.089937 0.006928
0.000000 0.090791 0.000000
0.013642 0.091005 0.000000
0.062593 0.091524 0.000000
0.087587 0.096223 0.005737
0.106325 0.101595 0.021180
0.134188 0.108156 0.015686
0.162753 0.113619 0.010285
0.192355 0.118746 0.004425
0.222690 0.123659 0.000000
0.253788 0.128450 0.000000
0.285313 0.132753 0.000000
0.317235 0.136995 0.000000
0.349676 0.140749 0.000000
0.382269 0.144137 0.000000
0.415137 0.147005 0.000000
0.448157 0.149447 0.000000
0.481056 0.151583 0.000000
0.513939 0.152773 0.000000
0.547753 0.153964 0.000000
0.583154 0.154177 0.000000
0.619806 0.154238 0.000000
0.656672 0.153658 0.000000
0.693629 0.152438 0.000000
0.730495 0.150912 0.000000
0.767269 0.149142 0.000000
0.804013 0.146548 0.000000
0.840757 0.144808 0.000000
0.877623 0.142672 0.000000
0.914519 0.140658 0.000000
0.951263 0.139773 0.000000
0.987854 0.139681 0.000000
0.000000 0.122683 0.003265
0.000000 0.123079 0.000000
0.000000 0.123262 0.000000
0.054505 0.123507 0.000000
0.085786 0.123384 0.000000
0.111696 0.128084 0.006958
0.130129 0.131167 0.025452
0.153506 0.137209 0.030091
0.184085 0.143923 0.020844
0.215457 0.149599 0.012451
0.247440 0.154635 0.003571
0.279698 0.159030 0.000000
0.312291 0.162936 0.000000
0.345037 0.166537 0.000000
0.378027 0.169741 0.000000
0.411139 0.172488 0.000000
0.444404 0.174563 0.000000
0.477516 0.176394 0.000000
0.510704 0.177462 0.000000
0.544732 0.178500 0.000000
0.580346 0.179110 0.000000
0.617365 0.179110 0.000000
0.654505 0.178836 0.000000
0.691737 0.178103 0.000000
0.728939 0.176761 0.000000
0.766079 0.175326 0.000000
0.803098 0.173404 0.000000
0.840146 0.171298 0.000000
0.877226 0.169467 0.000000
0.914305 0.167910 0.000000
0.951263 0.166659 0.000000
0.987884 0.166659 0.000000
0.000000 0.156344 0.010407
0.000000 0.156832 0.000000
0.000000 0.156832 0.000000
0.030152 0.156100 0.000000
0.080903 0.156771 0.000000
0.109804 0.156252 0.000000
0.137881 0.161654 0.005585
0.156924 0.162905 0.022889
0.176455 0.166232 0.039216
0.205722 0.173373 0.034485
0.238651 0.179995 0.021912
0.271702 0.185428 0.011414
0.304936 0.189792 0.000763
0.338415 0.193790 0.000000
0.371893 0.197055 0.000000
0.405524 0.199710 0.000000
0.439094 0.201877 0.000000
0.472541 0.203586 0.000000
0.505943 0.204929 0.000000
0.540337 0.205783 0.000000
0.576165 0.206546 0.000000
0.613550 0.207004 0.000000
0.647028 0.206210 0.000000
0.684718 0.205936 0.000000
0.722469 0.205295 0.000000
0.760159 0.204288 0.000000
0.797726 0.203281 0.000000
0.835294 0.201785 0.000000
0.872862 0.200626 0.000000
0.910460 0.199741 0.000000
0.947845 0.199374 0.000000
0.984985 0.199771 0.000000
0.000000 0.191012 0.020294
0.000000 0.191104 0.000610
0.000000 0.191257 0.000000
0.000000 0.190463 0.000000
0.072297 0.188907 0.000000
0.106325 0.190402 0.000000
0.134859 0.189334 0.000000
0.165499 0.195987 0.000000
0.185519 0.195712 0.017365
0.205478 0.198001 0.037385
0.226719 0.201999 0.052857
0.260624 0.209171 0.039338
0.294499 0.215091 0.026062
0.328618 0.219944 0.012543
0.362921 0.223819 0.000000
0.397040 0.227054 0.000000
0.431189 0.229587 0.000000
0.465187 0.231479 0.000000
0.498970 0.232914 0.000000
0.533623 0.233951 0.000000
0.569604 0.234989 0.000000
0.606928 0.235813 0.000000
0.644465 0.236271 0.000000
0.682185 0.236210 0.000000
0.719875 0.235996 0.000000
0.757717 0.235416 0.000000
0.795529 0.234897 0.000000
0.833371 0.234165 0.000000
0.871214 0.233524 0.000000
0.909026 0.233433 0.000000
0.946654 0.233738 0.000000
0.983978 0.234958 0.000000
0.000000 0.228122 0.033997
0.000000 0.228122 0.013336
0.000000 0.228122 0.000000
0.000000 0.227390 0.000000
0.049989 0.225620 0.000000
0.099886 0.224521 0.000000
0.133516 0.226169 0.000000
0.162448 0.224826 0.000000
0.194156 0.230228 0.000000
0.217502 0.231632 0.009827
0.237613 0.232151 0.034424
0.257572 0.233982 0.056153
0.283970 0.238804 0.059968
0.318761 0.245060 0.048829
0.353704 0.250187 0.033021
0.388586 0.254032 0.016815
0.423255 0.257206 0.001373
0.457710 0.259617 0.000000
0.492042 0.261387 0.000000
0.527214 0.262882 0.000000
0.563653 0.264378 0.000000
0.601526 0.265629 0.000000
0.639704 0.266545 0.000000
0.677943 0.267124 0.000000
0.716182 0.267277 0.000000
0.754482 0.267460 0.000000
0.792660 0.267277 0.000000
0.830838 0.267185 0.000000
0.869017 0.267338 0.000000
0.907164 0.267796 0.000000
0.945037 0.268803 0.000000
0.982635 0.270634 0.000000
0.000000 0.266819 0.046723
0.000000 0.266636 0.025147
0.000000 0.266636 0.000000
0.000000 0.266087 0.000000
0.000000 0.264195 0.000000
0.087465 0.261540 0.000000
0.127901 0.261418 0.000000
0.161929 0.263127 0.000000
0.191714 0.261082 0.000000
0.223880 0.264897 0.000000
0.251377 0.268528 0.000824
0.271336 0.267094 0.029755
0.291142 0.267460 0.057008
0.310704 0.268833 0.070008
0.342748 0.274418 0.066712
0.378271 0.279759 0.059174
0.413611 0.283818 0.043854
0.448707 0.286961 0.024964
0.483558 0.289250 0.006012
0.519341 0.291356 0.000000
0.556237 0.293462 0.000000
0.594751 0.295323 0.000000
0.633692 0.296880 0.000000
0.672511 0.298100 0.000000
0.711360 0.298894 0.000000
0.750210 0.299504 0.000000
0.788937 0.300023 0.000000
0.827573 0.300664 0.000000
0.866178 0.301366 0.000000
0.904753 0.302464 0.000000
0.942992 0.304204 0.000000
0.980896 0.306737 0.000000
0.000000 0.306554 0.056886
0.000000 0.306432 0.038636
0.000000 0.306279 0.005097
0.000000 0.305791 0.000000
0.000000 0.304082 0.000000
0.062287 0.301152 0.000000
0.119295 0.297642 0.000000
0.157321 0.298894 0.000000
0.192477 0.300572 0.000000
0.223026 0.297978 0.000000
0.255039 0.299626 0.000000
0.287358 0.306004 0.000000
0.307073 0.303044 0.025269
0.326421 0.301701 0.058625
0.345495 0.301457 0.072480
0.366369 0.302861 0.081483
0.402380 0.308293 0.074098
0.437964 0.312566 0.065919
0.473487 0.315923 0.056245
0.509819 0.318822 0.035218
0.547601 0.321660 0.009522
0.586755 0.324437 0.000000
0.626612 0.326726 0.000000
0.666346 0.328801 0.000000
0.705928 0.330327 0.000000
0.745449 0.331640 0.000000
0.784695 0.332799 0.000000
0.823850 0.334051 0.000000
0.862943 0.335454 0.000000
0.901823 0.337224 0.000000
0.940398 0.339727 0.000000
0.978607 0.342962 0.000000
0.000000 0.347570 0.065431
0.000000 0.347448 0.052857
0.000000 0.347204 0.019318
0.000000 0.346532 0.000000
0.000000 0.344884 0.000000
0.000000 0.341985 0.000000
0.102480 0.338170 0.000000
0.150179 0.335363 0.000000
0.188174 0.336675 0.000000
0.224430 0.338262 0.000000
0.255741 0.334997 0.000000
0.287419 0.334508 0.000000
0.325139 0.343999 0.000000
0.344488 0.339422 0.018616
0.363317 0.336492 0.058198
0.381781 0.334630 0.074617
0.399695 0.333623 0.087037
0.426123 0.336187 0.089540
0.462440 0.340673 0.081941
0.499519 0.344823 0.073610
0.537835 0.348760 0.063478
0.577630 0.352392 0.044190
0.618341 0.355901 0.014130
0.658869 0.358740 0.000000
0.699245 0.361181 0.000000
0.739590 0.363195 0.000000
0.779538 0.365179 0.000000
0.819364 0.367193 0.000000
0.859007 0.369268 0.000000
0.898466 0.371893 0.000000
0.937499 0.375128 0.000000
0.976074 0.379278 0.000000
0.000000 0.389258 0.072816
0.000000 0.389044 0.063661
0.000000 0.388678 0.038758
0.000000 0.387884 0.000000
0.000000 0.386694 0.000000
0.000000 0.383490 0.000000
0.072816 0.379553 0.000000
0.138247 0.374609 0.000000
0.182071 0.373236 0.000000
0.220706 0.374487 0.000000
0.257939 0.375769 0.000000
0.289921 0.371954 0.000000
0.318395 0.367010 0.000000
0.361822 0.379980 0.000000
0.380499 0.373968 0.011597
0.398718 0.369390 0.058778
0.416510 0.366278 0.076173
0.433814 0.364111 0.089815
0.451209 0.362951 0.101076
0.485451 0.367529 0.097200
0.524498 0.372747 0.089082
0.564843 0.377874 0.080323
0.606683 0.382574 0.069520
0.648402 0.386694 0.056062
0.689876 0.390265 0.029114
0.731106 0.393408 0.002075
0.772061 0.396307 0.000000
0.812741 0.399237 0.000000
0.853239 0.402319 0.000000
0.893431 0.405707 0.000000
0.933104 0.409888 0.000000
0.972259 0.414954 0.000000
0.000000 0.429816 0.081086
0.000000 0.429572 0.072816
0.000000 0.429297 0.057618
0.000000 0.428534 0.000000
0.000000 0.427466 0.000000
0.000000 0.424781 0.000000
0.000000 0.420813 0.000000
0.118410 0.415747 0.000000
0.173159 0.409735 0.000000
0.214939 0.410346 0.000000
0.254063 0.411322 0.000000
0.291783 0.412146 0.000000
0.324102 0.407538 0.000000
0.353765 0.402716 0.000000
0.402472 0.418372 0.000000
0.420905 0.411078 0.003815
0.438270 0.404913 0.058717
0.455116 0.400122 0.078065
0.472023 0.396796 0.093172
0.490028 0.395178 0.105226
0.512566 0.396155 0.113008
0.553735 0.402716 0.105440
0.596460 0.408972 0.097139
0.639185 0.414496 0.088655
0.681697 0.419287 0.080049
0.723842 0.423499 0.071229
0.765682 0.427527 0.063508
0.807156 0.431342 0.057038
0.848356 0.435309 0.051637
0.889158 0.439673 0.056336
0.929442 0.444800 0.066224
0.969055 0.450782 0.081453
0.000000 0.472541 0.090852
0.000000 0.472267 0.082612
0.000000 0.471870 0.070436
0.000000 0.471168 0.008209
0.000000 0.469825 0.000000
0.000000 0.467475 0.000000
0.000000 0.463478 0.000000
0.087343 0.458381 0.000000
0.158846 0.452125 0.000000
0.207919 0.447333 0.000000
0.249485 0.448096 0.000000
0.289281 0.448798 0.000000
0.327550 0.448981 0.000000
0.360632 0.444221 0.000000
0.391363 0.439368 0.000000
0.440864 0.454078 0.000000
0.462196 0.448127 0.000000
0.478706 0.440528 0.058961
0.495155 0.434607 0.080598
0.512779 0.430854 0.096407
0.531609 0.428962 0.109316
0.551965 0.428840 0.120363
0.585016 0.433417 0.121828
0.628809 0.440558 0.114870
0.672328 0.446784 0.108553
0.715541 0.452369 0.102693
0.758328 0.457527 0.098024
0.800717 0.462531 0.095552
0.842710 0.467597 0.095979
0.884245 0.472999 0.100038
0.925109 0.479103 0.108583
0.965270 0.486213 0.122011
0.000000 0.515038 0.100710
0.000000 0.514794 0.093782
0.000000 0.514366 0.082979
0.000000 0.513542 0.042786
0.000000 0.512169 0.000000
0.000000 0.510369 0.000000
0.000000 0.506249 0.000000
0.000000 0.501061 0.000000
0.138155 0.494850 0.000000
0.197513 0.487556 0.000000
0.243351 0.484779 0.000000
0.285130 0.485298 0.000000
0.325383 0.485847 0.000000
0.364233 0.485451 0.000000
0.398047 0.480629 0.000000
0.429633 0.475715 0.000000
0.479683 0.489540 0.000000
0.504234 0.485145 0.000000
0.520287 0.476539 0.058991
0.537560 0.470405 0.083009
0.556054 0.466377 0.099672
0.576013 0.464424 0.113222
0.597498 0.464179 0.125246
0.620386 0.465522 0.136995
0.662043 0.472572 0.133822
0.706294 0.479774 0.129366
0.750088 0.486275 0.126406
0.793362 0.492531 0.125460
0.836149 0.498787 0.127260
0.878386 0.505364 0.132052
0.919921 0.512566 0.141207
0.960601 0.520806 0.155032
0.000000 0.557488 0.111727
0.000000 0.557092 0.105074
0.000000 0.556664 0.095338
0.000000 0.555749 0.068788
0.000000 0.554192 0.000000
0.000000 0.552178 0.000000
0.000000 0.548516 0.000000
0.000000 0.543420 0.000000
0.106538 0.537133 0.000000
0.181704 0.529808 0.000000
0.234928 0.521416 0.000000
0.279362 0.521477 0.000000
0.321416 0.521965 0.000000
0.362402 0.522423 0.000000
0.401556 0.521538 0.000000
0.436133 0.516686 0.000000
0.468238 0.511681 0.000000
0.517601 0.523735 0.000000
0.547478 0.522698 0.000000
0.564202 0.513909 0.059693
0.582116 0.507469 0.084718
0.601129 0.503014 0.102876
0.621302 0.500572 0.118135
0.643122 0.499916 0.131411
0.666529 0.501183 0.144472
0.695857 0.505211 0.154421
0.740749 0.513420 0.152255
0.785061 0.521172 0.152377
0.828855 0.528893 0.155215
0.872007 0.536797 0.161074
0.914366 0.545312 0.171298
0.955779 0.554986 0.186435
0.000000 0.599451 0.123018
0.000000 0.599145 0.117098
0.000000 0.598718 0.108431
0.000000 0.597772 0.085512
0.000000 0.596277 0.000000
0.000000 0.594232 0.000000
0.000000 0.591119 0.000000
0.000000 0.585931 0.000000
0.022827 0.579706 0.000000
0.160220 0.572442 0.000000
0.222873 0.564111 0.000000
0.272099 0.557549 0.000000
0.316075 0.557916 0.000000
0.358495 0.558251 0.000000
0.399969 0.558587 0.000000
0.439185 0.557183 0.000000
0.474189 0.552239 0.000000
0.507073 0.547234 0.000000
0.555688 0.557702 0.000000
0.592340 0.561425 0.000000
0.609155 0.551965 0.060761
0.627070 0.544854 0.088228
0.646113 0.539940 0.108278
0.666682 0.537133 0.124666
0.688777 0.536339 0.139895
0.712764 0.537621 0.154574
0.738918 0.541039 0.170108
0.776364 0.548547 0.178470
0.821134 0.557824 0.182132
0.865263 0.567254 0.189303
0.908415 0.577203 0.200473
0.950469 0.588312 0.216739
0.000000 0.639002 0.134920
0.000000 0.638605 0.128969
0.000000 0.635981 0.120699
0.000000 0.635096 0.100740
0.000000 0.633692 0.051850
0.000000 0.631830 0.000000
0.000000 0.629358 0.000000
0.000000 0.624811 0.000000
0.000000 0.619104 0.000000
0.128878 0.612329 0.000000
0.205539 0.604578 0.000000
0.261448 0.595789 0.000000
0.308415 0.592218 0.000000
0.352544 0.592615 0.000000
0.395087 0.592981 0.000000
0.436805 0.593286 0.000000
0.476295 0.591516 0.000000
0.511925 0.586816 0.000000
0.545434 0.582055 0.000000
0.592279 0.590448 0.000000
0.635523 0.598871 0.000000
0.652369 0.588922 0.064881
0.670375 0.581415 0.094087
0.689754 0.576349 0.115297
0.710597 0.573419 0.133455
0.733272 0.572778 0.150637
0.757961 0.574426 0.167758
0.784939 0.578576 0.186282
0.814359 0.585595 0.206943
0.857939 0.596460 0.216770
0.901976 0.608087 0.229343
0.944823 0.620752 0.247196
0.000000 0.676081 0.146731
0.000000 0.675593 0.141787
0.000000 0.674891 0.134340
0.000000 0.673854 0.117128
0.000000 0.672389 0.081605
0.000000 0.670588 0.000000
0.000000 0.668299 0.000000
0.000000 0.664637 0.000000
0.000000 0.659388 0.000000
0.076875 0.653193 0.000000
0.183749 0.645960 0.000000
0.248264 0.637812 0.000000
0.300481 0.628656 0.000000
0.346502 0.628290 0.000000
0.390356 0.628534 0.000000
0.433143 0.628717 0.000000
0.475105 0.628870 0.000000
0.514427 0.626612 0.000000
0.550530 0.622004 0.000000
0.584527 0.617365 0.000000
0.629389 0.623651 0.000000
0.677638 0.635706 0.000000
0.695430 0.626123 0.073701
0.713527 0.618433 0.103517
0.732967 0.613062 0.125887
0.754086 0.610224 0.145663
0.777188 0.609796 0.164706
0.802457 0.612055 0.184878
0.830076 0.617212 0.206699
0.860075 0.625513 0.232029
0.895079 0.637629 0.258274
0.938689 0.652094 0.277836
0.000000 0.712764 0.159518
0.000000 0.712245 0.155062
0.000000 0.711696 0.148226
0.000000 0.710780 0.132967
0.000000 0.709438 0.103761
0.000000 0.707851 0.007752
0.000000 0.705776 0.000000
0.000000 0.702998 0.000000
0.000000 0.698207 0.000000
0.000000 0.692500 0.000000
0.155062 0.685908 0.000000
0.231327 0.678370 0.000000
0.289525 0.669947 0.000000
0.338842 0.663233 0.000000
0.384253 0.663355 0.000000
0.428107 0.663386 0.000000
0.470863 0.663416 0.000000
0.512718 0.663355 0.000000
0.551965 0.660639 0.000000
0.588220 0.656184 0.000000
0.622431 0.651606 0.000000
0.665034 0.655909 0.000000
0.715053 0.669429 0.036835
0.736812 0.662684 0.086732
0.754940 0.654841 0.116274
0.774655 0.649592 0.139681
0.796201 0.647028 0.161227
0.819852 0.647242 0.182925
0.845701 0.650416 0.206210
0.873808 0.656794 0.232456
0.904082 0.666957 0.263493
0.936339 0.681697 0.301610
0.000000 0.747799 0.172915
0.000000 0.747372 0.168612
0.000000 0.746883 0.162448
0.000000 0.746029 0.148775
0.000000 0.744869 0.123873
0.000000 0.743404 0.076112
0.000000 0.741634 0.000000
0.000000 0.739437 0.000000
0.000000 0.735348 0.000000
0.000000 0.730159 0.000000
0.113527 0.724239 0.000000
0.210056 0.717403 0.000000
0.275181 0.709712 0.000000
0.329320 0.701137 0.000000
0.376776 0.697383 0.000000
0.421637 0.697322 0.000000
0.465248 0.697108 0.000000
0.507591 0.696803 0.000000
0.549187 0.696407 0.000000
0.587945 0.693202 0.000000
0.624018 0.688746 0.000000
0.658259 0.684230 0.000000
0.698482 0.686488 0.000000
0.749813 0.701442 0.073854
0.775479 0.697688 0.102754
0.793790 0.690089 0.131502
0.813840 0.685115 0.156283
0.835843 0.683192 0.179965
0.859983 0.684199 0.204410
0.886259 0.688594 0.231724
0.914672 0.696651 0.263371
0.945006 0.709194 0.301854
0.000000 0.780453 0.185824
0.000000 0.780209 0.182162
0.000000 0.779812 0.176669
0.000000 0.779232 0.164309
0.000000 0.778286 0.142916
0.000000 0.777066 0.105806
0.000000 0.775479 0.000000
0.000000 0.773526 0.000000
0.000000 0.770443 0.000000
0.000000 0.765682 0.000000
0.000000 0.760311 0.000000
0.183261 0.754055 0.000000
0.257633 0.747097 0.000000
0.316503 0.739315 0.000000
0.367590 0.730770 0.000000
0.413764 0.729915 0.000000
0.458106 0.729641 0.000000
0.501213 0.729274 0.000000
0.543236 0.728847 0.000000
0.584405 0.728267 0.000000
0.622889 0.724849 0.000000
0.658930 0.720577 0.000000
0.693233 0.716304 0.000000
0.731228 0.716945 0.048676
0.783505 0.733333 0.099916
0.813291 0.732998 0.122499
0.831968 0.725643 0.151003
0.852445 0.721370 0.177218
0.874876 0.720180 0.203525
0.899382 0.722347 0.231693
0.925902 0.728237 0.264195
0.954406 0.738582 0.303075
0.000000 0.812436 0.199649
0.000000 0.812192 0.196231
0.000000 0.811917 0.191379
0.000000 0.811276 0.180148
0.000000 0.810513 0.161257
0.000000 0.809445 0.130526
0.000000 0.808133 0.070985
0.000000 0.806455 0.000000
0.000000 0.804288 0.000000
0.000000 0.800076 0.000000
0.000000 0.795163 0.000000
0.149081 0.789609 0.000000
0.236881 0.783322 0.000000
0.301671 0.776272 0.000000
0.356420 0.768551 0.000000
0.405097 0.762203 0.000000
0.450324 0.761807 0.000000
0.494118 0.761349 0.000000
0.536706 0.760769 0.000000
0.578241 0.760128 0.000000
0.618891 0.759396 0.000000
0.656825 0.755734 0.000000
0.692714 0.751614 0.000000
0.726772 0.747494 0.000000
0.762936 0.746944 0.081056
0.815152 0.763943 0.124453
0.849454 0.767758 0.145418
0.868528 0.761074 0.174197
0.889372 0.757626 0.202304
0.912169 0.757443 0.231815
0.936919 0.761044 0.264988
0.963561 0.769039 0.304265
0.000000 0.842374 0.213443
0.000000 0.842130 0.210239
0.000000 0.841855 0.205814
0.000000 0.841428 0.195834
0.000000 0.840787 0.178897
0.000000 0.839933 0.152712
0.000000 0.838804 0.109651
0.000000 0.837461 0.000000
0.000000 0.835752 0.000000
0.000000 0.832486 0.000000
0.000000 0.828214 0.000000
0.100587 0.823270 0.000000
0.212802 0.817685 0.000000
0.284459 0.811429 0.000000
0.343206 0.804593 0.000000
0.395026 0.797055 0.000000
0.441901 0.793484 0.000000
0.486397 0.792996 0.000000
0.529595 0.792416 0.000000
0.571588 0.791653 0.000000
0.612543 0.790829 0.000000
0.652583 0.789975 0.000000
0.690120 0.786221 0.000000
0.725765 0.782315 0.000000
0.759579 0.778500 0.000855
0.793118 0.776089 0.105684
0.844419 0.792935 0.147951
0.883574 0.801816 0.170657
0.903014 0.795956 0.200534
0.924224 0.793454 0.231327
0.947326 0.794705 0.265293
0.972259 0.800259 0.304967
0.000000 0.871580 0.227848
0.000000 0.871366 0.225010
0.000000 0.871183 0.220798
0.000000 0.870787 0.211856
0.000000 0.870237 0.196658
0.000000 0.869505 0.173953
0.000000 0.868559 0.139162
0.000000 0.867399 0.072572
0.000000 0.865965 0.000000
0.000000 0.863615 0.000000
0.000000 0.859831 0.000000
0.000000 0.855375 0.000000
0.184970 0.850431 0.000000
0.265232 0.844816 0.000000
0.328222 0.838712 0.000000
0.382849 0.831968 0.000000
0.432319 0.824613 0.000000
0.477699 0.823514 0.000000
0.521324 0.822873 0.000000
0.563806 0.822141 0.000000
0.605035 0.821286 0.000000
0.645411 0.820371 0.000000
0.684840 0.819394 0.000000
0.721920 0.815671 0.000000
0.757229 0.811978 0.000000
0.790707 0.808408 0.071778
0.822416 0.804959 0.130159
0.872190 0.821347 0.172396
0.914366 0.833921 0.198703
0.935332 0.830106 0.230076
0.956847 0.828946 0.264744
0.980194 0.831998 0.304753
0.000000 0.899199 0.242588
0.000000 0.899046 0.239841
0.000000 0.898894 0.236118
0.000000 0.898619 0.227939
0.000000 0.898192 0.214450
0.000000 0.897612 0.194522
0.000000 0.896849 0.165255
0.000000 0.895933 0.118013
0.000000 0.894774 0.000000
0.000000 0.893370 0.000000
0.000000 0.889982 0.000000
0.000000 0.886076 0.000000
0.151492 0.881682 0.000000
0.244358 0.876768 0.000000
0.311925 0.871366 0.000000
0.369451 0.865476 0.000000
0.421241 0.859007 0.000000
0.468574 0.853666 0.000000
0.512871 0.852995 0.000000
0.555688 0.852232 0.000000
0.597375 0.851377 0.000000
0.638025 0.850492 0.000000
0.677638 0.849546 0.000000
0.716304 0.848356 0.000000
0.752956 0.844816 0.000000
0.787839 0.841367 0.000000
0.820951 0.838041 0.106050
0.852171 0.834836 0.155795
0.899046 0.849546 0.198886
0.941527 0.863859 0.231235
0.966125 0.864256 0.264317
0.987915 0.864805 0.304540
0.000000 0.925750 0.257633
0.000000 0.925628 0.255222
0.000000 0.925505 0.251743
0.000000 0.925292 0.244266
0.000000 0.924895 0.231937
0.000000 0.924407 0.214115
0.000000 0.923735 0.188632
0.000000 0.922911 0.151278
0.000000 0.921874 0.082673
0.000000 0.920684 0.000000
0.000000 0.918151 0.000000
0.000000 0.914672 0.000000
0.105623 0.910765 0.000000
0.220279 0.906432 0.000000
0.293767 0.901640 0.000000
0.354284 0.896452 0.000000
0.408240 0.890837 0.000000
0.457557 0.884733 0.000000
0.503105 0.881621 0.000000
0.546380 0.880888 0.000000
0.588403 0.880034 0.000000
0.629297 0.879179 0.000000
0.669184 0.878264 0.000000
0.708125 0.877348 0.000000
0.746059 0.875944 0.000000
0.782223 0.872679 0.000000
0.816617 0.869444 0.064546
0.849210 0.866361 0.135348
0.879881 0.863462 0.181064
0.924041 0.876707 0.225620
0.966430 0.892546 0.265049
0.994385 0.897459 0.302159
0.000000 0.950408 0.272068
0.000000 0.950347 0.269902
0.000000 0.950256 0.266911
0.000000 0.950103 0.260105
0.000000 0.949859 0.248997
0.000000 0.949493 0.232975
0.000000 0.949065 0.210636
0.000000 0.948455 0.179294
0.000000 0.947753 0.130770
0.000000 0.946929 0.000000
0.000000 0.945434 0.000000
0.000000 0.942504 0.000000
0.000000 0.939178 0.000000
0.195529 0.935485 0.000000
0.275669 0.931395 0.000000
0.339452 0.926970 0.000000
