cubelut/Landscape9.cube
# Created by Adobe Lightroom plugin Export LUT (1.18.0)
# www.johnrellis.com/lightroom/exportlut.htm
# Preset: Landscape9
# Color profile: /Library/Application Support/Adobe/Color/Profiles/Recommended/AdobeRGB1998.icc
LUT_3D_SIZE 8
DOMAIN_MIN 0.000000 0.000000 0.000000
DOMAIN_MAX 0.903226 0.903226 0.903226
0.021393 0.019074 0.023835
0.095888 0.038056 0.050416
0.199771 0.081910 0.074067
0.344518 0.127687 0.099428
0.517723 0.195041 0.143679
0.699580 0.277562 0.204868
0.856657 0.369909 0.290990
0.955138 0.473610 0.409155
0.023560 0.100740 0.008545
0.109957 0.100069 0.003967
0.211551 0.122713 0.065064
0.356085 0.165621 0.094423
0.528771 0.228397 0.140597
0.709224 0.305516 0.203372
0.861784 0.390661 0.290990
0.956817 0.486580 0.409308
0.077333 0.204105 0.007416
0.134279 0.204288 0.006622
0.230838 0.212100 0.003662
0.367407 0.254459 0.058259
0.537255 0.314611 0.115724
0.711849 0.378515 0.183017
0.858946 0.443275 0.271580
0.955688 0.518456 0.392798
0.114443 0.333623 0.000000
0.163729 0.334874 0.000000
0.269902 0.335912 0.000000
0.376287 0.351354 0.000000
0.532677 0.404578 0.000000
0.712337 0.483497 0.130770
0.861295 0.532006 0.238254
0.957244 0.579736 0.369360
0.150973 0.479866 0.000000
0.195071 0.480446 0.000000
0.298558 0.480659 0.000000
0.414130 0.486183 0.000000
0.538781 0.513420 0.000000
0.707424 0.571771 0.000000
0.863615 0.631067 0.158450
0.958862 0.663447 0.329046
0.187839 0.636286 0.000000
0.226627 0.633753 0.000000
0.326452 0.634577 0.000000
0.448798 0.635492 0.000000
0.571130 0.652583 0.000000
0.702663 0.680049 0.000000
0.850858 0.714412 0.000000
0.957824 0.736172 0.214267
0.223789 0.790951 0.000000
0.258579 0.790402 0.000000
0.353155 0.791196 0.000000
0.473426 0.791287 0.000000
0.604273 0.791501 0.000000
0.720241 0.807370 0.000000
0.843412 0.821683 0.000000
0.954253 0.820554 0.000000
0.256413 0.919799 0.000000
0.286198 0.919585 0.000000
0.370489 0.918425 0.000000
0.482185 0.915679 0.000000
0.607141 0.914885 0.000000
0.726345 0.912169 0.000000
0.830381 0.913939 0.000000
0.937346 0.914336 0.000000
0.020691 0.012055 0.111940
0.108370 0.001648 0.110536
0.212406 0.066590 0.119387
0.355108 0.141421 0.166934
0.529778 0.208957 0.209079
0.711696 0.291875 0.263462
0.862608 0.386847 0.341802
0.955138 0.494545 0.451972
0.002289 0.101595 0.113313
0.108614 0.101900 0.112917
0.215183 0.128206 0.132692
0.361425 0.172122 0.162112
0.535485 0.236942 0.204990
0.716304 0.315679 0.260349
0.866209 0.405127 0.340734
0.956756 0.506645 0.452308
0.000000 0.211490 0.097719
0.118837 0.212558 0.102052
0.234226 0.216403 0.103304
0.373999 0.260380 0.137514
0.545190 0.319219 0.183566
0.720272 0.385412 0.241276
0.866209 0.455573 0.323400
0.956512 0.535302 0.436622
0.012024 0.344915 0.044434
0.140658 0.345312 0.072877
0.266300 0.344549 0.066255
0.384985 0.360510 0.068635
0.547662 0.416205 0.113832
0.725216 0.491829 0.199619
0.869017 0.540642 0.292180
0.958282 0.591272 0.413062
0.110567 0.487037 0.000000
0.170321 0.487831 0.000000
0.289799 0.488533 0.000000
0.416663 0.493843 0.000000
0.546868 0.522087 0.000000
0.715724 0.578363 0.000000
0.868009 0.636469 0.221683
0.959136 0.668727 0.371283
0.154879 0.643610 0.000000
0.203891 0.643610 0.000000
0.316381 0.643854 0.000000
0.446174 0.643458 0.000000
0.572778 0.657496 0.000000
0.705409 0.683253 0.000000
0.853788 0.716762 0.000000
0.958434 0.739132 0.264836
0.196689 0.797574 0.000000
0.237766 0.798184 0.000000
0.341588 0.798093 0.000000
0.467659 0.796750 0.000000
0.601953 0.795468 0.000000
0.721157 0.810300 0.000000
0.846067 0.824674 0.000000
0.956390 0.822629 0.000000
0.235111 0.922667 0.000000
0.268070 0.922148 0.000000
0.358434 0.920775 0.000000
0.474678 0.917723 0.000000
0.601007 0.914122 0.000000
0.723934 0.911894 0.000000
0.829862 0.914549 0.000000
0.937804 0.915129 0.000000
0.081575 0.000000 0.238376
0.134890 0.000000 0.237308
0.229892 0.000000 0.233738
0.360021 0.000000 0.245609
0.530266 0.135592 0.281010
0.708217 0.315465 0.383062
0.856291 0.425757 0.456886
0.944732 0.547662 0.554498
0.022065 0.087404 0.241886
0.126925 0.094362 0.240604
0.232120 0.090272 0.236973
0.365728 0.114443 0.249454
0.536553 0.203006 0.295567
0.712428 0.338781 0.384649
0.859068 0.439887 0.455756
0.945800 0.555688 0.553429
0.000000 0.215976 0.238224
0.082185 0.216709 0.238712
0.228824 0.217319 0.237827
0.369970 0.260807 0.272801
0.539971 0.320439 0.315740
0.716518 0.393957 0.368139
0.861448 0.479805 0.441566
0.947478 0.577966 0.542077
0.000000 0.348119 0.225498
0.000000 0.351019 0.218540
0.226871 0.356664 0.210819
0.384405 0.363348 0.219242
0.548425 0.420111 0.273716
0.721614 0.487739 0.335546
0.863981 0.549615 0.412879
0.949767 0.618555 0.518425
0.000000 0.494789 0.185061
0.000000 0.497810 0.168460
0.239750 0.501152 0.183749
0.405097 0.498482 0.178073
0.546410 0.524071 0.195926
0.718837 0.581201 0.249699
0.866819 0.645594 0.363989
0.952575 0.682033 0.480964
0.000000 0.653223 0.000000
0.000000 0.654139 0.059815
0.260929 0.655116 0.140688
0.422766 0.654414 0.132662
0.568383 0.662867 0.132326
0.708522 0.688228 0.157351
0.857145 0.720302 0.225620
0.954498 0.746426 0.391943
0.000000 0.803616 0.000000
0.071046 0.803861 0.000000
0.284550 0.804044 0.000000
0.437659 0.803037 0.000000
0.586481 0.801205 0.000000
0.716732 0.811948 0.000000
0.844785 0.824887 0.114199
0.954009 0.821897 0.212314
0.085878 0.926604 0.000000
0.180911 0.926177 0.000000
0.308019 0.924834 0.000000
0.443946 0.920897 0.000000
0.582238 0.916960 0.000000
0.716518 0.912566 0.000000
0.826322 0.914763 0.000000
0.936309 0.914855 0.117586
0.139620 0.000000 0.403632
0.181704 0.000000 0.401404
0.279515 0.000000 0.398901
0.386328 0.000000 0.390692
0.520043 0.000000 0.398077
0.704738 0.115999 0.433265
0.860655 0.340612 0.501884
0.937621 0.588434 0.646571
0.115572 0.073518 0.402258
0.166567 0.067628 0.401373
0.274144 0.034302 0.399481
0.386633 0.000000 0.391638
0.521752 0.000000 0.398322
0.708675 0.190463 0.438331
0.861326 0.384131 0.515526
0.934417 0.619867 0.665400
0.000000 0.204044 0.407416
0.000000 0.197360 0.408484
0.253147 0.212192 0.403326
0.387884 0.209720 0.395270
0.533745 0.240146 0.405188
0.713497 0.346319 0.460578
0.850767 0.530938 0.581537
0.931731 0.652461 0.673121
0.000000 0.360784 0.390723
0.000000 0.362066 0.391760
0.198611 0.364843 0.393469
0.378027 0.366003 0.391211
0.545098 0.429297 0.441596
0.717891 0.505638 0.500755
0.855528 0.591760 0.574731
0.935454 0.675715 0.655818
0.000000 0.498390 0.368994
0.000000 0.501762 0.367224
0.148104 0.510674 0.357610
0.364660 0.517296 0.353246
0.545251 0.528649 0.366888
0.719875 0.593469 0.441566
0.859373 0.660426 0.533593
0.939666 0.715206 0.625269
0.000000 0.654841 0.340764
0.000000 0.655146 0.333349
0.043763 0.663569 0.308446
0.363531 0.668147 0.316899
0.552483 0.665095 0.311223
0.707332 0.691066 0.342870
0.857450 0.726650 0.417487
0.944213 0.768673 0.563806
0.000000 0.808835 0.281437
0.000000 0.809812 0.269749
0.000000 0.813382 0.221744
0.369268 0.810758 0.276158
0.551476 0.807309 0.270329
0.705806 0.812100 0.282170
0.842802 0.825925 0.323949
0.949798 0.824521 0.407233
0.000000 0.932250 0.166903
0.000000 0.932464 0.142824
0.017182 0.930816 0.173831
0.379278 0.925933 0.238315
0.544976 0.921263 0.234470
0.698177 0.914794 0.228672
0.820066 0.915129 0.268376
0.933684 0.914733 0.321447
0.206332 0.000000 0.583032
0.240452 0.000000 0.581476
0.332586 0.000000 0.579919
0.448005 0.000000 0.575433
0.559838 0.000000 0.561730
0.692287 0.000000 0.559655
0.847227 0.121096 0.578515
0.946715 0.446448 0.639033
0.186252 0.000000 0.583032
0.224796 0.000000 0.580743
0.324041 0.000000 0.579126
0.445472 0.000000 0.576379
0.560693 0.000000 0.562951
0.692897 0.000000 0.559533
0.848478 0.197726 0.581231
0.945068 0.478981 0.648310
0.000000 0.181857 0.586572
0.144808 0.199283 0.584375
0.295293 0.202487 0.582727
0.435706 0.197940 0.578943
0.562371 0.191623 0.566278
0.695918 0.199649 0.560815
0.852567 0.361120 0.597772
0.939239 0.578912 0.683558
0.000000 0.362066 0.580682
0.000000 0.359747 0.582055
0.193545 0.350896 0.584894
0.409949 0.368688 0.576928
0.557305 0.366979 0.564935
0.704372 0.405921 0.571374
0.852354 0.558068 0.646632
0.926635 0.713497 0.748562
0.000000 0.525017 0.555108
0.000000 0.525780 0.555596
0.130220 0.528588 0.557397
0.349767 0.532372 0.558556
0.542565 0.536492 0.557275
0.716823 0.619318 0.625025
0.850767 0.699550 0.693782
0.925841 0.766476 0.756374
0.000000 0.664485 0.523339
0.000000 0.666590 0.522423
0.000000 0.674067 0.518791
0.292912 0.684138 0.508751
0.518029 0.690486 0.509026
0.708614 0.699458 0.529229
0.853056 0.750942 0.627039
0.930999 0.800259 0.719509
0.000000 0.813352 0.491035
0.000000 0.814755 0.487678
0.000000 0.818540 0.474372
0.239109 0.823209 0.447486
0.496712 0.821469 0.458015
0.690852 0.814817 0.453590
0.840818 0.829099 0.506798
0.940703 0.836027 0.605402
0.000000 0.935058 0.436805
0.000000 0.935363 0.431708
0.000000 0.936156 0.413123
0.192325 0.935393 0.374853
0.487922 0.927672 0.419104
0.665583 0.920073 0.415503
0.812100 0.915892 0.440375
0.930022 0.915373 0.499336
0.269047 0.000000 0.745174
0.296818 0.000000 0.744808
0.378698 0.000000 0.745144
0.489815 0.000000 0.743374
0.613825 0.000000 0.740047
0.731136 0.000000 0.727199
0.843748 0.000000 0.705684
0.944884 0.187808 0.696040
0.256382 0.000000 0.749477
0.286656 0.000000 0.749294
0.372869 0.000000 0.748562
0.487831 0.000000 0.746334
0.614374 0.000000 0.742458
0.732448 0.000000 0.728847
0.844450 0.000000 0.706355
0.944854 0.246006 0.698451
0.198093 0.195102 0.749447
0.240024 0.194095 0.749599
0.345617 0.190555 0.748928
0.473823 0.186160 0.746548
0.608820 0.186740 0.743008
0.731777 0.177676 0.729488
0.843656 0.219638 0.706355
0.942443 0.388891 0.708797
0.000000 0.316991 0.755428
0.000000 0.315343 0.755245
0.255436 0.342260 0.751400
0.448127 0.369329 0.744686
0.595361 0.372839 0.739590
0.726223 0.369543 0.726802
0.839261 0.392370 0.705745
0.935363 0.563195 0.735897
0.000000 0.523003 0.740169
0.000000 0.522118 0.740780
0.145296 0.519799 0.742641
0.377600 0.520165 0.745357
0.580560 0.549371 0.738369
0.720912 0.547539 0.726497
0.840269 0.592889 0.724331
0.925139 0.738949 0.792386
0.000000 0.690181 0.715419
0.000000 0.690150 0.715145
0.000000 0.691981 0.715999
0.313634 0.695277 0.717128
0.517845 0.700435 0.718105
0.704067 0.704982 0.716609
0.845243 0.782773 0.783261
0.919890 0.835752 0.831449
0.000000 0.820279 0.670253
0.000000 0.820188 0.668513
0.000000 0.820981 0.663111
0.201450 0.824186 0.654688
0.442939 0.827604 0.645808
0.669154 0.825193 0.663233
0.835019 0.830869 0.690913
0.925719 0.860960 0.783444
0.000000 0.936004 0.620233
0.000000 0.936278 0.618128
0.000000 0.936858 0.610163
0.154482 0.936553 0.595148
0.410834 0.933989 0.581872
0.644495 0.923033 0.619226
0.805203 0.914031 0.618585
0.923613 0.915160 0.677668
0.322789 0.000000 0.875456
0.344823 0.000000 0.874937
0.413611 0.000000 0.874296
0.513024 0.000000 0.872892
0.629084 0.000000 0.871061
0.750820 0.000000 0.867216
0.869078 0.000000 0.858762
0.945678 0.147768 0.814603
0.314946 0.000000 0.876707
0.338109 0.000000 0.876249
0.409094 0.000000 0.875517
0.510979 0.000000 0.874266
0.628687 0.000000 0.872343
0.751614 0.000000 0.868650
0.870237 0.000000 0.860197
0.946197 0.208682 0.816098
0.287236 0.193698 0.876371
0.314153 0.193606 0.876188
0.393256 0.194980 0.875639
0.501884 0.199832 0.874235
0.624262 0.212589 0.872221
0.749935 0.233036 0.868467
0.867979 0.236942 0.859190
0.943114 0.324712 0.816312
0.154513 0.327337 0.877440
0.232883 0.342870 0.876890
0.375067 0.379156 0.874846
0.492012 0.385168 0.873045
0.619043 0.396796 0.870542
0.747311 0.414862 0.866758
0.863005 0.413336 0.856870
0.937835 0.463294 0.818296
0.000000 0.482216 0.876066
0.000000 0.483314 0.876524
0.252079 0.489662 0.877592
0.449256 0.523980 0.874266
0.621637 0.570947 0.868498
0.746120 0.583124 0.864561
0.857328 0.580438 0.855253
0.930449 0.606897 0.824247
0.000000 0.661555 0.862547
0.000000 0.661799 0.862730
0.175937 0.663478 0.863310
0.394934 0.670314 0.863951
0.581781 0.690242 0.864775
0.743954 0.727779 0.858824
0.846708 0.725460 0.849790
0.920562 0.761807 0.842710
0.000000 0.822629 0.843168
0.000000 0.822721 0.843046
0.000000 0.823606 0.843076
0.303105 0.825223 0.842832
0.512139 0.828367 0.842557
0.692042 0.832517 0.841978
0.833402 0.837034 0.841825
0.920409 0.887877 0.887083
0.000000 0.941955 0.793759
0.000000 0.941772 0.792660
0.000000 0.940154 0.787869
0.141115 0.937713 0.780117
0.415137 0.932982 0.772763
0.624323 0.925322 0.774990
0.804959 0.914519 0.801785
0.917327 0.915465 0.825376
0.361639 0.000000 0.952148
0.379004 0.000000 0.951934
0.435035 0.000000 0.951568
0.519921 0.000000 0.950561
0.622126 0.000000 0.949035
0.733303 0.062989 0.946838
0.844236 0.164614 0.943267
0.952544 0.219028 0.938445
0.359167 0.000000 0.952331
0.376745 0.000000 0.952117
0.433631 0.000000 0.951690
0.519493 0.000000 0.950713
0.622339 0.072175 0.949096
0.733761 0.158419 0.946838
0.844572 0.219730 0.943328
0.952209 0.263035 0.938506
0.354406 0.215488 0.951934
0.372839 0.217380 0.951751
0.432013 0.225498 0.951324
0.519402 0.239872 0.949920
0.623560 0.266056 0.948241
0.735164 0.304692 0.945892
0.844907 0.344366 0.942260
0.949676 0.372015 0.937346
0.365301 0.392187 0.950072
0.383551 0.393713 0.949828
0.442390 0.400397 0.949218
0.529351 0.412634 0.947875
0.631891 0.432532 0.945830
0.740566 0.461646 0.943175
0.846098 0.491402 0.939605
0.944701 0.502983 0.934874
0.206943 0.456794 0.951904
0.251102 0.462898 0.951415
0.393225 0.504356 0.949065
0.561883 0.580835 0.943999
0.654627 0.595117 0.942077
0.753201 0.614221 0.939544
0.850278 0.636774 0.936309
0.937865 0.639216 0.931579
0.170260 0.614099 0.946288
0.224887 0.617121 0.946197
0.352941 0.629511 0.945678
0.502373 0.656214 0.944274
0.650019 0.702693 0.940520
0.774258 0.749416 0.934997
0.855619 0.761074 0.931975
0.929717 0.761013 0.927550
0.000000 0.763333 0.937682
0.130098 0.764370 0.937652
0.295903 0.768612 0.937377
0.457710 0.778653 0.936431
0.617700 0.797971 0.934783
0.761135 0.827481 0.932982
0.863462 0.857053 0.929656
0.923919 0.855711 0.925475
0.000000 0.909819 0.927306
0.000000 0.910063 0.927306
0.172305 0.910674 0.927001
0.380926 0.911528 0.926024
0.554406 0.912993 0.924590
0.709590 0.915038 0.922911
0.831113 0.917205 0.921599
0.917174 0.920134 0.921813
