cubelut/Landscape6.cube
# Created by Adobe Lightroom plugin Export LUT (1.18.0)
# www.johnrellis.com/lightroom/exportlut.htm
# Preset: Landscape6
# Color profile: /Library/Application Support/Adobe/Color/Profiles/Recommended/AdobeRGB1998.icc
LUT_3D_SIZE 5
DOMAIN_MIN 0.000000 0.000000 0.000000
DOMAIN_MAX 0.903226 0.903226 0.903226
0.000000 0.000000 0.000000
0.159915 0.027588 0.048402
0.373449 0.009552 0.084962
0.667262 0.000000 0.115358
0.915435 0.000000 0.190249
0.028382 0.181399 0.054505
0.178012 0.189090 0.065034
0.401984 0.214511 0.093141
0.686793 0.218357 0.120424
0.919829 0.221958 0.200717
0.000000 0.448341 0.053498
0.215702 0.458015 0.061067
0.463325 0.475868 0.072206
0.732143 0.496101 0.136049
0.936431 0.491127 0.253696
0.000000 0.743648 0.024964
0.226261 0.745602 0.061341
0.493812 0.751644 0.110292
0.749996 0.752590 0.158572
0.948760 0.732296 0.314672
0.214939 0.947051 0.253971
0.314336 0.946899 0.265080
0.520836 0.946563 0.306371
0.738308 0.942779 0.367346
0.939055 0.937896 0.441474
0.007507 0.000000 0.175906
0.168185 0.051270 0.185397
0.392187 0.019196 0.222538
0.675013 0.000000 0.224369
0.915679 0.000000 0.280858
0.003510 0.181155 0.190066
0.177890 0.191806 0.197452
0.409094 0.192935 0.211612
0.691615 0.174777 0.232029
0.920439 0.209262 0.292973
0.000000 0.451881 0.225315
0.179599 0.463386 0.207706
0.469093 0.481910 0.220127
0.736751 0.495552 0.267002
0.933837 0.494301 0.344915
0.000000 0.744900 0.233249
0.192721 0.747189 0.230472
0.489906 0.752438 0.256962
0.750851 0.753414 0.289616
0.945708 0.737545 0.408545
0.245182 0.945708 0.349920
0.335698 0.945464 0.359350
0.532799 0.943999 0.391394
0.745266 0.941039 0.445594
0.938659 0.937224 0.506889
0.077882 0.000000 0.401862
0.198245 0.000000 0.412696
0.427466 0.000000 0.445136
0.724636 0.000000 0.483040
0.917144 0.144717 0.503197
0.000000 0.152712 0.416175
0.180636 0.171695 0.426703
0.439948 0.178561 0.456703
0.722164 0.179232 0.481910
0.911955 0.281926 0.509575
0.000000 0.442390 0.453437
0.114351 0.452216 0.461494
0.472816 0.485451 0.486915
0.721126 0.478889 0.492958
0.919371 0.503807 0.528405
0.000000 0.743221 0.485176
0.158236 0.746395 0.485512
0.500877 0.750301 0.510857
0.752529 0.753872 0.538720
0.935058 0.758877 0.608972
0.261936 0.944182 0.522240
0.366827 0.942473 0.535668
0.578119 0.938109 0.579614
0.767605 0.937804 0.617151
0.939361 0.937163 0.648188
0.147433 0.000000 0.669368
0.248356 0.000000 0.674586
0.454444 0.000000 0.691951
0.722866 0.000000 0.718624
0.949615 0.186801 0.712886
0.000000 0.134646 0.676234
0.213626 0.129946 0.681117
0.449531 0.123751 0.697230
0.727047 0.161044 0.722530
0.948272 0.330846 0.718898
0.000000 0.385809 0.687007
0.000000 0.377539 0.690639
0.451118 0.436042 0.707881
0.737911 0.500664 0.732052
0.932952 0.560113 0.734279
0.000000 0.710842 0.715419
0.107729 0.714839 0.718135
0.481025 0.727413 0.726711
0.757137 0.756161 0.749203
0.919982 0.745632 0.746517
0.273136 0.940459 0.718471
0.372290 0.939025 0.723110
0.576654 0.935027 0.739071
0.776791 0.933867 0.767514
0.940215 0.937469 0.790799
0.208927 0.000000 0.901152
0.287907 0.000000 0.902678
0.468605 0.000000 0.907652
0.687465 0.000000 0.915770
0.932647 0.190860 0.924712
0.154177 0.065888 0.902892
0.258000 0.054017 0.904326
0.459632 0.056428 0.908965
0.689387 0.170352 0.916655
0.932830 0.325505 0.924926
0.000000 0.324437 0.905882
0.139437 0.362737 0.906004
0.452522 0.402350 0.909606
0.703243 0.469001 0.916167
0.931884 0.561120 0.924224
0.000000 0.635340 0.910918
0.084077 0.636194 0.911070
0.432502 0.642359 0.909758
0.725643 0.708186 0.912169
0.932616 0.765255 0.925383
0.311101 0.914336 0.921630
0.389899 0.915343 0.921874
0.564752 0.917571 0.921813
0.757412 0.923125 0.923705
0.944335 0.942138 0.938598
