cubelut/Landscape3.cube
# Created by Adobe Lightroom plugin Export LUT (1.18.0)
# www.johnrellis.com/lightroom/exportlut.htm
# Preset: Landscape3
# Color profile: /Library/Application Support/Adobe/Color/Profiles/Recommended/AdobeRGB1998.icc
LUT_3D_SIZE 32
0.053498 0.061769 0.073915
0.061616 0.061280 0.074556
0.070649 0.060151 0.074403
0.089937 0.059022 0.074983
0.110628 0.056672 0.076020
0.130861 0.053956 0.077852
0.152499 0.048859 0.079805
0.175113 0.041505 0.081758
0.199863 0.028382 0.083986
0.226413 0.012634 0.086091
0.255375 0.000000 0.088624
0.285679 0.000000 0.090974
0.317479 0.000000 0.093050
0.350683 0.000000 0.095155
0.385199 0.000000 0.097475
0.420447 0.000000 0.099550
0.456641 0.000000 0.101564
0.492836 0.000000 0.103639
0.528832 0.000000 0.105226
0.565850 0.000000 0.107271
0.604059 0.000000 0.108614
0.642939 0.000000 0.110323
0.681605 0.000000 0.111696
0.719570 0.000000 0.114046
0.756588 0.000000 0.116884
0.792020 0.000000 0.120241
0.825803 0.000000 0.124117
0.857969 0.000000 0.129091
0.888670 0.000000 0.135348
0.918059 0.000000 0.142397
0.946227 0.000000 0.150912
0.973358 0.000000 0.161196
0.052979 0.067964 0.075257
0.061646 0.068391 0.074037
0.071809 0.067567 0.074586
0.090761 0.067445 0.075074
0.111208 0.066133 0.076448
0.131777 0.064179 0.078614
0.153506 0.060883 0.080262
0.176425 0.057252 0.082124
0.201358 0.047791 0.084352
0.228244 0.031220 0.086671
0.257328 0.008850 0.089143
0.287999 0.000000 0.090822
0.320165 0.000000 0.093416
0.353582 0.000000 0.095705
0.388281 0.000000 0.097414
0.423896 0.000000 0.099947
0.460060 0.000000 0.101839
0.496437 0.000000 0.103578
0.532616 0.000000 0.105837
0.569574 0.000000 0.107607
0.607843 0.000000 0.108858
0.646571 0.000000 0.110323
0.685054 0.000000 0.111910
0.722744 0.000000 0.114229
0.759426 0.000000 0.116823
0.794614 0.000000 0.120577
0.828092 0.000000 0.124758
0.859953 0.000000 0.129854
0.890440 0.000000 0.135836
0.919646 0.000000 0.143069
0.947631 0.000000 0.151827
0.974640 0.000000 0.162234
0.050599 0.077729 0.077211
0.053285 0.079042 0.074708
0.071748 0.078706 0.075074
0.091371 0.077729 0.076295
0.111971 0.076204 0.077638
0.132906 0.073976 0.079500
0.154604 0.071626 0.081086
0.177859 0.067933 0.082979
0.202945 0.063447 0.085115
0.230167 0.055085 0.087373
0.259190 0.037385 0.089204
0.290013 0.009094 0.091402
0.322240 0.000000 0.093904
0.355810 0.000000 0.096132
0.390570 0.000000 0.098268
0.426276 0.000000 0.100221
0.462623 0.000000 0.102052
0.499001 0.000000 0.104005
0.535241 0.000000 0.105776
0.572168 0.000000 0.107637
0.610407 0.000000 0.109071
0.648829 0.000000 0.110567
0.687129 0.000000 0.112367
0.724666 0.000000 0.114656
0.761257 0.000000 0.117250
0.796201 0.000000 0.120607
0.829435 0.000000 0.125338
0.861234 0.000000 0.130220
0.891508 0.000000 0.136568
0.920592 0.000000 0.144076
0.948455 0.000000 0.152529
0.975402 0.000000 0.162844
0.046296 0.097841 0.081819
0.047730 0.098970 0.078157
0.058717 0.099794 0.076967
0.090364 0.098421 0.077974
0.112642 0.093904 0.079622
0.134279 0.092287 0.081056
0.156313 0.089693 0.082918
0.179812 0.086763 0.084169
0.205142 0.083558 0.085908
0.232547 0.079072 0.088411
0.262028 0.072877 0.090089
0.293065 0.063539 0.092164
0.325414 0.043427 0.094270
0.359197 0.002533 0.096376
0.394232 0.000000 0.098695
0.429969 0.000000 0.100496
0.466346 0.000000 0.102785
0.502922 0.000000 0.104341
0.539269 0.000000 0.106203
0.576471 0.000000 0.107698
0.614832 0.000000 0.109346
0.653162 0.000000 0.111147
0.691035 0.000000 0.112703
0.727932 0.000000 0.115023
0.763638 0.000000 0.117739
0.797910 0.000000 0.121401
0.830655 0.000000 0.125582
0.862058 0.000000 0.130922
0.892180 0.000000 0.136904
0.921202 0.000000 0.144381
0.949065 0.000000 0.153201
0.976104 0.000000 0.163851
0.039338 0.120424 0.089631
0.042176 0.121248 0.086671
0.045502 0.122286 0.082673
0.072206 0.122835 0.080964
0.111177 0.120699 0.082551
0.135073 0.113863 0.084230
0.158541 0.112428 0.084993
0.183352 0.110872 0.086305
0.209201 0.108125 0.087953
0.237003 0.105226 0.089967
0.266789 0.101259 0.092073
0.298100 0.096071 0.093690
0.330694 0.088869 0.095583
0.364446 0.078218 0.097536
0.399329 0.062440 0.099214
0.434852 0.014923 0.101198
0.470893 0.000000 0.102876
0.507012 0.000000 0.104616
0.543206 0.000000 0.106661
0.580438 0.000000 0.108370
0.618738 0.000000 0.109621
0.656977 0.000000 0.111299
0.694453 0.000000 0.112856
0.731014 0.000000 0.115389
0.766293 0.000000 0.118074
0.800198 0.000000 0.122011
0.832639 0.000000 0.126131
0.863798 0.000000 0.131502
0.893736 0.000000 0.138003
0.922515 0.000000 0.145541
0.950225 0.000000 0.154818
0.977081 0.000000 0.165469
0.029358 0.144198 0.098299
0.032013 0.144869 0.095949
0.034455 0.145907 0.091554
0.046937 0.147921 0.084382
0.092897 0.147127 0.085969
0.133150 0.144564 0.087221
0.159091 0.135805 0.088930
0.184482 0.135317 0.089754
0.212528 0.134585 0.090455
0.241398 0.132998 0.091920
0.271366 0.130861 0.093538
0.302892 0.127352 0.095247
0.335576 0.122805 0.096773
0.369512 0.116487 0.098512
0.404242 0.108125 0.100343
0.439734 0.097078 0.102083
0.475654 0.080476 0.103731
0.511437 0.052705 0.105623
0.547387 0.000000 0.107118
0.584253 0.000000 0.108461
0.622156 0.000000 0.109926
0.659815 0.000000 0.110964
0.679500 0.000000 0.111635
0.717037 0.000000 0.113710
0.753597 0.000000 0.115938
0.788724 0.000000 0.119142
0.822507 0.000000 0.123262
0.854826 0.000000 0.128664
0.885801 0.000000 0.135012
0.915557 0.000000 0.142550
0.944182 0.000000 0.151461
0.971893 0.000000 0.162173
0.016876 0.167514 0.107027
0.018128 0.168093 0.104891
0.021515 0.168948 0.101472
0.028748 0.170748 0.093355
0.059052 0.173037 0.088930
0.114412 0.170657 0.089601
0.154726 0.167239 0.091524
0.181125 0.157015 0.094118
0.208774 0.157382 0.094423
0.238804 0.158236 0.094697
0.271092 0.158511 0.095003
0.302220 0.156344 0.096651
0.334630 0.153750 0.097780
0.368597 0.149844 0.099428
0.403723 0.144839 0.100801
0.439429 0.138247 0.102419
0.475593 0.129397 0.104097
0.511559 0.117494 0.105684
0.547204 0.102449 0.107118
0.583368 0.080476 0.108370
0.619959 0.030030 0.109560
0.655879 0.000000 0.111177
0.691127 0.000000 0.112673
0.725917 0.000000 0.114534
0.760098 0.000000 0.117037
0.793698 0.000000 0.120516
0.826444 0.000000 0.124941
0.858213 0.000000 0.130434
0.888731 0.000000 0.136446
0.918120 0.000000 0.144564
0.946471 0.000000 0.153506
0.973877 0.000000 0.165042
0.000000 0.196262 0.117739
0.000000 0.196841 0.115633
0.000000 0.197665 0.112581
0.006195 0.199527 0.105409
0.019593 0.202365 0.092500
0.085512 0.203098 0.092897
0.140047 0.199832 0.094636
0.181704 0.195834 0.096498
0.209506 0.182773 0.099397
0.239536 0.184482 0.099489
0.272374 0.186069 0.098970
0.307073 0.187076 0.098451
0.342290 0.186770 0.098634
0.376318 0.184237 0.100069
0.411414 0.180911 0.101442
0.447303 0.176272 0.103120
0.483192 0.170260 0.104402
0.519158 0.162203 0.106050
0.554833 0.152743 0.107332
0.590814 0.140414 0.108919
0.627131 0.125246 0.110262
0.662745 0.105562 0.111543
0.697597 0.077760 0.113283
0.731868 0.000183 0.115084
0.765499 0.000000 0.118074
0.798520 0.000000 0.121706
0.830686 0.000000 0.126314
0.861845 0.000000 0.132052
0.891875 0.000000 0.139193
0.920806 0.000000 0.147036
0.948699 0.000000 0.156985
0.975769 0.000000 0.168276
0.000000 0.228336 0.130007
0.000000 0.229007 0.128084
0.000000 0.229801 0.125582
0.000000 0.231571 0.118532
0.000000 0.234379 0.106294
0.028443 0.237613 0.096498
0.114076 0.236362 0.097322
0.168673 0.232090 0.098817
0.211490 0.226902 0.100740
0.240330 0.212924 0.104005
0.272007 0.213107 0.103609
0.306737 0.215366 0.102602
0.343816 0.217105 0.101930
0.382666 0.218326 0.100832
0.419104 0.216464 0.102235
0.454963 0.213413 0.103151
0.491035 0.208927 0.104707
0.526848 0.203250 0.105959
0.562219 0.195834 0.107668
0.598169 0.187289 0.109102
0.634058 0.177127 0.110384
0.669215 0.164981 0.111879
0.703609 0.150729 0.113558
0.737484 0.133791 0.115785
0.770504 0.112062 0.119265
0.802976 0.082979 0.123323
0.834623 0.014008 0.127901
0.865263 0.000000 0.134188
0.894835 0.000000 0.141268
0.923400 0.000000 0.149630
0.950927 0.000000 0.159854
0.977661 0.000000 0.171725
0.000000 0.264164 0.143648
0.000000 0.264683 0.141482
0.000000 0.265537 0.138552
0.000000 0.267155 0.132326
0.000000 0.270024 0.120882
0.000000 0.273533 0.101320
0.047059 0.276890 0.099367
0.145052 0.272740 0.100282
0.200015 0.267399 0.102296
0.243992 0.260838 0.103670
0.274235 0.246067 0.107546
0.306767 0.243320 0.107546
0.343389 0.246220 0.106203
0.381994 0.248661 0.104616
0.422248 0.250095 0.104067
0.463172 0.250309 0.103029
0.498604 0.246586 0.104585
0.533867 0.241855 0.105837
0.568963 0.236240 0.107454
0.604883 0.229435 0.108797
0.640711 0.222049 0.110353
0.675898 0.212741 0.112184
0.710353 0.202396 0.114199
0.744015 0.190768 0.117220
0.776730 0.177310 0.120821
0.808591 0.162264 0.125307
0.839475 0.146029 0.130129
0.869322 0.126680 0.136538
0.898161 0.103792 0.144289
0.925994 0.075624 0.153201
0.952972 0.010742 0.163149
0.979187 0.000000 0.175265
0.000000 0.303807 0.158480
0.000000 0.304143 0.156710
0.000000 0.304997 0.153658
0.000000 0.306645 0.147219
0.000000 0.308843 0.136141
0.000000 0.312261 0.118929
0.000000 0.315984 0.101808
0.096162 0.316655 0.101381
0.178225 0.310857 0.103243
0.233646 0.304021 0.104524
0.278691 0.296300 0.106538
0.309819 0.280613 0.110628
0.342321 0.274418 0.111391
0.380713 0.277928 0.109407
0.420783 0.280797 0.108064
0.462043 0.282689 0.106600
0.504204 0.283330 0.105318
0.543023 0.281193 0.106020
0.578058 0.276280 0.107118
0.613703 0.270573 0.108827
0.648890 0.264103 0.110719
0.683375 0.256687 0.112612
0.717159 0.248203 0.115145
0.750088 0.238804 0.118471
0.782132 0.228885 0.122316
0.813382 0.217624 0.127230
0.843748 0.206149 0.132784
0.873106 0.193668 0.139498
0.901488 0.180667 0.147616
0.928832 0.167727 0.156832
0.955322 0.154757 0.167666
0.981140 0.143435 0.180301
0.000000 0.345220 0.173556
0.000000 0.345678 0.171939
0.000000 0.346349 0.169375
0.000000 0.347784 0.163241
0.000000 0.349920 0.152773
0.000000 0.353063 0.136843
0.000000 0.356725 0.111910
0.000000 0.360113 0.103182
0.137575 0.357244 0.103761
0.213321 0.350042 0.105135
0.268711 0.341711 0.107271
0.314427 0.332830 0.108827
0.336187 0.307195 0.112520
0.367163 0.297490 0.113619
0.405982 0.301579 0.111879
0.446509 0.304997 0.110353
0.488045 0.307530 0.108919
0.530053 0.308904 0.107454
0.572564 0.308995 0.106661
0.610101 0.305638 0.107179
0.645686 0.300664 0.108888
0.680720 0.294652 0.111513
0.715145 0.287907 0.114046
0.748592 0.280491 0.117647
0.781033 0.272313 0.121828
0.812436 0.263615 0.126864
0.842893 0.253941 0.133394
0.872435 0.244327 0.140200
0.900908 0.234684 0.148867
0.928344 0.224918 0.158450
0.954894 0.215763 0.169986
0.980682 0.208042 0.182681
0.000000 0.381811 0.187350
0.000000 0.382330 0.185397
0.000000 0.383307 0.183322
0.000000 0.384955 0.178073
0.000000 0.387762 0.168643
0.000000 0.391363 0.154482
0.000000 0.395422 0.132479
0.000000 0.399359 0.106020
0.000000 0.402716 0.104555
0.175784 0.395209 0.105470
0.246891 0.386023 0.107515
0.301244 0.375433 0.109102
0.345983 0.364538 0.110384
0.377661 0.346960 0.115053
0.405859 0.330846 0.117647
0.445716 0.335119 0.115328
0.486732 0.338384 0.113344
0.528740 0.340734 0.111604
0.571160 0.342382 0.109773
0.614862 0.343114 0.108705
0.656306 0.342016 0.108400
0.690547 0.336309 0.111666
0.724178 0.330114 0.115053
0.756771 0.323217 0.119051
0.788388 0.315984 0.123934
0.818997 0.307988 0.129854
0.848692 0.299870 0.136873
0.877409 0.291600 0.144503
0.905150 0.283238 0.153536
0.931914 0.275090 0.164034
0.957824 0.267613 0.175418
0.983001 0.261326 0.188968
0.000000 0.427314 0.204196
0.000000 0.427771 0.202640
0.000000 0.428717 0.200259
0.000000 0.430457 0.195132
0.000000 0.433051 0.186374
0.000000 0.436286 0.173159
0.000000 0.440040 0.153750
0.000000 0.444221 0.123507
0.000000 0.447791 0.107393
0.101900 0.447486 0.106447
0.215732 0.437720 0.108248
0.284825 0.427008 0.109255
0.339300 0.415259 0.110597
0.384649 0.403174 0.112337
0.419440 0.386633 0.116091
0.443885 0.363745 0.120729
0.484840 0.368261 0.118379
0.526635 0.371801 0.116152
0.569207 0.374426 0.114199
0.612909 0.376410 0.112581
0.655634 0.376928 0.112367
0.696803 0.375921 0.112978
0.732998 0.371801 0.115999
0.764736 0.365209 0.121035
0.795377 0.357977 0.126619
0.825101 0.350500 0.133547
0.853971 0.342992 0.140932
0.881987 0.335424 0.149477
0.909026 0.327886 0.158785
0.935088 0.320531 0.169650
0.960357 0.314000 0.181827
0.984985 0.308324 0.195560
0.000000 0.473060 0.220920
0.000000 0.473579 0.219394
0.000000 0.474281 0.217227
0.000000 0.476112 0.212161
0.000000 0.478614 0.204105
0.000000 0.482094 0.191989
0.000000 0.485573 0.174685
0.000000 0.489387 0.148379
0.000000 0.493233 0.110384
0.000000 0.496132 0.108705
0.158938 0.490852 0.108339
0.255955 0.479835 0.110231
0.323369 0.467903 0.111269
0.377966 0.455268 0.112154
0.424292 0.442145 0.114107
0.462318 0.427039 0.115816
0.481849 0.396612 0.124086
0.523491 0.401312 0.121340
0.566186 0.405219 0.119600
0.610132 0.408484 0.117098
0.653101 0.410163 0.116457
0.694606 0.410193 0.117464
0.734279 0.408881 0.119112
0.771878 0.405951 0.123720
0.802487 0.399512 0.130007
0.831235 0.392126 0.137484
0.859068 0.384497 0.145724
0.886015 0.377142 0.154574
0.912078 0.369787 0.164309
0.937285 0.362829 0.174899
0.961822 0.356481 0.187167
0.985779 0.350958 0.201083
0.000000 0.519280 0.237339
0.000000 0.519585 0.235691
0.000000 0.520134 0.233555
0.000000 0.521386 0.229007
0.000000 0.523400 0.221836
0.000000 0.526055 0.210269
0.000000 0.528985 0.194522
0.000000 0.532403 0.171511
0.000000 0.536095 0.137270
0.000000 0.539574 0.111727
0.000000 0.542412 0.110109
0.207401 0.532433 0.111208
0.296391 0.520989 0.112306
0.362982 0.508782 0.113436
0.417914 0.495735 0.114504
0.464973 0.482338 0.115389
0.505821 0.468086 0.116762
0.521660 0.432837 0.126558
0.562524 0.434607 0.124941
0.606226 0.439094 0.122866
0.649165 0.441749 0.121157
0.690730 0.442786 0.121584
0.730678 0.442329 0.123812
0.768307 0.440345 0.127626
0.803830 0.437171 0.133639
0.836301 0.432410 0.141421
0.863279 0.424872 0.150027
0.889433 0.417426 0.159548
0.914885 0.410193 0.170108
0.939605 0.403449 0.181216
0.963714 0.397223 0.194095
0.987304 0.392065 0.208377
0.000000 0.565850 0.253635
0.000000 0.566155 0.252201
0.000000 0.566735 0.250797
0.000000 0.567956 0.246189
0.000000 0.569848 0.239078
0.000000 0.572076 0.229313
0.000000 0.574731 0.214572
0.000000 0.577874 0.194858
0.000000 0.581323 0.166171
0.000000 0.584985 0.120333
0.000000 0.587579 0.115633
0.109407 0.586481 0.113588
0.253330 0.575189 0.114717
0.337316 0.562860 0.115785
0.403174 0.549798 0.116274
0.457923 0.536339 0.117769
0.505547 0.521996 0.118135
0.546807 0.507012 0.119020
0.563256 0.471656 0.129335
0.602380 0.468879 0.128450
0.645655 0.472755 0.126986
0.687465 0.474891 0.127108
0.727687 0.475349 0.128878
0.765530 0.474220 0.132418
0.801236 0.471748 0.138521
0.834806 0.468116 0.146304
0.866361 0.463661 0.155825
0.893828 0.457527 0.166110
0.918425 0.450172 0.176699
0.942382 0.443153 0.188724
0.965820 0.436957 0.201755
0.988800 0.431769 0.216129
0.000000 0.609522 0.269444
0.000000 0.609552 0.268162
0.000000 0.599725 0.262242
0.000000 0.600702 0.258305
0.000000 0.602564 0.251926
0.000000 0.604791 0.243351
0.000000 0.607691 0.230289
0.000000 0.610834 0.213260
0.000000 0.614252 0.189273
0.000000 0.617884 0.153933
0.000000 0.621363 0.121431
0.000000 0.624262 0.119417
0.178256 0.619196 0.119387
0.294224 0.608392 0.119783
0.373938 0.596796 0.120211
0.438422 0.584466 0.120333
0.493629 0.571405 0.120790
0.541680 0.557275 0.120546
0.583703 0.542473 0.120638
0.601312 0.507500 0.130800
0.637324 0.499458 0.131899
0.679957 0.503136 0.131807
0.720760 0.505028 0.132906
0.759609 0.505119 0.136416
0.796170 0.503777 0.142641
0.830655 0.501213 0.150362
0.863035 0.497688 0.160403
0.893248 0.493599 0.171847
0.921416 0.489021 0.184237
0.945220 0.482216 0.196597
0.968017 0.475807 0.210117
0.990448 0.470527 0.225254
0.000000 0.648707 0.283482
0.000000 0.647700 0.281529
0.000000 0.646754 0.279698
0.000000 0.646540 0.275578
0.000000 0.647120 0.269627
0.000000 0.648615 0.261387
0.000000 0.650813 0.249760
0.000000 0.653559 0.234470
0.000000 0.656641 0.214084
0.000000 0.659937 0.184909
0.000000 0.663600 0.142184
0.000000 0.666316 0.130343
0.000000 0.669306 0.129335
0.235111 0.659998 0.128695
0.338079 0.649195 0.128206
0.415076 0.637598 0.128359
0.479347 0.625177 0.127352
0.534447 0.612085 0.127260
0.583154 0.597894 0.126345
0.625879 0.582727 0.124727
0.643915 0.547570 0.135103
0.675929 0.533165 0.137545
0.717006 0.535912 0.139010
0.756008 0.536828 0.142184
0.792874 0.536095 0.147768
0.827543 0.534112 0.155459
0.860166 0.531151 0.165408
0.890654 0.527337 0.177188
0.919097 0.523095 0.189700
0.945647 0.518700 0.204257
0.970153 0.513939 0.219211
0.991974 0.508446 0.234653
0.000000 0.689662 0.298650
0.000000 0.688777 0.297337
0.000000 0.688167 0.295201
0.000000 0.687892 0.291417
0.000000 0.688380 0.285985
0.000000 0.689784 0.278111
0.000000 0.691646 0.268040
0.000000 0.694026 0.254917
0.000000 0.696712 0.236973
0.000000 0.699641 0.212650
0.000000 0.702846 0.179416
0.000000 0.706020 0.143465
0.000000 0.708492 0.142702
0.127321 0.707942 0.141909
0.286259 0.697993 0.141024
0.380560 0.687312 0.140627
0.454994 0.675898 0.139315
0.518273 0.663539 0.138033
0.573510 0.650233 0.136416
0.622187 0.636072 0.133822
0.665522 0.620874 0.131197
0.684108 0.586053 0.140505
0.712398 0.565515 0.144503
0.751675 0.567346 0.147890
0.788968 0.567498 0.153140
0.824094 0.566155 0.161288
0.857084 0.563714 0.170932
0.887999 0.560479 0.182467
0.916777 0.556542 0.195407
0.943664 0.552392 0.210117
0.968963 0.548455 0.226017
0.992798 0.545037 0.244327
0.000000 0.727901 0.313359
0.000000 0.727077 0.312169
0.000000 0.726497 0.310246
0.000000 0.726375 0.306798
0.000000 0.726741 0.301701
0.000000 0.727962 0.294957
0.000000 0.729580 0.285832
0.000000 0.731685 0.274418
0.000000 0.733974 0.258946
0.000000 0.736629 0.238926
0.000000 0.739559 0.212222
0.000000 0.742672 0.175265
0.000000 0.745205 0.159640
0.000000 0.747494 0.159243
0.209445 0.742855 0.158083
0.333623 0.732937 0.156558
0.421180 0.722103 0.155001
0.492683 0.710445 0.153109
0.554101 0.697902 0.150271
0.608240 0.684291 0.147311
0.656489 0.669825 0.143709
0.699611 0.654566 0.139773
0.718959 0.620356 0.146792
0.743709 0.594202 0.151675
0.781247 0.595148 0.156771
0.816861 0.594629 0.163821
0.850370 0.592920 0.173342
0.881834 0.590234 0.185000
0.911254 0.586816 0.197604
0.938781 0.583062 0.212406
0.964630 0.579309 0.228672
0.989075 0.576074 0.246983
0.000000 0.759701 0.325963
0.000000 0.759518 0.325048
0.000000 0.759396 0.323766
0.000000 0.759731 0.320989
0.000000 0.760525 0.316594
0.000000 0.761654 0.310491
0.000000 0.763119 0.302739
0.000000 0.764889 0.292241
0.000000 0.766842 0.279149
0.000000 0.768948 0.262272
0.000000 0.771359 0.240635
0.000000 0.774075 0.211460
0.000000 0.777005 0.176638
0.000000 0.778927 0.176761
0.023133 0.781094 0.176883
0.270054 0.772854 0.175113
0.376715 0.763149 0.173434
0.458564 0.752590 0.170687
0.527245 0.741360 0.167971
0.587579 0.729183 0.164950
0.641413 0.716304 0.160494
0.689693 0.702663 0.156405
0.733577 0.688258 0.151003
0.754574 0.655726 0.157137
0.776791 0.624659 0.162173
0.812863 0.624964 0.169406
0.846799 0.623926 0.179019
0.878660 0.621729 0.190127
0.908507 0.618708 0.203586
0.936431 0.615229 0.218235
0.962676 0.611749 0.235203
0.987396 0.608698 0.253635
0.000000 0.792538 0.340276
0.000000 0.792294 0.339178
0.000000 0.792233 0.338140
0.000000 0.792477 0.335576
0.000000 0.793118 0.331731
0.000000 0.794217 0.326268
0.000000 0.795590 0.319615
0.000000 0.797147 0.310613
0.000000 0.798917 0.299474
0.000000 0.800870 0.285161
0.000000 0.803006 0.267338
0.000000 0.805386 0.244785
0.000000 0.808133 0.214084
0.000000 0.810269 0.198123
0.000000 0.812039 0.198367
0.178531 0.811124 0.197940
0.323003 0.802243 0.196048
0.418555 0.792660 0.193118
0.495521 0.782284 0.190036
0.561669 0.771206 0.186160
0.620203 0.759396 0.182010
0.673030 0.746883 0.177188
0.721035 0.733761 0.171542
0.764889 0.719997 0.165133
0.789364 0.690852 0.171023
0.810269 0.657252 0.175448
0.843809 0.654719 0.184543
0.876066 0.653071 0.196384
0.906279 0.650538 0.209720
0.934600 0.647425 0.224735
0.961089 0.644068 0.241825
0.986053 0.641138 0.260990
0.000000 0.820462 0.353185
0.000000 0.820249 0.352209
0.000000 0.820157 0.351202
0.000000 0.820523 0.349004
0.000000 0.821256 0.345495
0.000000 0.822324 0.340826
0.000000 0.823697 0.335088
0.000000 0.825315 0.327550
0.000000 0.827115 0.318151
0.000000 0.829068 0.306065
0.000000 0.831296 0.291356
0.000000 0.833585 0.273472
0.000000 0.836179 0.250340
0.000000 0.838987 0.220432
0.000000 0.840696 0.220951
0.101045 0.842496 0.222721
0.257084 0.838560 0.221683
0.373022 0.830106 0.219120
0.459358 0.820920 0.215915
0.531701 0.810880 0.212070
0.595209 0.800107 0.207462
0.652064 0.788876 0.202274
0.704158 0.777035 0.196780
0.752102 0.764767 0.190616
0.796414 0.752193 0.184237
0.820829 0.723568 0.185946
0.841886 0.690486 0.190646
0.872526 0.683131 0.201358
0.903349 0.681270 0.214969
0.932158 0.678553 0.231022
0.959106 0.675563 0.248173
0.984436 0.672786 0.267887
0.000000 0.848936 0.367926
0.000000 0.848753 0.366888
0.000000 0.848722 0.365759
0.000000 0.849027 0.363928
0.000000 0.849546 0.361181
0.000000 0.850523 0.357153
0.000000 0.851652 0.351904
0.000000 0.852964 0.345403
0.000000 0.854459 0.337041
0.000000 0.856077 0.327337
0.000000 0.857908 0.315129
0.000000 0.859831 0.300023
0.000000 0.861997 0.281834
0.000000 0.864347 0.259251
0.000000 0.866423 0.244053
0.071229 0.867826 0.245365
0.174533 0.869230 0.247044
0.318456 0.862333 0.244572
0.417212 0.854063 0.241611
0.496559 0.845090 0.237919
0.564752 0.835538 0.233371
0.625757 0.825406 0.228428
0.681025 0.814908 0.223270
0.732265 0.803952 0.216922
0.779782 0.792599 0.210361
0.824033 0.781003 0.203403
0.850370 0.754757 0.203037
0.871244 0.722225 0.207523
0.899199 0.710323 0.219120
0.928557 0.708156 0.234745
0.956023 0.705501 0.252781
0.981842 0.703029 0.272953
0.000000 0.874357 0.382300
0.000000 0.874266 0.381689
0.000000 0.874357 0.380713
0.000000 0.874662 0.379400
0.000000 0.875303 0.376654
0.000000 0.876158 0.373541
0.000000 0.877195 0.368994
0.000000 0.878416 0.363531
0.000000 0.879728 0.356512
0.000000 0.881163 0.347936
0.000000 0.882689 0.337743
0.000000 0.884337 0.325566
0.000000 0.886168 0.311040
0.000000 0.888212 0.293523
0.000000 0.890532 0.271794
0.065156 0.891844 0.270268
0.171298 0.892973 0.272068
0.258244 0.892058 0.272587
0.373480 0.884733 0.269444
0.460182 0.876829 0.265537
0.533043 0.868376 0.261753
0.597589 0.859403 0.256779
0.655940 0.850065 0.252049
0.709743 0.840360 0.246220
0.759823 0.830320 0.240024
0.806729 0.819974 0.233371
0.850919 0.809293 0.225772
0.880400 0.786923 0.223056
0.899870 0.753872 0.228702
0.925841 0.738216 0.240177
0.953887 0.735958 0.258701
0.980163 0.733822 0.279637
0.000000 0.898405 0.397986
0.000000 0.898314 0.397620
0.000000 0.898405 0.396857
0.000000 0.898680 0.395361
0.000000 0.899138 0.392981
0.000000 0.899718 0.390021
0.000000 0.900328 0.386084
0.000000 0.900999 0.380835
0.000000 0.901732 0.374517
0.000000 0.902556 0.366979
0.000000 0.903532 0.358068
0.000000 0.904631 0.347326
0.000000 0.905974 0.334874
0.000000 0.907530 0.320195
0.000000 0.909361 0.303319
0.062074 0.911101 0.290257
0.167483 0.912078 0.291661
0.227573 0.912993 0.293614
0.322942 0.909453 0.292546
0.418982 0.902464 0.289403
0.496925 0.895018 0.285405
0.564874 0.887114 0.281132
0.625910 0.878874 0.276555
0.682033 0.870268 0.271214
0.734188 0.861448 0.265721
0.783108 0.852293 0.259648
0.829313 0.842924 0.252903
0.873167 0.833249 0.245426
0.905394 0.814481 0.241032
0.923735 0.781552 0.247318
0.948699 0.762997 0.259129
0.975921 0.761379 0.280858
0.000000 0.918120 0.412146
0.000000 0.918181 0.411597
0.000000 0.918273 0.411078
0.000000 0.918578 0.409918
0.000000 0.919036 0.408118
0.000000 0.919646 0.405615
0.000000 0.920348 0.402167
0.000000 0.921141 0.397772
0.000000 0.921965 0.392676
0.000000 0.922942 0.386542
0.000000 0.924010 0.379156
0.025849 0.925200 0.370733
0.070985 0.926574 0.360693
0.094636 0.928069 0.349554
0.113161 0.929808 0.336156
0.132601 0.931640 0.321172
