cubelut/Landscape9.cube
# Created by Adobe Lightroom plugin Export LUT (1.18.0)
# www.johnrellis.com/lightroom/exportlut.htm
# Preset: Landscape9
# Color profile: /Library/Application Support/Adobe/Color/Profiles/Recommended/AdobeRGB1998.icc
LUT_3D_SIZE 5
DOMAIN_MIN 0.000000 0.000000 0.000000
DOMAIN_MAX 0.903226 0.903226 0.903226
0.021393 0.019074 0.023835
0.169558 0.072908 0.069368
0.428260 0.158938 0.119173
0.742397 0.299687 0.223545
0.955138 0.473610 0.409155
0.066682 0.174502 0.007568
0.196384 0.179934 0.009552
0.445624 0.258000 0.097383
0.749813 0.372259 0.208560
0.954925 0.506340 0.395697
0.132876 0.406012 0.000000
0.256565 0.408240 0.000000
0.456031 0.430121 0.000000
0.754574 0.545159 0.100008
0.958312 0.619318 0.352392
0.196506 0.674159 0.000000
0.305486 0.673915 0.000000
0.520104 0.675105 0.000000
0.741024 0.718898 0.000000
0.957488 0.755673 0.163424
0.256413 0.919799 0.000000
0.345983 0.918853 0.000000
0.544640 0.916869 0.000000
0.751888 0.912749 0.000000
0.937346 0.914336 0.000000
0.069947 0.000000 0.204227
0.196170 0.000000 0.199680
0.444129 0.112490 0.235813
0.753475 0.335210 0.369207
0.948730 0.532372 0.526452
0.000000 0.183902 0.203372
0.195193 0.184817 0.203067
0.451209 0.264775 0.264134
0.757961 0.391608 0.354498
0.950042 0.555413 0.514611
0.000000 0.420111 0.162081
0.207584 0.426215 0.160616
0.466651 0.443183 0.169741
0.765103 0.558526 0.288945
0.953277 0.639033 0.467933
0.000000 0.685237 0.000000
0.246891 0.685359 0.027253
0.505760 0.684779 0.000000
0.743679 0.723140 0.065461
0.955718 0.760250 0.317174
0.164553 0.923705 0.000000
0.293797 0.922545 0.000000
0.520684 0.917662 0.000000
0.745327 0.912566 0.000000
0.935973 0.914122 0.000000
0.172000 0.000000 0.492103
0.279118 0.000000 0.489662
0.471687 0.000000 0.475380
0.737240 0.000000 0.498878
0.944244 0.517357 0.631678
0.000000 0.153750 0.495155
0.247379 0.169528 0.491981
0.473365 0.158236 0.478706
0.746822 0.264988 0.509972
0.936431 0.609491 0.674403
0.000000 0.442206 0.473121
0.109926 0.445441 0.475441
0.459632 0.450019 0.474067
0.756374 0.586725 0.584588
0.930022 0.723445 0.709071
0.000000 0.697383 0.426307
0.000000 0.704829 0.413062
0.431586 0.714412 0.397620
0.744808 0.731411 0.427405
0.939971 0.794430 0.624445
0.000000 0.934203 0.326452
0.000000 0.934630 0.295445
0.428534 0.927337 0.328985
0.722438 0.915648 0.322087
0.932555 0.915496 0.409735
0.285496 0.000000 0.786252
0.366857 0.000000 0.784848
0.559258 0.000000 0.780941
0.771237 0.000000 0.765591
0.944274 0.099489 0.723293
0.240757 0.144472 0.788388
0.340551 0.137942 0.787442
0.551781 0.126894 0.783230
0.772244 0.116976 0.767666
0.943053 0.272435 0.726223
0.000000 0.417762 0.790707
0.129915 0.413794 0.792966
0.527214 0.467811 0.783566
0.767758 0.472297 0.768490
0.932952 0.612726 0.765133
0.000000 0.726497 0.750393
0.000000 0.728817 0.751888
0.411994 0.734310 0.753353
0.741024 0.743130 0.752621
0.919860 0.851133 0.847929
0.000000 0.936400 0.663050
0.000000 0.936736 0.656641
0.292973 0.935363 0.635676
0.685573 0.920562 0.667384
0.921996 0.915221 0.719387
0.361639 0.000000 0.952148
0.417792 0.000000 0.951720
0.569421 0.000000 0.949859
0.761776 0.103975 0.946136
0.952544 0.219028 0.938445
0.354803 0.165621 0.952026
0.413672 0.173678 0.951507
0.569421 0.207126 0.949401
0.762844 0.278843 0.945434
0.950378 0.339574 0.937591
0.300328 0.421088 0.951019
0.424689 0.470192 0.948547
0.592065 0.507897 0.945342
0.772671 0.547753 0.940978
0.941619 0.571832 0.933410
0.144839 0.651423 0.944030
0.302922 0.660060 0.943694
0.569207 0.702174 0.941283
0.800259 0.781369 0.933349
0.928099 0.788174 0.926970
0.000000 0.909819 0.927306
0.083833 0.910491 0.927123
0.469551 0.912169 0.925353
0.743801 0.915557 0.922515
0.917174 0.920134 0.921813
