cubelut/LC1.cube
# Created by Adobe Lightroom plugin Export LUT (1.18.0)
# www.johnrellis.com/lightroom/exportlut.htm
# Preset: Portrait Effect 30
# Color profile: /Library/Application Support/Adobe/Color/Profiles/Recommended/AdobeRGB1998.icc
LUT_3D_SIZE 32
DOMAIN_MIN 0.0 0.0 0.0
DOMAIN_MAX 1.0 1.0 1.0
0.224399 0.182620 0.254978
0.224399 0.182620 0.254978
0.224399 0.182620 0.254978
0.253788 0.175784 0.254643
0.287968 0.165988 0.254154
0.319890 0.154696 0.253666
0.350988 0.150759 0.252689
0.381842 0.147616 0.251560
0.413062 0.144778 0.250278
0.444770 0.142702 0.248783
0.477821 0.140627 0.247044
0.512139 0.139834 0.244999
0.547997 0.140169 0.242618
0.585199 0.142031 0.241947
0.622950 0.145052 0.244144
0.661891 0.148684 0.246799
0.701961 0.153170 0.249882
0.738796 0.158785 0.252720
0.772641 0.164004 0.255161
0.805020 0.168704 0.257267
0.836454 0.173190 0.259068
0.866758 0.177157 0.260746
0.895659 0.180850 0.262394
0.923033 0.184329 0.264134
0.948791 0.186770 0.265934
0.972869 0.189181 0.267918
0.995483 0.191287 0.269963
1.000000 0.192905 0.272343
1.000000 0.193942 0.274815
1.000000 0.194980 0.277470
1.000000 0.195621 0.280308
1.000000 0.195895 0.283360
0.224399 0.182620 0.254978
0.224399 0.182620 0.254978
0.224399 0.182620 0.254978
0.255283 0.175387 0.254612
0.288548 0.167239 0.254093
0.319829 0.163333 0.253269
0.350835 0.159548 0.252293
0.381628 0.156191 0.251194
0.412726 0.153170 0.249912
0.444465 0.150881 0.248447
0.477424 0.148898 0.246708
0.511681 0.148043 0.244663
0.547417 0.148653 0.242283
0.584497 0.150301 0.242374
0.622278 0.152834 0.244419
0.661219 0.156771 0.247410
0.700832 0.161166 0.250156
0.737514 0.165957 0.253056
0.771328 0.170932 0.255436
0.803677 0.175326 0.257389
0.835111 0.179294 0.259037
0.865507 0.182956 0.260746
0.894438 0.186404 0.262394
0.921935 0.189303 0.264225
0.947784 0.191836 0.265873
0.971984 0.193973 0.267826
0.994720 0.195651 0.269841
1.000000 0.197360 0.272343
1.000000 0.198337 0.274662
1.000000 0.199130 0.277379
1.000000 0.199588 0.280156
1.000000 0.199771 0.283207
0.224399 0.182620 0.254978
0.224338 0.183261 0.254948
0.224369 0.185031 0.254856
0.256382 0.183627 0.254154
0.288701 0.179629 0.253452
0.319890 0.175143 0.252659
0.350744 0.170871 0.251743
0.381384 0.167147 0.250675
0.412482 0.163790 0.249424
0.444160 0.161288 0.247959
0.477150 0.159304 0.246250
0.511315 0.158724 0.244205
0.547082 0.158968 0.241978
0.584100 0.160678 0.242832
0.621759 0.163272 0.245212
0.660914 0.166476 0.247837
0.700282 0.171115 0.250767
0.736782 0.175540 0.253361
0.770535 0.179721 0.255772
0.802884 0.183810 0.257481
0.834348 0.187442 0.259220
0.864805 0.190646 0.260777
0.893797 0.193881 0.262516
0.921324 0.196414 0.264134
0.947234 0.198795 0.265995
0.971466 0.200473 0.267887
0.994232 0.202090 0.269963
1.000000 0.203311 0.272343
1.000000 0.204074 0.274723
1.000000 0.204837 0.277409
1.000000 0.204898 0.280186
1.000000 0.204868 0.283238
0.220981 0.211612 0.253300
0.220798 0.212924 0.253239
0.226169 0.213596 0.253056
0.256474 0.211521 0.252445
0.289067 0.205112 0.251926
0.320012 0.198672 0.251316
0.350744 0.193179 0.250523
0.381415 0.188602 0.249516
0.412329 0.184634 0.248325
0.444068 0.181674 0.246891
0.476875 0.179782 0.245182
0.511101 0.178897 0.243168
0.546624 0.179721 0.242161
0.583490 0.181125 0.244144
0.621241 0.183139 0.246342
0.660548 0.186557 0.249241
0.699550 0.190433 0.252110
0.735866 0.194186 0.254246
0.769436 0.197665 0.256291
0.801633 0.200931 0.257969
0.833066 0.203830 0.259648
0.863523 0.206455 0.261143
0.892668 0.209201 0.262791
0.920409 0.211154 0.264408
0.946593 0.212894 0.266117
0.971008 0.214267 0.268101
0.993927 0.215274 0.270176
1.000000 0.216251 0.272618
1.000000 0.216587 0.275029
1.000000 0.216587 0.277653
1.000000 0.216373 0.280400
1.000000 0.215976 0.283421
0.216800 0.240757 0.251316
0.216648 0.241611 0.251255
0.226688 0.241337 0.251041
0.252445 0.239506 0.250553
0.287236 0.236667 0.249760
0.320104 0.229923 0.249180
0.350683 0.222721 0.248569
0.381170 0.217197 0.247684
0.412177 0.212467 0.246586
0.443641 0.209323 0.245212
0.476478 0.207065 0.243534
0.510491 0.206394 0.242344
0.545892 0.206607 0.244083
0.582666 0.208011 0.246098
0.620569 0.210147 0.248569
0.660151 0.213382 0.251164
0.698970 0.216617 0.253635
0.735134 0.219699 0.255467
0.768795 0.222263 0.257206
0.800961 0.224643 0.258762
0.832334 0.226902 0.260227
0.862760 0.229068 0.261753
0.891905 0.230747 0.263279
0.919707 0.232334 0.264836
0.945922 0.233341 0.266514
0.970459 0.233982 0.268437
0.993378 0.234440 0.270695
1.000000 0.234440 0.272953
1.000000 0.234470 0.275456
1.000000 0.234073 0.278111
1.000000 0.233097 0.280797
1.000000 0.232212 0.283787
0.211948 0.269352 0.249027
0.216587 0.269413 0.248905
0.227787 0.268833 0.248722
0.250645 0.267430 0.248264
0.281987 0.265293 0.247562
0.317571 0.262516 0.246647
0.350927 0.256504 0.245914
0.381323 0.249729 0.245182
0.412116 0.244450 0.244205
0.443610 0.240787 0.242863
0.476234 0.238529 0.242893
0.510155 0.237552 0.244602
0.545373 0.237705 0.246738
0.582238 0.238956 0.248966
0.620783 0.241276 0.251347
0.660090 0.244266 0.253666
0.698665 0.247013 0.255558
0.734737 0.249393 0.256779
0.768307 0.251225 0.258396
0.800595 0.253086 0.259648
0.831998 0.254490 0.261082
0.862547 0.255802 0.262455
0.898466 0.259037 0.264591
0.925689 0.259800 0.266331
0.951141 0.260075 0.268162
0.974945 0.259861 0.270207
0.997223 0.259495 0.272404
1.000000 0.258762 0.274784
1.000000 0.257816 0.277317
1.000000 0.256718 0.280064
1.000000 0.255283 0.282902
1.000000 0.253727 0.285893
0.213169 0.298405 0.246189
0.220920 0.297978 0.246067
0.231083 0.297551 0.245884
0.251804 0.296452 0.245457
0.280369 0.294835 0.244785
0.313573 0.292576 0.243931
0.349035 0.290013 0.242863
0.382483 0.285100 0.242069
0.413123 0.279271 0.242893
0.444678 0.275151 0.244572
0.477272 0.272770 0.246372
0.511254 0.271763 0.248356
0.546654 0.271977 0.250706
0.584405 0.273594 0.252781
0.623499 0.275883 0.254704
0.662593 0.278538 0.256260
0.700801 0.280858 0.257298
0.736599 0.282444 0.258396
0.770108 0.283818 0.259648
0.802518 0.284855 0.260899
0.834287 0.286015 0.262211
0.865263 0.286839 0.263645
0.894926 0.287419 0.265080
0.923064 0.287602 0.266819
0.949310 0.287449 0.268681
0.973571 0.286687 0.270726
0.996094 0.285771 0.272953
1.000000 0.284428 0.275456
1.000000 0.282719 0.277989
1.000000 0.280949 0.280644
1.000000 0.278782 0.283452
1.000000 0.276493 0.286442
0.220523 0.326452 0.243381
0.227390 0.326207 0.243259
0.236545 0.325841 0.243412
0.255009 0.324865 0.243351
0.280858 0.323583 0.243656
0.311345 0.321813 0.244114
0.344579 0.319738 0.245029
0.379004 0.317632 0.245823
0.412421 0.314122 0.247288
0.443854 0.309880 0.249119
0.476509 0.307378 0.251102
0.510521 0.306401 0.253056
0.546715 0.307103 0.255009
0.584710 0.308751 0.256352
0.623285 0.310826 0.257633
0.662074 0.313085 0.258274
0.699977 0.315190 0.259098
0.735561 0.316503 0.259770
0.768948 0.317266 0.260838
0.801266 0.317845 0.262058
0.833005 0.318395 0.263279
0.863920 0.318791 0.264500
0.893584 0.318700 0.265873
0.921752 0.318212 0.267521
0.948028 0.317296 0.269383
0.972320 0.316075 0.271550
0.994934 0.314214 0.273716
1.000000 0.312108 0.276127
1.000000 0.309850 0.278691
1.000000 0.307286 0.281437
1.000000 0.304692 0.284306
1.000000 0.301793 0.287358
0.228916 0.355413 0.248203
0.235111 0.355138 0.248325
0.243259 0.354864 0.248569
0.259953 0.354131 0.248875
0.283665 0.353185 0.249271
0.311711 0.351843 0.250004
0.342809 0.350378 0.250828
0.375647 0.348730 0.251804
0.409552 0.347021 0.253147
0.443244 0.345129 0.254856
0.476295 0.342870 0.256352
0.511040 0.342351 0.257725
0.547509 0.343206 0.258885
0.585168 0.344823 0.259586
0.623285 0.346990 0.260075
0.661830 0.349218 0.260472
0.699519 0.351049 0.260777
0.734890 0.352148 0.261295
0.768093 0.352361 0.262181
0.800412 0.352483 0.263249
0.832059 0.352483 0.264286
0.862974 0.352209 0.265385
0.892576 0.351568 0.266789
0.920684 0.350683 0.268498
0.946960 0.349187 0.270298
0.971283 0.346960 0.272404
0.993927 0.344610 0.274601
1.000000 0.341802 0.277012
1.000000 0.338872 0.279545
1.000000 0.335607 0.282353
1.000000 0.332280 0.285313
1.000000 0.328771 0.288426
0.238621 0.385840 0.254948
0.244205 0.385626 0.255161
0.251347 0.385443 0.255161
0.266606 0.384863 0.255375
0.288304 0.384161 0.255863
0.314458 0.383185 0.256596
0.343725 0.382025 0.257359
0.375158 0.380835 0.258091
0.407874 0.379797 0.258915
0.441962 0.379217 0.259861
0.476661 0.378882 0.260807
0.511376 0.378454 0.261387
0.547601 0.379370 0.261967
0.585016 0.381231 0.262272
0.623285 0.383551 0.262303
0.661921 0.386084 0.262242
0.699489 0.387976 0.262333
0.734768 0.388708 0.262760
0.767880 0.388678 0.263523
0.800046 0.388251 0.264439
0.831510 0.387793 0.265415
0.862119 0.386908 0.266514
0.891478 0.385595 0.267765
0.919310 0.383978 0.269383
0.945495 0.381750 0.271153
0.969848 0.379034 0.273289
0.992584 0.375982 0.275547
1.000000 0.372625 0.277989
1.000000 0.369055 0.280705
1.000000 0.365240 0.283482
1.000000 0.361273 0.286503
1.000000 0.357153 0.289616
0.247440 0.418097 0.261021
0.252384 0.418036 0.261143
0.259251 0.417884 0.261051
0.273167 0.417548 0.261265
0.293400 0.416999 0.261540
0.318120 0.416358 0.261784
0.346288 0.415778 0.262242
0.376776 0.415473 0.262577
0.409094 0.415015 0.263096
0.442481 0.414710 0.263645
0.476448 0.414343 0.264195
0.511620 0.414862 0.264591
0.547662 0.416022 0.264683
0.585077 0.418128 0.264591
0.623224 0.420722 0.264256
0.661616 0.423529 0.264073
0.699001 0.425238 0.263890
0.733974 0.425849 0.264195
0.766995 0.425299 0.264805
0.799100 0.424475 0.265568
0.830564 0.423560 0.266514
0.861112 0.422248 0.267491
0.890440 0.420569 0.268894
0.918273 0.418402 0.270451
0.944427 0.415656 0.272221
0.968750 0.412329 0.274327
0.991455 0.408484 0.276677
1.000000 0.404547 0.279149
1.000000 0.400275 0.281865
1.000000 0.395789 0.284642
1.000000 0.391211 0.287724
1.000000 0.386542 0.290990
0.255009 0.453346 0.265080
0.259678 0.453407 0.265019
0.266270 0.453315 0.265171
0.279301 0.453193 0.265293
0.298833 0.453071 0.265446
0.322698 0.452888 0.265537
0.350164 0.452766 0.265721
0.380041 0.452552 0.265965
0.411719 0.452369 0.266331
0.444709 0.452277 0.266392
0.478431 0.452247 0.266789
0.512749 0.452430 0.266972
0.553735 0.458747 0.267216
0.591516 0.461433 0.266789
0.629816 0.464179 0.266209
0.668208 0.466804 0.265721
0.704921 0.468055 0.265476
0.739315 0.467811 0.265751
0.771756 0.466438 0.266331
0.803403 0.464820 0.267216
0.834348 0.462989 0.268009
0.864286 0.460914 0.269230
0.892973 0.458289 0.270481
0.920317 0.455268 0.272221
0.945953 0.451637 0.273991
0.969848 0.447517 0.276219
0.992248 0.442939 0.278599
1.000000 0.438087 0.281132
1.000000 0.433143 0.283909
1.000000 0.427863 0.286870
1.000000 0.422644 0.289982
1.000000 0.417243 0.293339
0.262242 0.494636 0.268009
0.266636 0.494667 0.268040
0.273014 0.494453 0.268040
0.285893 0.494240 0.268040
0.304906 0.493935 0.268132
0.328222 0.493599 0.268101
0.355047 0.493355 0.268193
0.384588 0.493111 0.268284
0.416022 0.493141 0.268437
0.448951 0.493538 0.268406
0.483009 0.494179 0.268650
0.517937 0.495003 0.268681
0.553307 0.496071 0.268894
0.589929 0.498024 0.268498
0.628595 0.501671 0.267765
0.667018 0.504814 0.267002
0.703670 0.506035 0.266758
0.737881 0.505547 0.266728
0.770260 0.503929 0.267460
0.801907 0.501884 0.268070
0.832731 0.499794 0.269108
0.862669 0.497200 0.270237
0.891295 0.494179 0.271580
0.918608 0.490608 0.273198
0.944274 0.486366 0.275120
0.968200 0.481605 0.277256
0.990661 0.476478 0.279698
1.000000 0.471107 0.282414
1.000000 0.465431 0.285161
1.000000 0.459693 0.288273
1.000000 0.453803 0.291417
1.000000 0.447822 0.294926
0.268315 0.535241 0.269963
0.273014 0.535149 0.269932
0.278965 0.535027 0.269871
0.291508 0.534844 0.269932
0.309880 0.534356 0.269902
0.332860 0.533959 0.269902
0.359350 0.533745 0.269993
0.388434 0.533654 0.269841
0.419440 0.533684 0.269932
0.452094 0.534203 0.269780
0.485908 0.534874 0.269810
0.520592 0.535882 0.269688
0.555779 0.536980 0.269657
0.591424 0.538109 0.269535
0.627344 0.539361 0.269444
0.666133 0.543114 0.268223
0.702358 0.544213 0.267857
0.736416 0.543542 0.267979
0.768734 0.541558 0.268498
0.800320 0.539269 0.269139
0.831235 0.536736 0.270054
0.861112 0.533837 0.271214
0.889799 0.530327 0.272618
0.917082 0.526268 0.274266
0.942718 0.521630 0.276249
0.966674 0.516289 0.278508
0.989166 0.510491 0.280949
1.000000 0.504540 0.283635
1.000000 0.498360 0.286625
1.000000 0.492012 0.289830
1.000000 0.485603 0.293217
1.000000 0.479011 0.296818
0.274266 0.577020 0.271153
0.278538 0.577050 0.271244
0.284398 0.576837 0.271122
0.296788 0.576623 0.271031
0.314855 0.576165 0.271031
0.337469 0.575830 0.270939
0.363470 0.575494 0.270909
0.392187 0.575372 0.270756
0.422919 0.575525 0.270756
0.455421 0.575982 0.270603
0.488960 0.576715 0.270359
0.523430 0.577691 0.270237
0.558434 0.578790 0.270146
0.593896 0.579889 0.269749
0.629419 0.580713 0.269627
0.664881 0.581292 0.269444
0.701350 0.582849 0.268742
0.735134 0.581781 0.268772
0.767330 0.579522 0.269383
0.798886 0.576959 0.270054
0.829740 0.574029 0.270939
0.859617 0.570642 0.272099
0.888182 0.566766 0.273503
0.915496 0.562188 0.275303
0.941131 0.556970 0.277317
0.965148 0.551202 0.279728
0.987732 0.544945 0.282231
1.000000 0.538476 0.285252
1.000000 0.531701 0.288365
1.000000 0.524895 0.291752
1.000000 0.517937 0.295415
1.000000 0.510796 0.299321
0.279332 0.619379 0.271916
0.283818 0.619409 0.272007
0.289433 0.619348 0.271885
0.301640 0.619135 0.271794
0.319432 0.618860 0.271733
0.341955 0.618616 0.271550
0.367529 0.618433 0.271489
0.396002 0.618372 0.271336
0.426612 0.618402 0.271183
0.458503 0.618647 0.271092
0.491707 0.618891 0.270878
0.525658 0.619348 0.270756
0.559960 0.619715 0.270573
0.594690 0.620081 0.270451
0.629572 0.620356 0.270115
0.664515 0.620600 0.269902
0.699458 0.620630 0.269780
0.733730 0.620020 0.269688
0.766018 0.617548 0.270237
0.797696 0.614801 0.270970
0.828550 0.611658 0.271733
0.858457 0.607965 0.273075
0.887083 0.603662 0.274540
0.914336 0.598657 0.276310
0.939971 0.592920 0.278569
0.964019 0.586572 0.281071
0.986572 0.579767 0.283940
1.000000 0.572747 0.286900
1.000000 0.565454 0.290379
1.000000 0.557977 0.293767
1.000000 0.550408 0.297642
1.000000 0.542687 0.301640
0.284428 0.659297 0.272740
0.288487 0.659236 0.272618
0.294194 0.659174 0.272709
0.305882 0.658961 0.272557
0.323400 0.658686 0.272526
0.345129 0.658442 0.272435
0.370336 0.658137 0.272404
0.398291 0.657923 0.272129
0.428290 0.657771 0.272038
0.459754 0.657740 0.271824
0.492378 0.657832 0.271824
0.525719 0.657954 0.271550
0.559594 0.658106 0.271458
0.593713 0.658167 0.271397
0.628138 0.658076 0.271153
0.662470 0.657893 0.270939
0.696925 0.657588 0.270878
0.731502 0.657404 0.270603
0.764614 0.655604 0.270756
0.796170 0.652552 0.271550
0.827024 0.649104 0.272587
0.856809 0.644984 0.273716
0.885466 0.640223 0.275364
0.912688 0.634852 0.277287
0.938323 0.628595 0.279606
0.962341 0.621759 0.282383
0.985016 0.614466 0.285252
1.000000 0.606897 0.288640
1.000000 0.599115 0.292149
1.000000 0.591119 0.295933
1.000000 0.583001 0.299870
1.000000 0.574701 0.304143
0.289067 0.696956 0.273869
0.293278 0.696986 0.273869
0.299382 0.701564 0.274144
0.311009 0.701320 0.274083
0.328191 0.700893 0.274083
0.349310 0.700465 0.273991
0.374060 0.699916 0.273960
0.401465 0.699397 0.273716
0.430915 0.698939 0.273655
0.461982 0.698573 0.273533
0.493965 0.698299 0.273411
0.526787 0.697993 0.273198
0.560113 0.697658 0.273136
0.593835 0.697322 0.273014
0.627649 0.696895 0.272831
0.661585 0.696407 0.272587
0.695705 0.695888 0.272313
0.729854 0.695308 0.272190
0.764157 0.694759 0.271824
0.796567 0.692226 0.272313
0.827115 0.688106 0.273381
0.856687 0.683436 0.274815
0.885100 0.678035 0.276493
0.912108 0.671962 0.278538
0.937407 0.665003 0.281071
0.961212 0.657465 0.283909
0.983642 0.649470 0.287114
1.000000 0.641230 0.290471
1.000000 0.632807 0.294041
1.000000 0.624262 0.298039
1.000000 0.615595 0.302129
1.000000 0.606714 0.306737
0.293950 0.733761 0.275547
0.297734 0.734310 0.275486
0.303136 0.734798 0.275486
0.314366 0.735103 0.275517
0.330632 0.735195 0.275547
0.351415 0.735012 0.275547
0.375463 0.734615 0.275303
0.402167 0.734127 0.275242
0.430976 0.733730 0.275120
0.461158 0.733303 0.274968
0.492592 0.732967 0.274784
0.524773 0.732631 0.274693
0.557641 0.732235 0.274662
0.590784 0.731838 0.274479
0.624170 0.731350 0.274296
0.657740 0.730770 0.274052
0.691432 0.730129 0.273869
0.725216 0.729488 0.273686
0.759274 0.728878 0.273533
0.793484 0.728359 0.273228
0.825345 0.725338 0.273869
0.854917 0.720363 0.275395
0.883360 0.714595 0.277256
0.910338 0.708156 0.279576
0.935668 0.700740 0.282383
0.959503 0.692683 0.285283
0.981964 0.684230 0.288548
1.000000 0.675471 0.292241
1.000000 0.666560 0.296086
1.000000 0.657465 0.300298
1.000000 0.648249 0.304692
1.000000 0.638849 0.309453
0.297704 0.767819 0.277073
0.301518 0.768276 0.277165
0.306676 0.768734 0.277195
0.317327 0.769009 0.277226
0.333227 0.769070 0.277134
0.353185 0.768887 0.277226
0.376593 0.768490 0.277043
0.402594 0.768032 0.276860
0.430610 0.767636 0.276707
0.460212 0.767208 0.276677
0.491035 0.766842 0.276616
0.522728 0.766506 0.276493
0.554986 0.766018 0.276341
0.587640 0.765560 0.276219
0.620630 0.764950 0.276066
0.653742 0.764309 0.275944
0.687068 0.763577 0.275639
0.720485 0.762875 0.275456
0.754116 0.762142 0.275334
0.787961 0.761501 0.275212
0.821988 0.760861 0.275059
0.853269 0.757351 0.276005
0.881651 0.751308 0.278111
0.908598 0.744320 0.280522
0.933898 0.736446 0.283574
0.957733 0.727901 0.286687
0.980133 0.718898 0.290166
1.000000 0.709590 0.294011
1.000000 0.700160 0.298192
1.000000 0.690547 0.302525
1.000000 0.680812 0.307195
1.000000 0.670893 0.312169
0.301061 0.800839 0.279026
0.304753 0.801236 0.279149
0.309728 0.801633 0.279179
0.320043 0.801877 0.279149
0.335454 0.801907 0.279210
0.354772 0.801663 0.279118
0.377386 0.801297 0.279057
0.402564 0.800870 0.278996
0.429969 0.800351 0.278904
0.458991 0.799893 0.278782
0.489052 0.799466 0.278630
0.520165 0.798978 0.278599
0.551873 0.798428 0.278416
0.584039 0.797879 0.278325
0.616541 0.797299 0.278355
0.649317 0.796658 0.278080
0.682338 0.795956 0.278111
0.715541 0.795346 0.277958
0.748959 0.794797 0.277806
0.782559 0.794186 0.277958
0.816403 0.793637 0.277897
0.850431 0.793088 0.277867
0.881224 0.789029 0.279240
0.908171 0.781613 0.282109
0.933440 0.773251 0.285313
0.957183 0.764187 0.288914
0.979553 0.754574 0.292821
1.000000 0.744717 0.297032
1.000000 0.734646 0.301396
1.000000 0.724483 0.306065
1.000000 0.714137 0.311070
1.000000 0.703944 0.316320
0.304601 0.834104 0.281834
0.308019 0.834287 0.281804
0.312779 0.834318 0.281865
0.322637 0.834318 0.281865
0.337407 0.834134 0.281865
0.356176 0.833799 0.281743
0.378088 0.833402 0.281773
0.402686 0.832944 0.281682
0.429419 0.832517 0.281590
0.457740 0.832059 0.281590
0.487312 0.831662 0.281529
0.517937 0.831144 0.281407
0.549065 0.830564 0.281468
0.580713 0.829892 0.281376
0.612696 0.829160 0.281346
0.645045 0.828397 0.281346
0.677516 0.827604 0.281315
0.710292 0.826780 0.281193
0.743130 0.825986 0.281224
0.776272 0.825132 0.281224
0.809506 0.824277 0.281346
0.842893 0.823331 0.281407
0.876432 0.822354 0.281590
0.906340 0.817563 0.283116
0.931487 0.808652 0.286687
0.955200 0.799100 0.290471
0.977600 0.788998 0.294621
0.998810 0.778683 0.299077
1.000000 0.768124 0.303746
1.000000 0.757412 0.308690
1.000000 0.746792 0.313878
1.000000 0.736568 0.319402
0.307500 0.863859 0.284886
0.310857 0.864012 0.284947
0.315190 0.864134 0.284916
0.324834 0.864073 0.285008
0.339055 0.863859 0.285039
0.357122 0.863493 0.284947
0.378332 0.863096 0.284886
0.402014 0.862608 0.284825
0.428077 0.862089 0.284886
0.455848 0.861509 0.284794
0.484718 0.861021 0.284886
0.514549 0.860441 0.284855
0.545098 0.859800 0.284825
0.576287 0.859037 0.284886
0.607721 0.858274 0.284886
0.639521 0.857450 0.284855
0.671534 0.856535 0.284886
0.703792 0.855650 0.285008
0.736233 0.854734 0.285130
0.768795 0.853788 0.285344
0.801572 0.852811 0.285435
0.834470 0.851743 0.285771
0.867460 0.850645 0.286076
0.900572 0.849424 0.286351
0.929168 0.843534 0.287724
0.952880 0.833494 0.291783
0.975280 0.822995 0.296239
0.996521 0.812192 0.300877
1.000000 0.801236 0.305852
1.000000 0.790219 0.311040
1.000000 0.779385 0.316442
1.000000 0.769131 0.322210
0.310521 0.892943 0.289311
0.313756 0.893095 0.289433
0.318059 0.893095 0.289372
0.327153 0.892973 0.289403
0.340795 0.892668 0.289342
0.358068 0.892271 0.289311
0.378637 0.891722 0.289250
0.401617 0.891112 0.289189
0.426978 0.890410 0.289158
0.453803 0.889677 0.289097
0.482033 0.888914 0.289128
0.511070 0.888121 0.289128
0.540978 0.887297 0.289097
0.571405 0.886381 0.289128
0.602167 0.885374 0.289128
0.633295 0.884276 0.289158
0.664698 0.883146 0.289311
0.696284 0.882017 0.289403
0.728145 0.880980 0.289525
0.760159 0.879911 0.289830
0.792386 0.878843 0.290196
0.824704 0.877714 0.290501
0.857145 0.876432 0.290929
0.889616 0.874968 0.291295
0.922087 0.873381 0.291722
0.950958 0.868162 0.293523
0.973297 0.857084 0.298222
0.994476 0.845792 0.303136
1.000000 0.834379 0.308202
1.000000 0.823026 0.313603
1.000000 0.812009 0.319371
1.000000 0.801602 0.325505
0.313024 0.918364 0.294011
0.316014 0.918486 0.294163
0.320134 0.918517 0.294224
0.328893 0.918395 0.294224
0.341985 0.918090 0.294163
0.358587 0.917723 0.294163
0.378393 0.917174 0.294194
0.400702 0.916564 0.294163
0.425238 0.915953 0.294133
0.451392 0.915221 0.294194
0.478767 0.914519 0.294255
0.507317 0.913725 0.294316
0.536553 0.912902 0.294377
0.566339 0.911986 0.294438
0.596551 0.910948 0.294621
0.627039 0.909880 0.294713
0.657923 0.908690 0.294835
0.688991 0.907561 0.295140
0.720241 0.906401 0.295293
0.751736 0.905241 0.295720
0.783352 0.904021 0.296147
0.815122 0.902770 0.296727
0.846983 0.901366 0.297124
0.878904 0.899870 0.297704
0.910857 0.898192 0.298161
0.942870 0.896391 0.298741
0.971679 0.891325 0.300511
0.992706 0.879454 0.305882
1.000000 0.867613 0.311315
1.000000 0.855924 0.317082
1.000000 0.844572 0.323125
1.000000 0.834043 0.329503
0.315648 0.942351 0.299931
0.318669 0.942412 0.299962
0.322484 0.942382 0.300053
0.330846 0.942199 0.300023
0.343175 0.941863 0.300023
0.359167 0.941436 0.299962
0.378119 0.940887 0.299901
0.399695 0.940276 0.299901
0.423468 0.939605 0.299870
0.448707 0.938903 0.299962
0.475471 0.938140 0.300023
0.503227 0.937407 0.300206
0.531762 0.936553 0.300328
0.560967 0.935607 0.300633
0.590478 0.934569 0.300725
0.620417 0.933440 0.300938
0.650660 0.932250 0.301152
0.681147 0.930999 0.301427
0.711818 0.929778 0.301732
0.742672 0.928527 0.302220
0.773739 0.927245 0.302617
0.804959 0.925872 0.303319
0.836210 0.924437 0.303899
0.867552 0.922850 0.304509
0.898924 0.921172 0.305089
0.930419 0.919280 0.305791
0.962005 0.917296 0.306523
0.991089 0.912871 0.308171
1.000000 0.900084 0.314122
1.000000 0.887938 0.320256
1.000000 0.876280 0.326513
1.000000 0.865537 0.333227
0.318181 0.964324 0.306523
0.320958 0.964324 0.306645
0.324773 0.964263 0.306615
0.332464 0.964111 0.306645
0.344457 0.963836 0.306645
0.359838 0.963500 0.306645
0.378149 0.963134 0.306798
0.398993 0.962707 0.306981
0.422095 0.962280 0.307225
0.446815 0.961791 0.307530
0.472786 0.961242 0.307805
0.499916 0.960632 0.308171
0.527794 0.959899 0.308507
0.556359 0.959075 0.308812
0.585382 0.958099 0.309178
0.614710 0.956970 0.309392
0.644373 0.955779 0.309789
0.674250 0.954498 0.310124
0.704372 0.953216 0.310674
0.734676 0.951904 0.311162
0.765103 0.950530 0.311803
0.795743 0.949096 0.312444
0.826413 0.947509 0.313146
0.857176 0.945830 0.313878
0.888029 0.944030 0.314702
0.919066 0.942107 0.315557
0.950225 0.940032 0.316258
0.981353 0.937804 0.317174
1.000000 0.933989 0.318822
1.000000 0.920256 0.325383
1.000000 0.908049 0.332189
1.000000 0.896818 0.339330
0.321782 0.985962 0.315190
0.324407 0.985931 0.315251
0.327886 0.985870 0.315312
0.335424 0.985657 0.315221
0.346685 0.985382 0.315251
0.361273 0.984955 0.315251
0.378820 0.984527 0.315373
0.398749 0.984009 0.315435
0.420935 0.983429 0.315557
0.444770 0.982788 0.315831
0.469917 0.982116 0.316014
0.496162 0.981353 0.316320
0.523247 0.980499 0.316625
0.551049 0.979522 0.317021
