cubelut/LC1.cube
# Created by Adobe Lightroom plugin Export LUT (1.18.0)
# www.johnrellis.com/lightroom/exportlut.htm
# Preset: Portrait Effect 30
# Color profile: /Library/Application Support/Adobe/Color/Profiles/Recommended/AdobeRGB1998.icc
LUT_3D_SIZE 5
DOMAIN_MIN 0.000000 0.000000 0.000000
DOMAIN_MAX 0.903226 0.903226 0.903226
0.224399 0.182620 0.254978
0.381842 0.147616 0.251560
0.622950 0.145052 0.244144
0.866758 0.177157 0.260746
1.000000 0.193942 0.274815
0.220523 0.326452 0.243381
0.379004 0.317632 0.245823
0.623285 0.310826 0.257633
0.863920 0.318791 0.264500
1.000000 0.309850 0.278691
0.274266 0.577020 0.271153
0.392187 0.575372 0.270756
0.629419 0.580713 0.269627
0.859617 0.570642 0.272099
1.000000 0.531701 0.288365
0.304601 0.834104 0.281834
0.402686 0.832944 0.281682
0.612696 0.829160 0.281346
0.842893 0.823331 0.281407
1.000000 0.768124 0.303746
0.324834 1.000000 0.323857
0.398413 1.000000 0.324163
0.572412 0.996338 0.324804
0.774166 0.987457 0.329808
0.985382 0.973144 0.337224
0.200015 0.179965 0.366552
0.371679 0.174441 0.368414
0.616297 0.178164 0.358709
0.857755 0.204166 0.361425
1.000000 0.211887 0.364233
0.242557 0.319402 0.369024
0.375250 0.316228 0.366369
0.616938 0.321355 0.364172
0.856657 0.327642 0.361456
1.000000 0.317845 0.365606
0.268254 0.574334 0.363226
0.394568 0.572534 0.365789
0.622980 0.575433 0.363012
0.853574 0.569177 0.361395
1.000000 0.533654 0.370123
0.300725 0.833249 0.362463
0.404242 0.831785 0.366064
0.611749 0.828092 0.364874
0.840970 0.822385 0.363439
1.000000 0.767758 0.378424
0.330724 1.000000 0.393744
0.402197 1.000000 0.393896
0.574487 0.996735 0.395331
0.774380 0.987457 0.398322
0.984527 0.973114 0.403784
0.233097 0.185122 0.547723
0.363287 0.189181 0.547173
0.613581 0.174624 0.559442
0.854459 0.170748 0.543877
1.000000 0.280888 0.554406
0.271641 0.320836 0.547692
0.377081 0.317174 0.547387
0.617334 0.306279 0.554101
0.853178 0.313787 0.540734
1.000000 0.352544 0.551507
0.275761 0.570275 0.556481
0.381201 0.572747 0.551965
0.621973 0.576379 0.543481
0.849180 0.568170 0.542138
1.000000 0.539025 0.545495
0.295445 0.831174 0.542168
0.397223 0.828977 0.540368
0.609766 0.825589 0.543114
0.837888 0.821134 0.542168
1.000000 0.767880 0.549889
0.370977 0.999908 0.552026
0.454597 0.996857 0.568994
0.586267 0.993805 0.561883
0.777371 0.984955 0.562890
0.981201 0.971405 0.565576
0.283482 0.195407 0.751308
0.393378 0.192508 0.751186
0.619318 0.179446 0.750729
0.851804 0.182650 0.734554
1.000000 0.295781 0.709133
0.287572 0.320470 0.751156
0.394293 0.316869 0.750851
0.620508 0.308812 0.749752
0.850217 0.320470 0.731868
1.000000 0.400122 0.716762
0.296086 0.573846 0.748196
0.394446 0.572656 0.747707
0.623957 0.576135 0.745724
0.841733 0.586206 0.735195
0.999054 0.620294 0.748836
0.318059 0.833249 0.731136
0.414313 0.830961 0.730098
0.629389 0.823606 0.736233
0.835416 0.818662 0.743069
0.995392 0.780972 0.746609
0.398718 0.997009 0.704860
0.475227 0.993957 0.713832
0.652613 0.985046 0.746639
0.797421 0.979980 0.753964
0.977783 0.969207 0.754635
0.324407 0.204166 0.937621
0.412665 0.201175 0.937255
0.614710 0.193332 0.936156
0.849912 0.191623 0.934020
1.000000 0.308934 0.871916
0.323644 0.319646 0.936522
0.411261 0.317906 0.936156
0.613336 0.315953 0.934997
0.847715 0.324956 0.932494
1.000000 0.409766 0.874418
0.304265 0.548974 0.933471
0.398322 0.548730 0.932952
0.623774 0.575036 0.930053
0.840055 0.584466 0.927764
0.997681 0.623285 0.886015
0.318639 0.814450 0.927489
0.410773 0.812833 0.927001
0.617975 0.809171 0.925811
0.831601 0.816281 0.924071
0.981018 0.825986 0.908415
0.404517 1.000000 0.879698
0.475685 1.000000 0.881926
0.651240 0.991669 0.891478
0.834623 0.975799 0.910430
0.970672 0.966827 0.930327
