cubelut/LC1.cube
# Created by Adobe Lightroom plugin Export LUT (1.18.0)
# www.johnrellis.com/lightroom/exportlut.htm
# Preset: Portrait Effect 30
# Color profile: /Library/Application Support/Adobe/Color/Profiles/Recommended/AdobeRGB1998.icc
LUT_3D_SIZE 8
DOMAIN_MIN 0.000000 0.000000 0.000000
DOMAIN_MAX 0.903226 0.903226 0.903226
0.224399 0.182620 0.254978
0.287968 0.165988 0.254154
0.413062 0.144778 0.250278
0.547997 0.140169 0.242618
0.701961 0.153170 0.249882
0.836454 0.173190 0.259068
0.948791 0.186770 0.265934
1.000000 0.193942 0.274815
0.216800 0.240757 0.251316
0.287236 0.236667 0.249760
0.412177 0.212467 0.246586
0.545892 0.206607 0.244083
0.698970 0.216617 0.253635
0.832334 0.226902 0.260227
0.945922 0.233341 0.266514
1.000000 0.234470 0.275456
0.228916 0.355413 0.248203
0.283665 0.353185 0.249271
0.409552 0.347021 0.253147
0.547509 0.343206 0.258885
0.699519 0.351049 0.260777
0.832059 0.352483 0.264286
0.946960 0.349187 0.270298
1.000000 0.338872 0.279545
0.262242 0.494636 0.268009
0.304906 0.493935 0.268132
0.416022 0.493141 0.268437
0.553307 0.496071 0.268894
0.703670 0.506035 0.266758
0.832731 0.499794 0.269108
0.944274 0.486366 0.275120
1.000000 0.465431 0.285161
0.284428 0.659297 0.272740
0.323400 0.658686 0.272526
0.428290 0.657771 0.272038
0.559594 0.658106 0.271458
0.696925 0.657588 0.270878
0.827024 0.649104 0.272587
0.938323 0.628595 0.279606
1.000000 0.599115 0.292149
0.301061 0.800839 0.279026
0.335454 0.801907 0.279210
0.429969 0.800351 0.278904
0.551873 0.798428 0.278416
0.682338 0.795956 0.278111
0.816403 0.793637 0.277897
0.933440 0.773251 0.285313
1.000000 0.734646 0.301396
0.313024 0.918364 0.294011
0.341985 0.918090 0.294163
0.425238 0.915953 0.294133
0.536553 0.912902 0.294377
0.657923 0.908690 0.294835
0.783352 0.904021 0.296147
0.910857 0.898192 0.298161
1.000000 0.867613 0.311315
0.324834 1.000000 0.323857
0.348577 1.000000 0.324010
0.419715 1.000000 0.324437
0.518975 0.999664 0.325902
0.628809 0.994110 0.325811
0.744747 0.988922 0.328710
0.863706 0.982300 0.332952
0.985382 0.973144 0.337224
0.213291 0.182437 0.297551
0.285893 0.163912 0.296269
0.406989 0.175082 0.292821
0.540520 0.182895 0.297917
0.695216 0.182620 0.297612
0.829282 0.190707 0.298131
0.943847 0.198245 0.300511
1.000000 0.201938 0.305882
0.207919 0.239567 0.297520
0.287205 0.235660 0.298405
0.405859 0.232181 0.298497
0.540307 0.229923 0.298741
0.694118 0.232883 0.298131
0.827451 0.238102 0.298436
0.941772 0.241123 0.300603
1.000000 0.239872 0.305852
0.241703 0.352300 0.296788
0.297551 0.349615 0.302159
0.407446 0.345983 0.302159
0.542779 0.346380 0.301701
0.694057 0.354284 0.299596
0.826902 0.355505 0.299870
0.941527 0.351354 0.302525
1.000000 0.340917 0.308751
0.267552 0.490761 0.303166
0.312016 0.490089 0.306126
0.416999 0.490028 0.305608
0.548028 0.491005 0.304784
0.695521 0.501122 0.301488
0.825589 0.496956 0.301549
0.938842 0.485176 0.304967
1.000000 0.465553 0.312474
0.288579 0.657404 0.305760
0.326299 0.656519 0.305455
0.428717 0.655116 0.304784
0.557305 0.654292 0.303563
0.692836 0.653468 0.302159
0.823026 0.646296 0.302678
0.935332 0.627314 0.307897
1.000000 0.598627 0.318181
0.303136 0.798520 0.308263
0.336339 0.798184 0.308263
0.429603 0.796841 0.307713
0.550591 0.795560 0.307164
0.680751 0.793942 0.306645
0.815000 0.792447 0.306188
0.931762 0.772183 0.312200
1.000000 0.733944 0.325658
0.313725 0.916075 0.319371
0.342107 0.915251 0.319127
0.424781 0.913451 0.319066
0.535790 0.911040 0.319310
0.657099 0.907408 0.319890
0.782162 0.902739 0.320592
0.909178 0.896696 0.321752
1.000000 0.866209 0.333074
0.325689 1.000000 0.345373
0.349340 1.000000 0.345556
0.420142 1.000000 0.346105
0.519005 0.998932 0.347509
0.629633 0.994690 0.349065
0.744930 0.989044 0.351049
0.863340 0.981964 0.353887
0.984710 0.972625 0.357214
0.201633 0.177493 0.391424
0.266453 0.169375 0.391333
0.401862 0.178286 0.393042
0.539727 0.178103 0.387427
0.695918 0.171633 0.382330
0.828153 0.202945 0.385962
0.942535 0.211826 0.386236
1.000000 0.215640 0.388006
0.238376 0.235752 0.390875
0.286900 0.236637 0.390509
0.402686 0.233524 0.391211
0.539391 0.228153 0.385016
0.693690 0.232731 0.384375
0.826413 0.247654 0.385687
0.941009 0.251408 0.385595
1.000000 0.250767 0.387701
0.250309 0.348760 0.393530
0.297826 0.348180 0.392309
0.405951 0.346136 0.390478
0.541680 0.350378 0.389624
0.694240 0.357794 0.387152
0.825986 0.360235 0.385657
0.939788 0.356481 0.385901
1.000000 0.346777 0.388647
0.264897 0.491890 0.392767
0.306523 0.491981 0.390265
0.418128 0.490883 0.390875
0.547662 0.492470 0.389624
0.695399 0.502678 0.386389
0.825010 0.499336 0.385290
0.937804 0.487984 0.386542
1.000000 0.468849 0.390631
0.270817 0.657801 0.385199
0.312047 0.657557 0.382086
0.428046 0.655818 0.387152
0.556878 0.655634 0.385931
0.692988 0.655177 0.384222
0.822141 0.647028 0.383673
0.933654 0.628046 0.386633
1.000000 0.600031 0.393164
0.288365 0.799039 0.380194
0.329107 0.798337 0.382635
0.429664 0.796445 0.386358
0.549584 0.794736 0.385504
0.679103 0.792935 0.384497
0.812924 0.791348 0.383642
0.929168 0.771145 0.387854
1.000000 0.734249 0.397925
0.312535 0.916320 0.391638
0.342870 0.915496 0.392584
0.425849 0.913329 0.393042
0.535607 0.910460 0.392706
0.656214 0.906767 0.392584
0.781216 0.902342 0.393042
0.908568 0.896971 0.394110
1.000000 0.866484 0.403449
0.334630 1.000000 0.414649
0.354406 1.000000 0.412818
0.423377 1.000000 0.412879
0.521111 0.998230 0.414527
0.630426 0.993988 0.415473
0.745083 0.988586 0.417060
0.863035 0.981659 0.419440
0.983856 0.972595 0.422156
0.218814 0.177707 0.493202
0.273594 0.183017 0.493202
0.391485 0.187839 0.492500
0.536248 0.181338 0.500633
0.692409 0.161715 0.500481
0.825711 0.162509 0.487373
0.938415 0.201114 0.485664
1.000000 0.232944 0.490913
0.248966 0.239017 0.493385
0.290715 0.238743 0.493263
0.397253 0.237339 0.492561
0.538293 0.229465 0.499916
0.692897 0.213687 0.497200
0.825162 0.215610 0.484596
0.937377 0.246128 0.486000
1.000000 0.261570 0.489540
0.266819 0.345983 0.493050
0.305791 0.346899 0.492836
0.406104 0.346715 0.492622
0.542199 0.342382 0.494301
0.694911 0.339055 0.487129
0.825071 0.352148 0.486458
0.937926 0.358465 0.489235
1.000000 0.352239 0.489815
0.271763 0.488777 0.500969
0.308873 0.489357 0.499825
0.409857 0.491127 0.494606
0.546471 0.492592 0.491218
0.693446 0.500023 0.488624
0.822202 0.497749 0.487526
0.934447 0.487953 0.488106
1.000000 0.471931 0.490547
0.271122 0.658381 0.501030
0.308385 0.657893 0.497719
0.411353 0.657588 0.486610
0.554650 0.656458 0.488441
0.692500 0.656153 0.487007
0.820798 0.647059 0.486671
0.931243 0.628382 0.488533
1.000000 0.602014 0.492561
0.286259 0.799985 0.489357
0.321630 0.800748 0.487984
0.421973 0.798672 0.485298
0.549462 0.796231 0.487953
0.678950 0.794369 0.487068
0.812375 0.792142 0.486091
0.926421 0.770626 0.489326
1.000000 0.735042 0.496284
0.315923 0.915618 0.489021
0.347356 0.915099 0.490700
0.433906 0.913146 0.495460
0.538079 0.910948 0.493416
0.657343 0.907286 0.493172
0.781247 0.902647 0.493202
0.907408 0.896910 0.493568
1.000000 0.865812 0.500603
0.367468 1.000000 0.511772
0.394537 1.000000 0.517327
0.452461 0.998657 0.519219
0.528923 0.996948 0.509819
0.634974 0.992828 0.510399
0.747250 0.987549 0.511345
0.863401 0.980896 0.513176
0.982422 0.972198 0.515373
0.246555 0.189517 0.604120
0.290440 0.190372 0.604150
0.400793 0.190799 0.603662
0.532311 0.188968 0.603601
0.689479 0.166506 0.615137
0.822660 0.168032 0.603235
0.934874 0.208011 0.593317
1.000000 0.284550 0.598596
0.261509 0.241184 0.604273
0.301305 0.240482 0.604456
0.405432 0.237888 0.603967
0.534844 0.233921 0.603815
0.689937 0.216983 0.613336
0.822660 0.220188 0.601709
0.934264 0.254093 0.594049
1.000000 0.320623 0.602411
0.279881 0.353735 0.604395
0.314946 0.353246 0.604608
0.410498 0.347448 0.604395
0.540307 0.344305 0.603510
0.691188 0.337804 0.607111
0.820981 0.345983 0.597772
0.930877 0.374060 0.599603
1.000000 0.423194 0.617670
0.285283 0.488380 0.604364
0.318944 0.488838 0.604028
0.414954 0.490394 0.603449
0.547692 0.492866 0.602380
0.692348 0.494728 0.600732
0.818570 0.500877 0.600610
0.927916 0.503227 0.604822
1.000000 0.493690 0.606226
0.281010 0.652796 0.609827
0.315435 0.653437 0.608698
0.414801 0.654566 0.604273
0.551202 0.654780 0.599847
0.690272 0.654078 0.598322
0.816648 0.644068 0.597955
0.925872 0.627741 0.599054
1.000000 0.607294 0.601465
0.293767 0.796963 0.597711
0.327337 0.796567 0.596643
0.424445 0.794644 0.594690
0.554742 0.791684 0.600061
0.675990 0.790890 0.597070
0.809781 0.790005 0.597498
0.921599 0.769039 0.600824
1.000000 0.737850 0.605554
0.326390 0.913878 0.589380
0.356603 0.913054 0.590448
0.446784 0.910277 0.597040
0.564904 0.906096 0.613306
0.660090 0.905119 0.603174
0.781521 0.900908 0.603265
0.905333 0.895445 0.603418
0.999878 0.864805 0.608453
0.377111 0.999084 0.594507
0.402991 0.998108 0.598260
0.482460 0.994690 0.613489
0.584680 0.990448 0.638087
0.646632 0.990234 0.616663
0.753628 0.985260 0.617273
0.865446 0.979034 0.618372
0.980377 0.970916 0.619684
0.276432 0.194461 0.723445
0.315373 0.193942 0.723384
0.418799 0.191104 0.722744
0.548852 0.184878 0.722896
0.688136 0.174166 0.721950
0.822324 0.175051 0.712306
0.932403 0.218204 0.695552
1.000000 0.294682 0.687373
0.282658 0.242100 0.722377
0.319524 0.240879 0.722194
0.420539 0.236881 0.722133
0.549035 0.230350 0.721798
0.688411 0.221622 0.720943
0.821592 0.225101 0.710780
0.931395 0.261967 0.695552
1.000000 0.328923 0.689631
0.286076 0.354772 0.723568
0.317723 0.350927 0.723384
0.420020 0.347753 0.722805
0.550744 0.343877 0.722072
0.692134 0.340887 0.720760
0.821195 0.350622 0.708400
0.928832 0.380713 0.698634
1.000000 0.430884 0.700221
0.293706 0.499245 0.722499
0.326055 0.498207 0.722133
0.421607 0.495949 0.721706
0.553643 0.495796 0.721736
0.696498 0.498329 0.720485
0.819242 0.510307 0.710048
0.923430 0.530846 0.710872
1.000000 0.559472 0.720577
0.294560 0.653407 0.719295
0.326909 0.653834 0.719142
0.422980 0.655024 0.718593
0.555840 0.656245 0.717708
0.691188 0.654536 0.716609
0.812772 0.656672 0.715419
0.916655 0.659052 0.722133
0.999359 0.660426 0.730709
0.307286 0.799435 0.706996
0.339910 0.799527 0.706691
0.434943 0.798032 0.705623
0.563653 0.794491 0.707729
0.689479 0.790524 0.714839
0.809415 0.789548 0.714534
0.915587 0.770809 0.716457
0.999359 0.748714 0.718990
0.345647 0.912932 0.690181
0.374670 0.912383 0.691157
0.461280 0.909667 0.695552
0.577905 0.905089 0.707393
0.694667 0.900145 0.725612
0.787167 0.899260 0.717891
0.904540 0.894652 0.717861
0.993072 0.867399 0.721645
0.394079 0.997528 0.682490
0.418494 0.996551 0.685115
0.494118 0.993225 0.695674
0.596490 0.988190 0.715297
0.705776 0.981811 0.743709
0.767483 0.981964 0.726131
0.871275 0.976623 0.727047
0.978424 0.969665 0.727871
0.304326 0.198093 0.836759
0.338109 0.197299 0.836942
0.432624 0.193484 0.836545
0.556023 0.186282 0.836149
0.691188 0.176181 0.835172
0.834195 0.165042 0.833799
0.931334 0.225071 0.797879
1.000000 0.302770 0.776089
0.306004 0.242618 0.835752
0.339086 0.241550 0.835874
0.432380 0.237400 0.835599
0.555169 0.230900 0.834989
0.690303 0.223362 0.833982
0.833158 0.216648 0.832486
0.929686 0.266056 0.796902
1.000000 0.333867 0.776791
0.300999 0.350774 0.836057
0.334752 0.349798 0.835935
0.429419 0.347326 0.835386
0.553887 0.344488 0.834653
0.690211 0.342931 0.833371
0.833249 0.345098 0.831754
0.927489 0.383368 0.797940
1.000000 0.435096 0.783871
0.303380 0.494575 0.835172
0.334447 0.493294 0.834897
0.428870 0.492012 0.834226
0.556298 0.495064 0.833341
0.691279 0.498451 0.831937
0.830472 0.505089 0.830411
0.922301 0.530724 0.802914
1.000000 0.560540 0.796750
0.304784 0.648066 0.831785
0.336126 0.647517 0.831510
0.429297 0.646540 0.830838
0.556756 0.647517 0.829953
0.689998 0.652277 0.828550
0.820127 0.653803 0.827329
0.914153 0.666438 0.810819
0.992950 0.685542 0.815030
0.308232 0.805783 0.827970
0.340002 0.805509 0.827878
0.433875 0.804196 0.827512
0.559075 0.800748 0.827085
0.685512 0.794064 0.826780
0.808164 0.788296 0.826596
0.906554 0.792508 0.826047
0.983551 0.799680 0.838804
0.355200 0.919036 0.798459
0.383276 0.918242 0.798764
0.467750 0.914946 0.800290
0.579431 0.909422 0.804654
0.696498 0.902373 0.812589
0.807736 0.895659 0.826169
0.902617 0.892973 0.827481
0.984161 0.872831 0.829740
0.411841 0.995300 0.773159
0.434882 0.994415 0.774960
0.506004 0.991669 0.781979
0.602838 0.986969 0.794461
0.709865 0.980743 0.813596
0.812589 0.974334 0.838865
0.880491 0.973480 0.833219
0.975647 0.968261 0.834104
0.324407 0.204166 0.937621
0.353338 0.203250 0.937621
0.437568 0.200229 0.937102
0.551965 0.195590 0.936553
0.679774 0.191318 0.935637
0.815061 0.190249 0.934386
0.954314 0.202274 0.931151
1.000000 0.308934 0.871916
0.325017 0.245060 0.937041
0.353674 0.244297 0.937041
0.437263 0.241306 0.936614
0.551354 0.237522 0.935973
0.679103 0.234928 0.935088
0.814328 0.236423 0.933776
0.953094 0.248997 0.930449
1.000000 0.340856 0.872374
0.323064 0.349462 0.936065
0.351629 0.349126 0.935973
0.435370 0.347631 0.935393
0.550225 0.347753 0.935088
0.678126 0.349798 0.933989
0.812619 0.356542 0.932372
0.949584 0.371130 0.929351
1.000000 0.437934 0.875364
0.307836 0.476905 0.934752
0.345678 0.480568 0.934508
0.445106 0.491249 0.933440
0.556420 0.494301 0.932708
0.680903 0.500114 0.931579
0.810697 0.509148 0.930053
0.942596 0.520287 0.928435
1.000000 0.561212 0.881834
0.306554 0.624445 0.931853
0.337469 0.624353 0.931853
0.427588 0.624689 0.931243
0.550103 0.629450 0.930205
0.687037 0.649958 0.927916
0.806271 0.654139 0.926818
0.929625 0.660578 0.925933
0.993011 0.685420 0.891295
0.314427 0.776272 0.928130
0.344488 0.775784 0.927947
0.433478 0.774624 0.927367
0.552880 0.773648 0.926574
0.678523 0.774258 0.925658
0.804746 0.786007 0.924407
0.914702 0.789364 0.924071
0.983398 0.800839 0.904723
0.331731 0.925933 0.924590
0.360937 0.925017 0.924468
0.447120 0.921599 0.924163
0.561883 0.915587 0.923796
0.684016 0.907317 0.923400
0.799680 0.897856 0.923125
0.899809 0.891203 0.922911
0.974640 0.894316 0.920867
0.404517 1.000000 0.879698
0.427192 1.000000 0.880308
0.496956 1.000000 0.882750
0.596490 0.995758 0.887816
0.706569 0.987152 0.896025
0.811002 0.977905 0.907225
0.899779 0.970275 0.922057
0.970672 0.966827 0.930327
