cubelut/LC10.cube
# Created by Adobe Lightroom plugin Export LUT (1.18.0)
# www.johnrellis.com/lightroom/exportlut.htm
# Preset: LC10
# Color profile: /Library/Application Support/Adobe/Color/Profiles/Recommended/AdobeRGB1998.icc
LUT_3D_SIZE 8
DOMAIN_MIN 0.000000 0.000000 0.000000
DOMAIN_MAX 0.903226 0.903226 0.903226
0.195621 0.177432 0.187930
0.222629 0.173709 0.187411
0.287877 0.172152 0.185611
0.398596 0.168582 0.185611
0.568811 0.158663 0.181216
0.772274 0.139498 0.167880
0.921904 0.123323 0.155550
1.000000 0.115511 0.149783
0.192935 0.203403 0.185824
0.221439 0.202213 0.185306
0.285405 0.196963 0.186007
0.393439 0.197971 0.186343
0.561212 0.199191 0.181003
0.762387 0.196048 0.166537
0.914000 0.186313 0.153140
1.000000 0.176638 0.146975
0.196994 0.266941 0.188052
0.220584 0.266453 0.188327
0.287022 0.265537 0.189029
0.397162 0.276738 0.187076
0.571069 0.301213 0.176577
0.770657 0.320165 0.157198
0.921904 0.317113 0.143069
1.000000 0.301915 0.139834
0.197238 0.382879 0.185946
0.225650 0.382422 0.185885
0.304387 0.384344 0.184665
0.425147 0.404089 0.179721
0.603449 0.447181 0.160281
0.785153 0.469734 0.134859
0.920989 0.460609 0.121950
1.000000 0.437507 0.122835
0.173556 0.576623 0.155886
0.219089 0.576898 0.154910
0.329656 0.581018 0.150484
0.466590 0.591730 0.140810
0.612787 0.599359 0.126650
0.777249 0.615381 0.093812
0.912566 0.604364 0.077180
1.000000 0.575525 0.090944
0.119539 0.767727 0.079530
0.190677 0.772854 0.074525
0.328527 0.772152 0.065248
0.476173 0.772030 0.030671
0.625086 0.770504 0.000000
0.775631 0.769772 0.000000
0.910704 0.754604 0.000000
1.000000 0.716091 0.000000
0.056641 0.903868 0.000000
0.161196 0.904143 0.000000
0.307622 0.901213 0.000000
0.454719 0.897887 0.000000
0.599115 0.892699 0.000000
0.742336 0.887724 0.000000
0.883787 0.881651 0.000000
0.998199 0.853330 0.000000
0.058412 0.995727 0.000000
0.152926 0.995056 0.000000
0.290684 0.993194 0.000000
0.430243 0.990753 0.000000
0.564294 0.982361 0.000000
0.699886 0.977386 0.000000
0.833310 0.971221 0.000000
0.962585 0.962188 0.000000
0.192294 0.177035 0.212863
0.221012 0.173800 0.212955
0.283116 0.177340 0.212009
0.391730 0.168185 0.212161
0.559655 0.142519 0.207187
0.758297 0.099153 0.196323
0.911070 0.063142 0.185245
1.000000 0.058167 0.179141
0.193881 0.201755 0.212650
0.221012 0.201328 0.212680
0.282902 0.200137 0.212772
0.390875 0.196170 0.211795
0.557397 0.186404 0.205966
0.754360 0.170809 0.194369
0.905333 0.156710 0.182559
1.000000 0.148684 0.176089
0.199771 0.263951 0.212558
0.222293 0.263981 0.213230
0.285618 0.263951 0.213046
0.394079 0.273136 0.210330
0.564965 0.291295 0.201541
0.758511 0.303441 0.186862
0.908537 0.299168 0.174929
1.000000 0.287022 0.170718
0.193637 0.376959 0.211154
0.219486 0.377813 0.208530
0.300328 0.381933 0.207309
0.413855 0.392432 0.204532
0.580224 0.426520 0.190707
0.763119 0.450294 0.170840
0.906798 0.445899 0.158816
1.000000 0.427008 0.157534
0.145510 0.572992 0.184207
0.199283 0.572198 0.183383
0.317388 0.573754 0.180423
0.454139 0.578882 0.174136
0.598291 0.584192 0.164523
0.765988 0.603449 0.141756
0.905730 0.595666 0.130953
1.000000 0.568811 0.138003
0.019135 0.761349 0.132723
0.158206 0.761532 0.131716
0.311498 0.761471 0.126925
0.464942 0.763180 0.118227
0.617639 0.764248 0.105318
0.772061 0.766049 0.085328
0.907652 0.750423 0.083345
1.000000 0.711788 0.111910
0.000000 0.897917 0.078218
0.122683 0.896452 0.076387
0.291814 0.894499 0.070893
0.445411 0.892943 0.063020
0.593500 0.889311 0.041932
0.738064 0.884123 0.002869
0.879454 0.877226 0.000000
0.993957 0.848722 0.054322
0.000000 0.993256 0.081941
0.129427 0.992981 0.082399
0.281193 0.991333 0.082582
0.425055 0.989166 0.086519
0.564111 0.984619 0.087373
0.699519 0.978149 0.087587
0.832181 0.970428 0.091157
0.961151 0.960754 0.094057
0.194095 0.174838 0.276249
0.218875 0.175235 0.276432
0.285069 0.177035 0.276219
0.396582 0.161929 0.287877
0.568139 0.069123 0.294408
0.772213 0.000000 0.276249
0.918761 0.000000 0.270817
1.000000 0.000000 0.268803
0.199619 0.201328 0.275792
0.221988 0.201205 0.275669
0.284703 0.199496 0.275639
0.395666 0.185550 0.284306
0.568811 0.121492 0.285069
0.767819 0.000000 0.272435
0.914611 0.000000 0.267796
1.000000 0.000000 0.266361
0.200961 0.264805 0.276341
0.222080 0.264683 0.276463
0.286076 0.263798 0.276524
0.401160 0.261326 0.275761
0.582391 0.257939 0.274510
0.770962 0.251102 0.268559
0.913787 0.246433 0.263981
1.000000 0.245975 0.263401
0.188907 0.378759 0.288151
0.211582 0.380468 0.285893
0.286473 0.388464 0.275792
0.417731 0.396399 0.275731
0.593805 0.420600 0.269291
0.774594 0.431312 0.260777
0.913298 0.423438 0.257481
1.000000 0.408148 0.259525
0.122408 0.572198 0.299657
0.162509 0.574487 0.290990
0.276249 0.580072 0.263218
0.442512 0.585870 0.260594
0.604242 0.590509 0.255863
0.773312 0.599451 0.246860
0.908629 0.585046 0.246281
1.000000 0.558923 0.253330
0.000000 0.761746 0.281224
0.000000 0.762875 0.268101
0.256596 0.763516 0.240665
0.440589 0.762814 0.237736
0.606683 0.762142 0.234134
0.768460 0.762478 0.231052
0.905943 0.744381 0.236271
1.000000 0.707424 0.251865
0.000000 0.899992 0.253483
0.000000 0.899382 0.242924
0.249485 0.896666 0.231693
0.425574 0.893248 0.230320
0.583154 0.888670 0.229068
0.734035 0.883818 0.229923
0.880400 0.878355 0.233616
0.995117 0.848966 0.248783
0.000000 0.993194 0.250645
0.076448 0.992279 0.248966
0.265599 0.990204 0.248631
0.419226 0.988647 0.254795
0.560998 0.983795 0.256352
0.698451 0.977691 0.259648
0.832120 0.970245 0.264744
0.961364 0.961059 0.270054
0.196445 0.173373 0.390234
0.225040 0.172946 0.391882
0.302037 0.168521 0.392798
0.403204 0.154513 0.394171
0.574151 0.006256 0.429816
0.767178 0.000000 0.443915
0.911925 0.000000 0.424353
1.000000 0.000000 0.408118
0.193576 0.199893 0.393652
0.222019 0.198245 0.394049
0.300206 0.192203 0.394293
0.404486 0.178897 0.395453
0.577905 0.103975 0.428717
0.766720 0.000000 0.437263
0.910521 0.000000 0.418250
1.000000 0.000000 0.407050
0.182895 0.276799 0.394293
0.206668 0.273075 0.394659
0.285374 0.261509 0.395392
0.407813 0.254459 0.398657
0.589227 0.225193 0.421637
0.776913 0.177768 0.421942
0.917571 0.183505 0.414588
1.000000 0.231998 0.414435
0.170504 0.389715 0.400793
0.196567 0.390448 0.401678
0.277989 0.392676 0.404303
0.416754 0.395056 0.407355
0.597955 0.394842 0.407568
0.776150 0.394720 0.406958
0.911406 0.397681 0.409125
1.000000 0.403143 0.413977
0.056519 0.576226 0.437110
0.127871 0.576532 0.433722
0.252445 0.581109 0.423224
0.418463 0.590051 0.408789
0.606195 0.592950 0.408789
0.778408 0.591730 0.407813
0.908721 0.576928 0.411292
1.000000 0.559350 0.416907
0.000000 0.765835 0.443244
0.000000 0.770230 0.440192
0.222873 0.769863 0.422278
0.416266 0.769772 0.406439
0.601038 0.767514 0.406744
0.769986 0.764401 0.407630
0.903807 0.741360 0.414557
0.998413 0.708766 0.424994
0.000000 0.899199 0.422065
0.000000 0.899443 0.418524
0.232486 0.898863 0.410712
0.422766 0.895903 0.413245
0.583978 0.891112 0.414069
0.735378 0.885100 0.415930
0.880064 0.878141 0.419837
0.989929 0.848020 0.430335
0.000000 0.993408 0.410193
0.101930 0.992950 0.411170
0.288060 0.990234 0.419440
0.443732 0.985931 0.435218
0.575769 0.981170 0.436591
0.707088 0.975311 0.439796
0.835904 0.968444 0.445258
0.960510 0.960296 0.451484
0.195193 0.163394 0.567407
0.231479 0.159731 0.568688
0.325719 0.145022 0.569207
0.445472 0.106844 0.571283
0.588891 0.000000 0.582666
0.766384 0.000000 0.604120
0.905913 0.000000 0.586786
1.000000 0.000000 0.560540
0.178378 0.190738 0.569635
0.218235 0.187198 0.571588
0.318730 0.173770 0.571954
0.442451 0.144228 0.572076
0.589899 0.060090 0.583703
0.767483 0.000000 0.602502
0.906218 0.000000 0.584680
1.000000 0.000000 0.560449
0.093202 0.276463 0.572900
0.143038 0.266423 0.573754
0.282506 0.254643 0.573419
0.433753 0.239933 0.580713
0.590997 0.214939 0.584771
0.766415 0.165438 0.593774
0.904204 0.164401 0.577905
1.000000 0.231815 0.561913
0.000000 0.422370 0.581323
0.106905 0.418921 0.581964
0.244053 0.406439 0.585046
0.413489 0.390936 0.588495
0.595666 0.386175 0.589593
0.770169 0.381842 0.588891
0.901823 0.400397 0.580682
0.995270 0.441993 0.583764
0.000000 0.581598 0.589197
0.000000 0.582086 0.589685
0.226841 0.582177 0.589899
0.407050 0.582910 0.590753
0.595911 0.582483 0.590051
0.766964 0.582696 0.589593
0.894896 0.585687 0.591882
0.989105 0.590173 0.595789
0.000000 0.756466 0.596948
0.000000 0.756954 0.595270
0.192508 0.756527 0.588861
0.398779 0.756527 0.582727
0.590875 0.754543 0.585351
0.761807 0.756222 0.592218
0.891752 0.742367 0.600610
0.984649 0.725734 0.606744
0.000000 0.895476 0.579370
0.000000 0.894835 0.577447
0.219242 0.893004 0.573632
0.423377 0.889494 0.577783
0.603113 0.883360 0.598260
0.741939 0.878965 0.600641
0.875364 0.873533 0.603326
0.976806 0.849058 0.608453
0.000000 0.988922 0.554467
0.085206 0.988128 0.554894
0.284825 0.985260 0.559625
0.468666 0.981048 0.585534
0.620233 0.973388 0.616083
0.731746 0.968627 0.617700
0.845212 0.963165 0.620844
0.957092 0.956847 0.624292
0.187747 0.142153 0.751858
0.230350 0.135927 0.752102
0.335637 0.110445 0.750973
0.466926 0.000000 0.755367
0.611841 0.000000 0.760372
0.764920 0.000000 0.761990
0.899626 0.000000 0.741512
0.998657 0.000000 0.705776
0.161135 0.173800 0.748836
0.209812 0.168978 0.748745
0.323583 0.149294 0.748745
0.460212 0.101045 0.754116
0.607477 0.000000 0.757931
0.762844 0.000000 0.759915
0.898405 0.000000 0.739559
0.997498 0.000000 0.705043
0.000000 0.258640 0.755215
0.083223 0.255863 0.755673
0.278935 0.246006 0.757473
0.441230 0.227543 0.759792
0.601160 0.198886 0.760586
0.764004 0.160464 0.761044
0.898100 0.171237 0.737728
0.995056 0.245945 0.707027
0.000000 0.422065 0.761593
0.000000 0.416205 0.761166
0.209384 0.399390 0.762234
0.415625 0.392340 0.765713
0.597314 0.389960 0.766537
0.768276 0.388342 0.765530
0.896971 0.410071 0.740566
0.989349 0.452583 0.719448
0.000000 0.587427 0.758999
0.000000 0.585748 0.759304
0.194675 0.580529 0.759854
0.405249 0.576989 0.760555
0.594263 0.581170 0.759609
0.761013 0.584253 0.758419
0.885985 0.599329 0.743893
0.976837 0.624720 0.739315
0.000000 0.752255 0.756222
0.000000 0.753323 0.757351
0.178744 0.753414 0.757443
0.404578 0.753079 0.757046
0.596368 0.752010 0.755642
0.758877 0.753506 0.756558
0.878660 0.756252 0.758785
0.968780 0.758602 0.760800
0.000000 0.894621 0.737697
0.000000 0.894743 0.737697
0.228397 0.892638 0.736233
0.435401 0.887907 0.737179
0.615412 0.880369 0.744839
0.761379 0.873808 0.759426
0.873228 0.871519 0.760586
0.964569 0.859861 0.763363
0.000000 0.986236 0.700008
0.122805 0.985321 0.700343
0.301884 0.982177 0.703151
0.475349 0.976654 0.715267
0.636866 0.968200 0.738796
0.765408 0.960784 0.763699
0.859342 0.957794 0.765713
0.954314 0.954040 0.767147
0.181033 0.123659 0.877623
0.222751 0.116915 0.877226
0.326665 0.086641 0.878508
0.453346 0.000000 0.880034
0.589593 0.000000 0.880400
0.732784 0.000000 0.880674
0.882139 0.000000 0.880888
0.988037 0.000000 0.843290
0.154879 0.159304 0.881743
0.203799 0.154208 0.881285
0.316625 0.134707 0.881956
0.448615 0.087526 0.882780
0.588647 0.000000 0.883604
0.734951 0.000000 0.884459
0.885924 0.000000 0.884764
0.990478 0.000000 0.846525
0.000000 0.250126 0.881590
0.104219 0.247654 0.881773
0.275975 0.239872 0.882567
0.428595 0.225742 0.883085
0.579919 0.208225 0.883970
0.732021 0.192813 0.884031
0.883848 0.187686 0.882658
0.986236 0.258274 0.844358
0.000000 0.394293 0.880949
0.000000 0.391363 0.881193
0.226566 0.387427 0.882109
0.410468 0.386511 0.881590
0.573846 0.388861 0.881590
0.729335 0.394263 0.880430
0.879454 0.404669 0.878325
0.979522 0.448859 0.844999
0.000000 0.561334 0.881651
0.000000 0.561181 0.882261
0.239261 0.561975 0.882872
0.435462 0.572015 0.881743
0.599176 0.586786 0.880278
0.742458 0.596399 0.879271
0.878569 0.608118 0.877623
0.971221 0.631647 0.853788
0.000000 0.720729 0.879881
0.000000 0.720699 0.879789
0.250217 0.721553 0.879454
0.444465 0.726406 0.877928
0.619532 0.739681 0.875669
0.758846 0.753811 0.872831
0.872587 0.757626 0.871763
0.961944 0.769131 0.863066
0.000000 0.872465 0.874601
0.000000 0.872007 0.874113
0.263462 0.871580 0.873686
0.454231 0.870665 0.872618
0.627314 0.870603 0.872160
0.766201 0.870695 0.871885
0.872374 0.870787 0.871702
0.956939 0.871824 0.872526
0.120577 0.984466 0.844694
0.197299 0.983673 0.844846
0.335515 0.979217 0.843656
0.495857 0.973114 0.846220
0.650202 0.965606 0.853696
0.774899 0.958770 0.862882
0.872587 0.954376 0.872007
0.953368 0.953094 0.872862
0.181277 0.117556 0.977691
0.219577 0.111818 0.977417
0.316930 0.090120 0.977844
0.436439 0.000000 0.977508
0.564874 0.000000 0.977173
0.698909 0.000000 0.976654
0.836149 0.000000 0.975372
0.974487 0.000000 0.974090
0.163577 0.156863 0.978759
0.206271 0.153231 0.978485
0.309422 0.140261 0.978668
0.432776 0.114748 0.978546
0.563684 0.071015 0.978088
0.699245 0.000000 0.977478
0.837461 0.034485 0.976287
0.975311 0.148440 0.974945
0.089631 0.256870 0.979370
0.160647 0.255680 0.979248
0.288884 0.253178 0.979644
0.422797 0.247288 0.978332
0.561059 0.246860 0.977874
0.700893 0.257694 0.977325
0.839353 0.282933 0.975738
0.974243 0.328435 0.973877
0.111666 0.407294 0.977813
0.174746 0.407355 0.977539
0.302434 0.410742 0.977508
0.437568 0.415839 0.976654
0.574914 0.426123 0.975555
0.711818 0.444587 0.974273
0.844541 0.470588 0.972351
0.970703 0.504051 0.970397
0.167147 0.556786 0.975952
0.223087 0.559380 0.975433
0.359655 0.574273 0.974517
0.514672 0.606348 0.972045
0.627741 0.617395 0.971191
0.744198 0.632319 0.970031
0.857877 0.648829 0.968322
0.966705 0.667170 0.966491
0.216983 0.699550 0.973083
0.267460 0.702419 0.973083
0.394141 0.713527 0.972442
0.540581 0.734127 0.970520
0.679194 0.762325 0.967376
0.780697 0.776822 0.964630
0.869963 0.780880 0.962768
0.961975 0.788418 0.961761
0.267979 0.835294 0.968811
0.310521 0.836790 0.968750
0.423651 0.842069 0.968322
0.559442 0.851164 0.966857
0.690272 0.863615 0.964935
0.798886 0.875669 0.963012
0.885222 0.884062 0.961517
0.961242 0.886381 0.961120
0.330938 0.963531 0.964630
0.365972 0.963622 0.964691
0.461006 0.963317 0.964294
0.580743 0.962127 0.962921
0.698939 0.960906 0.961486
0.801633 0.960082 0.960449
0.887449 0.959686 0.959869
0.960266 0.960113 0.960204
