cubelut/LC10.cube
# Created by Adobe Lightroom plugin Export LUT (1.18.0)
# www.johnrellis.com/lightroom/exportlut.htm
# Preset: LC10
# Color profile: /Library/Application Support/Adobe/Color/Profiles/Recommended/AdobeRGB1998.icc
LUT_3D_SIZE 5
DOMAIN_MIN 0.000000 0.000000 0.000000
DOMAIN_MAX 0.903226 0.903226 0.903226
0.195621 0.177432 0.187930
0.268498 0.172610 0.185824
0.478218 0.164675 0.184329
0.818051 0.134646 0.164065
1.000000 0.115511 0.149783
0.195529 0.247959 0.186923
0.266941 0.246036 0.187961
0.475257 0.262669 0.183871
0.816312 0.287694 0.155703
1.000000 0.269566 0.142947
0.189792 0.471077 0.176272
0.292058 0.475319 0.173678
0.520562 0.502770 0.159640
0.819028 0.542107 0.112581
1.000000 0.506035 0.109255
0.102144 0.810605 0.027588
0.287572 0.810849 0.005097
0.547845 0.808743 0.000000
0.807340 0.802701 0.000000
1.000000 0.750515 0.000000
0.058412 0.995727 0.000000
0.255650 0.993713 0.000000
0.495857 0.984619 0.000000
0.733547 0.976074 0.000000
0.962585 0.962188 0.000000
0.193668 0.174899 0.255955
0.264988 0.177035 0.256260
0.473548 0.137331 0.266423
0.807340 0.000000 0.247654
1.000000 0.000000 0.239750
0.200870 0.245060 0.256474
0.265751 0.244022 0.256474
0.476783 0.237644 0.253635
0.807614 0.223423 0.242466
1.000000 0.217014 0.236606
0.169955 0.468360 0.269963
0.260075 0.474037 0.248081
0.504417 0.486183 0.242832
0.809384 0.518486 0.222751
1.000000 0.489113 0.226291
0.000000 0.809628 0.232181
0.224979 0.810788 0.205966
0.531395 0.807431 0.200381
0.804532 0.799924 0.191592
1.000000 0.744991 0.213748
0.000000 0.995392 0.213962
0.233402 0.993286 0.213535
0.491981 0.987396 0.216159
0.733028 0.977020 0.221653
0.962860 0.962524 0.233829
0.196628 0.169894 0.474128
0.289860 0.162142 0.475319
0.487037 0.112551 0.479042
0.807797 0.000000 0.522850
1.000000 0.000000 0.485573
0.156893 0.252049 0.478798
0.264164 0.238193 0.479194
0.495857 0.211368 0.487922
0.808988 0.075959 0.509880
1.000000 0.181338 0.489662
0.101961 0.482338 0.491920
0.226291 0.482704 0.492592
0.503288 0.485084 0.495369
0.809964 0.487404 0.496712
1.000000 0.497108 0.505119
0.000000 0.803006 0.518944
0.147311 0.801785 0.507134
0.507652 0.800778 0.500175
0.799435 0.795102 0.504967
0.989502 0.746700 0.514488
0.000000 0.990448 0.481422
0.241581 0.988739 0.486702
0.533196 0.979919 0.527092
0.746975 0.970397 0.529503
0.958221 0.957977 0.536675
0.185763 0.137453 0.784390
0.304234 0.113344 0.785153
0.535241 0.000000 0.792386
0.797024 0.000000 0.794614
0.995087 0.000000 0.739437
0.000000 0.229465 0.786862
0.254551 0.218021 0.788937
0.520653 0.173129 0.792416
0.794980 0.020233 0.792538
0.991760 0.175082 0.738064
0.000000 0.495888 0.790249
0.130953 0.485878 0.791257
0.496284 0.477699 0.792294
0.796048 0.489174 0.793851
0.980591 0.535576 0.755123
0.000000 0.788052 0.791409
0.096681 0.786557 0.789975
0.508141 0.785702 0.788876
0.790066 0.785916 0.788266
0.963714 0.787778 0.789517
0.000000 0.985199 0.735592
0.266514 0.982544 0.737789
0.564050 0.972198 0.757900
0.796353 0.958984 0.795041
0.953399 0.953124 0.795315
0.181277 0.117556 0.977691
0.289555 0.097536 0.977783
0.499763 0.000000 0.977295
0.732967 0.000000 0.976349
0.974487 0.000000 0.974090
0.113649 0.226871 0.978882
0.261326 0.221592 0.978851
0.492378 0.207065 0.978088
0.734463 0.213626 0.976989
0.974182 0.279606 0.973816
0.144228 0.483589 0.976959
0.311192 0.498726 0.976196
0.535058 0.519615 0.974792
0.759731 0.551263 0.972778
0.968963 0.590661 0.968688
0.219669 0.732387 0.971252
0.359136 0.740902 0.970794
0.611963 0.773129 0.967498
0.810391 0.807462 0.963439
0.961822 0.816159 0.961669
0.330938 0.963531 0.964630
0.433539 0.963470 0.964477
0.641199 0.961456 0.962127
0.824491 0.959930 0.960235
0.960266 0.960113 0.960204
