cubelut/LC10.cube
# Created by Adobe Lightroom plugin Export LUT (1.18.0)
# www.johnrellis.com/lightroom/exportlut.htm
# Preset: LC10
# Color profile: /Library/Application Support/Adobe/Color/Profiles/Recommended/AdobeRGB1998.icc
LUT_3D_SIZE 32
DOMAIN_MIN 0.0 0.0 0.0
DOMAIN_MAX 1.0 1.0 1.0
0.195621 0.177432 0.187930
0.195621 0.177432 0.187930
0.199283 0.176761 0.187869
0.209628 0.174716 0.187747
0.222629 0.173709 0.187411
0.236332 0.173281 0.186984
0.251530 0.172793 0.186465
0.268498 0.172610 0.185824
0.287877 0.172152 0.185611
0.309941 0.171542 0.185672
0.335454 0.170840 0.185702
0.364813 0.169894 0.185763
0.398596 0.168582 0.185611
0.436683 0.166964 0.185183
0.478218 0.164675 0.184329
0.522454 0.161929 0.182895
0.568811 0.158663 0.181216
0.616510 0.154849 0.178805
0.664179 0.150546 0.175845
0.720363 0.145052 0.172030
0.772274 0.139498 0.167880
0.818051 0.134646 0.164065
0.857359 0.130282 0.160647
0.891630 0.126650 0.158022
0.921904 0.123323 0.155550
0.949371 0.120272 0.153567
0.974640 0.118166 0.151919
0.998169 0.117037 0.150607
1.000000 0.115511 0.149783
1.000000 0.115023 0.149538
1.000000 0.115145 0.149691
1.000000 0.116121 0.150546
0.195621 0.177584 0.187930
0.195743 0.177676 0.187900
0.199557 0.177646 0.187808
0.209689 0.177371 0.187533
0.222507 0.176974 0.187167
0.236149 0.176303 0.186770
0.251255 0.175692 0.186252
0.267979 0.175479 0.185733
0.287205 0.174929 0.185672
0.309270 0.174380 0.185611
0.334478 0.173648 0.185794
0.363622 0.172885 0.185824
0.396979 0.171969 0.185702
0.434821 0.170596 0.185275
0.475990 0.168673 0.184451
0.519921 0.166354 0.183169
0.566003 0.163455 0.181308
0.613458 0.160159 0.178897
0.661158 0.156405 0.176089
0.717037 0.151492 0.172061
0.768399 0.146700 0.168002
0.814145 0.142031 0.164126
0.853666 0.137942 0.160739
0.888243 0.134371 0.157809
0.918883 0.131258 0.155276
0.946654 0.128817 0.153231
0.972290 0.126162 0.151400
0.996185 0.124788 0.150179
1.000000 0.123201 0.149325
1.000000 0.122255 0.148898
1.000000 0.122072 0.149020
1.000000 0.122683 0.149722
0.195132 0.181338 0.187625
0.195468 0.181918 0.187594
0.199710 0.181796 0.187472
0.209689 0.181827 0.187167
0.222416 0.181064 0.186862
0.235966 0.180301 0.186465
0.250889 0.179660 0.185977
0.267582 0.179049 0.185611
0.286656 0.178561 0.185641
0.308598 0.178073 0.185702
0.333715 0.177554 0.185855
0.362707 0.177005 0.185916
0.395941 0.176211 0.185794
0.433600 0.175296 0.185367
0.474617 0.173861 0.184543
0.518486 0.171756 0.183139
0.564385 0.169589 0.181369
0.611749 0.166964 0.178836
0.659510 0.163607 0.176028
0.715450 0.159945 0.171939
0.766506 0.155642 0.167819
0.812192 0.151553 0.163943
0.851774 0.147982 0.160525
0.886442 0.144533 0.157443
0.917266 0.141695 0.155062
0.945220 0.138582 0.152712
0.971038 0.136294 0.151003
0.995056 0.134279 0.149813
1.000000 0.132723 0.148775
1.000000 0.131899 0.148440
1.000000 0.131014 0.148470
1.000000 0.131289 0.149355
0.193820 0.191470 0.186862
0.195682 0.191623 0.186801
0.200168 0.191592 0.186679
0.209781 0.191196 0.186404
0.222354 0.190005 0.186130
0.235874 0.188571 0.185794
0.250645 0.187350 0.185580
0.267277 0.186648 0.185702
0.286320 0.185977 0.185763
0.308110 0.185672 0.185946
0.333043 0.185519 0.186069
0.361944 0.185306 0.186130
0.394965 0.185306 0.186069
0.432380 0.184848 0.185519
0.473243 0.184176 0.184543
0.516930 0.183291 0.183200
0.562554 0.181827 0.181186
0.609735 0.180148 0.178744
0.659083 0.178103 0.175540
0.713313 0.175692 0.171633
0.763455 0.172671 0.167453
0.808682 0.169772 0.163516
0.848631 0.166781 0.159915
0.883909 0.163638 0.156893
0.915465 0.160861 0.154208
0.944121 0.157870 0.152041
0.970397 0.155459 0.150271
0.994659 0.153658 0.148989
1.000000 0.151736 0.148135
1.000000 0.150301 0.147738
1.000000 0.149233 0.147799
1.000000 0.148836 0.148318
0.192935 0.203403 0.185824
0.196048 0.203250 0.185763
0.200137 0.203159 0.185641
0.208774 0.202762 0.185550
0.221439 0.202213 0.185306
0.235325 0.200443 0.185367
0.250065 0.198734 0.185550
0.266484 0.197665 0.185824
0.285405 0.196963 0.186007
0.307012 0.196872 0.186313
0.331884 0.196994 0.186435
0.360540 0.197391 0.186557
0.393439 0.197971 0.186343
0.430640 0.198520 0.185641
0.471443 0.199039 0.184695
0.515221 0.199344 0.183017
0.561212 0.199191 0.181003
0.608515 0.198856 0.178347
0.660304 0.198459 0.174807
0.713313 0.197543 0.170687
0.762387 0.196048 0.166537
0.807218 0.194125 0.162448
0.846891 0.191806 0.158846
0.882231 0.189303 0.155795
0.914000 0.186313 0.153140
0.942809 0.183566 0.150942
0.969238 0.181186 0.149172
0.993622 0.178683 0.147829
1.000000 0.176638 0.146975
1.000000 0.174838 0.146639
1.000000 0.173190 0.146609
1.000000 0.171969 0.147341
0.193545 0.216220 0.185519
0.196353 0.216129 0.185458
0.200168 0.215976 0.185489
0.208042 0.215610 0.185519
0.219791 0.215030 0.185550
0.234195 0.214389 0.185611
0.249668 0.212894 0.185885
0.266178 0.211460 0.186191
0.285008 0.210849 0.186618
0.306645 0.210849 0.186770
0.331518 0.211551 0.186984
0.360143 0.212436 0.187045
0.392859 0.213779 0.186679
0.430121 0.215579 0.185824
0.470924 0.217227 0.184543
0.514702 0.218936 0.182834
0.560723 0.220279 0.180545
0.608118 0.221286 0.177615
0.662562 0.222904 0.173770
0.714626 0.223606 0.169406
0.763272 0.223392 0.165042
0.807828 0.222293 0.160983
0.869505 0.224002 0.155734
0.902342 0.221500 0.153292
0.931518 0.218936 0.151156
0.957885 0.215854 0.149630
0.982025 0.213260 0.148501
1.000000 0.210330 0.147829
1.000000 0.207919 0.147463
1.000000 0.205722 0.147677
1.000000 0.203677 0.148348
1.000000 0.201968 0.149325
0.194247 0.231724 0.186007
0.196933 0.231662 0.185946
0.200595 0.231540 0.185946
0.208286 0.231205 0.186130
0.219547 0.230777 0.186160
0.233707 0.230228 0.186435
0.250126 0.229679 0.186618
0.267552 0.228672 0.186954
0.286961 0.228122 0.187350
0.309148 0.228458 0.187564
0.334722 0.229618 0.187655
0.364080 0.231540 0.187320
0.397589 0.233890 0.186740
0.435279 0.236790 0.185672
0.476265 0.239689 0.184176
0.519738 0.242588 0.182071
0.565576 0.245243 0.179446
0.617365 0.248600 0.175875
0.671809 0.251957 0.171450
0.723873 0.254124 0.166842
0.773281 0.255344 0.162325
0.818906 0.255344 0.157900
0.859434 0.254490 0.154177
0.895262 0.252598 0.151247
0.926818 0.250126 0.149081
0.954559 0.247288 0.147402
0.979492 0.244236 0.146242
1.000000 0.241215 0.145693
1.000000 0.238132 0.145418
1.000000 0.235233 0.145602
1.000000 0.232547 0.146273
1.000000 0.230228 0.147341
0.195529 0.247959 0.186923
0.198062 0.248020 0.186862
0.201572 0.247837 0.186893
0.208865 0.247593 0.187045
0.219699 0.247318 0.187228
0.233310 0.246891 0.187381
0.249302 0.246433 0.187778
0.266941 0.246036 0.187961
0.286381 0.245731 0.188205
0.308598 0.246494 0.188266
0.334173 0.248203 0.188174
0.363470 0.250919 0.187839
0.396948 0.254337 0.187015
0.434424 0.258396 0.185672
0.475257 0.262669 0.183871
0.518669 0.266819 0.181338
0.566369 0.271519 0.178317
0.619776 0.277104 0.174136
0.672145 0.281651 0.169558
0.722927 0.284916 0.164858
0.771298 0.286961 0.160189
0.816312 0.287694 0.155703
0.856565 0.287205 0.151675
0.892302 0.285496 0.148714
0.923919 0.282872 0.146456
0.951873 0.279911 0.144839
0.976989 0.276493 0.143740
1.000000 0.273014 0.142977
1.000000 0.269566 0.142947
1.000000 0.266056 0.143099
1.000000 0.262974 0.143709
1.000000 0.260014 0.144930
0.196994 0.266941 0.188052
0.199466 0.266880 0.188113
0.202945 0.266880 0.188144
0.210025 0.266667 0.188296
0.220584 0.266453 0.188327
0.234043 0.266178 0.188388
0.249882 0.265873 0.188663
0.267552 0.265721 0.188693
0.287022 0.265537 0.189029
0.308568 0.266087 0.189120
0.334173 0.268620 0.188785
0.363622 0.272099 0.188113
0.397162 0.276738 0.187076
0.434699 0.282017 0.185306
0.475380 0.287541 0.183139
0.520195 0.293797 0.180331
0.571069 0.301213 0.176577
0.622736 0.307958 0.171939
0.673548 0.313146 0.167269
0.723140 0.317327 0.162295
0.770657 0.320165 0.157198
0.815091 0.321386 0.152438
0.854887 0.321050 0.148562
0.890379 0.319615 0.145449
0.921904 0.317113 0.143069
0.949920 0.313573 0.141421
0.975158 0.309819 0.140444
0.998322 0.305852 0.139864
1.000000 0.301915 0.139834
1.000000 0.297978 0.140169
1.000000 0.294224 0.140963
1.000000 0.290654 0.142245
0.198215 0.288914 0.188815
0.200687 0.288853 0.188846
0.204013 0.288792 0.188876
0.211307 0.288731 0.188907
0.221897 0.288609 0.188937
0.235416 0.288457 0.189090
0.251347 0.288304 0.189212
0.269444 0.288182 0.189212
0.289128 0.288365 0.189395
0.310399 0.288609 0.189425
0.334020 0.289799 0.189334
0.363470 0.294285 0.188235
0.397131 0.300053 0.186862
0.434699 0.306645 0.184817
0.478126 0.315068 0.182010
0.526116 0.324346 0.178378
0.576104 0.332982 0.174075
0.626856 0.340703 0.169253
0.676722 0.346899 0.164126
0.725185 0.351537 0.158663
0.771389 0.354681 0.153475
0.814328 0.356146 0.148653
0.852995 0.355718 0.144625
0.887694 0.353948 0.141421
0.918883 0.351141 0.139040
0.946929 0.347539 0.137484
0.972503 0.343542 0.136416
0.996063 0.339178 0.136080
1.000000 0.334813 0.136172
1.000000 0.330449 0.136629
1.000000 0.326360 0.137758
1.000000 0.322271 0.139345
0.198825 0.314031 0.189181
0.201450 0.313970 0.189090
0.204990 0.314031 0.189090
0.212222 0.314031 0.189120
0.223209 0.314000 0.189120
0.237034 0.314092 0.189090
0.253574 0.314275 0.189181
0.272251 0.314580 0.189059
0.292760 0.314946 0.188937
0.314916 0.315496 0.188846
0.338293 0.316197 0.188693
0.363958 0.317906 0.188174
0.398566 0.325536 0.186343
0.439094 0.335485 0.183627
0.483192 0.345739 0.180117
0.529992 0.355779 0.176181
0.578820 0.365148 0.171328
0.628565 0.373754 0.165988
0.677394 0.380499 0.160586
0.725032 0.385809 0.154849
0.770626 0.389380 0.149264
0.813107 0.391089 0.144137
0.851591 0.390906 0.139925
0.886168 0.389166 0.136690
0.917235 0.386114 0.134401
0.945251 0.382208 0.132845
0.970733 0.377752 0.131838
0.994293 0.373022 0.131777
1.000000 0.368109 0.131991
1.000000 0.363287 0.132723
1.000000 0.358587 0.133944
1.000000 0.354101 0.135988
0.198734 0.343755 0.188418
0.201419 0.343816 0.188449
0.205234 0.343786 0.188449
0.212802 0.343938 0.188327
0.224369 0.344091 0.188266
0.239048 0.344366 0.188174
0.256535 0.344823 0.188052
0.276066 0.345403 0.187869
0.297581 0.346075 0.187716
0.320836 0.347051 0.187228
0.345586 0.348333 0.186893
0.374090 0.352148 0.186069
0.416327 0.366918 0.183658
0.459480 0.379309 0.179934
0.505577 0.391302 0.175540
0.553918 0.402686 0.170199
0.603479 0.413031 0.164492
0.652674 0.421576 0.158206
0.699611 0.427619 0.152407
0.744991 0.431800 0.146487
0.787900 0.434150 0.141054
0.827176 0.434394 0.136599
0.862669 0.432593 0.132876
0.894926 0.429633 0.130373
0.924193 0.425422 0.128725
0.950805 0.420600 0.127871
0.975189 0.415259 0.127565
0.997803 0.409583 0.127840
1.000000 0.403937 0.128725
1.000000 0.398352 0.129885
1.000000 0.392889 0.131899
1.000000 0.387671 0.134096
0.197238 0.382879 0.185946
0.200198 0.382940 0.185977
0.204349 0.382757 0.186007
0.212894 0.382574 0.185916
0.225650 0.382422 0.185885
0.241489 0.382361 0.185580
0.260258 0.382605 0.185397
0.281285 0.383154 0.185122
0.304387 0.384344 0.184665
0.331212 0.388617 0.183749
0.360418 0.393408 0.182650
0.391852 0.398688 0.181277
0.425147 0.404089 0.179721
0.459846 0.409339 0.177951
0.506249 0.423163 0.172641
0.554406 0.435920 0.166720
0.603449 0.447181 0.160281
0.651698 0.456275 0.153384
0.698054 0.462654 0.147189
0.742763 0.467170 0.140749
0.785153 0.469734 0.134859
0.824186 0.469978 0.129854
0.859495 0.468238 0.126223
0.891691 0.464973 0.123659
0.920989 0.460609 0.121950
0.947692 0.455390 0.121157
0.972259 0.449653 0.121157
0.995056 0.443641 0.121767
1.000000 0.437507 0.122835
1.000000 0.431464 0.124575
1.000000 0.425544 0.126558
1.000000 0.419806 0.129335
0.194522 0.422065 0.182406
0.197971 0.422034 0.182437
0.202274 0.421973 0.182315
0.211612 0.421851 0.182315
0.225437 0.421607 0.182162
0.242954 0.422522 0.181796
0.263584 0.424475 0.181277
0.286931 0.426825 0.180453
0.312566 0.429786 0.179599
0.340734 0.433448 0.178439
0.370947 0.437781 0.177035
0.403265 0.442725 0.175387
0.437079 0.447761 0.173465
0.472236 0.452644 0.171298
0.508049 0.456947 0.169009
0.554406 0.469398 0.162722
0.602625 0.481300 0.155550
0.650263 0.490974 0.148074
0.696132 0.497871 0.140963
0.740475 0.502708 0.134005
0.782650 0.505547 0.127596
0.821561 0.505943 0.122225
0.856870 0.504173 0.118227
0.889097 0.500816 0.115450
0.918456 0.496193 0.113924
0.945281 0.490669 0.113436
0.969970 0.484504 0.113649
0.992920 0.478065 0.114687
1.000000 0.471473 0.116426
1.000000 0.465003 0.118441
1.000000 0.458625 0.121309
1.000000 0.452399 0.124361
0.189792 0.471077 0.176272
0.193454 0.471443 0.176059
0.198642 0.471443 0.176028
0.209415 0.471687 0.175753
0.225010 0.472053 0.175509
0.244480 0.472633 0.174990
0.267002 0.473701 0.174533
0.292058 0.475319 0.173678
0.319402 0.477729 0.172488
0.348913 0.480995 0.171115
0.380377 0.484962 0.169497
0.413703 0.489509 0.167422
0.448432 0.494270 0.165133
0.484260 0.498909 0.162417
0.520562 0.502770 0.159640
0.556847 0.505821 0.156771
0.602441 0.516381 0.149722
0.649378 0.526421 0.141360
0.694759 0.533654 0.133577
0.738643 0.538811 0.125704
0.780423 0.541650 0.118593
0.819028 0.542107 0.112581
0.854185 0.540215 0.108370
0.886412 0.536645 0.105592
0.915892 0.531701 0.104463
0.942992 0.525994 0.104005
0.968017 0.519646 0.104738
0.991394 0.512932 0.106874
1.000000 0.506035 0.109255
1.000000 0.499306 0.112367
1.000000 0.492592 0.115938
1.000000 0.485878 0.120302
0.182498 0.524315 0.167239
0.187015 0.524681 0.167117
0.192752 0.524865 0.166903
0.205173 0.525048 0.166690
0.222965 0.525292 0.166232
0.244816 0.525994 0.165682
0.269505 0.527001 0.164797
0.296818 0.528649 0.163821
0.326146 0.530816 0.162509
0.357214 0.533440 0.160830
0.389960 0.536461 0.158938
0.423987 0.539910 0.156649
0.458808 0.543267 0.154086
0.494667 0.546502 0.151247
0.530907 0.549340 0.148226
0.567468 0.551812 0.144900
0.604211 0.553857 0.141360
0.648066 0.561883 0.133639
0.693629 0.569879 0.124392
0.737636 0.575708 0.115602
0.779538 0.578943 0.107271
0.818143 0.579431 0.100862
0.853300 0.577417 0.096254
0.885496 0.573663 0.093416
0.914977 0.568505 0.092561
0.942107 0.562341 0.093172
0.967224 0.555505 0.094911
0.990600 0.548394 0.097658
1.000000 0.541039 0.101228
1.000000 0.533623 0.105104
1.000000 0.526268 0.109865
1.000000 0.519005 0.114900
0.173556 0.576623 0.155886
0.178622 0.576776 0.155673
0.185306 0.576715 0.155612
0.199283 0.576776 0.155276
0.219089 0.576898 0.154910
0.242893 0.577325 0.154177
0.269627 0.578149 0.153262
0.298802 0.579309 0.152071
0.329656 0.581018 0.150484
0.362066 0.583185 0.148592
0.395972 0.585840 0.146242
0.430823 0.588739 0.143648
0.466590 0.591730 0.140810
0.502922 0.594385 0.137636
0.539483 0.596521 0.134157
0.576074 0.598077 0.130465
0.612787 0.599359 0.126650
0.649897 0.600641 0.122347
0.692073 0.606165 0.113649
0.735683 0.612024 0.103609
0.777249 0.615381 0.093812
0.815579 0.615839 0.085817
0.850736 0.613703 0.080476
0.882963 0.609735 0.077668
0.912566 0.604364 0.077180
0.939879 0.597925 0.078920
0.965179 0.590753 0.081697
0.988769 0.583307 0.085878
1.000000 0.575525 0.090944
1.000000 0.567681 0.096712
1.000000 0.559899 0.102235
1.000000 0.552178 0.108919
0.162020 0.628901 0.141665
0.168063 0.629358 0.141390
0.173312 0.645869 0.136263
0.190524 0.645716 0.135897
0.213809 0.645502 0.135531
0.241062 0.645228 0.134676
0.271183 0.645045 0.133944
0.303136 0.645136 0.132479
0.336584 0.645686 0.130861
0.371160 0.646754 0.128847
0.406592 0.648127 0.126162
0.442695 0.649531 0.123476
0.479316 0.650752 0.120485
0.516228 0.651911 0.116762
0.553185 0.652735 0.113008
0.590173 0.653162 0.108797
0.627192 0.653346 0.104433
0.664240 0.653376 0.099123
0.701503 0.653376 0.092988
0.741482 0.655665 0.083223
0.781521 0.657649 0.071504
0.818662 0.656825 0.062531
0.852903 0.653712 0.055360
0.884276 0.648737 0.051087
0.912932 0.642267 0.053925
0.939422 0.634821 0.060029
0.964080 0.626764 0.065248
0.987243 0.618463 0.071656
1.000000 0.610071 0.078370
1.000000 0.601740 0.086091
1.000000 0.593469 0.093690
1.000000 0.585229 0.101503
0.148562 0.682399 0.123262
0.155001 0.684504 0.122469
0.163943 0.686610 0.121553
0.181888 0.688411 0.120394
0.206699 0.689662 0.119203
0.235904 0.690089 0.118288
0.267552 0.690120 0.117006
0.300847 0.690059 0.115511
0.335302 0.690425 0.113649
0.370520 0.691005 0.111269
0.406622 0.691890 0.108278
0.443275 0.692805 0.105257
0.480079 0.693599 0.101625
0.517174 0.694118 0.097414
0.554162 0.694423 0.092866
0.591241 0.694331 0.087892
0.628168 0.694057 0.082002
0.665217 0.693690 0.075196
0.702510 0.693446 0.067353
0.740139 0.693416 0.055116
0.778683 0.694057 0.027161
0.815946 0.693355 0.002350
0.850248 0.690181 0.000000
0.881773 0.685084 0.000000
0.910674 0.678370 0.000000
0.937346 0.670649 0.005554
0.962127 0.662196 0.022827
0.985412 0.653437 0.045350
1.000000 0.644617 0.061982
1.000000 0.635798 0.073335
1.000000 0.627039 0.083619
1.000000 0.618341 0.093507
0.134676 0.726589 0.103822
0.142458 0.728389 0.102937
0.152438 0.730220 0.101656
0.171908 0.731716 0.100649
0.198917 0.732784 0.099458
0.229831 0.733089 0.098085
0.262974 0.732937 0.096620
0.297215 0.732845 0.094728
0.332433 0.732937 0.092531
0.368566 0.733181 0.089448
0.405158 0.733730 0.086336
0.442206 0.734249 0.082002
0.479316 0.734524 0.077546
0.516411 0.734707 0.072053
0.553643 0.734524 0.065919
0.590661 0.734035 0.058869
0.627619 0.733364 0.043336
0.664485 0.732601 0.022431
0.701595 0.731960 0.000214
0.738918 0.731502 0.000000
0.776455 0.731167 0.000000
0.813687 0.730495 0.000000
0.848081 0.727138 0.000000
0.879545 0.721706 0.000000
0.908476 0.714595 0.000000
0.935210 0.706386 0.000000
0.959991 0.697536 0.000000
0.983307 0.688289 0.000000
1.000000 0.678950 0.021424
1.000000 0.669642 0.053437
1.000000 0.660395 0.070314
1.000000 0.651209 0.083375
0.119539 0.767727 0.079530
0.128115 0.769253 0.078492
0.139712 0.770809 0.077272
0.161837 0.772061 0.076020
0.190677 0.772854 0.074525
0.223056 0.773007 0.072816
0.257206 0.772763 0.070832
0.292485 0.772457 0.068330
0.328527 0.772152 0.065248
0.364996 0.772030 0.061402
0.401892 0.772061 0.054902
0.439094 0.772152 0.043854
0.476173 0.772030 0.030671
0.513359 0.771786 0.016236
0.550591 0.771420 0.000000
0.587762 0.770962 0.000000
0.625086 0.770504 0.000000
0.662379 0.770138 0.000000
0.699916 0.769894 0.000000
0.737667 0.769772 0.000000
0.775631 0.769772 0.000000
0.813748 0.769772 0.000000
0.850340 0.768185 0.000000
0.881834 0.762264 0.000000
0.910704 0.754604 0.000000
0.937255 0.745785 0.000000
0.961883 0.736110 0.000000
0.985016 0.726192 0.000000
1.000000 0.716091 0.000000
1.000000 0.706050 0.032136
1.000000 0.696071 0.065400
1.000000 0.686183 0.081880
0.102144 0.810605 0.027588
0.113619 0.811215 0.026703
0.126558 0.811673 0.024872
0.151095 0.811948 0.022705
0.182040 0.811948 0.019287
0.216281 0.811643 0.014862
0.251408 0.811246 0.010651
0.287572 0.810849 0.005097
0.324376 0.810666 0.000000
0.361486 0.810513 0.000000
0.398749 0.810544 0.000000
0.436194 0.810422 0.000000
0.473518 0.810056 0.000000
0.510704 0.809476 0.000000
0.547845 0.808743 0.000000
0.585016 0.807889 0.000000
0.621973 0.806973 0.000000
0.659083 0.806088 0.000000
0.696040 0.805264 0.000000
0.733181 0.804440 0.000000
0.770230 0.803586 0.000000
0.807340 0.802701 0.000000
0.844388 0.801755 0.000000
0.879667 0.799161 0.000000
0.908324 0.790890 0.000000
0.934905 0.781521 0.000000
0.959655 0.771450 0.000000
0.982849 0.761074 0.000000
1.000000 0.750515 0.000000
1.000000 0.739956 0.000000
1.000000 0.729458 0.038849
1.000000 0.719051 0.070527
0.087495 0.843656 0.000000
0.099580 0.844205 0.000000
0.114656 0.844663 0.000000
0.141726 0.844846 0.000000
0.174258 0.844785 0.000000
0.209293 0.844388 0.000000
0.245243 0.843839 0.000000
0.281590 0.843290 0.000000
0.318700 0.842802 0.000000
0.355810 0.842405 0.000000
0.393164 0.842100 0.000000
0.430365 0.841733 0.000000
0.467506 0.841215 0.000000
0.504631 0.840513 0.000000
0.541650 0.839719 0.000000
0.578485 0.838804 0.000000
0.615320 0.837827 0.000000
0.652064 0.836912 0.000000
0.688869 0.835966 0.000000
0.725643 0.835080 0.000000
0.762417 0.834165 0.000000
0.799161 0.833249 0.000000
0.835843 0.832273 0.000000
0.872404 0.831144 0.000000
0.904875 0.826108 0.000000
0.931487 0.816342 0.000000
0.956390 0.805936 0.000000
0.979736 0.795102 0.000000
1.000000 0.784146 0.000000
1.000000 0.773129 0.000000
1.000000 0.762264 0.000000
1.000000 0.751492 0.050599
0.071565 0.877470 0.000000
0.086641 0.877989 0.000000
0.104646 0.878233 0.000000
0.133394 0.878202 0.000000
0.167391 0.877806 0.000000
0.203311 0.877195 0.000000
0.239689 0.876371 0.000000
0.276463 0.875395 0.000000
0.313603 0.874449 0.000000
0.350652 0.873503 0.000000
0.387549 0.872526 0.000000
0.424414 0.871641 0.000000
0.461280 0.870665 0.000000
0.497963 0.869505 0.000000
0.534295 0.868101 0.000000
0.570550 0.866636 0.000000
0.606714 0.865110 0.000000
0.642878 0.863706 0.000000
0.679042 0.862577 0.000000
0.715389 0.861570 0.000000
0.751736 0.860655 0.000000
0.787991 0.859648 0.000000
0.823972 0.858427 0.000000
0.859739 0.856901 0.000000
0.895109 0.855070 0.000000
0.929625 0.852476 0.000000
0.954253 0.841337 0.000000
0.977478 0.829831 0.000000
0.999420 0.818265 0.000000
1.000000 0.806699 0.000000
1.000000 0.795285 0.000000
1.000000 0.784024 0.014069
0.056641 0.903868 0.000000
0.075654 0.904326 0.000000
0.095064 0.904570 0.000000
0.126040 0.904509 0.000000
0.161196 0.904143 0.000000
0.197208 0.903563 0.000000
0.233890 0.902861 0.000000
0.270695 0.902037 0.000000
0.307622 0.901213 0.000000
0.344610 0.900389 0.000000
0.381262 0.899596 0.000000
0.418097 0.898772 0.000000
0.454719 0.897887 0.000000
0.491066 0.896818 0.000000
0.527306 0.895537 0.000000
0.563256 0.894163 0.000000
0.599115 0.892699 0.000000
0.634913 0.891295 0.000000
0.670741 0.890013 0.000000
0.706569 0.888853 0.000000
0.742336 0.887724 0.000000
0.778103 0.886473 0.000000
0.813565 0.885100 0.000000
0.848783 0.883513 0.000000
0.883787 0.881651 0.000000
0.918425 0.879576 0.000000
0.952850 0.877379 0.000000
0.976287 0.865507 0.000000
0.998199 0.853330 0.000000
1.000000 0.841215 0.000000
1.000000 0.829252 0.000000
1.000000 0.817411 0.000000
0.036255 0.929320 0.000000
0.068299 0.929564 0.000000
0.089204 0.929625 0.000000
0.120516 0.929381 0.000000
0.155550 0.928893 0.000000
0.191867 0.928252 0.000000
0.228428 0.927459 0.000000
0.265171 0.926604 0.000000
0.301884 0.925750 0.000000
0.338384 0.924926 0.000000
0.374853 0.924102 0.000000
0.411200 0.923339 0.000000
0.447517 0.922454 0.000000
0.483558 0.921416 0.000000
0.519310 0.920134 0.000000
0.554894 0.918730 0.000000
0.590326 0.917205 0.000000
0.625696 0.915709 0.000000
0.660975 0.914336 0.000000
0.696254 0.913054 0.000000
0.731502 0.911772 0.000000
0.766690 0.910430 0.000000
0.801572 0.908965 0.000000
0.836301 0.907317 0.000000
0.870756 0.905455 0.000000
0.904936 0.903380 0.000000
0.938903 0.901183 0.000000
0.972625 0.898863 0.000000
0.995789 0.887266 0.000000
1.000000 0.874601 0.000000
1.000000 0.862058 0.000000
1.000000 0.849760 0.000000
0.024262 0.951812 0.000000
0.062318 0.951934 0.000000
0.084260 0.951934 0.000000
0.116121 0.951781 0.000000
0.151736 0.951446 0.000000
0.188144 0.951110 0.000000
0.224430 0.950835 0.000000
0.260899 0.950591 0.000000
0.297642 0.950378 0.000000
0.334112 0.950195 0.000000
0.370459 0.949981 0.000000
0.406744 0.949706 0.000000
0.442786 0.949248 0.000000
0.478676 0.948516 0.000000
0.514305 0.947509 0.000000
0.549554 0.946197 0.000000
0.584710 0.944732 0.000000
0.619654 0.943206 0.000000
0.654566 0.941741 0.000000
0.689387 0.940307 0.000000
0.724117 0.938842 0.000000
0.758724 0.937316 0.000000
0.793118 0.935668 0.000000
0.827359 0.933837 0.000000
0.861265 0.931853 0.000000
0.894926 0.929686 0.000000
0.928405 0.927428 0.000000
0.961669 0.925017 0.000000
0.994720 0.922545 0.000000
1.000000 0.911070 0.000000
1.000000 0.897704 0.000000
1.000000 0.884489 0.007294
0.048127 0.976349 0.000000
0.070680 0.976379 0.000000
0.089479 0.976318 0.000000
0.118959 0.976013 0.000000
0.152987 0.975616 0.000000
0.187625 0.975097 0.000000
0.222995 0.974548 0.000000
0.258549 0.973999 0.000000
0.294194 0.973419 0.000000
0.329961 0.972808 0.000000
0.365454 0.972137 0.000000
0.400916 0.971435 0.000000
0.436255 0.970581 0.000000
0.471351 0.969604 0.000000
