cubelut/LC3.cube
# Created by Adobe Lightroom plugin Export LUT (1.18.0)
# www.johnrellis.com/lightroom/exportlut.htm
# Preset: X25
# Color profile: /Library/Application Support/Adobe/Color/Profiles/Recommended/AdobeRGB1998.icc
LUT_3D_SIZE 5
DOMAIN_MIN 0.000000 0.000000 0.000000
DOMAIN_MAX 0.903226 0.903226 0.903226
0.000000 0.000000 0.000000
0.193790 0.023743 0.023011
0.456397 0.005737 0.004089
0.728939 0.018616 0.015961
0.969604 0.125551 0.125704
0.002899 0.209598 0.002319
0.218448 0.218570 0.000000
0.458686 0.234073 0.062837
0.729183 0.250950 0.076326
0.968261 0.277989 0.154238
0.000000 0.493629 0.000000
0.234440 0.497322 0.000000
0.508537 0.508446 0.000000
0.738186 0.499825 0.135286
0.962432 0.518456 0.245365
0.000000 0.765103 0.000000
0.221500 0.766018 0.000000
0.504143 0.768704 0.000000
0.771328 0.771359 0.000000
0.972930 0.743130 0.240543
0.074067 0.978088 0.070619
0.255772 0.977234 0.088045
0.496986 0.973999 0.133242
0.734310 0.967742 0.195193
0.958038 0.958038 0.274784
0.000000 0.000000 0.192416
0.206302 0.000000 0.206271
0.477058 0.000000 0.213413
0.744533 0.000000 0.206180
0.974762 0.000000 0.237827
0.000000 0.214664 0.214603
0.214115 0.214115 0.214115
0.479835 0.217502 0.217441
0.742733 0.222354 0.222507
0.972778 0.257053 0.256840
0.000000 0.499184 0.213962
0.166842 0.506645 0.166690
0.512169 0.512230 0.169314
0.739162 0.502068 0.277195
0.964965 0.518303 0.326879
0.000000 0.769314 0.174502
0.147677 0.771542 0.146487
0.492500 0.772641 0.156741
0.773129 0.773220 0.178531
0.971557 0.743832 0.336645
0.000000 0.979614 0.222843
0.229404 0.978637 0.228733
0.489784 0.975006 0.249454
0.732967 0.968139 0.288457
0.958038 0.958068 0.348791
0.000000 0.000000 0.453803
0.216983 0.000000 0.463569
0.485115 0.000000 0.485298
0.752224 0.000000 0.480110
0.979950 0.000000 0.466041
0.000000 0.183200 0.476875
0.154604 0.154391 0.483009
0.495674 0.100435 0.495888
0.756985 0.131594 0.479286
0.979736 0.182650 0.470375
0.000000 0.500755 0.500816
0.019776 0.503960 0.503960
0.494789 0.494789 0.494789
0.754665 0.503502 0.503532
0.970275 0.514122 0.514092
0.000000 0.772366 0.487221
0.000000 0.775387 0.478065
0.448463 0.778225 0.448127
0.774472 0.774380 0.457343
0.959930 0.757046 0.572595
0.000000 0.979767 0.477638
0.193637 0.979614 0.473030
0.467903 0.976928 0.467628
0.728908 0.968658 0.490761
0.957733 0.957733 0.529076
0.000000 0.000000 0.722072
0.206821 0.000000 0.726009
0.472541 0.000000 0.737209
0.751369 0.000000 0.751583
0.975158 0.000000 0.718379
0.000000 0.129641 0.734585
0.110780 0.110719 0.737148
0.461219 0.000000 0.745113
0.756313 0.000000 0.756405
0.975586 0.082521 0.718318
0.000000 0.458076 0.749477
0.000000 0.446052 0.752804
0.416815 0.416632 0.759152
0.764736 0.416388 0.764920
0.972595 0.474128 0.725032
0.000000 0.763729 0.763790
0.000000 0.765225 0.765377
0.424720 0.767605 0.767727
0.759731 0.759640 0.759670
0.956237 0.769253 0.769223
0.000000 0.979339 0.728145
0.177707 0.978882 0.726680
0.465339 0.975677 0.723507
0.735805 0.965881 0.735714
0.956268 0.956268 0.752590
0.000000 0.000000 0.947448
0.177127 0.000000 0.948241
0.445899 0.000000 0.950713
0.699916 0.000000 0.954040
0.956909 0.000000 0.957000
0.000000 0.075746 0.950256
0.030945 0.023224 0.950835
0.427771 0.000000 0.952728
0.695705 0.000000 0.955291
0.957427 0.000000 0.957610
0.000000 0.393225 0.954589
0.000000 0.375982 0.955566
0.368170 0.368109 0.956542
0.682704 0.371283 0.957488
0.957885 0.395819 0.958038
0.000000 0.693782 0.954833
0.000000 0.690730 0.955291
0.372534 0.682063 0.956115
0.689967 0.689845 0.955291
0.954772 0.716030 0.954864
0.000000 0.953277 0.953399
0.207309 0.953368 0.953491
0.476905 0.953491 0.953552
0.742245 0.953033 0.953094
0.951110 0.951110 0.951110
