cubelut/LC3.cube
# Created by Adobe Lightroom plugin Export LUT (1.18.0)
# www.johnrellis.com/lightroom/exportlut.htm
# Preset: X25
# Color profile: /Library/Application Support/Adobe/Color/Profiles/Recommended/AdobeRGB1998.icc
LUT_3D_SIZE 32
DOMAIN_MIN 0.0 0.0 0.0
DOMAIN_MAX 1.0 1.0 1.0
0.000000 0.000000 0.000000
0.020447 0.002441 0.001434
0.048524 0.003540 0.002747
0.077302 0.006561 0.007263
0.103914 0.012482 0.011627
0.132082 0.016388 0.015961
0.162142 0.019867 0.019867
0.193790 0.023743 0.023011
0.227726 0.024903 0.024079
0.263005 0.025055 0.022827
0.300206 0.019684 0.020203
0.338262 0.015229 0.015747
0.377142 0.010376 0.010437
0.416724 0.005127 0.007385
0.456397 0.005737 0.004089
0.496254 0.000000 0.000427
0.535882 0.000061 0.000000
0.575067 0.001282 0.000000
0.613397 0.000671 0.000000
0.652094 0.002228 0.000885
0.690639 0.009033 0.006104
0.728939 0.018616 0.015961
0.766598 0.031708 0.028748
0.803403 0.051759 0.049134
0.839322 0.066468 0.064637
0.874144 0.078523 0.078096
0.907530 0.093812 0.092073
0.939422 0.109194 0.107973
0.969604 0.125551 0.125704
0.997864 0.144961 0.144442
1.000000 0.165927 0.165164
1.000000 0.189120 0.188693
0.001648 0.021942 0.001404
0.023621 0.022950 0.002930
0.049561 0.024262 0.006439
0.076692 0.031342 0.011810
0.103792 0.035859 0.016205
0.132021 0.040955 0.019379
0.162051 0.045624 0.023163
0.193881 0.049592 0.025116
0.227756 0.051362 0.026093
0.263340 0.050996 0.024811
0.300298 0.050904 0.020752
0.338354 0.046601 0.016388
0.377295 0.043671 0.011933
0.416907 0.043030 0.007385
0.456580 0.041230 0.005402
0.496376 0.039948 0.002441
0.535943 0.041779 0.000000
0.575158 0.038209 0.000000
0.613519 0.039551 0.000977
0.652155 0.043946 0.001740
0.690669 0.049958 0.009155
0.728878 0.054963 0.018250
0.766506 0.064820 0.030457
0.803403 0.070192 0.051575
0.839322 0.080201 0.066133
0.874083 0.091737 0.079225
0.907469 0.104280 0.092775
0.939361 0.118349 0.108980
0.969512 0.133974 0.126131
0.997803 0.151583 0.145144
1.000000 0.171328 0.166049
1.000000 0.193851 0.189456
0.004242 0.051545 0.004211
0.026062 0.053193 0.005615
0.054627 0.054597 0.006806
0.077638 0.055879 0.014862
0.103395 0.060670 0.021241
0.131838 0.063600 0.025269
0.161929 0.065858 0.027893
0.193912 0.067933 0.028656
0.227787 0.069642 0.028351
0.263340 0.070344 0.025788
0.300267 0.070710 0.022705
0.338567 0.070100 0.017914
0.377447 0.070008 0.013306
0.417090 0.069703 0.008728
0.456641 0.070832 0.006378
0.496529 0.070222 0.003388
0.536156 0.070314 0.001709
0.575128 0.071565 0.000610
0.613519 0.071138 0.002869
0.652094 0.074220 0.005463
0.690700 0.075593 0.011933
0.728847 0.079866 0.019409
0.766476 0.084352 0.034180
0.803433 0.089174 0.053315
0.839322 0.096071 0.067842
0.874022 0.105501 0.080385
0.907439 0.116670 0.094697
0.939361 0.129091 0.110353
0.969482 0.143435 0.127291
0.997772 0.159823 0.146273
1.000000 0.178500 0.167025
1.000000 0.200107 0.190616
0.009247 0.080262 0.010132
0.032654 0.080842 0.010437
0.058656 0.081086 0.011749
0.082521 0.082429 0.013855
0.107271 0.083131 0.022827
0.131472 0.086000 0.035828
0.161959 0.088716 0.035859
0.194034 0.091066 0.035218
0.228092 0.093050 0.033509
0.263767 0.094575 0.029450
0.300572 0.096559 0.025818
0.338933 0.097444 0.021576
0.377752 0.098695 0.016480
0.417334 0.099611 0.012634
0.456916 0.100801 0.009003
0.496803 0.101442 0.007782
0.536461 0.101656 0.007080
0.575341 0.103578 0.005615
0.613611 0.103975 0.008820
0.652216 0.106172 0.010224
0.690852 0.107698 0.016358
0.728969 0.110109 0.027314
0.766537 0.113710 0.044099
0.803403 0.117891 0.060090
0.839292 0.124056 0.070375
0.874022 0.130312 0.083711
0.907408 0.138491 0.097566
0.939269 0.149355 0.113344
0.969421 0.161715 0.130159
0.997620 0.176211 0.148867
1.000000 0.193210 0.169497
1.000000 0.213046 0.192721
0.014862 0.109438 0.014069
0.038422 0.109621 0.014466
0.061769 0.110414 0.016541
0.085817 0.111238 0.018616
0.112947 0.112856 0.020203
0.139528 0.113710 0.026581
0.165072 0.114412 0.039734
0.194217 0.117037 0.045808
0.228489 0.120150 0.042237
0.264073 0.122927 0.038483
0.301305 0.125399 0.033082
0.339330 0.127749 0.028138
0.378332 0.129732 0.023499
0.417731 0.131563 0.020203
0.457343 0.132937 0.017304
0.496986 0.135042 0.014313
0.536492 0.136416 0.014191
0.575494 0.138003 0.013550
0.613764 0.139345 0.016175
0.652338 0.140902 0.020844
0.690883 0.142611 0.027832
0.729091 0.144900 0.039429
0.766598 0.147402 0.053162
0.803403 0.151553 0.064790
0.839261 0.155703 0.075746
0.873960 0.161044 0.088350
0.907286 0.168246 0.101595
0.939117 0.176364 0.117220
0.969207 0.186648 0.133974
0.997406 0.199039 0.152743
1.000000 0.213809 0.173465
1.000000 0.231418 0.196506
0.015839 0.140627 0.015442
0.041566 0.141054 0.016693
0.064363 0.141390 0.016663
0.088533 0.142428 0.017304
0.116609 0.143954 0.018494
0.145937 0.146059 0.020142
0.174899 0.146883 0.021302
0.201572 0.146700 0.035340
0.230106 0.148623 0.049805
0.264652 0.152132 0.049836
0.301732 0.155642 0.045563
0.339971 0.159030 0.039521
0.378820 0.161898 0.034028
0.418280 0.164157 0.030091
0.457740 0.166873 0.027283
0.497444 0.168795 0.027222
0.536919 0.170962 0.026337
0.575738 0.172274 0.028992
0.614038 0.174075 0.031037
0.652522 0.176150 0.035157
0.690974 0.177890 0.043000
0.729122 0.179995 0.053376
0.766629 0.182467 0.062867
0.803342 0.185733 0.071870
0.839200 0.189242 0.082918
0.873838 0.193790 0.094636
0.907134 0.199985 0.107607
0.938903 0.206668 0.122713
0.968963 0.215122 0.139223
0.997131 0.225376 0.158145
1.000000 0.238651 0.178317
1.000000 0.254276 0.201541
0.012970 0.174075 0.011872
0.041444 0.174472 0.011933
0.064698 0.174868 0.012879
0.090425 0.175937 0.012055
0.119417 0.177249 0.012970
0.149783 0.178927 0.012085
0.181094 0.181186 0.010285
0.212619 0.182650 0.009583
0.240696 0.181949 0.024079
0.270481 0.183352 0.044831
0.302190 0.186282 0.060182
0.340429 0.190372 0.055360
0.379278 0.194217 0.051911
0.418738 0.197299 0.048951
0.458289 0.200229 0.046113
0.497841 0.202853 0.046326
0.537133 0.205356 0.044892
0.575982 0.207370 0.046693
0.614160 0.209201 0.049714
0.652674 0.211032 0.054292
0.691066 0.213138 0.059663
0.729183 0.215457 0.064881
0.766629 0.217807 0.072145
0.803311 0.220584 0.080873
0.839048 0.223758 0.090578
0.873655 0.227970 0.101625
0.906950 0.232731 0.115206
0.938689 0.238560 0.129976
0.968688 0.245670 0.146151
0.996735 0.255009 0.164340
1.000000 0.265873 0.184970
1.000000 0.279911 0.208225
0.002899 0.209598 0.002319
0.031373 0.209934 0.002350
0.062867 0.210269 0.002045
0.090913 0.211154 0.001038
0.121614 0.212589 0.000244
0.152865 0.214115 0.000061
0.185336 0.216098 0.000000
0.218448 0.218570 0.000000
0.252415 0.220706 0.000000
0.281956 0.219425 0.004547
0.312505 0.220279 0.033875
0.344396 0.222721 0.059113
0.379797 0.226383 0.065919
0.419074 0.230350 0.063935
0.458686 0.234073 0.062837
0.498085 0.237247 0.062135
0.537407 0.240024 0.062562
0.576165 0.242283 0.063478
0.614282 0.244297 0.065278
0.652857 0.246403 0.067201
0.691188 0.248692 0.071473
0.729183 0.250950 0.076326
0.766598 0.253422 0.082277
0.803250 0.255894 0.090364
0.838895 0.258824 0.099702
0.873503 0.262577 0.111147
0.906645 0.266606 0.123903
0.938354 0.271519 0.138247
0.968261 0.277989 0.154238
0.996307 0.285801 0.172244
1.000000 0.295537 0.192874
1.000000 0.308019 0.216068
0.000000 0.247440 0.000000
0.019165 0.247654 0.000000
0.058991 0.247990 0.000000
0.090517 0.248692 0.000000
0.122957 0.249851 0.000000
0.155825 0.251286 0.000000
0.189029 0.253269 0.000000
0.222843 0.255406 0.000000
0.257633 0.257664 0.000000
0.293309 0.260105 0.000000
0.324651 0.259159 0.000000
0.355749 0.259129 0.011170
0.387854 0.260746 0.053071
0.420813 0.263828 0.073335
0.458900 0.267796 0.076967
0.498390 0.271458 0.076051
0.537499 0.274754 0.075746
0.576410 0.277470 0.076112
0.614496 0.279545 0.077668
0.652949 0.281926 0.079774
0.691218 0.284428 0.083375
0.729213 0.286503 0.087984
0.766506 0.289067 0.094026
0.803098 0.291539 0.101411
0.838773 0.294408 0.111055
0.873198 0.297520 0.121523
0.906310 0.301213 0.133761
0.937926 0.305669 0.147555
0.967773 0.311284 0.163577
0.995758 0.318029 0.181338
1.000000 0.326696 0.201846
1.000000 0.337713 0.225193
0.000000 0.286503 0.000000
0.000000 0.286748 0.000000
0.047944 0.287144 0.000000
0.088289 0.287816 0.000000
0.123079 0.288823 0.000000
0.157595 0.290196 0.000000
0.191958 0.291814 0.000000
0.226871 0.293767 0.000000
0.262150 0.296056 0.000000
0.298466 0.298466 0.000000
0.335271 0.300816 0.000000
0.368048 0.299901 0.000000
0.399695 0.299290 0.000000
0.431617 0.300114 0.041993
0.464393 0.302373 0.073335
0.498512 0.305608 0.091096
0.537652 0.309422 0.089693
0.576379 0.312169 0.090730
0.614435 0.314794 0.092012
0.652796 0.317449 0.093538
0.691157 0.319982 0.096407
0.729061 0.322454 0.100832
0.766384 0.324895 0.106600
0.802884 0.327306 0.113802
0.838437 0.330114 0.122255
0.872862 0.332921 0.132876
0.905882 0.336431 0.144411
0.937377 0.340337 0.158297
0.967193 0.344976 0.174197
0.995087 0.350927 0.192050
1.000000 0.358831 0.212192
1.000000 0.368719 0.235477
0.000000 0.327184 0.000000
0.000000 0.327367 0.000000
0.022187 0.327611 0.000000
0.082887 0.328283 0.000000
0.121462 0.329046 0.000000
0.157961 0.330297 0.000000
0.194186 0.331945 0.000000
0.230106 0.333501 0.000000
0.266209 0.335576 0.000000
0.303014 0.337804 0.000000
0.340185 0.340307 0.000000
0.377966 0.342565 0.000000
0.411841 0.341588 0.000000
0.443854 0.340124 0.000000
0.475563 0.340246 0.022095
0.508049 0.341711 0.072633
0.540887 0.344091 0.095094
0.576226 0.347082 0.106111
0.614313 0.349981 0.106996
0.652766 0.352667 0.108553
0.691035 0.355566 0.111208
0.728908 0.358068 0.115084
0.766140 0.360723 0.120302
0.802609 0.363195 0.127047
0.838071 0.365820 0.135683
0.872404 0.368475 0.145602
0.905394 0.371405 0.157229
0.936797 0.375097 0.170474
0.966522 0.379339 0.185855
0.994263 0.384680 0.203677
1.000000 0.391608 0.223850
1.000000 0.400763 0.247379
0.000000 0.368597 0.000000
0.000000 0.368688 0.000000
0.000000 0.368994 0.000000
0.076020 0.369390 0.000000
0.119356 0.370306 0.000000
0.157961 0.371374 0.000000
0.195468 0.372656 0.000000
0.232456 0.374243 0.000000
0.269291 0.376013 0.000000
0.306645 0.377996 0.000000
0.344213 0.380255 0.000000
0.382452 0.382391 0.000000
0.421027 0.384649 0.000000
0.455848 0.383795 0.000000
0.488014 0.381628 0.000000
0.519249 0.380743 0.000000
0.551141 0.381201 0.069642
0.583093 0.382666 0.096925
0.615137 0.384924 0.119234
0.652552 0.388006 0.124025
0.690791 0.390997 0.126528
0.728634 0.393774 0.130404
0.765805 0.396490 0.135378
0.802213 0.398962 0.141848
0.837705 0.401495 0.149569
0.871855 0.404242 0.159396
0.904753 0.406928 0.170809
0.936095 0.410163 0.183780
0.965698 0.414008 0.199100
0.993347 0.418738 0.216739
1.000000 0.425055 0.237064
1.000000 0.433295 0.260472
0.000000 0.410224 0.000000
0.000000 0.410498 0.000000
0.000000 0.410681 0.000000
0.065736 0.411017 0.000000
0.115480 0.411749 0.000000
0.156222 0.412726 0.000000
0.195743 0.413794 0.000000
0.233616 0.415229 0.000000
0.271641 0.416754 0.000000
0.309606 0.418494 0.000000
0.347478 0.420539 0.000000
0.385962 0.422492 0.000000
0.424628 0.424750 0.000000
0.463905 0.426978 0.000000
0.499458 0.426001 0.000000
0.531334 0.423102 0.000000
0.562554 0.421180 0.000000
0.593378 0.420600 0.063386
0.624689 0.421149 0.099092
0.657008 0.423224 0.124025
0.690425 0.426307 0.143221
0.728237 0.429297 0.146120
0.765316 0.432227 0.150790
0.801724 0.434760 0.157321
0.837095 0.437263 0.164675
0.871183 0.439673 0.173892
0.904051 0.442329 0.185031
0.935271 0.445350 0.198062
0.964752 0.448798 0.213321
0.992279 0.453101 0.231022
1.000000 0.458717 0.251164
1.000000 0.466255 0.275029
0.000000 0.452003 0.000000
0.000000 0.452094 0.000000
0.000000 0.452399 0.000000
0.046815 0.452735 0.000000
0.110323 0.453223 0.000000
0.154147 0.454017 0.000000
0.195315 0.455116 0.000000
0.234348 0.456367 0.000000
0.273167 0.457618 0.000000
0.311589 0.459358 0.000000
0.350134 0.461006 0.000000
0.388739 0.462867 0.000000
0.427710 0.464759 0.000000
0.466743 0.466865 0.000000
0.506279 0.468910 0.000000
0.542626 0.468116 0.000000
0.573999 0.464149 0.000000
0.604578 0.461128 0.000000
0.634913 0.459724 0.057679
0.666194 0.459998 0.099825
0.698024 0.461585 0.129061
0.730220 0.464363 0.154025
0.764828 0.467506 0.167483
0.801175 0.470314 0.173617
0.836362 0.472786 0.181033
0.870451 0.475288 0.190036
0.903197 0.477729 0.200534
0.934295 0.480476 0.213657
0.963653 0.483650 0.228794
0.991058 0.487587 0.246433
1.000000 0.492744 0.267063
1.000000 0.499641 0.290715
0.000000 0.493629 0.000000
0.000000 0.493660 0.000000
0.000000 0.493782 0.000000
0.014313 0.494209 0.000000
0.104616 0.494697 0.000000
0.151827 0.495491 0.000000
0.194095 0.496407 0.000000
0.234440 0.497322 0.000000
0.273930 0.498543 0.000000
0.313024 0.499947 0.000000
0.351751 0.501457 0.000000
0.390692 0.503044 0.000000
0.429725 0.504753 0.000000
0.468940 0.506615 0.000000
0.508537 0.508446 0.000000
0.548150 0.510399 0.000000
0.584985 0.509483 0.000000
0.615351 0.504479 0.000000
0.645899 0.500633 0.000000
0.676081 0.498848 0.042512
0.706905 0.498604 0.102663
0.738186 0.499825 0.135286
0.769680 0.502098 0.162783
0.801144 0.505303 0.187655
0.835599 0.508141 0.197757
0.869596 0.510521 0.206912
0.902190 0.512963 0.217502
0.933196 0.515618 0.230259
0.962432 0.518456 0.245365
0.989715 0.522057 0.263188
1.000000 0.526818 0.283726
1.000000 0.533165 0.307927
0.000000 0.534844 0.000000
0.000000 0.534905 0.000000
0.000000 0.535027 0.000000
0.000000 0.535332 0.000000
0.096925 0.535637 0.000000
0.148898 0.536339 0.000000
0.192050 0.537133 0.000000
0.233310 0.538048 0.000000
0.273808 0.539055 0.000000
0.313268 0.540215 0.000000
0.352789 0.541497 0.000000
0.391974 0.542901 0.000000
0.430854 0.544366 0.000000
0.470283 0.545922 0.000000
0.509575 0.547478 0.000000
0.549187 0.549065 0.000000
0.588800 0.550774 0.000000
0.625330 0.549523 0.000000
0.655756 0.544030 0.000000
0.686244 0.539910 0.000000
0.716274 0.537652 0.026184
0.746609 0.536889 0.106020
0.777218 0.537530 0.142977
0.807797 0.539269 0.173465
0.838102 0.542107 0.201175
0.868559 0.545647 0.224674
0.901061 0.547967 0.235264
0.931914 0.550439 0.247959
0.961028 0.553185 0.263157
0.988159 0.556451 0.281010
1.000000 0.560754 0.301854
1.000000 0.566766 0.326329
0.000000 0.575158 0.000000
0.000000 0.575219 0.000000
0.000000 0.575311 0.000000
0.000000 0.575555 0.000000
0.089082 0.575952 0.000000
0.144259 0.576471 0.000000
0.189395 0.577173 0.000000
0.231907 0.577874 0.000000
0.272709 0.578790 0.000000
0.313054 0.579767 0.000000
0.352758 0.580804 0.000000
0.392065 0.581964 0.000000
0.431281 0.583215 0.000000
0.470436 0.584436 0.000000
0.509728 0.585718 0.000000
0.548974 0.587091 0.000000
0.588464 0.588403 0.000000
0.627955 0.589868 0.000000
0.664424 0.588434 0.000000
0.695399 0.583276 0.000000
0.725582 0.578759 0.000000
0.755428 0.575830 0.015717
0.785031 0.574578 0.111421
0.814817 0.574701 0.151919
0.844266 0.575860 0.185428
0.873228 0.578180 0.216342
0.901518 0.581598 0.245731
0.930541 0.585046 0.267124
0.959503 0.587610 0.282170
0.986419 0.590692 0.300267
1.000000 0.594629 0.320897
1.000000 0.600153 0.345647
0.000000 0.614466 0.000000
0.000000 0.614557 0.000000
0.000000 0.614588 0.000000
0.000000 0.614832 0.000000
0.078553 0.615167 0.000000
0.139345 0.615564 0.000000
0.186007 0.616144 0.000000
0.230045 0.616632 0.000000
0.271702 0.617456 0.000000
0.312139 0.618280 0.000000
0.351904 0.619135 0.000000
0.391272 0.620111 0.000000
0.430640 0.621118 0.000000
0.469978 0.622217 0.000000
0.509239 0.623316 0.000000
0.548302 0.624537 0.000000
0.587610 0.625757 0.000000
0.626886 0.626856 0.000000
0.666102 0.628077 0.000000
0.702663 0.626734 0.000000
0.734066 0.621759 0.000000
0.763790 0.616785 0.000000
0.793301 0.613184 0.013733
0.822080 0.611261 0.119081
0.850614 0.610834 0.163668
0.878874 0.611566 0.200168
0.906310 0.613397 0.233585
0.932891 0.616571 0.266697
0.958190 0.621241 0.299809
0.984558 0.624506 0.320287
1.000000 0.628168 0.341314
1.000000 0.633356 0.366339
0.000000 0.653162 0.000000
0.000000 0.653193 0.000000
0.000000 0.653223 0.000000
0.000000 0.653407 0.000000
0.066407 0.653651 0.000000
0.132784 0.654078 0.000000
0.182864 0.654536 0.000000
0.227451 0.654963 0.000000
0.269932 0.655604 0.000000
0.310887 0.656306 0.000000
0.350866 0.657099 0.000000
0.390539 0.657832 0.000000
0.429969 0.658747 0.000000
0.469215 0.659663 0.000000
0.508354 0.660639 0.000000
0.547417 0.661555 0.000000
0.586481 0.662623 0.000000
0.625452 0.663661 0.000000
0.664576 0.664607 0.000000
0.703639 0.665583 0.000000
0.740200 0.664271 0.000000
0.771572 0.659358 0.000000
0.800687 0.653864 0.000000
0.829587 0.649561 0.032715
0.857298 0.647028 0.129976
0.884581 0.645899 0.178073
0.911315 0.646113 0.217411
0.937102 0.647547 0.254459
0.961730 0.650507 0.290501
0.984894 0.655238 0.327642
1.000000 0.661311 0.362799
1.000000 0.666194 0.388037
0.000000 0.691249 0.000000
0.000000 0.691279 0.000000
0.000000 0.691402 0.000000
0.000000 0.691524 0.000000
0.046052 0.691768 0.000000
0.128878 0.692012 0.000000
0.180087 0.692378 0.000000
0.225193 0.692805 0.000000
0.268040 0.693294 0.000000
0.309239 0.693843 0.000000
0.349493 0.694575 0.000000
0.389532 0.695155 0.000000
0.428992 0.695888 0.000000
0.468147 0.696651 0.000000
0.507286 0.697414 0.000000
0.546136 0.698177 0.000000
0.585077 0.699062 0.000000
0.623926 0.699825 0.000000
0.662715 0.700649 0.000000
0.701442 0.701442 0.000000
0.740108 0.702205 0.000000
0.776455 0.700984 0.000000
0.807706 0.695857 0.000000
0.835935 0.689845 0.000000
0.863798 0.684871 0.074159
0.890562 0.681483 0.144106
0.916442 0.679683 0.195163
0.941497 0.679408 0.237919
0.965393 0.680507 0.278233
0.987884 0.683436 0.318059
1.000000 0.688472 0.359045
1.000000 0.696376 0.403021
0.000000 0.728664 0.000000
0.000000 0.728725 0.000000
0.000000 0.728817 0.000000
0.000000 0.728939 0.000000
0.024292 0.729061 0.000000
0.124239 0.729244 0.000000
0.176669 0.729610 0.000000
0.223117 0.729915 0.000000
0.266087 0.730282 0.000000
0.307927 0.730678 0.000000
0.348211 0.731228 0.000000
0.388159 0.731807 0.000000
0.427649 0.732326 0.000000
0.466865 0.732906 0.000000
0.505882 0.733455 0.000000
0.544579 0.734127 0.000000
0.583276 0.734707 0.000000
0.621912 0.735348 0.000000
0.660365 0.735958 0.000000
0.698787 0.736507 0.000000
0.737087 0.737087 0.000000
0.775265 0.737575 0.000000
0.811460 0.736355 0.000000
0.842191 0.730922 0.000000
0.869413 0.724178 0.000000
0.896086 0.718685 0.103426
0.921660 0.714473 0.162325
0.945922 0.712215 0.215976
0.969116 0.711391 0.262028
0.990997 0.712367 0.305913
1.000000 0.715389 0.349981
1.000000 0.721248 0.396033
0.000000 0.765103 0.000000
0.000000 0.765194 0.000000
0.000000 0.765194 0.000000
0.000000 0.765286 0.000000
0.000000 0.765469 0.000000
0.121370 0.765591 0.000000
0.175174 0.765805 0.000000
0.221500 0.766018 0.000000
0.264805 0.766384 0.000000
0.306645 0.766659 0.000000
0.347082 0.767056 0.000000
0.386938 0.767422 0.000000
0.426368 0.767819 0.000000
0.465217 0.768276 0.000000
0.504143 0.768704 0.000000
0.542809 0.769131 0.000000
0.581170 0.769497 0.000000
0.619501 0.769986 0.000000
0.657618 0.770352 0.000000
0.695735 0.770718 0.000000
0.733608 0.771054 0.000000
0.771328 0.771359 0.000000
0.808927 0.771633 0.000000
0.844877 0.770443 0.000000
0.874907 0.764523 0.000000
0.900938 0.757229 0.059052
0.926238 0.751003 0.133120
0.950469 0.745998 0.184207
0.972930 0.743130 0.240543
0.994110 0.742061 0.289830
1.000000 0.743099 0.338140
1.000000 0.746700 0.386999
0.000000 0.800473 0.000000
0.000000 0.800473 0.000000
0.000000 0.800534 0.000000
0.000000 0.800565 0.000000
0.000000 0.800687 0.000000
0.119509 0.800748 0.000000
0.173770 0.800931 0.000000
0.220066 0.801114 0.000000
0.263859 0.801297 0.000000
0.305516 0.801480 0.000000
0.346044 0.801755 0.000000
0.385718 0.801968 0.000000
0.424842 0.802213 0.000000
0.463722 0.802487 0.000000
0.502190 0.802762 0.000000
0.540612 0.803006 0.000000
0.578729 0.803220 0.000000
0.616571 0.803464 0.000000
0.654414 0.803647 0.000000
0.692164 0.803830 0.000000
0.729549 0.803952 0.000000
0.766842 0.804013 0.000000
0.803983 0.804044 0.000000
0.840909 0.803983 0.000000
0.876493 0.802945 0.000000
0.905364 0.796353 0.000000
0.930236 0.788479 0.104494
0.954040 0.781613 0.165011
0.976654 0.775937 0.213107
0.997314 0.772549 0.268925
1.000000 0.771359 0.322576
1.000000 0.772824 0.375525
0.000000 0.834501 0.000000
0.000000 0.834470 0.000000
0.000000 0.834501 0.000000
0.000000 0.834501 0.000000
0.008392 0.834562 0.000000
0.120821 0.834623 0.000000
0.174655 0.834684 0.000000
0.220554 0.834806 0.000000
0.263645 0.834897 0.000000
0.305119 0.834958 0.000000
0.345190 0.835111 0.000000
0.384680 0.835233 0.000000
0.423468 0.835325 0.000000
0.462104 0.835416 0.000000
0.500145 0.835508 0.000000
0.538262 0.835599 0.000000
0.576043 0.835630 0.000000
0.613550 0.835660 0.000000
0.650935 0.835660 0.000000
0.688136 0.835569 0.000000
0.725185 0.835477 0.000000
0.761868 0.835355 0.000000
0.798489 0.835142 0.000000
0.834897 0.834867 0.000000
0.870909 0.834562 0.000000
0.906249 0.833799 0.000000
0.933501 0.826261 0.071504
0.957336 0.817899 0.143008
0.979400 0.810452 0.198520
1.000000 0.804318 0.247837
1.000000 0.800473 0.302525
1.000000 0.799588 0.360906
0.000000 0.866941 0.000000
0.000000 0.866911 0.000000
0.000000 0.866911 0.000000
0.000000 0.866911 0.000000
0.041169 0.866941 0.000000
0.125429 0.866941 0.000000
0.177218 0.866941 0.000000
0.222202 0.866972 0.000000
0.264744 0.866941 0.000000
0.305486 0.866941 0.000000
0.344915 0.867002 0.000000
0.383948 0.866941 0.000000
0.422461 0.866941 0.000000
0.460548 0.866850 0.000000
0.498238 0.866819 0.000000
0.535851 0.866697 0.000000
0.573236 0.866545 0.000000
0.610224 0.866392 0.000000
0.647120 0.866148 0.000000
0.683803 0.865934 0.000000
0.720211 0.865629 0.000000
0.756527 0.865232 0.000000
0.792538 0.864805 0.000000
0.828275 0.864347 0.000000
0.863767 0.863737 0.057130
0.898924 0.863188 0.080507
0.933715 0.862486 0.100221
0.959503 0.854307 0.130190
0.981994 0.845518 0.181491
1.000000 0.837522 0.235508
1.000000 0.831144 0.286595
1.000000 0.827115 0.341558
0.000000 0.897642 0.000000
0.000000 0.897642 0.000000
0.000000 0.897642 0.000000
0.000000 0.897612 0.000000
0.071077 0.897581 0.000000
0.134890 0.897581 0.000000
0.182925 0.897490 0.000000
0.226169 0.897459 0.000000
0.267247 0.897337 0.000000
0.306767 0.897246 0.000000
0.345769 0.897154 0.000000
0.383948 0.897032 0.000000
0.421851 0.896849 0.000000
0.459480 0.896666 0.000000
0.496559 0.896452 0.000000
0.533654 0.896178 0.000000
0.570397 0.895872 0.000000
0.606867 0.895506 0.000000
0.643275 0.895109 0.000000
0.679286 0.894621 0.000000
0.715236 0.894133 0.000000
0.750912 0.893523 0.045411
0.786252 0.892912 0.073426
0.821317 0.892210 0.092958
0.856107 0.891447 0.108736
0.890593 0.890593 0.123415
0.924712 0.889708 0.138430
0.958465 0.888762 0.152560
0.983185 0.880461 0.178286
1.000000 0.871183 0.221866
1.000000 0.862852 0.276493
1.000000 0.856474 0.331212
0.000000 0.926513 0.000000
0.000000 0.926482 0.000000
0.000000 0.926482 0.000000
0.000000 0.926452 0.000000
0.098299 0.926360 0.000000
0.148531 0.926299 0.000000
0.191684 0.926177 0.000000
0.232670 0.926055 0.000000
0.271977 0.925902 0.000000
0.310185 0.925719 0.000000
0.348089 0.925505 0.000000
0.385260 0.925261 0.000000
0.422248 0.924987 0.000000
0.459144 0.924620 0.000000
0.495613 0.924285 0.000000
0.531792 0.923857 0.000000
0.568078 0.923339 0.000000
0.603784 0.922850 0.026978
0.639521 0.922240 0.063264
0.674952 0.921599 0.080201
0.710079 0.920897 0.096010
0.745052 0.920134 0.109895
0.779782 0.919310 0.123507
0.814176 0.918425 0.136080
0.848203 0.917449 0.149020
0.881895 0.916411 0.161990
0.915251 0.915312 0.174685
0.948241 0.914122 0.187228
0.980713 0.912932 0.200626
1.000000 0.904723 0.225284
1.000000 0.894926 0.265049
1.000000 0.886442 0.322698
0.000000 0.953368 0.000000
0.000000 0.953338 0.000000
0.000000 0.953338 0.000000
0.080934 0.953246 0.000000
0.126284 0.953155 0.000000
0.166781 0.953033 0.000000
0.204654 0.952911 0.000000
0.242374 0.952697 0.000000
0.279118 0.952483 0.000000
0.315892 0.952178 0.000000
0.352148 0.951873 0.000000
0.388312 0.951537 0.009979
0.424109 0.951141 0.040589
0.459937 0.950683 0.063478
