cubelut/LC3.cube
# Created by Adobe Lightroom plugin Export LUT (1.18.0)
# www.johnrellis.com/lightroom/exportlut.htm
# Preset: X25
# Color profile: /Library/Application Support/Adobe/Color/Profiles/Recommended/AdobeRGB1998.icc
LUT_3D_SIZE 8
DOMAIN_MIN 0.000000 0.000000 0.000000
DOMAIN_MAX 0.903226 0.903226 0.903226
0.000000 0.000000 0.000000
0.103914 0.012482 0.011627
0.227726 0.024903 0.024079
0.377142 0.010376 0.010437
0.535882 0.000061 0.000000
0.690639 0.009033 0.006104
0.839322 0.066468 0.064637
0.969604 0.125551 0.125704
0.014862 0.109438 0.014069
0.112947 0.112856 0.020203
0.228489 0.120150 0.042237
0.378332 0.129732 0.023499
0.536492 0.136416 0.014191
0.690883 0.142611 0.027832
0.839261 0.155703 0.075746
0.969207 0.186648 0.133974
0.000000 0.247440 0.000000
0.122957 0.249851 0.000000
0.257633 0.257664 0.000000
0.387854 0.260746 0.053071
0.537499 0.274754 0.075746
0.691218 0.284428 0.083375
0.838773 0.294408 0.111055
0.967773 0.311284 0.163577
0.000000 0.410224 0.000000
0.115480 0.411749 0.000000
0.271641 0.416754 0.000000
0.424628 0.424750 0.000000
0.562554 0.421180 0.000000
0.690425 0.426307 0.143221
0.837095 0.437263 0.164675
0.964752 0.448798 0.213321
0.000000 0.575158 0.000000
0.089082 0.575952 0.000000
0.272709 0.578790 0.000000
0.431281 0.583215 0.000000
0.588464 0.588403 0.000000
0.725582 0.578759 0.000000
0.844266 0.575860 0.185428
0.959503 0.587610 0.282170
0.000000 0.728664 0.000000
0.024292 0.729061 0.000000
0.266087 0.730282 0.000000
0.427649 0.732326 0.000000
0.583276 0.734707 0.000000
0.737087 0.737087 0.000000
0.869413 0.724178 0.000000
0.969116 0.711391 0.262028
0.000000 0.866941 0.000000
0.041169 0.866941 0.000000
0.264744 0.866941 0.000000
0.422461 0.866941 0.000000
0.573236 0.866545 0.000000
0.720211 0.865629 0.000000
0.863767 0.863737 0.057130
0.981994 0.845518 0.181491
0.074067 0.978088 0.070619
0.156161 0.977874 0.076478
0.289799 0.976959 0.093874
0.427985 0.975219 0.118318
0.565576 0.972564 0.149416
0.701045 0.968841 0.185336
0.832517 0.963958 0.226749
0.958038 0.958038 0.274784
0.001038 0.000488 0.102632
0.106844 0.003479 0.107027
0.238041 0.000000 0.113497
0.390295 0.000000 0.107546
0.545769 0.000000 0.108553
0.697139 0.000000 0.114046
0.843015 0.000000 0.130129
0.971283 0.104646 0.167697
0.003296 0.110719 0.110903
0.112428 0.112428 0.112428
0.240421 0.116274 0.115999
0.389990 0.113893 0.113954
0.545556 0.114809 0.114595
0.697047 0.120058 0.119844
0.842832 0.136934 0.136477
0.970855 0.174899 0.174746
0.000000 0.250401 0.115877
0.100801 0.254551 0.100679
0.259770 0.259953 0.099825
0.390295 0.261814 0.135470
0.544610 0.272953 0.137850
0.696345 0.279973 0.142611
0.841794 0.289189 0.159731
0.969207 0.306828 0.198917
0.000000 0.414038 0.082216
0.051118 0.416632 0.051728
0.263859 0.420569 0.045350
0.426886 0.426795 0.033967
0.564630 0.420386 0.114626
0.694301 0.427039 0.185702
0.839445 0.436408 0.202396
0.965789 0.447852 0.242741
0.000000 0.578851 0.000000
0.000000 0.579461 0.000000
0.260075 0.581781 0.000000
0.428351 0.585534 0.000000
0.589899 0.589899 0.000000
0.727138 0.578119 0.077821
0.844511 0.576379 0.226810
0.960143 0.588281 0.306554
0.000000 0.730922 0.000000
0.000000 0.731197 0.000000
0.252384 0.732265 0.000000
0.422705 0.733944 0.000000
0.581994 0.735958 0.000000
0.737819 0.737881 0.000000
0.870024 0.723781 0.114992
0.968719 0.711879 0.292027
0.000000 0.868132 0.000000
0.000000 0.868101 0.000000
0.252781 0.868101 0.000000
0.417182 0.867918 0.000000
0.570977 0.867308 0.013947
0.719722 0.866117 0.089235
0.864042 0.864073 0.133516
0.981872 0.845182 0.217777
0.000000 0.978576 0.137423
0.141268 0.978302 0.139376
0.283604 0.977386 0.148775
0.424903 0.975586 0.165194
0.564202 0.972839 0.188205
0.700435 0.968994 0.218418
0.832364 0.964050 0.254704
0.958007 0.958068 0.298558
0.000000 0.000000 0.226169
0.111452 0.000000 0.230900
0.243778 0.000000 0.243870
0.398169 0.000000 0.253086
0.557946 0.000000 0.249607
0.711879 0.000000 0.238560
0.852842 0.000000 0.245121
0.976165 0.000000 0.264958
0.000000 0.102846 0.238743
0.094972 0.094606 0.242618
0.249821 0.080140 0.249882
0.402533 0.017243 0.251102
0.560876 0.000000 0.246098
0.711452 0.000000 0.241855
0.852262 0.000000 0.249699
0.975555 0.117769 0.270420
0.000000 0.253544 0.253666
0.066224 0.255314 0.255314
0.251560 0.251560 0.251560
0.405310 0.255406 0.255314
0.560388 0.255924 0.255802
0.709041 0.258427 0.258122
0.850187 0.267033 0.266819
0.973236 0.289769 0.289342
0.000000 0.417151 0.259434
0.000000 0.420356 0.252110
0.218326 0.425666 0.218906
0.427771 0.427863 0.219455
0.563195 0.418921 0.271946
0.704585 0.426551 0.289860
0.846250 0.432502 0.299168
0.968811 0.443977 0.325353
0.000000 0.581109 0.249699
0.000000 0.583581 0.237766
0.200412 0.588586 0.199496
0.413703 0.590448 0.201968
0.592309 0.592340 0.205722
0.729244 0.574731 0.242191
0.843351 0.580407 0.339269
0.961913 0.590417 0.379522
0.000000 0.733516 0.231968
0.000000 0.735042 0.218509
0.191470 0.737819 0.191226
0.402350 0.738491 0.195254
0.576318 0.739223 0.201419
0.739681 0.739742 0.211093
0.871244 0.721706 0.250706
0.966552 0.714748 0.383673
0.000000 0.870329 0.223484
0.000000 0.871061 0.212741
0.204929 0.871427 0.203952
0.398413 0.870787 0.211276
0.562921 0.869566 0.221775
0.717464 0.867613 0.237125
0.864866 0.864897 0.258091
0.981109 0.843900 0.313420
0.000000 0.979797 0.258671
0.054810 0.979767 0.255375
0.261357 0.978668 0.260716
0.414405 0.976684 0.270756
0.559136 0.973602 0.286198
0.698512 0.969482 0.307347
0.832029 0.964233 0.335241
0.958007 0.958068 0.370642
0.000000 0.000000 0.375463
0.111849 0.000000 0.379736
0.251011 0.000000 0.390509
0.403937 0.000000 0.403937
0.561913 0.000000 0.407691
0.714168 0.000000 0.403113
0.857542 0.000000 0.395972
0.980682 0.000000 0.391852
0.000000 0.075074 0.388586
0.064179 0.064668 0.390997
0.245823 0.000000 0.398291
0.408606 0.000000 0.408637
0.565179 0.000000 0.407416
0.715938 0.000000 0.402075
0.858366 0.000000 0.395666
0.980713 0.000000 0.393317
0.000000 0.244144 0.402716
0.000000 0.235447 0.405829
0.208286 0.207645 0.411414
0.417243 0.196689 0.417395
0.572015 0.216953 0.406439
0.720058 0.218784 0.402167
0.859831 0.223758 0.399756
0.978393 0.256382 0.406683
0.000000 0.418067 0.418128
0.000000 0.419501 0.419684
0.189975 0.421363 0.421485
0.412543 0.412543 0.412543
0.569970 0.418219 0.418280
0.717250 0.420630 0.420508
0.854643 0.424506 0.424323
0.972564 0.436439 0.436316
0.000000 0.584344 0.418585
0.000000 0.586206 0.416022
0.158663 0.590631 0.403845
0.378668 0.591363 0.378576
0.590143 0.590265 0.380407
0.720790 0.576593 0.432502
0.846647 0.586816 0.463783
0.964080 0.593408 0.481300
0.000000 0.735500 0.407691
0.000000 0.736812 0.403265
0.136172 0.740352 0.386664
0.362737 0.742702 0.362554
0.564202 0.741878 0.366705
0.740658 0.740658 0.373266
0.870451 0.717433 0.398962
0.959960 0.724758 0.515618
0.000000 0.871214 0.397772
0.000000 0.871824 0.393744
0.153384 0.873533 0.379400
0.364508 0.874235 0.364416
0.549065 0.872160 0.371466
0.713161 0.869291 0.381842
0.865660 0.865660 0.396185
0.978637 0.841703 0.438087
0.000000 0.979767 0.405676
0.000000 0.979797 0.403571
0.237613 0.979614 0.397375
0.396887 0.978027 0.396796
0.551263 0.974548 0.407813
0.695583 0.969909 0.423621
0.831418 0.964294 0.445075
0.957885 0.957916 0.472572
0.000000 0.000000 0.530999
0.100618 0.000000 0.533593
0.252506 0.000000 0.541466
0.402289 0.000000 0.552209
0.564202 0.000000 0.564355
0.716579 0.000000 0.560143
0.857877 0.000000 0.550958
0.978943 0.000000 0.538964
0.000000 0.015747 0.540368
0.000000 0.000000 0.542016
0.241184 0.000000 0.547692
0.400702 0.000000 0.556725
0.567285 0.000000 0.567407
0.718654 0.000000 0.560510
0.858824 0.000000 0.550469
0.979065 0.000000 0.539269
0.000000 0.213016 0.555138
0.000000 0.197208 0.557855
0.182773 0.182467 0.561944
0.390845 0.164218 0.567864
0.575341 0.132021 0.575555
0.723964 0.167269 0.560937
0.861021 0.188022 0.551110
0.978729 0.224308 0.542870
0.000000 0.400336 0.566522
0.000000 0.397375 0.568170
0.106081 0.384161 0.573175
0.363775 0.363714 0.576898
0.580987 0.361791 0.581170
0.726955 0.391150 0.564172
0.861143 0.401678 0.559045
0.976196 0.415473 0.556023
0.000000 0.580163 0.580255
0.000000 0.581262 0.581201
0.098085 0.583612 0.583703
0.362646 0.583581 0.583612
0.574029 0.574029 0.574029
0.721340 0.580438 0.580560
0.854551 0.584100 0.584070
0.967102 0.589929 0.589868
0.000000 0.737819 0.573205
0.000000 0.738888 0.572076
0.079530 0.741512 0.567559
0.346838 0.743130 0.558312
0.542473 0.740536 0.542260
0.738003 0.738003 0.545006
0.856413 0.723964 0.594476
0.955413 0.735866 0.635920
0.000000 0.872282 0.557641
0.000000 0.872831 0.555871
0.123751 0.874083 0.549798
0.348180 0.875029 0.539208
0.528740 0.873747 0.528557
0.706569 0.869932 0.535393
0.865507 0.865568 0.545220
0.973236 0.839017 0.575067
0.000000 0.979706 0.549218
0.000000 0.979675 0.548272
0.232151 0.979309 0.545068
0.387701 0.978149 0.540551
0.542260 0.975006 0.541955
0.692561 0.969940 0.553796
0.830930 0.963958 0.569360
0.957458 0.957488 0.589624
0.000000 0.000000 0.684535
0.073121 0.000000 0.686061
0.247745 0.000000 0.690791
0.398108 0.000000 0.697810
0.552728 0.000000 0.706477
0.715602 0.000000 0.715724
0.857450 0.000000 0.703334
0.976074 0.000000 0.682795
0.000000 0.000000 0.690028
0.000000 0.000000 0.691157
0.232364 0.000000 0.694972
0.393042 0.000000 0.701137
0.552270 0.000000 0.708949
0.717494 0.000000 0.717494
0.858488 0.000000 0.703334
0.976287 0.000000 0.682704
0.000000 0.175082 0.702388
0.000000 0.171817 0.703212
0.160586 0.159945 0.705806
0.372564 0.135836 0.710262
0.548791 0.090394 0.716243
0.722866 0.000000 0.722835
0.861234 0.106996 0.703731
0.976410 0.185153 0.683162
0.000000 0.373907 0.710872
0.000000 0.368109 0.712276
0.000000 0.346654 0.716335
0.331182 0.331182 0.720180
0.540215 0.326482 0.724086
0.728664 0.322240 0.728634
0.863371 0.361303 0.704860
0.974975 0.389502 0.687190
0.000000 0.554162 0.719722
0.000000 0.552667 0.720790
0.000000 0.547631 0.723537
0.312169 0.537285 0.726741
0.524132 0.524071 0.728359
0.730953 0.527031 0.731014
0.861540 0.556725 0.710506
0.969543 0.572015 0.702785
0.000000 0.729244 0.729335
0.000000 0.729793 0.729946
0.000000 0.731533 0.731502
0.327733 0.733059 0.733120
0.531640 0.732448 0.732570
0.724727 0.724636 0.724666
0.853086 0.730983 0.730953
0.958465 0.735531 0.735470
0.000000 0.873411 0.715633
0.000000 0.873747 0.715084
0.065736 0.874601 0.713191
0.339025 0.874876 0.709194
0.524804 0.872892 0.703914
0.701472 0.867247 0.701381
0.863371 0.863340 0.705562
0.956847 0.849699 0.748043
0.000000 0.979461 0.692348
0.000000 0.979339 0.691829
0.225772 0.978820 0.690059
0.386297 0.977386 0.687465
0.543481 0.973938 0.688228
0.697414 0.968109 0.697383
0.833677 0.962432 0.706783
0.956603 0.956573 0.719417
0.000000 0.000000 0.828305
0.000000 0.000000 0.828946
0.237247 0.000000 0.831296
0.389197 0.000000 0.835111
0.539208 0.000000 0.839872
0.692836 0.000000 0.845182
0.850462 0.000000 0.850675
0.971710 0.000000 0.824796
0.000000 0.000000 0.830930
0.000000 0.000000 0.831479
0.219211 0.000000 0.833555
0.382086 0.000000 0.836942
0.536522 0.000000 0.841367
0.692317 0.000000 0.846372
0.851408 0.000000 0.851469
0.971954 0.000000 0.824613
0.000000 0.153719 0.837797
0.000000 0.150088 0.838193
0.136660 0.136233 0.839780
0.355840 0.106477 0.842405
0.526360 0.012604 0.845853
0.690486 0.000000 0.849851
0.854032 0.000000 0.854063
0.972412 0.106996 0.824369
0.000000 0.336400 0.844266
0.000000 0.328954 0.845090
0.000000 0.310399 0.847166
0.306096 0.305791 0.848936
0.508476 0.300206 0.851316
0.686488 0.295262 0.854154
0.857084 0.293645 0.857237
0.972045 0.348943 0.824125
0.000000 0.523278 0.848478
0.000000 0.520714 0.849119
0.000000 0.511345 0.851011
0.258824 0.493812 0.853574
0.483772 0.483650 0.855497
0.680507 0.487404 0.857359
0.859251 0.495796 0.859281
0.968719 0.538842 0.826749
0.000000 0.694026 0.852964
0.000000 0.693324 0.853391
0.000000 0.691035 0.854673
0.284611 0.686549 0.856413
0.489601 0.681514 0.857542
0.681758 0.681697 0.857420
0.858793 0.689631 0.858854
0.961242 0.716274 0.837278
0.000000 0.857053 0.857267
0.000000 0.857420 0.857481
0.000000 0.858183 0.858274
0.324926 0.859251 0.859281
0.517998 0.859831 0.859983
0.697688 0.859312 0.859342
0.854459 0.854429 0.854459
0.951141 0.859800 0.859831
0.000000 0.978912 0.835325
0.000000 0.978759 0.835080
0.219181 0.978058 0.834012
0.387213 0.976226 0.832303
0.547417 0.972412 0.831449
0.703090 0.966125 0.833860
0.843076 0.958709 0.843015
0.954986 0.954986 0.848417
0.000000 0.000000 0.947448
0.000000 0.000000 0.947662
0.220188 0.000000 0.948516
0.373053 0.000000 0.949889
0.518334 0.000000 0.951629
0.663447 0.000000 0.953552
0.809812 0.000000 0.955413
0.956909 0.000000 0.957000
0.000000 0.000000 0.948394
0.000000 0.000000 0.948577
0.201785 0.000000 0.949340
0.365423 0.000000 0.950591
0.514580 0.000000 0.952209
0.661769 0.000000 0.953979
0.809445 0.000000 0.955718
0.957092 0.000000 0.957214
0.000000 0.132692 0.951019
0.000000 0.128939 0.951171
0.115755 0.114626 0.951751
0.337652 0.084932 0.952697
0.501640 0.000000 0.953948
0.656153 0.000000 0.955322
0.807889 0.000000 0.956634
0.957549 0.000000 0.957733
0.000000 0.293400 0.954162
0.000000 0.292699 0.954284
0.000000 0.290379 0.954620
0.287022 0.286503 0.955230
0.479927 0.282689 0.955993
0.646906 0.281010 0.956847
0.805264 0.284825 0.957549
0.958007 0.298741 0.958129
0.000000 0.485573 0.954803
0.000000 0.482460 0.955047
0.000000 0.471046 0.955871
0.203922 0.449622 0.957000
0.452308 0.452094 0.957305
0.636530 0.458167 0.957549
0.802914 0.470130 0.957641
0.957427 0.490486 0.957549
0.000000 0.653895 0.954894
0.000000 0.652644 0.955047
0.000000 0.648341 0.955566
0.255406 0.640833 0.956237
0.457618 0.635645 0.956481
0.641718 0.641596 0.956115
0.807095 0.654871 0.955840
0.955505 0.672724 0.955535
0.000000 0.809476 0.954406
0.000000 0.809232 0.954498
0.053559 0.808194 0.954742
0.321599 0.806943 0.954986
0.500542 0.807523 0.954894
0.670100 0.812619 0.954009
0.824308 0.824247 0.952514
0.952789 0.834928 0.952819
0.000000 0.953277 0.953399
0.056245 0.953307 0.953399
0.247074 0.953399 0.953521
0.400458 0.953491 0.953582
0.553582 0.953399 0.953491
0.705592 0.953124 0.953216
0.844572 0.952636 0.952697
0.951110 0.951110 0.951110
