cubelut/LC4.cube
# Created by Adobe Lightroom plugin Export LUT (1.18.0)
# www.johnrellis.com/lightroom/exportlut.htm
# Preset: Sleeklens Starter | 0-All in One - Fresh Lime
# Color profile: /Library/Application Support/Adobe/Color/Profiles/Recommended/AdobeRGB1998.icc
LUT_3D_SIZE 5
DOMAIN_MIN 0.000000 0.000000 0.000000
DOMAIN_MAX 0.903226 0.903226 0.903226
0.000000 0.000000 0.000000
0.216526 0.000000 0.000000
0.577874 0.000000 0.000000
0.939849 0.000000 0.000000
1.000000 0.000000 0.000000
0.000000 0.218631 0.000000
0.220401 0.220432 0.000000
0.567620 0.268009 0.000000
0.933776 0.275334 0.000000
1.000000 0.232944 0.000000
0.000000 0.588830 0.000000
0.264073 0.591974 0.000000
0.631800 0.631983 0.000000
0.929656 0.604303 0.000000
1.000000 0.526268 0.000000
0.000000 0.919066 0.000000
0.220554 0.917937 0.000000
0.583734 0.909209 0.000000
0.891325 0.891539 0.000000
1.000000 0.797818 0.000000
0.000000 1.000000 0.000000
0.173342 1.000000 0.000000
0.492897 1.000000 0.000000
0.763210 1.000000 0.000000
1.000000 1.000000 0.000000
0.000000 0.000000 0.207980
0.213596 0.000000 0.213687
0.564355 0.000000 0.232944
0.918151 0.000000 0.190280
1.000000 0.000000 0.180117
0.000000 0.215152 0.215244
0.212680 0.212680 0.212680
0.565484 0.200656 0.200839
0.915465 0.180575 0.181704
1.000000 0.176028 0.178012
0.000000 0.580865 0.233402
0.167025 0.587793 0.166873
0.597436 0.597650 0.150240
0.910124 0.574975 0.152163
1.000000 0.514214 0.176150
0.000000 0.916472 0.153292
0.108309 0.916381 0.109255
0.566979 0.906340 0.100435
0.887083 0.887266 0.084016
1.000000 0.793271 0.167483
0.000000 1.000000 0.176059
0.173342 1.000000 0.174228
0.499580 1.000000 0.181247
0.766049 1.000000 0.192081
1.000000 1.000000 0.219883
0.000000 0.000000 0.563653
0.260319 0.000000 0.567773
0.576104 0.000000 0.576104
0.909728 0.000000 0.571099
1.000000 0.000000 0.518303
0.000000 0.218601 0.576440
0.182467 0.182589 0.577173
0.588403 0.095186 0.588464
0.906249 0.000000 0.561059
1.000000 0.278538 0.541070
0.000000 0.590021 0.590051
0.000000 0.589807 0.589868
0.583886 0.583886 0.583886
0.892515 0.583093 0.583154
1.000000 0.577935 0.578088
0.000000 0.904326 0.561456
0.000000 0.900023 0.549950
0.570214 0.890959 0.570184
0.878965 0.879026 0.574792
1.000000 0.808255 0.582544
0.000000 1.000000 0.498329
0.227848 1.000000 0.513848
0.579980 1.000000 0.580041
0.792294 1.000000 0.577142
1.000000 1.000000 0.582910
0.000000 0.000000 0.873075
0.243259 0.000000 0.874327
0.563622 0.000000 0.880766
0.880034 0.000000 0.880095
1.000000 0.000000 0.785489
0.000000 0.166323 0.875731
0.146578 0.147829 0.876951
0.546593 0.018036 0.878752
0.875547 0.000000 0.875578
1.000000 0.224186 0.786038
0.000000 0.536980 0.873320
0.000000 0.529168 0.873381
0.537285 0.537255 0.871305
0.866911 0.549676 0.866911
1.000000 0.610315 0.813474
0.000000 0.870726 0.870817
0.000000 0.868193 0.868315
0.568078 0.865568 0.865660
0.860655 0.860624 0.860655
1.000000 0.857633 0.857633
0.000000 1.000000 0.778683
0.266270 1.000000 0.782895
0.611170 1.000000 0.809506
0.854276 1.000000 0.854276
0.995850 0.995880 0.851987
0.000000 0.000000 1.000000
0.195407 0.000000 1.000000
0.484443 0.000000 1.000000
0.753750 0.000000 1.000000
1.000000 0.000000 1.000000
0.000000 0.149142 1.000000
0.138308 0.140536 1.000000
0.475380 0.115602 1.000000
0.752712 0.116365 1.000000
1.000000 0.217227 1.000000
0.000000 0.481788 1.000000
0.217990 0.497230 1.000000
0.515496 0.515587 1.000000
0.773251 0.542046 1.000000
1.000000 0.588983 1.000000
0.000000 0.754696 1.000000
0.278447 0.761257 1.000000
0.601862 0.793973 1.000000
0.838193 0.838163 1.000000
0.997894 0.853971 0.997864
0.219974 0.999756 0.999817
0.373022 0.999023 0.999084
0.641108 0.996796 0.996857
0.863615 0.993988 0.994018
0.992279 0.992279 0.992279
