cubelut/LC4.cube
# Created by Adobe Lightroom plugin Export LUT (1.18.0)
# www.johnrellis.com/lightroom/exportlut.htm
# Preset: Sleeklens Starter | 0-All in One - Fresh Lime
# Color profile: /Library/Application Support/Adobe/Color/Profiles/Recommended/AdobeRGB1998.icc
LUT_3D_SIZE 32
DOMAIN_MIN 0.0 0.0 0.0
DOMAIN_MAX 1.0 1.0 1.0
0.000000 0.000000 0.000000
0.002716 0.000000 0.000000
0.025788 0.000000 0.000000
0.066926 0.000000 0.000000
0.100923 0.000000 0.000000
0.137881 0.000000 0.000000
0.176577 0.000000 0.000000
0.216526 0.000000 0.000000
0.258701 0.000000 0.000000
0.303593 0.000000 0.000000
0.352148 0.000000 0.000000
0.404059 0.000000 0.000000
0.459358 0.000000 0.000000
0.517967 0.000000 0.000000
0.577874 0.000000 0.000000
0.636652 0.000000 0.000000
0.694209 0.000000 0.000000
0.747677 0.000000 0.000000
0.795041 0.000000 0.000000
0.851011 0.000000 0.000000
0.899382 0.000000 0.000000
0.939849 0.000000 0.000000
0.973602 0.000000 0.000000
1.000000 0.000000 0.000000
1.000000 0.000000 0.000000
1.000000 0.000000 0.000000
1.000000 0.000000 0.000000
1.000000 0.000000 0.000000
1.000000 0.000000 0.000000
1.000000 0.000000 0.000000
1.000000 0.000000 0.000000
1.000000 0.000000 0.000000
0.000000 0.003601 0.000000
0.003235 0.005341 0.000000
0.025818 0.005158 0.000000
0.066590 0.005158 0.000000
0.100587 0.005066 0.000000
0.137148 0.005005 0.000000
0.175357 0.004181 0.000000
0.214786 0.001984 0.000000
0.256535 0.000000 0.000000
0.301091 0.000000 0.000000
0.348913 0.000000 0.000000
0.400214 0.000000 0.000000
0.454810 0.000000 0.000000
0.512749 0.000000 0.000000
0.572107 0.000000 0.000000
0.630610 0.000000 0.000000
0.687861 0.000000 0.000000
0.741726 0.000000 0.000000
0.789609 0.000000 0.000000
0.845396 0.000000 0.000000
0.893187 0.000000 0.000000
0.933684 0.000000 0.000000
0.967803 0.000000 0.000000
0.997070 0.000000 0.000000
1.000000 0.000000 0.000000
1.000000 0.000000 0.000000
1.000000 0.000000 0.000000
1.000000 0.000000 0.000000
1.000000 0.000000 0.000000
1.000000 0.000000 0.000000
1.000000 0.000000 0.000000
1.000000 0.000000 0.000000
0.000000 0.025269 0.000000
0.002808 0.027741 0.000000
0.025391 0.027558 0.000000
0.066316 0.029969 0.000000
0.100282 0.034699 0.000000
0.136416 0.039887 0.000000
0.174105 0.043549 0.000000
0.213321 0.042267 0.000000
0.254673 0.040436 0.000000
0.298894 0.035065 0.000000
0.346593 0.026490 0.000000
0.397528 0.015106 0.000000
0.451820 0.000000 0.000000
0.509483 0.000000 0.000000
0.568658 0.000000 0.000000
0.627039 0.000000 0.000000
0.684199 0.000000 0.000000
0.738216 0.000000 0.000000
0.786587 0.000000 0.000000
0.842527 0.000000 0.000000
0.890013 0.000000 0.000000
0.930510 0.000000 0.000000
0.964782 0.000000 0.000000
0.994232 0.000000 0.000000
1.000000 0.000000 0.000000
1.000000 0.000000 0.000000
1.000000 0.000000 0.000000
1.000000 0.000000 0.000000
1.000000 0.000000 0.000000
1.000000 0.000000 0.000000
1.000000 0.000000 0.000000
1.000000 0.000000 0.000000
0.000000 0.067079 0.000000
0.004211 0.067384 0.000000
0.029175 0.068025 0.000000
0.068208 0.068391 0.000000
0.100313 0.072694 0.000000
0.136416 0.077333 0.000000
0.173800 0.080690 0.000000
0.212589 0.082887 0.000000
0.253635 0.084321 0.000000
0.297551 0.085451 0.000000
0.344640 0.086061 0.000000
0.395209 0.085634 0.000000
0.448920 0.084169 0.000000
0.505974 0.081178 0.000000
0.564843 0.075959 0.000000
0.623041 0.067506 0.000000
0.679957 0.050935 0.000000
0.734035 0.018006 0.000000
0.784817 0.000000 0.000000
0.838376 0.000000 0.000000
0.884642 0.000000 0.000000
0.924773 0.000000 0.000000
0.959625 0.000000 0.000000
0.990112 0.000000 0.000000
1.000000 0.000000 0.000000
1.000000 0.000000 0.000000
1.000000 0.000000 0.000000
1.000000 0.000000 0.000000
1.000000 0.000000 0.000000
1.000000 0.000000 0.000000
1.000000 0.000000 0.000000
1.000000 0.000000 0.000000
0.000000 0.099825 0.000000
0.005097 0.100038 0.000000
0.033936 0.100557 0.000000
0.072908 0.100954 0.000000
0.101747 0.101900 0.000000
0.135256 0.106050 0.000000
0.172274 0.110658 0.000000
0.210513 0.114565 0.000000
0.251133 0.117830 0.000000
0.294377 0.121248 0.000000
0.340978 0.124086 0.000000
0.391089 0.126680 0.000000
0.444373 0.128725 0.000000
0.501030 0.130495 0.000000
0.560113 0.130770 0.000000
0.618708 0.130037 0.000000
0.676478 0.127169 0.000000
0.731258 0.123171 0.000000
0.785550 0.117037 0.000000
0.837308 0.110567 0.000000
0.882322 0.102174 0.000000
0.921904 0.092805 0.000000
0.956542 0.081300 0.000000
0.987274 0.067964 0.000000
1.000000 0.048402 0.000000
1.000000 0.013764 0.000000
1.000000 0.000000 0.000000
1.000000 0.000000 0.000000
1.000000 0.000000 0.000000
1.000000 0.000000 0.000000
1.000000 0.000000 0.000000
1.000000 0.000000 0.000000
0.000000 0.136019 0.000000
0.000000 0.136294 0.000000
0.033509 0.136507 0.000000
0.075807 0.136721 0.000000
0.107057 0.137362 0.000000
0.137942 0.138125 0.000000
0.172427 0.141756 0.000000
0.210452 0.146731 0.000000
0.250523 0.151156 0.000000
0.293675 0.155825 0.000000
0.340032 0.160647 0.000000
0.389807 0.165103 0.000000
0.442725 0.169558 0.000000
0.499214 0.173709 0.000000
0.558160 0.177218 0.000000
0.616968 0.179232 0.000000
0.674922 0.179690 0.000000
0.729915 0.178836 0.000000
0.787716 0.177676 0.000000
0.838224 0.174563 0.000000
0.882750 0.169986 0.000000
0.922240 0.163973 0.000000
0.990814 0.166964 0.000000
1.000000 0.160220 0.000000
1.000000 0.153506 0.000000
1.000000 0.146548 0.000000
1.000000 0.140291 0.000000
1.000000 0.133913 0.000000
1.000000 0.129000 0.000000
1.000000 0.125307 0.000000
1.000000 0.122621 0.000000
1.000000 0.121279 0.000000
0.000000 0.179599 0.000000
0.000000 0.179660 0.000000
0.030518 0.179812 0.000000
0.080049 0.180179 0.000000
0.114595 0.180575 0.000000
0.148165 0.180941 0.000000
0.181399 0.181491 0.000000
0.217685 0.184573 0.000000
0.258976 0.190311 0.000000
0.303258 0.196353 0.000000
0.350835 0.202701 0.000000
0.401862 0.209140 0.000000
0.455756 0.215274 0.000000
0.512749 0.221317 0.000000
0.571008 0.226047 0.000000
0.628229 0.229221 0.000000
0.684962 0.231235 0.000000
0.745083 0.233280 0.000000
0.801602 0.233951 0.000000
0.851835 0.232029 0.000000
0.897429 0.229160 0.000000
0.938659 0.224918 0.000000
0.975097 0.220371 0.000000
1.000000 0.214939 0.000000
1.000000 0.209232 0.000000
1.000000 0.202853 0.000000
1.000000 0.196689 0.000000
1.000000 0.190433 0.000000
1.000000 0.184726 0.000000
1.000000 0.179843 0.000000
1.000000 0.175326 0.000000
1.000000 0.172152 0.000000
0.000000 0.218631 0.000000
0.000000 0.218753 0.000000
0.017304 0.218784 0.000000
0.078553 0.218875 0.000000
0.115999 0.218997 0.000000
0.151217 0.219303 0.000000
0.185824 0.219669 0.000000
0.220401 0.220432 0.000000
0.258061 0.223606 0.000000
0.302037 0.230777 0.000000
0.349279 0.238407 0.000000
0.399725 0.246250 0.000000
0.453193 0.253910 0.000000
0.509697 0.261540 0.000000
0.567620 0.268009 0.000000
0.624628 0.272770 0.000000
0.684688 0.277806 0.000000
0.746700 0.282292 0.000000
0.800137 0.283207 0.000000
0.848600 0.281712 0.000000
0.893126 0.279118 0.000000
0.933776 0.275334 0.000000
0.970001 0.270909 0.000000
1.000000 0.265385 0.000000
1.000000 0.259281 0.000000
1.000000 0.252873 0.000000
1.000000 0.246067 0.000000
1.000000 0.239322 0.000000
1.000000 0.232944 0.000000
1.000000 0.226963 0.000000
1.000000 0.221622 0.000000
1.000000 0.216678 0.000000
0.000000 0.260288 0.000000
0.000000 0.260288 0.000000
0.000000 0.260349 0.000000
0.074525 0.260319 0.000000
0.116518 0.260594 0.000000
0.153933 0.260716 0.000000
0.190280 0.261082 0.000000
0.226352 0.261723 0.000000
0.262730 0.262760 0.000000
0.302312 0.266636 0.000000
0.349615 0.275456 0.000000
0.399817 0.284398 0.000000
0.453101 0.293553 0.000000
0.509331 0.302464 0.000000
0.566644 0.310399 0.000000
0.626215 0.317937 0.000000
0.691066 0.326452 0.000000
0.749111 0.330785 0.000000
0.800168 0.331273 0.000000
0.847227 0.330053 0.000000
0.890776 0.327550 0.000000
0.930846 0.323796 0.000000
0.966674 0.319005 0.000000
0.998199 0.313451 0.000000
1.000000 0.307042 0.000000
1.000000 0.299779 0.000000
1.000000 0.292515 0.000000
1.000000 0.285222 0.000000
1.000000 0.278019 0.000000
1.000000 0.271122 0.000000
1.000000 0.264622 0.000000
1.000000 0.258610 0.000000
0.000000 0.304540 0.000000
0.000000 0.304479 0.000000
0.000000 0.304387 0.000000
0.068635 0.304387 0.000000
0.115511 0.304417 0.000000
0.156222 0.304509 0.000000
0.194247 0.304723 0.000000
0.231968 0.305272 0.000000
0.269596 0.306401 0.000000
0.307744 0.307897 0.000000
0.348882 0.311742 0.000000
0.399084 0.321904 0.000000
0.452216 0.332341 0.000000
0.508446 0.342931 0.000000
0.570886 0.355474 0.000000
0.635309 0.367102 0.000000
0.697841 0.375830 0.000000
0.753780 0.379797 0.000000
0.803311 0.380224 0.000000
0.848661 0.378424 0.000000
0.890471 0.375341 0.000000
0.928588 0.370947 0.000000
0.962951 0.365423 0.000000
0.993469 0.358984 0.000000
1.000000 0.351934 0.000000
1.000000 0.344274 0.000000
1.000000 0.336553 0.000000
1.000000 0.328618 0.000000
1.000000 0.320836 0.000000
1.000000 0.313329 0.000000
1.000000 0.306279 0.000000
1.000000 0.299321 0.000000
0.000000 0.349737 0.000000
0.000000 0.349798 0.000000
0.000000 0.349828 0.000000
0.056764 0.349950 0.000000
0.112978 0.350195 0.000000
0.157107 0.350744 0.000000
0.198001 0.351415 0.000000
0.237644 0.352331 0.000000
0.277104 0.353582 0.000000
0.316899 0.355291 0.000000
0.357061 0.357244 0.000000
0.399451 0.360754 0.000000
0.454505 0.373938 0.000000
0.516472 0.389899 0.000000
0.578973 0.403845 0.000000
0.640406 0.414832 0.000000
0.700252 0.423011 0.000000
0.753964 0.426612 0.000000
0.802029 0.426581 0.000000
0.846494 0.424659 0.000000
0.887724 0.421271 0.000000
0.925597 0.416571 0.000000
0.959899 0.410864 0.000000
0.990448 0.404150 0.000000
1.000000 0.396582 0.000000
1.000000 0.388312 0.000000
1.000000 0.379675 0.000000
1.000000 0.371099 0.000000
1.000000 0.362585 0.000000
1.000000 0.354223 0.000000
1.000000 0.346197 0.000000
1.000000 0.338384 0.000000
0.000000 0.399664 0.000000
0.000000 0.399786 0.000000
0.000000 0.399817 0.000000
0.017914 0.400000 0.000000
0.108644 0.400458 0.000000
0.157504 0.401068 0.000000
0.201511 0.402045 0.000000
0.243565 0.403235 0.000000
0.285191 0.404822 0.000000
0.326909 0.406806 0.000000
0.369146 0.409308 0.000000
0.416968 0.417151 0.000000
0.499489 0.455024 0.000000
0.565026 0.472511 0.000000
0.629114 0.485969 0.000000
0.690608 0.495430 0.000000
0.745357 0.499123 0.000000
0.793362 0.498085 0.000000
0.836210 0.493965 0.000000
0.876036 0.488563 0.000000
0.912657 0.481880 0.000000
0.946044 0.474311 0.000000
0.976104 0.465736 0.000000
1.000000 0.456611 0.000000
1.000000 0.447089 0.000000
1.000000 0.437232 0.000000
1.000000 0.427161 0.000000
1.000000 0.417182 0.000000
1.000000 0.407294 0.000000
1.000000 0.397711 0.000000
1.000000 0.388434 0.000000
1.000000 0.379339 0.000000
0.000000 0.465309 0.000000
0.000000 0.465370 0.000000
0.000000 0.464790 0.000000
0.000000 0.464118 0.000000
0.102876 0.463416 0.000000
0.158846 0.462776 0.000000
0.206821 0.462867 0.000000
0.252079 0.463600 0.000000
0.296910 0.465705 0.000000
0.345922 0.474525 0.000000
0.397162 0.484565 0.000000
0.450599 0.495216 0.000000
0.505699 0.505913 0.000000
0.561486 0.515343 0.000000
0.626490 0.531090 0.000000
0.688075 0.541863 0.000000
0.742061 0.545434 0.000000
0.789059 0.543816 0.000000
0.831327 0.539300 0.000000
0.870512 0.533196 0.000000
0.906828 0.526146 0.000000
0.940215 0.518059 0.000000
0.970275 0.509056 0.000000
0.997559 0.499428 0.000000
1.000000 0.489235 0.000000
1.000000 0.478737 0.000000
1.000000 0.468055 0.000000
1.000000 0.457404 0.000000
1.000000 0.446784 0.000000
1.000000 0.436561 0.000000
1.000000 0.426490 0.000000
1.000000 0.416602 0.000000
0.000000 0.521080 0.000000
0.000000 0.521050 0.000000
0.000000 0.520592 0.000000
0.000000 0.520073 0.000000
0.089326 0.519188 0.000000
0.155673 0.520317 0.000000
0.209201 0.523461 0.000000
0.259373 0.527398 0.000000
0.308629 0.532341 0.000000
0.358526 0.538781 0.000000
0.409827 0.546502 0.000000
0.462867 0.555230 0.000000
0.516899 0.563867 0.000000
0.571374 0.571588 0.000000
0.625147 0.577508 0.000000
0.684443 0.587152 0.000000
0.737362 0.590448 0.000000
0.783932 0.588556 0.000000
0.825925 0.583642 0.000000
0.864988 0.577295 0.000000
0.901396 0.569848 0.000000
0.934844 0.561486 0.000000
0.965179 0.552087 0.000000
0.992798 0.541955 0.000000
1.000000 0.531334 0.000000
1.000000 0.520195 0.000000
1.000000 0.508843 0.000000
1.000000 0.497536 0.000000
1.000000 0.486336 0.000000
1.000000 0.475349 0.000000
1.000000 0.464546 0.000000
1.000000 0.453895 0.000000
0.000000 0.588830 0.000000
0.000000 0.589288 0.000000
0.000000 0.589044 0.000000
0.000000 0.589014 0.000000
0.069764 0.588861 0.000000
0.152407 0.588983 0.000000
0.211063 0.589990 0.000000
0.264073 0.591974 0.000000
0.315221 0.595361 0.000000
0.366461 0.600275 0.000000
0.418341 0.606500 0.000000
0.471382 0.613825 0.000000
0.525170 0.621210 0.000000
0.579004 0.627588 0.000000
0.631800 0.631983 0.000000
0.682551 0.633967 0.000000
0.733608 0.635889 0.000000
0.779568 0.633448 0.000000
0.821408 0.628138 0.000000
0.860166 0.621210 0.000000
0.896269 0.613245 0.000000
0.929656 0.604303 0.000000
0.960052 0.594476 0.000000
0.987854 0.583856 0.000000
1.000000 0.572686 0.000000
1.000000 0.561212 0.000000
1.000000 0.549523 0.000000
1.000000 0.537896 0.000000
1.000000 0.526268 0.000000
1.000000 0.514763 0.000000
1.000000 0.503380 0.000000
1.000000 0.491981 0.000000
0.000000 0.656214 0.000000
0.000000 0.656794 0.000000
0.000000 0.656764 0.000000
0.000000 0.656733 0.000000
0.000000 0.656580 0.000000
0.144686 0.656855 0.000000
0.210391 0.657771 0.000000
0.267277 0.659571 0.000000
0.321416 0.662043 0.000000
0.373968 0.665217 0.000000
0.426093 0.668757 0.000000
0.478096 0.672602 0.000000
0.529503 0.675898 0.000000
0.580652 0.678431 0.000000
0.630854 0.679896 0.000000
0.680079 0.680201 0.000000
0.728237 0.679652 0.000000
0.774319 0.677363 0.000000
0.816861 0.672328 0.000000
0.856504 0.665675 0.000000
0.893187 0.657710 0.000000
0.926970 0.648463 0.000000
0.957671 0.638178 0.000000
0.985657 0.627100 0.000000
1.000000 0.615442 0.000000
1.000000 0.603326 0.000000
1.000000 0.590967 0.000000
1.000000 0.578607 0.000000
1.000000 0.566186 0.000000
1.000000 0.553796 0.000000
1.000000 0.541344 0.000000
1.000000 0.528954 0.000000
0.000000 0.712947 0.000000
0.000000 0.712978 0.000000
0.000000 0.712673 0.000000
0.000000 0.712337 0.000000
0.000000 0.711910 0.000000
0.129915 0.711635 0.000000
0.202945 0.711818 0.000000
0.263371 0.712459 0.000000
0.318700 0.713680 0.000000
0.371893 0.715480 0.000000
0.424170 0.717800 0.000000
0.475868 0.720241 0.000000
0.526909 0.722499 0.000000
0.577234 0.723934 0.000000
0.626612 0.724331 0.000000
0.674617 0.723507 0.000000
0.721767 0.721950 0.000000
0.768399 0.720211 0.000000
0.811643 0.715755 0.000000
0.851072 0.708614 0.000000
0.887877 0.700160 0.000000
0.921752 0.690486 0.000000
0.952667 0.679744 0.000000
0.980987 0.668299 0.000000
1.000000 0.656184 0.000000
1.000000 0.643671 0.000000
1.000000 0.630945 0.000000
1.000000 0.618067 0.000000
1.000000 0.605005 0.000000
1.000000 0.591974 0.000000
1.000000 0.578851 0.000000
1.000000 0.565637 0.000000
0.000000 0.762966 0.000000
0.000000 0.763638 0.000000
0.000000 0.790127 0.000000
0.000000 0.789548 0.000000
0.000000 0.788540 0.000000
0.118837 0.787259 0.000000
0.201785 0.785977 0.000000
0.266117 0.784817 0.000000
0.324163 0.784207 0.000000
0.379004 0.784024 0.000000
0.432013 0.784176 0.000000
0.483742 0.784237 0.000000
0.534417 0.783719 0.000000
0.584131 0.782803 0.000000
0.632715 0.781186 0.000000
0.680201 0.778836 0.000000
0.726741 0.775875 0.000000
0.772305 0.772549 0.000000
0.817380 0.769131 0.000000
0.857725 0.761959 0.000000
0.892576 0.750973 0.000000
0.925139 0.739284 0.000000
0.955077 0.726772 0.000000
0.982238 0.713649 0.000000
1.000000 0.699763 0.000000
1.000000 0.685695 0.000000
1.000000 0.671534 0.000000
1.000000 0.657465 0.000000
1.000000 0.643549 0.000000
1.000000 0.629694 0.000000
1.000000 0.615808 0.000000
1.000000 0.601770 0.000000
0.000000 0.812863 0.000000
0.000000 0.816037 0.000000
0.000000 0.819150 0.000000
0.000000 0.821561 0.000000
0.000000 0.822965 0.000000
0.093782 0.822965 0.000000
0.188174 0.822141 0.000000
0.255100 0.820981 0.000000
0.313939 0.820249 0.000000
0.368627 0.819638 0.000000
0.421576 0.819272 0.000000
0.472877 0.818906 0.000000
0.522881 0.817960 0.000000
0.571893 0.816556 0.000000
0.619684 0.814542 0.000000
0.666468 0.811917 0.000000
0.712306 0.808835 0.000000
0.757321 0.805509 0.000000
0.802029 0.802243 0.000000
0.846555 0.799252 0.000000
0.886229 0.792294 0.000000
0.919371 0.780575 0.000000
0.949859 0.767880 0.000000
0.977630 0.754391 0.000000
1.000000 0.740169 0.000000
1.000000 0.725582 0.000000
1.000000 0.710903 0.000000
1.000000 0.696254 0.000000
1.000000 0.681697 0.000000
1.000000 0.667140 0.000000
1.000000 0.652552 0.000000
1.000000 0.637690 0.000000
0.000000 0.848234 0.000000
0.000000 0.850858 0.000000
0.000000 0.853513 0.000000
0.000000 0.855528 0.000000
0.000000 0.856657 0.000000
0.058656 0.856565 0.000000
0.173831 0.855680 0.000000
0.243229 0.854643 0.000000
0.302983 0.853758 0.000000
0.358190 0.852964 0.000000
0.410895 0.852384 0.000000
0.461860 0.851713 0.000000
0.511406 0.850462 0.000000
0.559777 0.848905 0.000000
0.607019 0.846708 0.000000
0.653162 0.843992 0.000000
0.698421 0.840909 0.000000
0.743008 0.837552 0.000000
0.787137 0.834318 0.000000
0.831174 0.831388 0.000000
0.874937 0.828580 0.000000
0.914336 0.822232 0.000000
0.945220 0.809293 0.000000
0.973327 0.795346 0.000000
0.998657 0.780545 0.000000
1.000000 0.765255 0.000000
1.000000 0.749874 0.000000
1.000000 0.734493 0.000000
1.000000 0.719265 0.000000
1.000000 0.704005 0.000000
1.000000 0.688655 0.000000
1.000000 0.673030 0.000000
0.000000 0.880705 0.000000
0.000000 0.882994 0.000000
0.000000 0.885222 0.000000
0.000000 0.886931 0.000000
0.000000 0.887816 0.000000
0.000000 0.887633 0.000000
0.157992 0.886748 0.000000
0.230869 0.885618 0.000000
0.291783 0.884489 0.000000
0.347082 0.883452 0.000000
0.399481 0.882506 0.000000
0.449989 0.881437 0.000000
0.499001 0.880064 0.000000
0.546807 0.878386 0.000000
0.593652 0.876402 0.000000
0.639643 0.874205 0.000000
0.685115 0.872007 0.000000
0.730190 0.869810 0.000000
0.774929 0.867765 0.000000
0.819516 0.865873 0.000000
0.863920 0.864195 0.000000
0.908110 0.862455 0.000000
0.947631 0.856748 0.000000
0.975982 0.842069 0.000000
1.000000 0.826474 0.000000
1.000000 0.810208 0.000000
1.000000 0.793637 0.000000
1.000000 0.777096 0.000000
1.000000 0.760586 0.000000
1.000000 0.744106 0.000000
1.000000 0.727474 0.000000
1.000000 0.710628 0.000000
0.000000 0.919066 0.000000
0.000000 0.919951 0.000000
0.000000 0.920562 0.000000
0.000000 0.920836 0.000000
0.000000 0.920623 0.000000
0.000000 0.919890 0.000000
0.144137 0.918944 0.000000
0.220554 0.917937 0.000000
0.282567 0.917082 0.000000
0.338415 0.916320 0.000000
0.390875 0.915587 0.000000
0.441444 0.914580 0.000000
0.490089 0.913146 0.000000
0.537438 0.911345 0.000000
0.583734 0.909209 0.000000
0.629297 0.906798 0.000000
0.674037 0.904234 0.000000
0.718318 0.901671 0.000000
0.762142 0.899168 0.000000
0.805600 0.896635 0.000000
0.848661 0.894133 0.000000
0.891325 0.891539 0.000000
0.933532 0.888823 0.000000
0.971710 0.882841 0.000000
0.997101 0.866331 0.000000
1.000000 0.849454 0.000000
1.000000 0.832273 0.000000
1.000000 0.815030 0.000000
1.000000 0.797818 0.000000
1.000000 0.780514 0.000000
1.000000 0.763088 0.000000
1.000000 0.745418 0.000000
0.000000 0.945373 0.000000
0.000000 0.946136 0.000000
0.000000 0.946777 0.000000
0.000000 0.947021 0.000000
0.000000 0.946777 0.000000
0.000000 0.945983 0.000000
0.127687 0.944915 0.000000
0.208225 0.943755 0.000000
0.271305 0.942657 0.000000
0.326970 0.941619 0.000000
0.379187 0.940642 0.000000
0.429053 0.939544 0.000000
0.477150 0.938048 0.000000
0.524071 0.936339 0.000000
0.569818 0.934356 0.000000
0.614801 0.932189 0.000000
0.659083 0.929900 0.000000
0.702876 0.927581 0.000000
0.746181 0.925261 0.000000
0.789120 0.922942 0.000000
0.831724 0.920653 0.000000
0.873930 0.918303 0.000000
0.915679 0.915892 0.000000
0.956909 0.913237 0.000000
0.991119 0.904417 0.000000
1.000000 0.886992 0.000000
1.000000 0.869413 0.000000
1.000000 0.851652 0.000000
1.000000 0.833768 0.000000
1.000000 0.815854 0.000000
1.000000 0.797787 0.000000
1.000000 0.779538 0.000000
0.000000 0.974975 0.000000
0.000000 0.975738 0.000000
0.000000 0.976104 0.000000
0.000000 0.975952 0.000000
0.000000 0.975311 0.000000
0.000000 0.974243 0.000000
0.116335 0.972839 0.000000
0.199710 0.971191 0.000000
0.262638 0.969482 0.000000
0.317845 0.967773 0.000000
0.369238 0.965972 0.000000
0.418097 0.964202 0.000000
0.465370 0.962249 0.000000
0.511192 0.959991 0.000000
0.555779 0.957366 0.000000
0.599542 0.954528 0.000000
0.642603 0.951598 0.000000
0.685267 0.948852 0.000000
0.727657 0.946410 0.000000
0.769894 0.944274 0.000000
0.811856 0.942199 0.000000
0.853330 0.940002 0.000000
0.894163 0.937438 0.000000
0.934264 0.934447 0.000000
0.973510 0.931060 0.000000
1.000000 0.926390 0.000000
1.000000 0.907805 0.000000
1.000000 0.889097 0.000000
1.000000 0.870359 0.000000
1.000000 0.851530 0.000000
1.000000 0.832700 0.000000
1.000000 0.813687 0.000000
0.000000 0.995209 0.000000
0.000000 0.995880 0.000000
0.000000 0.996216 0.000000
0.000000 0.996063 0.000000
0.000000 0.995453 0.000000
0.000000 0.994507 0.000000
0.100954 0.993347 0.000000
0.188968 0.992004 0.000000
0.252415 0.990600 0.000000
0.307713 0.989166 0.000000
0.358495 0.987701 0.000000
0.407202 0.986175 0.000000
0.453986 0.984527 0.000000
0.499245 0.982574 0.000000
0.543389 0.980285 0.000000
0.586633 0.977752 0.000000
0.629145 0.975097 0.000000
0.671229 0.972503 0.000000
0.712886 0.970092 0.000000
0.754330 0.967834 0.000000
0.795407 0.965576 0.000000
0.836088 0.963226 0.000000
0.876097 0.960571 0.000000
0.915435 0.957641 0.000000
0.954131 0.954345 0.000000
0.992096 0.950713 0.000000
1.000000 0.946929 0.000000
1.000000 0.927703 0.000000
1.000000 0.908049 0.000000
1.000000 0.888304 0.000000
1.000000 0.868559 0.000000
1.000000 0.848417 0.000000
0.000000 1.000000 0.000000
0.000000 1.000000 0.000000
0.000000 1.000000 0.000000
0.000000 1.000000 0.000000
0.000000 1.000000 0.000000
0.000000 1.000000 0.000000
0.085939 1.000000 0.000000
0.179080 1.000000 0.000000
0.243015 1.000000 0.000000
0.297520 1.000000 0.000000
0.348180 1.000000 0.000000
0.396033 1.000000 0.000000
0.442115 1.000000 0.000000
0.486854 1.000000 0.000000
0.530205 0.999908 0.000000
0.572686 0.997498 0.000000
0.614496 0.994873 0.000000
0.655695 0.992279 0.000000
0.696620 0.989807 0.000000
0.737148 0.987488 0.000000
0.777371 0.985138 0.000000
0.817136 0.982696 0.000000
0.856321 0.980011 0.000000
0.894865 0.977081 0.000000
0.932799 0.973846 0.000000
0.970062 0.970306 0.000000
1.000000 0.966583 0.000000
1.000000 0.962676 0.000000
1.000000 0.944060 0.000000
1.000000 0.923644 0.000000
1.000000 0.903044 0.000000
1.000000 0.882048 0.000000
0.000000 1.000000 0.000000
0.000000 1.000000 0.000000
0.000000 1.000000 0.000000
0.000000 1.000000 0.000000
0.000000 1.000000 0.000000
0.000000 1.000000 0.000000
0.077790 1.000000 0.000000
0.174075 1.000000 0.000000
0.238010 1.000000 0.000000
0.292760 1.000000 0.000000
0.342992 1.000000 0.000000
0.390631 1.000000 0.000000
0.436225 1.000000 0.000000
0.480354 1.000000 0.000000
0.523217 1.000000 0.000000
0.564935 1.000000 0.000000
0.605951 1.000000 0.000000
0.646326 1.000000 0.000000
0.686336 1.000000 0.000000
0.725948 1.000000 0.000000
0.765103 1.000000 0.000000
0.803861 1.000000 0.000000
0.842008 1.000000 0.000000
0.879545 0.999817 0.000000
0.916533 0.996368 0.000000
0.952850 0.992706 0.000000
0.988647 0.988861 0.000000
1.000000 0.984833 0.000000
1.000000 0.980774 0.000000
1.000000 0.962219 0.000000
1.000000 0.940032 0.000000
1.000000 0.917418 0.000000
0.000000 1.000000 0.000000
0.000000 1.000000 0.000000
0.000000 1.000000 0.000000
0.000000 1.000000 0.000000
0.000000 1.000000 0.000000
0.000000 1.000000 0.000000
0.091432 1.000000 0.000000
0.175723 1.000000 0.000000
0.235966 1.000000 0.000000
0.288334 1.000000 0.000000
0.336522 1.000000 0.000000
0.382300 1.000000 0.000000
0.426337 1.000000 0.000000
