cubelut/LC4.cube
# Created by Adobe Lightroom plugin Export LUT (1.18.0)
# www.johnrellis.com/lightroom/exportlut.htm
# Preset: Sleeklens Starter | 0-All in One - Fresh Lime
# Color profile: /Library/Application Support/Adobe/Color/Profiles/Recommended/AdobeRGB1998.icc
LUT_3D_SIZE 8
DOMAIN_MIN 0.000000 0.000000 0.000000
DOMAIN_MAX 0.903226 0.903226 0.903226
0.000000 0.000000 0.000000
0.100923 0.000000 0.000000
0.258701 0.000000 0.000000
0.459358 0.000000 0.000000
0.694209 0.000000 0.000000
0.899382 0.000000 0.000000
1.000000 0.000000 0.000000
1.000000 0.000000 0.000000
0.000000 0.099825 0.000000
0.101747 0.101900 0.000000
0.251133 0.117830 0.000000
0.444373 0.128725 0.000000
0.676478 0.127169 0.000000
0.882322 0.102174 0.000000
1.000000 0.048402 0.000000
1.000000 0.000000 0.000000
0.000000 0.260288 0.000000
0.116518 0.260594 0.000000
0.262730 0.262760 0.000000
0.453101 0.293553 0.000000
0.691066 0.326452 0.000000
0.890776 0.327550 0.000000
1.000000 0.307042 0.000000
1.000000 0.278019 0.000000
0.000000 0.465309 0.000000
0.102876 0.463416 0.000000
0.296910 0.465705 0.000000
0.505699 0.505913 0.000000
0.742061 0.545434 0.000000
0.906828 0.526146 0.000000
1.000000 0.489235 0.000000
1.000000 0.446784 0.000000
0.000000 0.712947 0.000000
0.000000 0.711910 0.000000
0.318700 0.713680 0.000000
0.526909 0.722499 0.000000
0.721767 0.721950 0.000000
0.887877 0.700160 0.000000
1.000000 0.656184 0.000000
1.000000 0.605005 0.000000
0.000000 0.880705 0.000000
0.000000 0.887816 0.000000
0.291783 0.884489 0.000000
0.499001 0.880064 0.000000
0.685115 0.872007 0.000000
0.863920 0.864195 0.000000
1.000000 0.826474 0.000000
1.000000 0.760586 0.000000
0.000000 0.995209 0.000000
0.000000 0.995453 0.000000
0.252415 0.990600 0.000000
0.453986 0.984527 0.000000
0.629145 0.975097 0.000000
0.795407 0.965576 0.000000
0.954131 0.954345 0.000000
1.000000 0.908049 0.000000
0.000000 1.000000 0.000000
0.000000 1.000000 0.000000
0.231754 1.000000 0.000000
0.417548 1.000000 0.000000
0.572747 1.000000 0.000000
0.726009 1.000000 0.000000
0.871580 1.000000 0.000000
1.000000 1.000000 0.000000
0.000000 0.000000 0.097475
0.098756 0.000000 0.098787
0.248966 0.000000 0.104616
0.443793 0.000000 0.085969
0.674647 0.000000 0.015503
0.876066 0.000000 0.000000
1.000000 0.000000 0.000000
1.000000 0.000000 0.000000
0.000000 0.098451 0.098543
0.098634 0.098634 0.098634
0.249332 0.095491 0.095674
0.440314 0.079103 0.080354
0.668360 0.000000 0.000000
0.868193 0.000000 0.000000
1.000000 0.000000 0.000000
1.000000 0.000000 0.000000
0.000000 0.252964 0.104036
0.084443 0.256565 0.084565
0.259068 0.259190 0.078614
0.444984 0.279026 0.054566
0.675837 0.302495 0.000000
0.870329 0.300175 0.000000
1.000000 0.280949 0.000000
1.000000 0.258030 0.000000
0.000000 0.450782 0.043153
0.000000 0.452857 0.000000
0.281834 0.459846 0.000000
0.476600 0.476753 0.000000
0.696132 0.505425 0.000000
0.871305 0.496681 0.000000
0.999207 0.468727 0.000000
1.000000 0.433997 0.000000
0.000000 0.706386 0.000000
0.000000 0.703395 0.000000
0.292699 0.701045 0.000000
0.504601 0.700893 0.000000
0.696986 0.697169 0.000000
0.869413 0.682063 0.000000
0.995209 0.644312 0.000000
1.000000 0.597314 0.000000
0.000000 0.870756 0.000000
0.000000 0.870390 0.000000
0.262730 0.867979 0.000000
0.482338 0.866514 0.000000
0.674281 0.862333 0.000000
0.858305 0.858488 0.000000
0.996216 0.820615 0.000000
1.000000 0.755673 0.000000
0.000000 0.985779 0.000000
0.000000 0.983429 0.000000
0.226566 0.980072 0.000000
0.441871 0.976776 0.000000
0.622004 0.969787 0.000000
0.789395 0.960113 0.000000
0.947631 0.947784 0.000000
1.000000 0.902037 0.000000
0.000000 1.000000 0.000000
0.000000 1.000000 0.000000
0.220584 1.000000 0.000000
0.412909 1.000000 0.000000
0.575586 1.000000 0.000000
0.726802 1.000000 0.000000
0.870665 1.000000 0.000000
1.000000 1.000000 0.000000
0.000000 0.000000 0.253330
0.117037 0.000000 0.255283
0.258213 0.000000 0.258183
0.453895 0.000000 0.282292
0.687678 0.000000 0.282353
0.890715 0.000000 0.251743
1.000000 0.000000 0.245853
1.000000 0.000000 0.241825
0.000000 0.100710 0.256352
0.089296 0.089509 0.256992
0.257389 0.067323 0.257481
0.449561 0.000000 0.271244
0.684657 0.000000 0.264347
0.882475 0.000000 0.244053
1.000000 0.000000 0.238163
1.000000 0.000000 0.235752
0.000000 0.258488 0.258488
0.030945 0.259251 0.259342
0.255222 0.255222 0.255222
0.455299 0.252293 0.252293
0.701472 0.248081 0.248325
0.883421 0.239750 0.240391
1.000000 0.233677 0.234897
1.000000 0.231937 0.233341
0.000000 0.455695 0.278416
0.000000 0.460029 0.271244
0.239963 0.474067 0.239933
0.486091 0.486122 0.238285
0.713710 0.498299 0.237613
0.883207 0.480873 0.233890
1.000000 0.454841 0.232151
1.000000 0.426703 0.233738
0.000000 0.703548 0.282292
0.000000 0.706233 0.264866
0.207431 0.710903 0.207736
0.489540 0.712337 0.204105
0.707820 0.707942 0.196231
0.877012 0.678401 0.194522
0.996277 0.637934 0.220737
1.000000 0.594110 0.231662
0.000000 0.870481 0.237919
0.000000 0.871366 0.219455
0.179812 0.869627 0.180148
0.455665 0.864775 0.176394
0.662104 0.858427 0.172427
0.852811 0.852995 0.174380
0.991608 0.813535 0.193606
1.000000 0.754330 0.236088
0.000000 0.987976 0.205631
0.000000 0.986633 0.194858
0.181949 0.981964 0.182406
0.425849 0.976074 0.179843
0.613642 0.967987 0.177737
0.786404 0.959197 0.182773
0.949218 0.949371 0.196078
1.000000 0.902953 0.221378
0.000000 1.000000 0.222171
0.000000 1.000000 0.224277
0.222416 1.000000 0.222904
0.418921 1.000000 0.239231
0.578790 1.000000 0.241093
0.729366 1.000000 0.245579
0.872129 1.000000 0.255283
1.000000 1.000000 0.263706
0.000000 0.000000 0.446845
0.122988 0.000000 0.451911
0.290257 0.000000 0.455970
0.460334 0.000000 0.460304
0.689631 0.000000 0.493965
0.877409 0.000000 0.479805
1.000000 0.000000 0.448249
1.000000 0.000000 0.437263
0.000000 0.077028 0.459174
0.060914 0.062043 0.460304
0.282780 0.000000 0.461067
0.463508 0.000000 0.463539
0.693599 0.000000 0.491524
0.874632 0.000000 0.472572
1.000000 0.000000 0.444434
1.000000 0.000000 0.441169
0.000000 0.277043 0.459724
0.000000 0.267308 0.460914
0.237522 0.237430 0.462287
0.467109 0.221469 0.467079
0.704250 0.190646 0.481910
0.882811 0.195651 0.469490
1.000000 0.276371 0.473701
1.000000 0.312474 0.465644
0.000000 0.470893 0.470985
0.000000 0.472358 0.472419
0.209384 0.475349 0.475410
0.473060 0.473060 0.473060
0.703273 0.472175 0.472297
0.872526 0.469825 0.469947
0.994507 0.468116 0.468330
1.000000 0.464759 0.465095
0.000000 0.708370 0.500572
0.000000 0.707393 0.494545
0.144259 0.709743 0.477516
0.462898 0.714168 0.462959
0.709346 0.709377 0.462867
0.873472 0.678523 0.472541
0.989258 0.650355 0.477729
1.000000 0.618799 0.472023
0.000000 0.875273 0.471931
0.000000 0.881041 0.470802
0.143221 0.877226 0.454566
0.455299 0.871580 0.455390
0.666957 0.864347 0.455634
0.855192 0.855314 0.456764
0.985077 0.813535 0.459632
1.000000 0.767636 0.483833
0.000000 0.986145 0.433661
0.000000 0.986145 0.432319
0.197513 0.983886 0.434852
0.457008 0.977691 0.457130
0.631586 0.969940 0.456703
0.794827 0.960113 0.457465
0.948791 0.948852 0.461158
1.000000 0.902922 0.465888
0.000000 1.000000 0.420996
0.000000 1.000000 0.425910
0.297002 1.000000 0.448951
0.477363 1.000000 0.477516
0.612543 1.000000 0.476936
0.747890 1.000000 0.478462
0.880064 1.000000 0.485481
1.000000 1.000000 0.492836
0.000000 0.000000 0.674067
0.110353 0.000000 0.676661
0.311070 0.000000 0.678065
0.494697 0.000000 0.681849
0.695064 0.000000 0.695064
0.868833 0.000000 0.675319
0.993164 0.000000 0.632837
1.000000 0.000000 0.597192
0.000000 0.000000 0.679377
0.000000 0.000000 0.683101
0.295750 0.000000 0.683589
0.489693 0.000000 0.683192
0.695583 0.000000 0.695613
0.869200 0.000000 0.673518
0.992676 0.000000 0.632288
1.000000 0.000000 0.600183
0.000000 0.259861 0.684871
0.000000 0.240787 0.686458
0.218967 0.219150 0.685206
0.474250 0.192477 0.691615
0.693294 0.138399 0.693355
0.862516 0.138582 0.662745
0.986114 0.217014 0.631342
1.000000 0.311681 0.611780
0.000000 0.485084 0.690700
0.000000 0.480079 0.691066
0.118379 0.463966 0.694118
0.447517 0.447395 0.696010
0.694301 0.444068 0.694301
0.858549 0.464454 0.667048
0.976379 0.498207 0.656245
1.000000 0.539117 0.657282
0.000000 0.693965 0.694087
0.000000 0.694636 0.694759
0.001404 0.694057 0.694118
0.443488 0.692470 0.692500
0.683925 0.683925 0.683925
0.845090 0.681270 0.681331
0.964141 0.678950 0.679042
1.000000 0.672999 0.673121
0.000000 0.858976 0.661677
0.000000 0.858793 0.659663
0.000000 0.855161 0.651789
0.429633 0.849546 0.649195
0.660975 0.840848 0.660975
0.841245 0.841276 0.670039
0.962737 0.820768 0.684016
1.000000 0.797299 0.686854
0.000000 0.979706 0.619165
0.000000 0.978363 0.617639
0.174777 0.974487 0.617426
0.461738 0.967437 0.633265
0.664485 0.957702 0.664515
0.805875 0.950774 0.665156
0.942016 0.942077 0.665156
1.000000 0.903441 0.659052
0.000000 1.000000 0.579767
0.000000 1.000000 0.581506
0.281621 1.000000 0.592401
0.512657 1.000000 0.635523
0.672175 1.000000 0.672206
0.780819 1.000000 0.671077
0.892546 1.000000 0.673335
1.000000 1.000000 0.675563
0.000000 0.000000 0.847807
0.061738 0.000000 0.848203
0.298894 0.000000 0.846372
0.483406 0.000000 0.850675
0.667933 0.000000 0.854337
0.853910 0.000000 0.853941
0.982361 0.000000 0.805631
1.000000 0.000000 0.751034
0.000000 0.000000 0.843198
0.000000 0.000000 0.843046
0.278447 0.000000 0.842863
0.473732 0.000000 0.847379
0.661555 0.000000 0.849821
0.850156 0.000000 0.850187
0.979889 0.000000 0.803098
1.000000 0.000000 0.751003
0.000000 0.224979 0.851164
0.000000 0.221469 0.851133
0.208682 0.209293 0.851926
0.452796 0.186557 0.853117
0.655360 0.148959 0.851957
0.850401 0.097902 0.850401
0.977295 0.206455 0.802792
1.000000 0.317632 0.758480
0.000000 0.455146 0.855100
0.000000 0.449317 0.854093
0.107057 0.437201 0.854459
0.442573 0.442512 0.858213
0.660792 0.448646 0.857908
0.854520 0.455573 0.854520
0.971954 0.498756 0.812833
1.000000 0.543145 0.782650
0.000000 0.651911 0.846799
0.000000 0.650599 0.847074
0.074678 0.647761 0.847288
0.445655 0.653223 0.846799
0.666957 0.666926 0.843381
0.840421 0.669093 0.840452
0.954711 0.686702 0.817746
1.000000 0.706233 0.806424
0.000000 0.838743 0.838895
0.000000 0.840452 0.840635
0.073365 0.840330 0.840391
0.448798 0.838895 0.838987
0.667170 0.835264 0.835294
0.832975 0.832914 0.832975
0.944823 0.834867 0.834928
1.000000 0.832914 0.832944
0.000000 0.977386 0.800320
0.000000 0.977264 0.800900
0.222324 0.972930 0.800504
0.484565 0.964508 0.804196
0.677882 0.953582 0.813107
0.827207 0.943877 0.827237
0.938964 0.938964 0.826535
1.000000 0.917967 0.828916
0.000000 1.000000 0.740261
0.000000 1.000000 0.741146
0.307469 1.000000 0.746273
0.513817 1.000000 0.763943
0.686152 1.000000 0.790860
0.820584 1.000000 0.820615
0.909911 1.000000 0.822568
0.996948 0.996948 0.823148
0.000000 0.000000 0.953826
0.000000 0.000000 0.954406
0.270512 0.000000 0.955016
0.445747 0.000000 0.955901
0.614191 0.000000 0.955200
0.782712 0.000000 0.953857
0.952087 0.000000 0.952117
1.000000 0.000000 0.892973
0.000000 0.000000 0.953826
0.000000 0.000000 0.954192
0.253269 0.000000 0.954559
0.437781 0.000000 0.954528
0.610132 0.000000 0.953948
0.780667 0.000000 0.952667
0.950652 0.000000 0.950683
1.000000 0.000000 0.891997
0.000000 0.207736 0.955718
0.000000 0.205020 0.955657
0.194858 0.195621 0.955322
0.417639 0.179629 0.954803
0.602258 0.158175 0.953582
0.778470 0.142580 0.951965
0.949859 0.158175 0.949889
1.000000 0.284520 0.893278
0.000000 0.411658 0.955322
0.000000 0.409644 0.954803
0.152895 0.410193 0.954162
0.412879 0.412970 0.953277
0.605341 0.419226 0.951598
0.781735 0.431678 0.949584
0.947082 0.452552 0.947082
1.000000 0.508995 0.897551
0.000000 0.598932 0.950469
0.000000 0.598688 0.950195
0.175814 0.602136 0.949371
0.453559 0.620813 0.947448
0.640284 0.640253 0.945006
0.794675 0.649104 0.942992
0.940764 0.660792 0.940795
1.000000 0.690639 0.905272
0.000000 0.773251 0.945159
0.000000 0.773556 0.945006
0.207523 0.776150 0.944335
0.469520 0.785000 0.942748
0.666773 0.800900 0.940124
0.817319 0.817288 0.937591
0.936187 0.821378 0.936217
1.000000 0.833799 0.917906
0.000000 0.939147 0.939300
0.000000 0.939147 0.939269
0.253971 0.938628 0.938720
0.491493 0.937591 0.937682
0.676448 0.935882 0.935943
0.823392 0.934051 0.934051
0.931731 0.931701 0.931731
0.999725 0.931426 0.931426
0.000000 1.000000 0.891661
0.118532 1.000000 0.891783
0.343236 1.000000 0.893187
0.530877 1.000000 0.896666
0.694148 1.000000 0.903258
0.828855 1.000000 0.914122
0.928985 0.998077 0.928985
0.993988 0.993957 0.929137
0.000000 0.000000 1.000000
0.000000 0.000000 1.000000
0.241733 0.000000 1.000000
0.406348 0.000000 1.000000
0.561730 0.000000 1.000000
0.715389 0.000000 1.000000
0.868284 0.000000 1.000000
1.000000 0.000000 1.000000
0.000000 0.000000 1.000000
0.000000 0.000000 1.000000
0.228946 0.000000 1.000000
0.401038 0.000000 1.000000
0.559350 0.000000 1.000000
0.714443 0.000000 1.000000
0.867796 0.000000 1.000000
1.000000 0.000000 1.000000
0.000000 0.200565 1.000000
0.000000 0.199435 1.000000
0.193271 0.194583 1.000000
0.389532 0.189853 1.000000
0.555688 0.186679 1.000000
0.714137 0.194430 1.000000
0.868101 0.224460 1.000000
1.000000 0.277348 1.000000
0.000000 0.395453 1.000000
0.000000 0.396429 1.000000
0.211917 0.398474 1.000000
0.404334 0.404517 1.000000
0.569940 0.415747 1.000000
0.725368 0.432990 1.000000
0.873014 0.458473 1.000000
1.000000 0.493202 1.000000
0.000000 0.562371 1.000000
0.000000 0.565881 1.000000
0.289403 0.580377 1.000000
0.492439 0.615076 1.000000
0.624720 0.624750 1.000000
0.756924 0.637873 1.000000
0.884916 0.655207 1.000000
1.000000 0.676509 1.000000
0.000000 0.716762 1.000000
0.062531 0.718715 1.000000
0.314916 0.727230 1.000000
0.507500 0.747677 1.000000
0.678035 0.779721 1.000000
0.802670 0.802670 1.000000
0.903288 0.812619 1.000000
0.999237 0.824002 0.999237
0.067994 0.863188 1.000000
0.184207 0.864164 1.000000
0.356390 0.868101 1.000000
0.533043 0.877226 1.000000
0.692500 0.890929 1.000000
0.826322 0.908263 0.997803
0.924926 0.924895 0.995483
0.994415 0.929259 0.994415
0.219974 0.999756 0.999817
0.274907 0.999512 0.999603
0.410773 0.998779 0.998840
0.565789 0.997559 0.997620
0.712215 0.995972 0.996033
0.836759 0.994354 0.994385
0.932586 0.993042 0.993072
0.992279 0.992279 0.992279
