cubelut/LC5.cube
# Created by Adobe Lightroom plugin Export LUT (1.18.0)
# www.johnrellis.com/lightroom/exportlut.htm
# Preset: LC5
# Color profile: /Library/Application Support/Adobe/Color/Profiles/Recommended/AdobeRGB1998.icc
LUT_3D_SIZE 32
DOMAIN_MIN 0.0 0.0 0.0
DOMAIN_MAX 1.0 1.0 1.0
0.032685 0.058137 0.051911
0.041688 0.059205 0.051637
0.054719 0.060029 0.051179
0.069947 0.061952 0.051026
0.085328 0.064240 0.051301
0.104768 0.065827 0.050263
0.130282 0.065248 0.049287
0.162142 0.062287 0.045899
0.200748 0.051179 0.040467
0.246036 0.016052 0.031800
0.297856 0.000000 0.018769
0.354833 0.000000 0.000458
0.414191 0.000000 0.000000
0.473915 0.000000 0.000000
0.531182 0.000000 0.000000
0.584436 0.000000 0.000000
0.632959 0.000000 0.000000
0.677119 0.000000 0.000000
0.718013 0.000000 0.000000
0.758938 0.000000 0.000000
0.794247 0.000000 0.000000
0.825040 0.000000 0.000000
0.852689 0.074586 0.000000
0.878172 0.131685 0.000000
0.901793 0.171237 0.000000
0.923919 0.204623 0.000000
0.944854 0.234501 0.000000
0.964874 0.261875 0.000000
0.984161 0.287297 0.000000
1.000000 0.311772 0.000000
1.000000 0.335180 0.000000
1.000000 0.358129 0.000000
0.031739 0.063111 0.053651
0.039612 0.063996 0.052552
0.055116 0.065583 0.051118
0.070283 0.067292 0.049317
0.085267 0.069001 0.049683
0.105043 0.069978 0.048707
0.130251 0.069917 0.047669
0.161959 0.067323 0.043793
0.200443 0.060517 0.038270
0.245579 0.033570 0.029450
0.296971 0.000000 0.016419
0.353491 0.000000 0.000000
0.412696 0.000000 0.000000
0.472175 0.000000 0.000000
0.529259 0.000000 0.000000
0.582452 0.000000 0.000000
0.630915 0.000000 0.000000
0.675196 0.000000 0.000000
0.716396 0.000000 0.000000
0.756893 0.000000 0.000000
0.792020 0.000000 0.000000
0.822812 0.000000 0.000000
0.850523 0.083589 0.000000
0.876097 0.136049 0.000000
0.899870 0.174502 0.000000
0.922179 0.207248 0.000000
0.943359 0.236210 0.000000
0.963500 0.263615 0.000000
0.982940 0.288853 0.000000
1.000000 0.312963 0.000000
1.000000 0.336217 0.000000
1.000000 0.358953 0.000000
0.032013 0.069093 0.058350
0.038727 0.069978 0.056458
0.051545 0.071595 0.054231
0.069612 0.073793 0.050629
0.085695 0.074800 0.048585
0.105135 0.075776 0.046784
0.130526 0.075654 0.045380
0.161990 0.073762 0.041169
0.200320 0.068238 0.035554
0.245243 0.054200 0.026581
0.296513 0.004211 0.013336
0.352880 0.000000 0.000000
0.411841 0.000000 0.000000
0.471229 0.000000 0.000000
0.528222 0.000000 0.000000
0.581445 0.000000 0.000000
0.629969 0.000000 0.000000
0.674128 0.000000 0.000000
0.715724 0.000000 0.000000
0.755856 0.000000 0.000000
0.790860 0.000000 0.000000
0.821653 0.000000 0.000000
0.849393 0.100069 0.000000
0.875029 0.145724 0.000000
0.898833 0.181643 0.000000
0.921202 0.212741 0.000000
0.942443 0.241154 0.000000
0.962737 0.267552 0.000000
0.982269 0.292271 0.000000
1.000000 0.316136 0.000000
1.000000 0.338903 0.000000
1.000000 0.361364 0.000000
0.031617 0.080903 0.063783
0.041779 0.081392 0.064027
0.048249 0.082124 0.062593
0.065888 0.084352 0.058961
0.084718 0.086824 0.053437
0.105715 0.087373 0.048341
0.131258 0.087526 0.044038
0.163027 0.086763 0.038392
0.201389 0.083558 0.030213
0.246128 0.076173 0.019654
0.297002 0.059724 0.005951
0.353216 0.000000 0.000000
0.411841 0.000000 0.000000
0.470802 0.000000 0.000000
0.527764 0.000000 0.000000
0.580682 0.000000 0.000000
0.628992 0.000000 0.000000
0.673060 0.000000 0.000000
0.715053 0.000000 0.000000
0.754360 0.000000 0.000000
0.788998 0.000000 0.000000
0.819638 0.080476 0.000000
0.847501 0.128511 0.000000
0.873411 0.165530 0.000000
0.897673 0.197482 0.000000
0.920439 0.226413 0.000000
0.941955 0.252995 0.000000
0.962432 0.278264 0.000000
0.981964 0.301946 0.000000
1.000000 0.324437 0.000000
1.000000 0.346197 0.000000
1.000000 0.367620 0.000000
0.034150 0.093660 0.069825
0.043702 0.094362 0.070771
0.049470 0.095552 0.069429
0.061158 0.096803 0.067964
0.077729 0.100740 0.062898
0.103914 0.105257 0.056031
0.131075 0.105409 0.049836
0.163394 0.105165 0.042756
0.201633 0.103670 0.033112
0.246159 0.099794 0.022004
0.296849 0.091188 0.006500
0.352697 0.075807 0.000000
0.411048 0.036622 0.000000
0.469825 0.000000 0.000000
0.526543 0.000000 0.000000
0.579644 0.000000 0.000000
0.628107 0.000000 0.000000
0.672328 0.000000 0.000000
0.715267 0.000000 0.000000
0.753964 0.000000 0.000000
0.788083 0.086763 0.000000
0.818570 0.129305 0.000000
0.846372 0.164187 0.000000
0.872282 0.194247 0.000000
0.896635 0.221134 0.000000
0.919493 0.246708 0.000000
0.941070 0.270909 0.000000
0.961608 0.293767 0.000000
0.981201 0.315587 0.000000
1.000000 0.336614 0.000000
1.000000 0.357031 0.000000
1.000000 0.377386 0.000000
0.033661 0.109560 0.076387
0.040772 0.110475 0.076570
0.049531 0.111543 0.076661
0.057862 0.113344 0.073579
0.070863 0.116365 0.071107
0.094026 0.121675 0.065278
0.129427 0.129335 0.058381
0.163088 0.130129 0.050202
0.202762 0.129946 0.037507
0.247410 0.128084 0.024689
0.298070 0.124025 0.009186
0.353674 0.116182 0.000000
0.411627 0.104280 0.000000
0.470130 0.087892 0.000000
0.526696 0.067475 0.000000
0.579706 0.039399 0.000000
0.628107 0.025849 0.000000
0.672847 0.055329 0.000000
0.716060 0.085908 0.000000
0.754269 0.115846 0.000000
0.788205 0.144717 0.000000
0.818601 0.172305 0.000000
0.859190 0.216770 0.000000
0.884123 0.242374 0.000000
0.907286 0.266423 0.000000
0.928893 0.286900 0.000000
0.949279 0.306737 0.000000
0.968688 0.325597 0.000000
0.987335 0.344060 0.000000
1.000000 0.362066 0.000000
1.000000 0.379919 0.000000
1.000000 0.397742 0.000000
0.026520 0.130739 0.083803
0.032105 0.131716 0.083925
0.041260 0.133181 0.083955
0.053010 0.135836 0.081331
0.065522 0.138338 0.077821
0.085176 0.143160 0.073762
0.116976 0.150057 0.066285
0.164340 0.161685 0.053498
0.205661 0.162448 0.041871
0.252781 0.162570 0.023743
0.305150 0.160983 0.003906
0.361273 0.156710 0.000000
0.419257 0.150393 0.000000
0.477272 0.142947 0.000000
0.532982 0.135622 0.000000
0.584558 0.131472 0.000000
0.632044 0.132815 0.000000
0.678614 0.142611 0.000000
0.721187 0.158206 0.000000
0.759091 0.177188 0.000000
0.793240 0.198825 0.000000
0.824247 0.221073 0.000000
0.852903 0.244511 0.000000
0.879545 0.267796 0.000000
0.904082 0.290715 0.000000
0.926574 0.312016 0.000000
0.947387 0.330419 0.000000
0.967041 0.347295 0.000000
0.985840 0.363714 0.000000
1.000000 0.379980 0.000000
1.000000 0.396033 0.000000
1.000000 0.412543 0.000000
0.012604 0.155428 0.092470
0.016663 0.156405 0.092561
0.024506 0.157778 0.092287
0.043732 0.160708 0.091981
0.057527 0.164157 0.084504
0.076448 0.167453 0.082887
0.104616 0.174655 0.076081
0.144839 0.182925 0.066072
0.203799 0.198367 0.042939
0.251530 0.199344 0.022889
0.304723 0.199466 0.000000
0.361975 0.198062 0.000000
0.419928 0.194980 0.000000
0.477394 0.191287 0.000000
0.532738 0.187900 0.000000
0.584009 0.186984 0.000000
0.633173 0.190524 0.000000
0.679255 0.199069 0.000000
0.720577 0.210971 0.000000
0.757839 0.225528 0.000000
0.791562 0.242313 0.000000
0.822263 0.260319 0.000000
0.850767 0.279637 0.000000
0.877317 0.299290 0.000000
0.901884 0.319066 0.000000
0.924498 0.337896 0.000000
0.945495 0.355810 0.000000
0.965301 0.371588 0.000000
0.984253 0.386114 0.000000
1.000000 0.400458 0.000000
1.000000 0.415106 0.000000
1.000000 0.429938 0.000000
0.000000 0.185458 0.103090
0.000000 0.186526 0.102876
0.000000 0.187991 0.102815
0.019318 0.190982 0.102419
0.045167 0.195163 0.097383
0.067506 0.198917 0.091157
0.093629 0.203677 0.088441
0.130587 0.212802 0.078462
0.179141 0.222110 0.064790
0.250156 0.241764 0.020356
0.304204 0.242557 0.000000
0.361700 0.242344 0.000000
0.420600 0.241581 0.000000
0.478706 0.240055 0.000000
0.533440 0.238621 0.000000
0.585901 0.239567 0.000000
0.635462 0.244266 0.000000
0.680262 0.251469 0.000000
0.720607 0.260807 0.000000
0.757168 0.272648 0.000000
0.790494 0.286107 0.000000
0.820920 0.300664 0.000000
0.849241 0.316472 0.000000
0.875669 0.333379 0.000000
0.900206 0.350134 0.000000
0.922850 0.366278 0.000000
0.943938 0.381964 0.000000
0.963867 0.397162 0.000000
0.982879 0.410956 0.000000
1.000000 0.423529 0.000000
1.000000 0.436408 0.000000
1.000000 0.449653 0.000000
0.000000 0.220676 0.115572
0.000000 0.221714 0.115572
0.000000 0.222934 0.115328
0.000000 0.225834 0.115084
0.026184 0.230442 0.114656
0.048371 0.234928 0.101656
0.084627 0.239261 0.099397
0.117922 0.246311 0.093690
0.162997 0.256535 0.080293
0.219303 0.266514 0.061158
0.302281 0.289555 0.000000
0.360540 0.289891 0.000000
0.419867 0.289586 0.000000
0.478187 0.289067 0.000000
0.536004 0.290227 0.000000
0.589593 0.292790 0.000000
0.638056 0.296971 0.000000
0.681941 0.302861 0.000000
0.721584 0.310613 0.000000
0.757382 0.319615 0.000000
0.790036 0.330205 0.000000
0.819791 0.341680 0.000000
0.847501 0.354345 0.000000
0.873503 0.367712 0.000000
0.897856 0.381567 0.000000
0.920531 0.395422 0.000000
0.941833 0.409033 0.000000
0.962005 0.422583 0.000000
0.981323 0.436011 0.000000
0.999908 0.448249 0.000000
1.000000 0.459693 0.000000
1.000000 0.471565 0.000000
0.000000 0.259403 0.130037
0.000000 0.260349 0.130220
0.000000 0.261723 0.129915
0.000000 0.264591 0.129976
0.000000 0.269017 0.129793
0.027619 0.274418 0.122011
0.070283 0.279576 0.112490
0.107301 0.285039 0.109499
0.149508 0.294072 0.099855
0.202029 0.304936 0.082521
0.265995 0.315038 0.053407
0.359411 0.340398 0.000000
0.419867 0.340581 0.000000
0.480842 0.341680 0.000000
0.538445 0.343023 0.000000
0.591028 0.345129 0.000000
0.638849 0.348394 0.000000
0.681880 0.352758 0.000000
0.720882 0.358373 0.000000
0.756344 0.365240 0.000000
0.788663 0.373419 0.000000
0.818235 0.382361 0.000000
0.845975 0.392615 0.000000
0.871946 0.403662 0.000000
0.896269 0.415106 0.000000
0.918944 0.426612 0.000000
0.940246 0.438117 0.000000
0.960418 0.449714 0.000000
0.979767 0.461433 0.000000
0.998444 0.473182 0.000000
1.000000 0.484016 0.000000
1.000000 0.494331 0.000000
0.000000 0.302098 0.146883
0.000000 0.303136 0.146944
0.000000 0.304326 0.146975
0.000000 0.307103 0.147097
0.000000 0.311437 0.147127
0.010224 0.317082 0.147494
0.037171 0.322850 0.127687
0.096712 0.328344 0.125429
0.138338 0.334478 0.122194
0.188327 0.345190 0.107301
0.247959 0.355932 0.085847
0.320348 0.367437 0.043702
0.437537 0.407233 0.000000
0.499275 0.407843 0.000000
0.556115 0.408362 0.000000
0.607446 0.409400 0.000000
0.653864 0.411353 0.000000
0.695796 0.414191 0.000000
0.732753 0.417121 0.000000
0.766323 0.421057 0.000000
0.796933 0.425849 0.000000
0.825040 0.431647 0.000000
0.851530 0.438636 0.000000
0.876493 0.446601 0.000000
0.899962 0.455207 0.000000
0.921935 0.464149 0.000000
0.942657 0.473243 0.000000
0.962341 0.482521 0.000000
0.981201 0.492012 0.000000
0.999542 0.501701 0.000000
1.000000 0.511589 0.000000
1.000000 0.520745 0.000000
0.000000 0.351263 0.167117
0.000000 0.352148 0.167178
0.000000 0.353063 0.167056
0.000000 0.355352 0.167147
0.000000 0.358923 0.167544
0.000000 0.363775 0.168063
0.030243 0.369421 0.157656
0.082429 0.375189 0.144167
0.131868 0.381231 0.141482
0.179385 0.390387 0.136202
0.239078 0.403906 0.118685
0.309056 0.416724 0.093660
0.387884 0.428138 0.040558
0.495308 0.457740 0.000000
0.554009 0.458564 0.000000
0.605402 0.458747 0.000000
0.651698 0.459113 0.000000
0.693263 0.460060 0.000000
0.730159 0.461341 0.000000
0.763729 0.463416 0.000000
0.794278 0.466285 0.000000
0.822385 0.469978 0.000000
0.848783 0.475044 0.000000
0.873747 0.481178 0.000000
0.897276 0.487984 0.000000
0.919341 0.495155 0.000000
0.940185 0.502708 0.000000
0.960021 0.510521 0.000000
0.979065 0.518547 0.000000
0.997559 0.527092 0.000000
1.000000 0.535760 0.000000
1.000000 0.544640 0.000000
0.000000 0.396521 0.187259
0.000000 0.397284 0.187411
0.000000 0.398108 0.187411
0.000000 0.400183 0.187686
0.000000 0.403265 0.188235
0.000000 0.407630 0.189090
0.052918 0.414099 0.190555
0.064210 0.421485 0.165438
0.125154 0.428351 0.163668
0.175845 0.436164 0.161349
0.229953 0.446204 0.152468
0.295384 0.458137 0.132601
0.368444 0.468849 0.105196
0.446754 0.477760 0.057404
0.545434 0.501946 0.000000
0.603113 0.505272 0.000000
0.648981 0.504265 0.000000
0.690333 0.503899 0.000000
0.727230 0.503593 0.000000
0.760830 0.504112 0.000000
0.791501 0.505547 0.000000
0.819821 0.507774 0.000000
0.846311 0.511162 0.000000
0.871366 0.515740 0.000000
0.894987 0.520989 0.000000
0.917144 0.526726 0.000000
0.938109 0.532860 0.000000
0.958068 0.539330 0.000000
0.977264 0.546197 0.000000
0.995880 0.553429 0.000000
1.000000 0.561028 0.000000
1.000000 0.568872 0.000000
0.000000 0.444221 0.210391
0.000000 0.444953 0.210513
0.000000 0.445838 0.210758
0.000000 0.448005 0.211307
0.000000 0.451118 0.212284
0.000000 0.455360 0.213657
0.015778 0.460792 0.215702
0.085847 0.467109 0.203220
0.119509 0.473762 0.187655
0.174289 0.480446 0.185702
0.226383 0.487648 0.183474
0.286137 0.497505 0.170443
0.354192 0.507286 0.149660
0.427222 0.515618 0.121431
0.502098 0.522301 0.077089
0.590265 0.541955 0.000000
0.646662 0.547509 0.000000
0.687770 0.545800 0.000000
0.724544 0.544335 0.000000
0.758114 0.543572 0.000000
0.788724 0.543572 0.000000
0.817044 0.544488 0.000000
0.843717 0.546532 0.000000
0.868864 0.549645 0.000000
0.892607 0.553582 0.000000
0.915007 0.558160 0.000000
0.936217 0.563226 0.000000
0.956481 0.568841 0.000000
0.975982 0.574853 0.000000
0.994873 0.581231 0.000000
1.000000 0.587945 0.000000
1.000000 0.594873 0.000000
0.000000 0.491707 0.235752
0.000000 0.492470 0.236179
0.000000 0.493263 0.236393
0.000000 0.495033 0.237064
0.000000 0.497688 0.238132
0.000000 0.501396 0.239811
0.000000 0.505974 0.242008
0.115175 0.511620 0.242252
0.122072 0.518273 0.216281
0.175906 0.523857 0.212589
0.229557 0.529625 0.210727
0.282902 0.535515 0.208499
0.345373 0.543603 0.190860
0.412787 0.550683 0.168978
0.482246 0.556481 0.140566
0.550896 0.561334 0.100160
0.629511 0.577478 0.000000
0.684932 0.585382 0.000000
0.722011 0.583154 0.000000
0.755764 0.581659 0.000000
0.786587 0.580835 0.000000
0.815122 0.580804 0.000000
0.841917 0.581933 0.000000
0.867277 0.584009 0.000000
0.891234 0.586847 0.000000
0.913695 0.590265 0.000000
0.935027 0.594263 0.000000
0.955383 0.598749 0.000000
0.974884 0.603723 0.000000
0.993774 0.609003 0.000000
1.000000 0.614618 0.000000
1.000000 0.620417 0.000000
0.000000 0.534386 0.261448
0.000000 0.534905 0.261631
0.000000 0.535424 0.261936
0.000000 0.536919 0.262669
0.000000 0.539025 0.263798
0.000000 0.542046 0.265415
0.000000 0.545800 0.267613
0.125216 0.550225 0.270542
0.153628 0.555779 0.256443
0.179263 0.561608 0.238865
0.233433 0.566400 0.237522
0.286137 0.571435 0.235752
0.340887 0.576867 0.230106
0.403052 0.583307 0.211948
0.467903 0.588678 0.189853
0.532433 0.593133 0.162142
0.594903 0.597131 0.125734
0.665370 0.610468 0.044099
0.719234 0.619867 0.000000
0.752865 0.617487 0.000000
0.783688 0.615686 0.000000
0.812192 0.614771 0.000000
0.839109 0.615015 0.000000
0.864622 0.616297 0.000000
0.888701 0.618219 0.000000
0.911437 0.620752 0.000000
0.933013 0.623774 0.000000
0.953491 0.627466 0.000000
0.973205 0.631556 0.000000
0.992218 0.636133 0.000000
1.000000 0.640986 0.000000
1.000000 0.646113 0.000000
0.000000 0.573999 0.287907
0.000000 0.574609 0.288365
0.000000 0.584833 0.295781
0.000000 0.585870 0.296513
0.000000 0.587549 0.297673
0.000000 0.589654 0.299138
0.058656 0.592279 0.301305
0.145907 0.595483 0.303899
0.197971 0.599451 0.302739
0.203861 0.605035 0.276982
0.249485 0.609094 0.271305
0.301213 0.612879 0.269932
0.352544 0.616449 0.267979
0.407263 0.620844 0.258183
0.466682 0.625452 0.239567
0.526513 0.629297 0.217197
0.585077 0.632593 0.190341
0.641474 0.635462 0.157107
0.703090 0.645411 0.105592
0.754269 0.655360 0.003937
0.784298 0.652338 0.000000
0.812406 0.650416 0.000000
0.839048 0.649592 0.000000
0.864195 0.649775 0.000000
0.887785 0.650507 0.000000
0.910124 0.651789 0.000000
0.931395 0.653559 0.000000
0.951812 0.655970 0.000000
0.971435 0.659052 0.000000
0.990478 0.662806 0.000000
1.000000 0.666957 0.000000
1.000000 0.671382 0.000000
0.000000 0.613581 0.317052
0.000000 0.615198 0.318303
0.000000 0.616846 0.319615
0.000000 0.618891 0.321294
0.000000 0.621118 0.323186
0.000000 0.623377 0.325170
0.084565 0.625727 0.327367
0.160220 0.628351 0.330083
0.219516 0.631464 0.333593
0.239170 0.636103 0.318212
0.258854 0.640986 0.299046
0.309117 0.644129 0.297948
0.358892 0.647120 0.296605
0.407965 0.649897 0.294682
0.461341 0.653498 0.281193
0.516472 0.656825 0.262486
0.571221 0.659724 0.240757
0.624689 0.662287 0.215091
0.676356 0.664729 0.184390
0.731594 0.672602 0.142672
0.781094 0.683497 0.096254
0.809384 0.681147 0.071077
0.836149 0.679896 0.001587
0.861418 0.679561 0.000000
0.885222 0.679774 0.000000
0.907683 0.680568 0.000000
0.929107 0.681788 0.000000
0.949615 0.683650 0.000000
0.969451 0.686030 0.000000
0.988769 0.688991 0.000000
1.000000 0.692592 0.000000
1.000000 0.696437 0.000000
0.000000 0.647944 0.344152
0.000000 0.649378 0.345403
0.000000 0.650874 0.346746
0.000000 0.652613 0.348333
0.000000 0.654536 0.350286
0.000000 0.656306 0.352209
0.113466 0.658167 0.354559
0.179324 0.660273 0.357275
0.235386 0.662684 0.360601
0.276768 0.665797 0.358160
0.282506 0.670802 0.334081
0.320806 0.673976 0.327062
0.368566 0.676204 0.326116
0.415595 0.678370 0.324926
0.461830 0.680354 0.322332
0.511864 0.683314 0.306188
0.562371 0.685878 0.287694
0.612360 0.688106 0.266697
0.661372 0.690211 0.242435
0.708827 0.692378 0.214084
0.758328 0.698543 0.178408
0.806638 0.710658 0.140902
0.833494 0.709041 0.125673
0.858854 0.708217 0.106477
0.882658 0.708003 0.079866
0.905180 0.708248 0.004059
0.926604 0.708949 0.000000
0.947143 0.710262 0.000000
0.967010 0.712184 0.000000
0.986389 0.714626 0.000000
1.000000 0.717494 0.000000
1.000000 0.720851 0.000000
0.000000 0.680507 0.372015
0.000000 0.681666 0.373114
0.000000 0.682948 0.374426
0.000000 0.684352 0.376043
0.000000 0.685817 0.377874
0.067140 0.687190 0.379767
0.145998 0.688563 0.382025
0.203006 0.690028 0.384771
0.255467 0.691707 0.388220
0.306767 0.693507 0.392309
0.321477 0.697322 0.376349
0.336065 0.701350 0.356939
0.381018 0.703120 0.356268
0.425574 0.704738 0.355474
0.468971 0.706325 0.354528
0.512230 0.708339 0.348913
0.558648 0.710903 0.333532
0.605249 0.713344 0.316045
0.651606 0.715633 0.296452
0.696986 0.717983 0.274296
0.741054 0.720485 0.248600
0.786313 0.726009 0.217624
0.833494 0.739284 0.184939
0.858946 0.738338 0.174228
0.882841 0.737819 0.161471
0.905303 0.737758 0.145754
0.926635 0.738094 0.125887
0.947051 0.739010 0.098207
0.966827 0.740414 0.037507
0.986053 0.742397 0.000000
1.000000 0.744778 0.000000
1.000000 0.747829 0.000000
0.000000 0.713985 0.403449
0.000000 0.714565 0.404211
0.000000 0.715053 0.404944
0.000000 0.715724 0.405982
0.047150 0.716487 0.407477
0.129793 0.717281 0.409277
0.184298 0.718135 0.411536
0.234012 0.719142 0.414343
0.282811 0.720363 0.418006
0.331426 0.721614 0.422461
0.365667 0.723842 0.419898
0.371008 0.728084 0.398199
0.401373 0.730343 0.390387
0.442512 0.731533 0.389990
0.482521 0.732692 0.389288
0.521386 0.733944 0.388647
0.561547 0.735805 0.379980
0.603723 0.738003 0.364752
0.646235 0.740139 0.347906
0.688533 0.742245 0.328893
0.730007 0.744381 0.307500
0.770291 0.746639 0.282719
0.811063 0.750881 0.253971
0.856413 0.764431 0.222751
0.880156 0.763485 0.213535
0.902586 0.763058 0.203098
0.923919 0.763119 0.190799
0.944396 0.763699 0.176211
0.964141 0.764858 0.157626
0.983368 0.766506 0.132601
1.000000 0.768795 0.094728
1.000000 0.771969 0.000000
0.000000 0.741268 0.431220
0.000000 0.741726 0.431891
0.000000 0.742214 0.432715
0.081971 0.742702 0.433722
0.132692 0.743160 0.435218
0.177493 0.743587 0.436957
0.221195 0.744106 0.439246
0.265110 0.744564 0.442115
0.310124 0.745174 0.445808
0.355291 0.745876 0.450355
0.401129 0.746670 0.455848
0.411444 0.749996 0.440711
0.421271 0.753567 0.422126
0.459052 0.754604 0.422034
0.495888 0.755703 0.421912
0.532067 0.756924 0.421668
0.567376 0.758236 0.421454
0.605035 0.760372 0.409888
0.643793 0.762600 0.395483
0.682918 0.764828 0.379400
0.721889 0.767025 0.361303
0.760189 0.769314 0.340948
0.797513 0.771725 0.317876
0.834714 0.775235 0.291112
0.876829 0.787289 0.257694
0.899229 0.786557 0.249729
0.920592 0.786374 0.241123
0.941070 0.786709 0.231022
0.960815 0.787655 0.219242
0.980011 0.789212 0.204929
0.998810 0.791592 0.187015
1.000000 0.795132 0.165164
0.118044 0.768978 0.461738
0.129244 0.769436 0.462593
0.141756 0.769741 0.463203
0.164431 0.769955 0.464210
0.194278 0.770077 0.465522
0.227787 0.770108 0.467170
0.264103 0.770138 0.469398
0.302708 0.770138 0.472053
0.343175 0.770169 0.475593
0.384466 0.770260 0.479957
0.426307 0.770382 0.485267
0.452918 0.771847 0.482307
0.457069 0.775326 0.463508
0.479042 0.777188 0.454932
0.512169 0.777859 0.454597
0.544915 0.778653 0.454261
0.577203 0.779568 0.453773
0.609277 0.780880 0.451942
0.643977 0.783047 0.439277
0.679713 0.785306 0.425360
0.715785 0.787655 0.410071
0.751675 0.789914 0.392889
0.786954 0.792111 0.373358
0.821286 0.794186 0.350896
0.855009 0.796689 0.324895
0.896635 0.810025 0.295171
0.917967 0.809537 0.287938
0.938231 0.809506 0.280522
0.957824 0.810208 0.272038
0.976867 0.811612 0.262547
0.995544 0.813993 0.252110
1.000000 0.817716 0.240726
0.185122 0.792569 0.488716
0.192630 0.792905 0.489509
0.201328 0.793179 0.490242
0.218387 0.793301 0.491218
0.241947 0.793301 0.492592
0.270085 0.793240 0.494453
0.302434 0.793149 0.496803
0.337255 0.792996 0.499733
0.374487 0.792874 0.503563
0.413031 0.792813 0.508232
0.451759 0.792874 0.513939
0.490852 0.793027 0.520775
0.497230 0.796048 0.506371
0.503166 0.799313 0.489021
0.533227 0.800076 0.489204
0.562921 0.800870 0.489174
0.592554 0.801785 0.489265
0.621820 0.802945 0.489509
0.651514 0.804623 0.485176
0.683223 0.806851 0.473182
0.715663 0.809079 0.459998
0.748470 0.811276 0.445258
0.781155 0.813413 0.428565
0.813413 0.815457 0.409674
0.845060 0.817411 0.388067
0.875975 0.819333 0.363134
0.915496 0.832242 0.335027
0.936095 0.832212 0.327764
0.955505 0.832761 0.322301
0.974426 0.834104 0.316228
0.992950 0.836545 0.310582
1.000000 0.840391 0.305211
0.243473 0.816037 0.517082
0.249241 0.816251 0.517754
0.255863 0.816342 0.518273
0.269291 0.816251 0.519188
0.288884 0.816068 0.520470
0.313268 0.815763 0.522271
0.341497 0.815427 0.524620
0.372961 0.815091 0.527672
0.406867 0.814786 0.531609
0.441932 0.814542 0.536492
0.478157 0.814359 0.542412
0.514733 0.814359 0.549523
0.535851 0.815824 0.547265
0.539910 0.818997 0.531640
0.555962 0.820920 0.523461
0.582696 0.821653 0.523796
0.609430 0.822416 0.524071
0.636011 0.823453 0.524468
0.662409 0.824704 0.525139
0.689662 0.826658 0.518303
0.718471 0.828855 0.506737
0.747951 0.831052 0.493996
0.777737 0.833127 0.479683
0.807523 0.835142 0.463600
0.837156 0.837064 0.445197
0.866484 0.838926 0.424262
0.895445 0.840757 0.400458
0.932006 0.852384 0.373663
0.952453 0.853330 0.366155
0.971221 0.854643 0.362768
0.989593 0.857023 0.360052
1.000000 0.860929 0.358770
0.294804 0.837888 0.544732
0.299474 0.837980 0.545312
0.305241 0.838010 0.545830
0.316686 0.837919 0.546807
0.334081 0.837766 0.548333
0.356115 0.837552 0.550530
0.382361 0.837430 0.553582
0.411658 0.837369 0.557488
0.443671 0.837308 0.562432
0.477058 0.837400 0.568383
0.511528 0.837461 0.575372
0.546380 0.837552 0.583551
0.580713 0.837705 0.592706
0.585046 0.840818 0.580285
0.589380 0.844022 0.565606
0.612451 0.844846 0.566033
0.635981 0.845640 0.566705
0.659358 0.846616 0.567407
0.682826 0.847776 0.568414
0.706111 0.849149 0.569543
0.730526 0.851255 0.560357
0.755978 0.853422 0.549462
0.782101 0.855497 0.536980
0.808713 0.857450 0.523033
0.835569 0.859312 0.507317
0.862669 0.861082 0.489387
0.889830 0.862852 0.469062
0.916716 0.864591 0.446082
0.950042 0.874815 0.421118
0.970245 0.876860 0.413794
0.988190 0.879088 0.413611
1.000000 0.882811 0.415229
0.353338 0.861601 0.577295
0.357092 0.861631 0.577813
0.361791 0.861540 0.578241
0.371344 0.861326 0.579187
0.386175 0.860960 0.580652
0.405097 0.860533 0.582788
0.427771 0.860105 0.585687
0.453498 0.859617 0.589380
0.481666 0.859190 0.594018
0.511803 0.858762 0.599756
0.542901 0.858335 0.606409
0.574578 0.857969 0.614252
0.605432 0.857755 0.622644
0.621057 0.859159 0.620600
