cubelut/LC5.cube
# Created by Adobe Lightroom plugin Export LUT (1.18.0)
# www.johnrellis.com/lightroom/exportlut.htm
# Preset: LC5
# Color profile: /Library/Application Support/Adobe/Color/Profiles/Recommended/AdobeRGB1998.icc
LUT_3D_SIZE 8
DOMAIN_MIN 0.000000 0.000000 0.000000
DOMAIN_MAX 0.903226 0.903226 0.903226
0.032685 0.058137 0.051911
0.085328 0.064240 0.051301
0.200748 0.051179 0.040467
0.414191 0.000000 0.000000
0.632959 0.000000 0.000000
0.794247 0.000000 0.000000
0.901793 0.171237 0.000000
0.984161 0.287297 0.000000
0.034150 0.093660 0.069825
0.077729 0.100740 0.062898
0.201633 0.103670 0.033112
0.411048 0.036622 0.000000
0.628107 0.000000 0.000000
0.788083 0.086763 0.000000
0.896635 0.221134 0.000000
0.981201 0.315587 0.000000
0.000000 0.185458 0.103090
0.045167 0.195163 0.097383
0.179141 0.222110 0.064790
0.420600 0.241581 0.000000
0.635462 0.244266 0.000000
0.790494 0.286107 0.000000
0.900206 0.350134 0.000000
0.982879 0.410956 0.000000
0.000000 0.351263 0.167117
0.000000 0.358923 0.167544
0.131868 0.381231 0.141482
0.387884 0.428138 0.040558
0.651698 0.459113 0.000000
0.794278 0.466285 0.000000
0.897276 0.487984 0.000000
0.979065 0.518547 0.000000
0.000000 0.534386 0.261448
0.000000 0.539025 0.263798
0.153628 0.555779 0.256443
0.340887 0.576867 0.230106
0.594903 0.597131 0.125734
0.783688 0.615686 0.000000
0.888701 0.618219 0.000000
0.973205 0.631556 0.000000
0.000000 0.680507 0.372015
0.000000 0.685817 0.377874
0.255467 0.691707 0.388220
0.381018 0.703120 0.356268
0.558648 0.710903 0.333532
0.741054 0.720485 0.248600
0.882841 0.737819 0.161471
0.966827 0.740414 0.037507
0.185122 0.792569 0.488716
0.241947 0.793301 0.492592
0.374487 0.792874 0.503563
0.497230 0.796048 0.506371
0.592554 0.801785 0.489265
0.715663 0.809079 0.459998
0.845060 0.817411 0.388067
0.955505 0.832761 0.322301
0.400488 0.881651 0.605798
0.429755 0.880888 0.609369
0.517113 0.878904 0.623804
0.630549 0.877470 0.652430
0.673243 0.880888 0.630091
0.750240 0.885985 0.636164
0.834348 0.894591 0.605951
0.928038 0.902037 0.543267
0.029938 0.073213 0.088960
0.081178 0.070710 0.086427
0.194888 0.069276 0.085328
0.403418 0.000000 0.069368
0.623224 0.000000 0.000000
0.784176 0.000000 0.000000
0.894316 0.180484 0.000000
0.979797 0.294591 0.000000
0.033173 0.101350 0.095857
0.079896 0.104128 0.099092
0.197055 0.111727 0.092836
0.404639 0.076539 0.070893
0.622095 0.000000 0.000000
0.781460 0.096834 0.000000
0.890501 0.222080 0.000000
0.976806 0.320806 0.000000
0.000000 0.187381 0.129000
0.069947 0.198581 0.136355
0.183688 0.223972 0.113375
0.414160 0.241062 0.069032
0.627344 0.244755 0.000000
0.781857 0.283543 0.000000
0.891051 0.343053 0.000000
0.977447 0.405676 0.000000
0.000000 0.349126 0.194003
0.000000 0.357885 0.198764
0.153109 0.382361 0.183780
0.381689 0.419074 0.129488
0.632929 0.445167 0.000000
0.780392 0.455756 0.000000
0.887419 0.480201 0.000000
0.973541 0.513817 0.000000
0.000000 0.533043 0.285618
0.000000 0.536797 0.287541
0.200534 0.550927 0.296818
0.345769 0.569177 0.263401
0.586236 0.588556 0.180087
0.775570 0.609369 0.064546
0.883085 0.614527 0.000000
0.969329 0.629389 0.000000
0.000000 0.675990 0.386145
0.000000 0.678248 0.389105
0.258793 0.684535 0.398871
0.387396 0.697139 0.374121
0.558770 0.706722 0.357733
0.738674 0.718288 0.284062
0.879332 0.735836 0.214633
0.963653 0.738766 0.148623
0.188632 0.787472 0.494362
0.239628 0.787076 0.496468
0.370581 0.787472 0.507378
0.508171 0.790768 0.520806
0.594812 0.798703 0.500877
0.714260 0.806180 0.474800
0.841337 0.814176 0.406012
0.951629 0.829709 0.344579
0.395605 0.879210 0.608331
0.425666 0.878813 0.612329
0.513481 0.877134 0.626429
0.627619 0.875914 0.654566
0.680507 0.882200 0.642176
0.753475 0.886381 0.645991
0.834226 0.893858 0.615625
0.926482 0.900877 0.554406
0.000000 0.101289 0.177493
0.018372 0.086458 0.179568
0.189303 0.082887 0.174746
0.401984 0.000000 0.173892
0.623835 0.000000 0.176608
0.784176 0.092622 0.166018
0.894499 0.227420 0.118715
0.980865 0.316167 0.000000
0.000000 0.148043 0.187808
0.056764 0.136233 0.193179
0.191745 0.122866 0.187778
0.403479 0.085817 0.187747
0.622675 0.051362 0.185672
0.781033 0.165652 0.168704
0.891508 0.261967 0.120974
0.978912 0.340642 0.000000
0.000000 0.220737 0.215763
0.036561 0.224125 0.218784
0.195560 0.233036 0.228092
0.412085 0.247715 0.218753
0.628412 0.266575 0.205631
0.780697 0.310765 0.182071
0.889311 0.366949 0.139193
0.976287 0.419806 0.000000
0.000000 0.356542 0.264958
0.000000 0.365301 0.271397
0.210086 0.392309 0.290776
0.398291 0.425574 0.264347
0.632258 0.449866 0.230625
0.778653 0.467475 0.208103
0.886046 0.495399 0.176669
0.972412 0.526513 0.093172
0.000000 0.533684 0.344091
0.000000 0.538842 0.349828
0.236728 0.553033 0.366125
0.389563 0.573083 0.356725
0.595148 0.592523 0.310796
0.772061 0.611627 0.267491
0.879637 0.619776 0.230716
0.966339 0.636225 0.187686
0.000000 0.675288 0.433051
0.104128 0.677455 0.437781
0.293706 0.682673 0.449805
0.442267 0.692226 0.451026
0.572595 0.703365 0.436408
0.736294 0.716091 0.382483
0.873014 0.735012 0.340734
0.959747 0.741756 0.304509
0.225711 0.786893 0.529381
0.272892 0.786648 0.532128
0.390784 0.786252 0.541405
0.533104 0.787167 0.562097
0.613367 0.795834 0.547143
0.720485 0.804807 0.532982
0.840848 0.815274 0.479866
0.948974 0.832517 0.436408
0.398810 0.878355 0.628748
0.423743 0.877592 0.630610
0.509941 0.875608 0.642603
0.625238 0.875151 0.669154
0.694087 0.879942 0.670649
0.759884 0.885740 0.671717
0.836179 0.893858 0.650172
0.925414 0.901854 0.599908
0.000000 0.147402 0.316838
0.000000 0.124483 0.319707
0.161532 0.101869 0.321660
0.383398 0.066560 0.311376
0.606653 0.000000 0.313939
0.773495 0.105959 0.325994
0.882567 0.284428 0.342657
0.971344 0.361730 0.310582
0.000000 0.205631 0.330205
0.000000 0.187289 0.332738
0.162570 0.143893 0.333196
0.387488 0.131502 0.321996
0.608606 0.121920 0.325994
0.771878 0.186435 0.338048
0.880613 0.313878 0.346014
0.970428 0.379614 0.310643
0.000000 0.298344 0.348577
0.000000 0.301793 0.351171
0.194827 0.287236 0.360204
0.397742 0.263828 0.354559
0.615290 0.285008 0.363958
0.770901 0.347112 0.375525
0.881987 0.409094 0.367071
0.970214 0.449714 0.325963
0.000000 0.411322 0.384192
0.000000 0.413672 0.386236
0.215213 0.419379 0.393225
0.412146 0.427497 0.405951
0.617151 0.450599 0.400977
0.765621 0.479835 0.395941
0.875792 0.513054 0.384283
0.965148 0.543481 0.352270
0.000000 0.539178 0.427039
0.000000 0.541802 0.430854
0.257908 0.552575 0.444709
0.446387 0.571191 0.467414
0.600610 0.593774 0.447883
0.763516 0.612787 0.428321
0.871641 0.627619 0.416724
0.959258 0.645686 0.393225
0.021820 0.676326 0.500816
0.164126 0.680171 0.506401
0.323857 0.683711 0.516289
0.486397 0.690455 0.533623
0.601648 0.703395 0.532769
0.737179 0.717067 0.501030
0.865537 0.736110 0.477424
0.953063 0.744991 0.451209
0.259281 0.784421 0.578393
0.301335 0.784848 0.581292
0.410803 0.785611 0.590417
0.541650 0.787381 0.606989
0.644526 0.794553 0.614679
0.732296 0.804685 0.611566
0.839292 0.815946 0.571740
0.942901 0.833829 0.541772
0.420264 0.877440 0.667109
0.443671 0.877256 0.669215
0.511681 0.876219 0.675349
0.613275 0.875059 0.690944
0.717739 0.875975 0.717372
0.767880 0.884825 0.708003
0.838346 0.893736 0.696773
0.923766 0.902861 0.657404
0.000000 0.217227 0.461891
0.000000 0.195895 0.463264
0.000000 0.156283 0.463416
0.369207 0.084382 0.461128
0.583825 0.111452 0.455421
0.748836 0.211734 0.459205
0.867308 0.319677 0.480232
0.955108 0.442115 0.518242
0.000000 0.277317 0.470436
0.000000 0.255711 0.472023
0.000000 0.194034 0.472236
0.374273 0.139590 0.468360
0.584649 0.174289 0.461830
0.748653 0.255161 0.467109
0.866545 0.349676 0.488014
0.953216 0.467872 0.530022
0.000000 0.394873 0.482979
0.000000 0.389563 0.485512
0.188388 0.350286 0.492134
0.376349 0.278477 0.490242
0.586175 0.305608 0.481788
0.745937 0.362066 0.490059
0.863096 0.430915 0.511345
0.950744 0.510552 0.535760
0.000000 0.484840 0.506523
0.000000 0.486305 0.507744
0.244480 0.490272 0.512596
0.423682 0.475013 0.521660
0.591943 0.454383 0.516106
0.747219 0.490242 0.530205
0.859739 0.539727 0.548791
0.952026 0.563928 0.529442
0.000000 0.584588 0.536858
0.003418 0.585046 0.538109
0.273198 0.584680 0.541558
0.449042 0.582727 0.548272
0.598657 0.586023 0.559106
0.746700 0.606317 0.558862
0.857908 0.629419 0.558190
0.948669 0.649683 0.543481
0.132387 0.672633 0.565606
0.198611 0.673548 0.568109
0.335851 0.675288 0.575769
0.484108 0.680201 0.589868
0.619715 0.691371 0.608301
0.731807 0.711604 0.600366
0.855070 0.732631 0.591150
0.944030 0.745296 0.579248
0.295659 0.779202 0.634485
0.329076 0.779019 0.635889
0.422583 0.779294 0.641596
0.539178 0.781491 0.652796
0.653803 0.787167 0.669398
0.738460 0.800473 0.674983
0.835264 0.813840 0.651331
0.935607 0.831815 0.632471
0.435248 0.872282 0.708827
0.455268 0.871885 0.709957
0.516503 0.871092 0.714229
0.603113 0.872862 0.724086
0.693965 0.874846 0.736019
0.772244 0.882383 0.745510
0.838712 0.892149 0.745449
0.920806 0.902373 0.713680
0.000000 0.313725 0.598566
0.000000 0.293339 0.599084
0.000000 0.222995 0.598901
0.331029 0.188083 0.596765
0.578393 0.118776 0.596368
0.729061 0.242954 0.583917
0.845914 0.376928 0.589441
0.940063 0.479347 0.622309
0.000000 0.362676 0.600397
0.000000 0.342931 0.600641
0.000000 0.265629 0.602533
0.331853 0.225681 0.599023
0.576837 0.173495 0.597498
0.727260 0.277409 0.586267
0.844511 0.397955 0.593347
0.938933 0.493477 0.626123
0.000000 0.477211 0.612940
0.000000 0.469642 0.613733
0.202823 0.425910 0.616144
0.342687 0.339055 0.614984
0.578820 0.297917 0.608667
0.726711 0.376623 0.599695
0.842924 0.465644 0.610529
0.936889 0.541741 0.641993
0.000000 0.570489 0.626642
0.136721 0.570123 0.626703
0.300603 0.570001 0.628992
0.437385 0.527459 0.636072
0.578424 0.454200 0.631281
0.728511 0.498451 0.624750
0.842771 0.557519 0.640925
0.935882 0.607935 0.666499
0.118837 0.641901 0.643610
0.189090 0.641688 0.644221
0.328313 0.640223 0.646357
0.474464 0.637171 0.650263
0.604456 0.620386 0.655756
0.725612 0.606195 0.650935
0.841764 0.641260 0.670619
0.933837 0.677852 0.690639
0.208743 0.713802 0.665827
0.255680 0.713710 0.667048
0.368627 0.711116 0.668879
0.497353 0.706874 0.672175
0.619348 0.702235 0.677058
0.729213 0.706172 0.688533
0.844358 0.727138 0.693812
0.935515 0.744839 0.692256
0.336553 0.780545 0.692226
0.365576 0.780789 0.694057
0.445624 0.780301 0.698634
0.548425 0.780453 0.706966
0.650813 0.783444 0.719020
0.746883 0.794888 0.734676
0.832914 0.812924 0.728786
0.930968 0.830503 0.719844
0.460334 0.869291 0.756985
0.477302 0.868803 0.757839
0.530541 0.867826 0.761013
0.604639 0.868803 0.766659
0.683864 0.871794 0.773556
0.769528 0.877958 0.785641
0.841581 0.890593 0.795895
0.918761 0.902861 0.775540
0.000000 0.429480 0.720211
0.000000 0.412299 0.720668
0.000000 0.342779 0.721828
0.309880 0.288884 0.719203
0.559472 0.224063 0.711788
0.731044 0.241855 0.714351
0.830137 0.383246 0.693751
0.921477 0.520623 0.708736
0.000000 0.467384 0.721309
0.000000 0.451179 0.721736
0.000000 0.386328 0.722866
0.313085 0.318395 0.720638
0.558343 0.261326 0.713466
0.729824 0.274296 0.715358
0.829191 0.403449 0.695766
0.920745 0.532341 0.711452
0.158846 0.556329 0.725307
0.210178 0.550042 0.725734
0.263767 0.508629 0.726711
0.325536 0.409979 0.727535
0.555535 0.366369 0.720363
0.726345 0.364263 0.719783
0.827359 0.466011 0.704219
0.919524 0.570916 0.722103
0.231022 0.647028 0.731655
0.267247 0.642267 0.731746
0.365148 0.625177 0.732998
0.459419 0.580438 0.734890
0.552117 0.498695 0.732235
0.719142 0.473060 0.727138
0.824735 0.550195 0.718746
0.918578 0.624018 0.738186
0.276738 0.702083 0.743160
0.308995 0.701228 0.743282
0.398108 0.698238 0.743740
0.507713 0.692775 0.744533
0.607324 0.654414 0.746609
0.706508 0.588251 0.739467
0.822446 0.635035 0.737911
0.918791 0.684474 0.758694
0.331151 0.759487 0.758724
0.357122 0.758633 0.758877
0.432563 0.755795 0.759548
0.530419 0.751064 0.760678
0.631678 0.745113 0.762417
0.725643 0.728603 0.765988
0.822843 0.719265 0.763699
0.920836 0.753445 0.785855
0.390692 0.815305 0.777523
0.411261 0.814572 0.777768
0.473610 0.811917 0.778561
0.558953 0.807858 0.780179
0.649653 0.803555 0.782925
0.738155 0.800809 0.787778
0.826596 0.805295 0.798306
0.923888 0.825498 0.804929
0.479622 0.869688 0.801053
0.494911 0.869474 0.801846
0.542443 0.869078 0.804685
0.609033 0.869139 0.809445
0.683436 0.870634 0.816373
0.761440 0.874693 0.826200
0.843015 0.886015 0.840238
0.917205 0.903380 0.837797
0.213138 0.565179 0.835203
0.221469 0.552789 0.835569
0.247318 0.503044 0.836728
0.367071 0.426673 0.836912
0.575799 0.386297 0.832303
0.737758 0.324834 0.825711
0.854246 0.404852 0.829404
0.917601 0.531914 0.803922
0.268376 0.588495 0.835111
0.273838 0.577050 0.835477
0.291264 0.531334 0.836606
0.370672 0.448524 0.837461
0.575067 0.409522 0.832914
0.735744 0.351110 0.826383
0.852995 0.421424 0.829740
0.916960 0.542596 0.805142
0.377447 0.652461 0.835721
0.393866 0.646571 0.835874
0.401221 0.611536 0.836698
0.415442 0.531640 0.838773
0.572747 0.480018 0.835477
0.729030 0.428717 0.829068
0.848905 0.472633 0.831266
0.915312 0.576745 0.809812
0.384680 0.715389 0.838468
0.407752 0.711818 0.838590
0.477485 0.698817 0.838865
0.530419 0.659480 0.839750
0.570520 0.575311 0.840391
0.717556 0.531548 0.834318
0.841581 0.543206 0.834195
0.913298 0.625422 0.817777
0.422095 0.774563 0.844297
0.439185 0.773617 0.844266
0.491737 0.769894 0.843900
0.559350 0.750729 0.844022
0.637537 0.709895 0.844877
0.703120 0.637537 0.842496
0.830076 0.616754 0.838560
0.911223 0.682582 0.829099
0.458106 0.819150 0.853849
0.472816 0.818235 0.853788
0.518791 0.815091 0.853605
0.583612 0.809415 0.853300
0.657130 0.800839 0.852873
0.730220 0.762997 0.853574
0.812711 0.700679 0.847257
0.909483 0.748013 0.844846
0.500359 0.864622 0.865782
0.512383 0.863920 0.865782
0.550408 0.861448 0.865873
0.607080 0.857328 0.866056
0.673701 0.851682 0.866453
0.746456 0.844511 0.867002
0.821866 0.825315 0.867979
0.908721 0.819883 0.866178
0.543908 0.909026 0.879850
0.553491 0.908507 0.879942
0.584833 0.906798 0.880278
0.633783 0.904112 0.881071
0.694301 0.900786 0.882353
0.762478 0.897307 0.884398
0.835935 0.894682 0.887999
0.913054 0.899535 0.897856
