cubelut/LC5.cube
# Created by Adobe Lightroom plugin Export LUT (1.18.0)
# www.johnrellis.com/lightroom/exportlut.htm
# Preset: LC5
# Color profile: /Library/Application Support/Adobe/Color/Profiles/Recommended/AdobeRGB1998.icc
LUT_3D_SIZE 5
DOMAIN_MIN 0.000000 0.000000 0.000000
DOMAIN_MAX 0.903226 0.903226 0.903226
0.032685 0.058137 0.051911
0.162142 0.062287 0.045899
0.531182 0.000000 0.000000
0.825040 0.000000 0.000000
0.984161 0.287297 0.000000
0.012604 0.155428 0.092470
0.144839 0.182925 0.066072
0.532738 0.187900 0.000000
0.822263 0.260319 0.000000
0.984253 0.386114 0.000000
0.000000 0.444221 0.210391
0.085847 0.467109 0.203220
0.502098 0.522301 0.077089
0.817044 0.544488 0.000000
0.975982 0.574853 0.000000
0.000000 0.713985 0.403449
0.234012 0.719142 0.414343
0.482521 0.732692 0.389288
0.770291 0.746639 0.282719
0.964141 0.764858 0.157626
0.400488 0.881651 0.605798
0.491005 0.879454 0.618860
0.651972 0.876890 0.642237
0.769772 0.887938 0.633692
0.928038 0.902037 0.543267
0.000000 0.092531 0.147768
0.152468 0.081483 0.145724
0.519615 0.000000 0.144533
0.812985 0.096956 0.091310
0.979614 0.304845 0.000000
0.000000 0.182437 0.178286
0.156008 0.191928 0.188174
0.524071 0.203586 0.165774
0.811307 0.276371 0.104463
0.977783 0.390417 0.000000
0.000000 0.446418 0.283085
0.163607 0.467536 0.300725
0.498116 0.512627 0.247501
0.805356 0.541527 0.165499
0.971435 0.580194 0.000000
0.000000 0.711421 0.449653
0.275120 0.715938 0.462074
0.511345 0.729091 0.454688
0.767849 0.744900 0.382177
0.959045 0.765896 0.306035
0.402502 0.880369 0.624964
0.491188 0.878233 0.636530
0.679835 0.876066 0.680873
0.776761 0.888212 0.666346
0.926909 0.902983 0.590234
0.000000 0.179782 0.391363
0.000000 0.133944 0.393866
0.489601 0.066468 0.384283
0.794644 0.195865 0.400092
0.963073 0.408270 0.431006
0.000000 0.326085 0.412665
0.128450 0.288243 0.420691
0.498756 0.244511 0.412482
0.791958 0.329137 0.429999
0.962402 0.457588 0.433478
0.000000 0.504631 0.464424
0.183444 0.507134 0.468818
0.513939 0.512749 0.486122
0.785641 0.553979 0.483131
0.956970 0.599268 0.456764
0.154543 0.704189 0.553307
0.312749 0.706081 0.560449
0.569482 0.716518 0.588586
0.763363 0.741939 0.568261
0.945708 0.767086 0.530297
0.425025 0.874266 0.686061
0.494209 0.873930 0.692164
0.654902 0.874357 0.713039
0.786007 0.885252 0.727260
0.921721 0.901915 0.683467
0.000000 0.338994 0.628473
0.000000 0.268467 0.630518
0.459449 0.168734 0.624537
0.756100 0.276585 0.611353
0.934936 0.487892 0.644556
0.000000 0.467109 0.638087
0.127138 0.422187 0.640253
0.460151 0.296696 0.635248
0.753048 0.369451 0.620966
0.931945 0.531670 0.656580
0.116823 0.619532 0.657740
0.287358 0.618372 0.659297
0.522728 0.580316 0.665614
0.749233 0.557458 0.655695
0.929870 0.640589 0.693904
0.263951 0.741543 0.695857
0.367041 0.737911 0.696254
0.569238 0.730282 0.701381
0.754849 0.731563 0.716670
0.931670 0.764187 0.720943
0.464881 0.869261 0.767788
0.518578 0.868376 0.771206
0.645502 0.869688 0.781765
0.789029 0.880095 0.799802
0.918090 0.902739 0.790585
0.213138 0.565179 0.835203
0.239414 0.520256 0.836301
0.479225 0.408637 0.834836
0.770901 0.330907 0.825650
0.917601 0.531914 0.803922
0.358740 0.635920 0.835447
0.368048 0.601404 0.836332
0.482124 0.479133 0.837125
0.765866 0.395361 0.826810
0.915862 0.566491 0.808377
0.405615 0.752132 0.840543
0.457282 0.739101 0.840787
0.587396 0.684901 0.841886
0.743862 0.572320 0.835874
0.912230 0.652827 0.822904
0.468513 0.830625 0.856718
0.513329 0.827756 0.856596
0.624598 0.817960 0.856260
0.753079 0.777584 0.856504
0.909117 0.765255 0.849516
0.543908 0.909026 0.879850
0.575036 0.907317 0.880156
0.662837 0.902525 0.881651
0.780240 0.896544 0.885100
0.913054 0.899535 0.897856
