cubelut/LC6.cube
# Created by Adobe Lightroom plugin Export LUT (1.18.0)
# www.johnrellis.com/lightroom/exportlut.htm
# Preset: LC11
# Color profile: /Library/Application Support/Adobe/Color/Profiles/Recommended/AdobeRGB1998.icc
LUT_3D_SIZE 8
DOMAIN_MIN 0.000000 0.000000 0.000000
DOMAIN_MAX 0.903226 0.903226 0.903226
0.068544 0.077424 0.083894
0.107759 0.083009 0.089387
0.259251 0.076783 0.098207
0.475471 0.000000 0.118074
0.670741 0.104036 0.171969
0.818448 0.241611 0.258549
0.943328 0.377386 0.363073
1.000000 0.506188 0.478676
0.073884 0.131502 0.093568
0.127871 0.144900 0.099031
0.278141 0.156344 0.111330
0.484657 0.165652 0.136294
0.672450 0.210880 0.191348
0.816007 0.300786 0.273960
0.939757 0.411780 0.374365
1.000000 0.527916 0.486275
0.039857 0.330419 0.115633
0.143740 0.340581 0.118563
0.334356 0.367529 0.156680
0.522454 0.382055 0.214481
0.688350 0.409705 0.271031
0.822538 0.453895 0.340856
0.943328 0.524346 0.428046
1.000000 0.606470 0.524437
0.088472 0.560845 0.194644
0.182376 0.564416 0.197757
0.361730 0.575647 0.211582
0.572900 0.595697 0.303044
0.721157 0.601495 0.375341
0.834195 0.618219 0.445197
0.943786 0.654475 0.503319
1.000000 0.704707 0.575982
0.241032 0.729427 0.326238
0.290288 0.729976 0.329381
0.422675 0.732448 0.340673
0.587518 0.736568 0.376196
0.739071 0.742245 0.451423
0.851499 0.747463 0.507164
0.946624 0.768704 0.569848
1.000000 0.801419 0.635706
0.391791 0.849332 0.450721
0.423438 0.851041 0.454749
0.510094 0.851102 0.462074
0.629175 0.851835 0.474800
0.758541 0.852628 0.514549
0.871000 0.857847 0.569146
0.959411 0.866941 0.621332
1.000000 0.882841 0.684779
0.545800 0.948791 0.561364
0.563500 0.948821 0.563287
0.617853 0.947387 0.567803
0.700252 0.945983 0.576776
0.792996 0.944854 0.589502
0.888273 0.944579 0.630304
0.967895 0.947509 0.675441
1.000000 0.952178 0.735317
0.697658 1.000000 0.667903
0.707118 1.000000 0.669215
0.738857 1.000000 0.673915
0.790097 1.000000 0.683711
0.847715 1.000000 0.693629
0.913848 1.000000 0.718807
0.972900 1.000000 0.764370
1.000000 0.993835 0.813901
0.065278 0.077974 0.118837
0.107301 0.081697 0.130983
0.264378 0.077516 0.158206
0.478981 0.027405 0.188846
0.668482 0.133700 0.241886
0.811856 0.255863 0.313146
0.936461 0.381353 0.399084
1.000000 0.506340 0.497871
0.061891 0.132509 0.144167
0.125551 0.144839 0.156313
0.283085 0.161837 0.177920
0.487861 0.177218 0.209384
0.671290 0.227329 0.260197
0.811368 0.312413 0.327428
0.933959 0.415930 0.409003
1.000000 0.527855 0.504417
0.041352 0.329534 0.193423
0.145571 0.340459 0.200229
0.332219 0.365606 0.232456
0.517082 0.387182 0.287205
0.683772 0.415259 0.327214
0.816037 0.457008 0.382208
0.935546 0.522728 0.453132
1.000000 0.604242 0.537652
0.098665 0.557488 0.265110
0.187564 0.561822 0.268742
0.361639 0.573907 0.278447
0.565087 0.589105 0.350286
0.709621 0.595422 0.411048
0.824186 0.613581 0.467659
0.936278 0.650202 0.517906
1.000000 0.701930 0.584710
0.248875 0.727413 0.372015
0.296056 0.727749 0.374395
0.423316 0.729488 0.382452
0.582757 0.732357 0.407385
0.732815 0.737301 0.474067
0.846006 0.743954 0.524102
0.942473 0.767056 0.582513
1.000000 0.800015 0.642542
0.396735 0.846250 0.475532
0.424598 0.846403 0.477363
0.509148 0.846708 0.483528
0.626734 0.848234 0.494728
0.755856 0.850187 0.529808
0.869139 0.856291 0.581903
0.957488 0.865873 0.630671
1.000000 0.882139 0.691524
0.545800 0.945800 0.572717
0.561944 0.945190 0.573754
0.616205 0.944244 0.578180
0.698848 0.943633 0.587182
0.791836 0.943236 0.599420
0.886687 0.943084 0.637354
0.965911 0.945739 0.680690
1.000000 0.950713 0.738674
0.697597 1.000000 0.674067
0.707424 1.000000 0.675532
0.739284 1.000000 0.680385
0.790311 1.000000 0.689998
0.850553 1.000000 0.703212
0.914702 1.000000 0.725734
0.972900 1.000000 0.769100
1.000000 0.993774 0.816831
0.000000 0.077302 0.262516
0.073243 0.076997 0.277409
0.264195 0.083223 0.323217
0.480293 0.105592 0.363653
0.668513 0.157748 0.393561
0.812772 0.264622 0.431342
0.935546 0.392401 0.491035
1.000000 0.514092 0.558282
0.000000 0.130434 0.300084
0.079927 0.139528 0.312657
0.283177 0.168460 0.345037
0.489784 0.195377 0.375280
0.672511 0.230777 0.399451
0.811887 0.320867 0.441016
0.933623 0.427192 0.498116
1.000000 0.536492 0.563561
0.000000 0.331426 0.364843
0.121309 0.340948 0.373327
0.325383 0.363165 0.392737
0.518853 0.381781 0.410437
0.685328 0.418219 0.442329
0.815305 0.467323 0.481056
0.933623 0.531151 0.527977
1.000000 0.609400 0.586664
0.113527 0.558129 0.423194
0.200290 0.562188 0.428168
0.364294 0.574456 0.434028
0.563653 0.589197 0.469673
0.704280 0.601648 0.513695
0.823331 0.621607 0.541070
0.935424 0.657649 0.575647
1.000000 0.706844 0.624872
0.266026 0.724971 0.481941
0.313664 0.725948 0.485145
0.435248 0.728450 0.491951
0.582727 0.732876 0.498177
0.733089 0.738094 0.547845
0.843870 0.746944 0.583948
0.939910 0.771969 0.628534
1.000000 0.802609 0.672450
0.413794 0.844175 0.544762
0.442695 0.844327 0.547692
0.522972 0.844663 0.553399
0.631495 0.846159 0.559228
0.754940 0.848447 0.579553
0.866789 0.854520 0.622309
0.955200 0.865568 0.662501
1.000000 0.884733 0.720089
0.559442 0.944732 0.616571
0.575891 0.944182 0.618067
0.626581 0.943084 0.621180
0.703853 0.942260 0.627100
0.793118 0.942046 0.635828
0.886503 0.942596 0.665919
0.965911 0.946075 0.708095
1.000000 0.952270 0.763058
0.706294 1.000000 0.701076
0.715633 1.000000 0.702327
0.745724 1.000000 0.706203
0.795712 1.000000 0.715572
0.853666 1.000000 0.727199
0.915618 1.000000 0.745724
0.973327 1.000000 0.787442
1.000000 0.993408 0.833310
0.000000 0.069825 0.463203
0.000000 0.066560 0.473396
0.244358 0.065217 0.499580
0.478462 0.109285 0.531975
0.661097 0.225834 0.552331
0.802731 0.316136 0.569696
0.927855 0.408148 0.595178
1.000000 0.504753 0.625635
0.000000 0.128054 0.490242
0.000000 0.133272 0.496376
0.262028 0.155642 0.514641
0.490333 0.203525 0.541039
0.665766 0.291844 0.558709
0.804013 0.359289 0.573419
0.927794 0.436500 0.597223
1.000000 0.522759 0.626520
0.000000 0.307836 0.527153
0.000000 0.310918 0.532341
0.294041 0.338689 0.545464
0.519677 0.391485 0.562646
0.680659 0.438941 0.575921
0.813199 0.475441 0.587671
0.934112 0.523369 0.607111
1.000000 0.598688 0.642115
0.073884 0.554955 0.567742
0.189059 0.558984 0.570642
0.373297 0.570001 0.578882
0.560174 0.584009 0.590326
0.701289 0.595605 0.598810
0.822110 0.617670 0.613703
0.933837 0.652705 0.636744
1.000000 0.701228 0.671046
0.313359 0.722347 0.597681
0.354406 0.722683 0.599176
0.464973 0.724300 0.604791
0.595117 0.729458 0.611261
0.732937 0.736843 0.631128
0.840208 0.750301 0.657008
0.939239 0.773251 0.679957
1.000000 0.802640 0.713008
0.445930 0.842435 0.629877
0.473426 0.843656 0.632868
0.547906 0.843503 0.637415
0.645411 0.845457 0.641505
0.755612 0.849424 0.645075
0.867063 0.854734 0.678798
0.953857 0.866484 0.710903
1.000000 0.888029 0.761776
0.577142 0.942351 0.676661
0.592981 0.942229 0.678157
0.641535 0.941955 0.681422
0.712428 0.941985 0.684901
0.797177 0.942321 0.690791
0.887083 0.943053 0.710903
0.965423 0.946105 0.748745
1.000000 0.953094 0.796994
0.718563 1.000000 0.742855
0.728054 1.000000 0.744472
0.757992 1.000000 0.748867
0.803555 1.000000 0.755642
0.858427 1.000000 0.765164
0.916991 1.000000 0.778653
0.973602 1.000000 0.815091
1.000000 0.992889 0.857755
0.000000 0.055421 0.617700
0.000000 0.045777 0.621820
0.240421 0.028412 0.633326
0.470100 0.115419 0.648524
0.662684 0.223667 0.666194
0.800076 0.354528 0.674891
0.922210 0.451698 0.694881
1.000000 0.537987 0.715694
0.000000 0.127871 0.629389
0.000000 0.131258 0.632532
0.256718 0.147066 0.641260
0.480598 0.202884 0.653376
0.667506 0.287938 0.669184
0.802090 0.397284 0.677821
0.922911 0.478706 0.697017
1.000000 0.555291 0.716793
0.000000 0.295750 0.649317
0.000000 0.301488 0.652033
0.293462 0.327581 0.657313
0.510124 0.380377 0.665980
0.680964 0.441016 0.677302
0.806943 0.508415 0.685939
0.924773 0.553704 0.702510
1.000000 0.606134 0.719081
0.000000 0.523735 0.667720
0.150484 0.526726 0.669520
0.339788 0.534752 0.675288
0.545312 0.562341 0.681819
0.702602 0.601953 0.690150
0.819974 0.630060 0.700282
0.931548 0.646052 0.709316
1.000000 0.676997 0.721431
0.317449 0.712917 0.689174
0.359075 0.714229 0.690333
0.470649 0.717372 0.693996
0.605097 0.722896 0.699886
0.729519 0.730343 0.706874
0.838468 0.738094 0.712856
0.938720 0.756405 0.726192
1.000000 0.787594 0.751400
0.486213 0.835264 0.711238
0.508019 0.835355 0.712306
0.573266 0.835538 0.715602
0.660304 0.837949 0.720333
0.752651 0.843259 0.720668
0.863951 0.851194 0.739803
0.949126 0.865599 0.769162
1.000000 0.886290 0.801968
0.600488 0.938170 0.745602
0.614069 0.937896 0.746120
0.657313 0.937499 0.748470
0.722713 0.937804 0.751675
0.797482 0.939422 0.753384
0.882292 0.941802 0.760311
0.963470 0.944732 0.795315
1.000000 0.952453 0.834684
0.729946 1.000000 0.793606
0.738369 1.000000 0.794553
0.766110 1.000000 0.797787
0.810697 1.000000 0.804379
0.861295 1.000000 0.810697
0.917662 1.000000 0.821195
0.972656 0.999603 0.847135
1.000000 0.992279 0.885863
0.000000 0.015595 0.729641
0.000000 0.005402 0.731624
0.271519 0.000793 0.736904
0.479072 0.111086 0.745754
0.659144 0.241215 0.755978
0.804562 0.355200 0.767544
0.921721 0.472084 0.782956
1.000000 0.575463 0.801877
0.000000 0.127657 0.734096
0.000000 0.130434 0.735378
0.283177 0.144930 0.740017
0.486671 0.196811 0.747829
0.662806 0.298650 0.757046
0.805661 0.394842 0.768307
0.921752 0.497780 0.783780
1.000000 0.590478 0.802518
0.000000 0.296178 0.747250
0.084565 0.302098 0.748165
0.320287 0.324407 0.751461
0.512871 0.369482 0.756893
0.679133 0.441535 0.763729
0.813107 0.504112 0.773831
0.924163 0.574578 0.788998
1.000000 0.638849 0.805570
0.070985 0.502800 0.759915
0.184482 0.505821 0.760678
0.362066 0.518547 0.764126
0.546624 0.549279 0.769284
0.704524 0.593439 0.775540
0.827237 0.631189 0.784787
0.930114 0.671626 0.798337
1.000000 0.708278 0.811154
0.313359 0.694240 0.772702
0.350378 0.695460 0.773678
0.452399 0.698939 0.776822
0.577783 0.702693 0.782101
0.717983 0.713680 0.787655
0.841245 0.741207 0.796017
0.936095 0.763851 0.807218
1.000000 0.782345 0.816403
0.484474 0.833890 0.792142
0.506889 0.834623 0.793301
0.572503 0.835752 0.795926
0.661311 0.837949 0.800259
0.759518 0.841337 0.805936
0.862181 0.848295 0.814420
0.947692 0.856931 0.823331
1.000000 0.874662 0.841672
0.626215 0.935454 0.820340
0.639765 0.935515 0.821256
0.682460 0.934997 0.823819
0.742916 0.935119 0.827543
0.811307 0.936522 0.831571
0.883879 0.939696 0.835142
0.962127 0.944213 0.854459
1.000000 0.953979 0.886625
0.748409 1.000000 0.855192
0.755856 1.000000 0.855802
0.780850 1.000000 0.858122
0.820279 1.000000 0.862242
0.868254 1.000000 0.867887
0.920439 1.000000 0.875486
0.971344 0.998596 0.888273
1.000000 0.991455 0.922148
0.000000 0.000000 0.839841
0.154696 0.000000 0.841367
0.334417 0.000000 0.844724
0.511894 0.107790 0.850187
0.675044 0.237583 0.856291
0.812070 0.368627 0.863218
0.921630 0.472572 0.872038
1.000000 0.581384 0.883696
0.000000 0.120302 0.841672
0.164858 0.123049 0.842863
0.340093 0.139895 0.845975
0.515770 0.192996 0.850523
0.676692 0.289952 0.856229
0.812192 0.402838 0.862577
0.920653 0.494728 0.871214
1.000000 0.594202 0.882933
0.106355 0.295262 0.850278
0.198184 0.300206 0.850858
0.361975 0.319219 0.852659
0.531579 0.359869 0.856016
0.687434 0.425574 0.860258
0.818418 0.504662 0.866117
0.923583 0.569024 0.875181
1.000000 0.645655 0.886320
0.183597 0.494942 0.859373
0.241886 0.495979 0.859617
0.383673 0.504204 0.861051
0.550896 0.531914 0.863706
0.702510 0.572381 0.867338
0.828733 0.624628 0.873045
0.928954 0.663020 0.882200
1.000000 0.718685 0.891447
0.317967 0.680934 0.867582
0.348394 0.680568 0.867887
0.435523 0.678676 0.869505
0.562158 0.679316 0.872099
0.706508 0.693782 0.875334
0.835996 0.728237 0.880766
0.934142 0.759060 0.889433
1.000000 0.800015 0.898894
0.480690 0.827298 0.880369
0.499306 0.827268 0.880827
0.556451 0.827054 0.882475
0.635981 0.825620 0.885557
0.729397 0.822354 0.889403
0.847593 0.832761 0.894285
0.944457 0.858122 0.903044
1.000000 0.880247 0.912474
0.619928 0.932616 0.899046
0.632197 0.932677 0.899657
0.671595 0.932586 0.901213
0.731655 0.932799 0.904021
0.804990 0.933501 0.907744
0.883726 0.936095 0.913207
0.957946 0.941558 0.921386
1.000000 0.949279 0.931914
0.756588 1.000000 0.920714
0.764279 1.000000 0.921202
0.790463 1.000000 0.923552
0.830289 1.000000 0.926940
0.878172 1.000000 0.931884
0.927123 1.000000 0.938109
0.975463 0.996063 0.946288
1.000000 0.990478 0.965118
0.222629 0.000000 0.956359
0.272679 0.000000 0.957000
0.398749 0.000000 0.958160
0.547570 0.130159 0.960510
0.691859 0.255436 0.962951
0.817838 0.387823 0.965393
0.920073 0.500755 0.968872
1.000000 0.588342 0.973571
0.224613 0.112612 0.956939
0.274846 0.118044 0.957549
0.401129 0.142672 0.958648
0.549157 0.204532 0.960571
0.692836 0.302007 0.962768
0.818143 0.417517 0.965118
0.919799 0.520348 0.968475
1.000000 0.601343 0.973236
0.229801 0.291600 0.959716
0.280308 0.296727 0.959991
0.406500 0.315587 0.960449
0.554955 0.357855 0.962371
0.697078 0.423072 0.963897
0.820371 0.504479 0.965728
0.920378 0.583215 0.969116
1.000000 0.646479 0.974182
0.219028 0.470161 0.963073
0.275151 0.474556 0.963287
0.407904 0.488441 0.963561
0.559106 0.516136 0.964538
0.701747 0.557733 0.965942
0.823545 0.610956 0.967926
0.921965 0.666896 0.971374
1.000000 0.714717 0.976623
0.330602 0.662623 0.966400
0.358251 0.661891 0.966705
0.437598 0.657954 0.967010
0.544060 0.649073 0.967620
0.696468 0.674067 0.968811
0.823453 0.710231 0.970825
0.924773 0.757900 0.974212
1.000000 0.794797 0.980255
0.484810 0.813687 0.971954
0.498726 0.812802 0.971984
0.542504 0.809232 0.972290
0.607507 0.801144 0.973205
0.702510 0.794400 0.974182
0.828031 0.812711 0.975982
0.932586 0.849638 0.980316
1.000000 0.878874 0.986969
0.632471 0.922240 0.981262
0.641596 0.921904 0.981353
0.671748 0.920897 0.981628
0.721645 0.919432 0.982544
0.786496 0.918273 0.983886
0.859892 0.918578 0.985870
0.944915 0.931029 0.988983
1.000000 0.951354 0.990875
0.764706 0.998566 0.992645
0.770748 0.998322 0.992554
0.791775 0.997406 0.992218
0.827604 0.995850 0.991608
0.874052 0.994049 0.990723
0.926116 0.992248 0.989654
0.978271 0.990661 0.988495
1.000000 0.989960 0.987884
