cubelut/LC6.cube
# Created by Adobe Lightroom plugin Export LUT (1.18.0)
# www.johnrellis.com/lightroom/exportlut.htm
# Preset: LC11
# Color profile: /Library/Application Support/Adobe/Color/Profiles/Recommended/AdobeRGB1998.icc
LUT_3D_SIZE 32
DOMAIN_MIN 0.0 0.0 0.0
DOMAIN_MAX 1.0 1.0 1.0
0.068544 0.077424 0.083894
0.071534 0.078035 0.084413
0.075959 0.078767 0.085145
0.086671 0.080690 0.087037
0.107759 0.083009 0.089387
0.136202 0.085023 0.091707
0.171054 0.084749 0.094057
0.212314 0.082185 0.096132
0.259251 0.076783 0.098207
0.310735 0.066285 0.101350
0.364996 0.045533 0.106172
0.420508 0.010193 0.110994
0.475471 0.000000 0.118074
0.529381 0.000000 0.127626
0.580041 0.012512 0.140444
0.627100 0.069612 0.154971
0.670741 0.104036 0.171969
0.710658 0.138186 0.190219
0.746975 0.171023 0.210636
0.783566 0.206088 0.234104
0.818448 0.241611 0.258549
0.852415 0.276493 0.283818
0.884703 0.310643 0.309789
0.915007 0.344182 0.336645
0.943328 0.377386 0.363073
0.969818 0.409552 0.391028
0.994415 0.441810 0.419593
1.000000 0.474006 0.448615
1.000000 0.506188 0.478676
1.000000 0.538567 0.508965
1.000000 0.571679 0.539727
1.000000 0.605798 0.571740
0.069459 0.081117 0.085115
0.072358 0.081697 0.085573
0.076692 0.082704 0.086275
0.088167 0.085328 0.088380
0.109865 0.088869 0.090517
0.138369 0.091096 0.092775
0.173465 0.090883 0.095033
0.214511 0.089631 0.096986
0.261112 0.085359 0.099489
0.312169 0.078798 0.102449
0.365728 0.069856 0.107332
0.420844 0.055970 0.112490
0.475990 0.040070 0.119539
0.529259 0.038666 0.129702
0.579797 0.066133 0.141726
0.626673 0.090913 0.156680
0.670069 0.119661 0.173342
0.709865 0.150546 0.191836
0.746212 0.179873 0.212314
0.782559 0.213901 0.234714
0.817258 0.246952 0.258946
0.850980 0.280400 0.283970
0.883177 0.313817 0.310369
0.913542 0.346990 0.336248
0.941955 0.379492 0.363256
0.968536 0.411749 0.390936
0.993347 0.443366 0.419165
1.000000 0.475380 0.448585
1.000000 0.507164 0.478309
1.000000 0.539574 0.508751
1.000000 0.572503 0.539635
1.000000 0.606256 0.571344
0.070283 0.086793 0.086671
0.073945 0.087526 0.087098
0.078492 0.088411 0.088075
0.090242 0.091615 0.090303
0.112581 0.096315 0.092256
0.141573 0.098878 0.094362
0.176486 0.100130 0.096162
0.217258 0.099641 0.098238
0.263401 0.097719 0.100801
0.314092 0.093629 0.104311
0.367620 0.087800 0.108766
0.422492 0.082216 0.114504
0.476936 0.078676 0.121950
0.530083 0.080354 0.132326
0.580255 0.093172 0.144533
0.626825 0.113161 0.159640
0.670100 0.137606 0.176303
0.709712 0.164492 0.194186
0.746059 0.192813 0.214176
0.782101 0.224155 0.236851
0.816678 0.255955 0.261387
0.850278 0.287541 0.286046
0.882475 0.320500 0.311498
0.912810 0.352331 0.337560
0.941253 0.384161 0.364569
0.967895 0.415564 0.391699
0.992645 0.447059 0.420020
1.000000 0.478492 0.449256
1.000000 0.510063 0.478920
1.000000 0.541985 0.509209
1.000000 0.574487 0.540154
1.000000 0.608057 0.571588
0.072267 0.101961 0.090364
0.077028 0.102968 0.090700
0.082704 0.104768 0.091493
0.096162 0.108522 0.093477
0.119387 0.114046 0.095338
0.148318 0.117586 0.097414
0.183017 0.119936 0.099214
0.223728 0.121187 0.101686
0.269383 0.121614 0.104799
0.319402 0.121218 0.108522
0.372198 0.119478 0.113375
0.426337 0.118776 0.118990
0.480140 0.119844 0.127169
0.532494 0.124910 0.137514
0.581933 0.134798 0.150362
0.628138 0.150301 0.165133
0.670863 0.170352 0.181949
0.710018 0.192752 0.200381
0.746456 0.217105 0.220157
0.781827 0.244907 0.242557
0.815885 0.273777 0.266026
0.849180 0.303258 0.290410
0.881376 0.333989 0.315373
0.911803 0.364416 0.341436
0.940429 0.395087 0.367926
0.967285 0.425391 0.395514
0.992248 0.456031 0.423377
1.000000 0.486641 0.452369
1.000000 0.517388 0.482033
1.000000 0.548394 0.511833
1.000000 0.580072 0.542138
1.000000 0.612726 0.573327
0.073884 0.131502 0.093568
0.079072 0.132937 0.094057
0.086305 0.134859 0.094453
0.102266 0.138735 0.095888
0.127871 0.144900 0.099031
0.158999 0.148989 0.101839
0.193362 0.151431 0.105196
0.233005 0.154269 0.108095
0.278141 0.156344 0.111330
0.327092 0.158419 0.115511
0.378637 0.160189 0.120455
0.431647 0.162112 0.127657
0.484657 0.165652 0.136294
0.536095 0.171572 0.146914
0.584710 0.181796 0.159579
0.630213 0.194766 0.174838
0.672450 0.210880 0.191348
0.711238 0.229709 0.210056
0.747768 0.251347 0.229404
0.782437 0.275120 0.251621
0.816007 0.300786 0.273960
0.849058 0.327550 0.297795
0.880888 0.354925 0.323033
0.911192 0.383368 0.347875
0.939757 0.411780 0.374365
0.966583 0.440528 0.401160
0.991547 0.469520 0.428626
1.000000 0.498421 0.456947
1.000000 0.527916 0.486275
1.000000 0.557885 0.515465
1.000000 0.588464 0.545464
1.000000 0.620172 0.576440
0.071260 0.170504 0.096864
0.078401 0.172122 0.097444
0.087434 0.173831 0.097475
0.105409 0.177981 0.098573
0.133455 0.183658 0.101595
0.169406 0.190890 0.106813
0.207462 0.195102 0.111849
0.246769 0.197177 0.116060
0.289860 0.200046 0.122286
0.337560 0.203494 0.127169
0.388220 0.206943 0.132967
0.439979 0.210575 0.140383
0.491249 0.215335 0.149752
0.541619 0.222385 0.160708
0.589044 0.231418 0.173465
0.633509 0.242710 0.188907
0.675105 0.257115 0.205081
0.713161 0.272740 0.222690
0.749599 0.291386 0.243137
0.783780 0.311589 0.264103
0.817014 0.333959 0.286290
0.849729 0.357916 0.309575
0.890684 0.392828 0.342229
0.920104 0.418372 0.367193
0.947662 0.444160 0.392859
0.973327 0.470008 0.418708
0.997131 0.496345 0.445380
1.000000 0.523125 0.472450
1.000000 0.550286 0.499916
1.000000 0.578058 0.528099
1.000000 0.606775 0.556847
1.000000 0.636347 0.586572
0.066560 0.219364 0.101198
0.076081 0.220615 0.101259
0.086580 0.222812 0.101778
0.107851 0.226505 0.102876
0.137636 0.232425 0.104616
0.176150 0.239292 0.110292
0.220829 0.247623 0.118746
0.265263 0.251835 0.126894
0.308537 0.253117 0.132631
0.354314 0.256443 0.141451
0.402472 0.261143 0.152255
0.452949 0.265568 0.159731
0.502892 0.270848 0.169131
0.551385 0.277684 0.179965
0.597162 0.285679 0.193057
0.640162 0.295476 0.208072
0.680201 0.307317 0.223301
0.718441 0.321050 0.241672
0.754055 0.336736 0.261234
0.787869 0.354650 0.281529
0.821561 0.374487 0.303685
0.854734 0.396155 0.326696
0.886809 0.419135 0.351385
0.917144 0.442969 0.376410
0.945495 0.467323 0.401648
0.971618 0.491615 0.427314
0.995575 0.516228 0.453437
1.000000 0.541161 0.479957
1.000000 0.566583 0.506676
1.000000 0.592676 0.533989
1.000000 0.619593 0.562127
1.000000 0.647822 0.591150
0.059419 0.272679 0.106722
0.070130 0.273960 0.107362
0.083986 0.275578 0.107393
0.108217 0.279179 0.108339
0.140566 0.284306 0.109773
0.180148 0.290806 0.113558
0.225711 0.298283 0.122988
0.275425 0.306401 0.135103
0.324437 0.311498 0.147585
0.370306 0.312505 0.153506
0.416480 0.315709 0.167178
0.463539 0.320714 0.180972
0.511223 0.326574 0.192905
0.558038 0.332311 0.203525
0.602319 0.339239 0.216007
0.644129 0.347539 0.229740
0.683711 0.357610 0.245304
0.721340 0.369360 0.262608
0.755703 0.382086 0.280735
0.788663 0.396429 0.300206
0.821744 0.413367 0.320653
0.854398 0.431922 0.342718
0.885985 0.451881 0.365759
0.916106 0.472816 0.389502
0.944152 0.494514 0.413703
0.970153 0.516564 0.438270
0.994049 0.538903 0.463294
1.000000 0.561700 0.488655
1.000000 0.585321 0.514641
1.000000 0.609522 0.541100
1.000000 0.634913 0.568536
1.000000 0.661402 0.596918
0.039857 0.330419 0.115633
0.062440 0.331487 0.115999
0.079957 0.333043 0.116518
0.107973 0.336034 0.117281
0.143740 0.340581 0.118563
0.183627 0.346075 0.120363
0.230259 0.352575 0.128084
0.281132 0.359716 0.141054
0.334356 0.367529 0.156680
0.385779 0.373327 0.174472
0.432441 0.374548 0.182589
0.477760 0.377173 0.197635
0.522454 0.382055 0.214481
0.566064 0.388251 0.231815
0.608270 0.394263 0.244358
0.649317 0.401099 0.256626
0.688350 0.409705 0.271031
0.724483 0.418677 0.287419
0.757839 0.428351 0.303624
0.789975 0.440009 0.321721
0.822538 0.453895 0.340856
0.854704 0.469551 0.361151
0.885954 0.486702 0.382605
0.915496 0.505241 0.405585
0.943328 0.524346 0.428046
0.969024 0.543938 0.451545
0.992828 0.564294 0.475319
1.000000 0.584955 0.499702
1.000000 0.606470 0.524437
1.000000 0.628840 0.549798
1.000000 0.652308 0.576318
1.000000 0.677058 0.603998
0.019013 0.389868 0.127687
0.057099 0.390723 0.127962
0.077821 0.391913 0.128237
0.109346 0.394385 0.129610
0.147311 0.398108 0.131014
0.189151 0.402838 0.132967
0.234562 0.408484 0.134646
0.286381 0.414618 0.148318
0.339849 0.421271 0.165072
0.394415 0.428565 0.185306
0.446571 0.434211 0.205844
0.491798 0.435096 0.217533
0.535332 0.437140 0.232761
0.576318 0.441199 0.251102
0.616815 0.447425 0.270390
0.655879 0.454597 0.288182
0.693477 0.460945 0.301488
0.728389 0.467353 0.314733
0.760678 0.474617 0.329656
0.792233 0.483650 0.346197
0.824094 0.494911 0.363531
0.855406 0.508080 0.382055
0.885801 0.522423 0.401801
0.914733 0.538293 0.422431
0.942046 0.554833 0.443885
0.967590 0.572259 0.465644
0.991241 0.590448 0.488289
1.000000 0.609339 0.511284
1.000000 0.629023 0.534905
1.000000 0.649653 0.559533
1.000000 0.671443 0.585412
1.000000 0.694362 0.612299
0.018219 0.448280 0.143801
0.059663 0.449287 0.144076
0.080201 0.450263 0.144961
0.114504 0.452125 0.145968
0.153017 0.455177 0.147951
0.195804 0.459327 0.149355
0.241672 0.464210 0.152804
0.291417 0.469459 0.159152
0.345953 0.474678 0.176425
0.400671 0.480659 0.196506
0.454292 0.486732 0.219028
0.505364 0.492256 0.242863
0.547997 0.492836 0.256291
0.589685 0.494881 0.270451
0.627955 0.498512 0.291447
0.664271 0.503136 0.310552
0.698817 0.508568 0.329076
0.731502 0.513909 0.344732
0.762814 0.518975 0.357427
0.793973 0.526055 0.371923
0.825223 0.535271 0.387976
0.856138 0.546197 0.404547
0.886046 0.558709 0.422766
0.914549 0.572381 0.441718
0.941497 0.587091 0.461524
0.966674 0.602258 0.481788
0.990112 0.618341 0.502647
1.000000 0.635187 0.524468
1.000000 0.652888 0.546990
1.000000 0.671534 0.570397
1.000000 0.691341 0.595087
1.000000 0.712551 0.621454
0.052064 0.504997 0.165560
0.072541 0.505730 0.166659
0.094392 0.506523 0.166537
0.125582 0.508080 0.167666
0.164614 0.510643 0.169284
0.206363 0.513970 0.171939
0.251377 0.517937 0.175479
0.299748 0.521996 0.178500
0.352422 0.526452 0.191409
0.406836 0.530663 0.211215
0.460670 0.535271 0.233921
0.513329 0.541588 0.258305
0.569940 0.554192 0.288731
0.609827 0.554559 0.305303
0.647852 0.555505 0.317784
0.681971 0.557122 0.337591
0.714015 0.559899 0.356634
0.744137 0.563378 0.374701
0.772671 0.568017 0.392767
0.802884 0.573724 0.406256
0.833188 0.580896 0.419684
0.862882 0.589715 0.434455
0.891417 0.600000 0.450202
0.918883 0.611200 0.467048
0.944793 0.623590 0.484901
0.969116 0.636652 0.503136
0.991821 0.650324 0.522148
1.000000 0.665003 0.542168
1.000000 0.680476 0.563043
1.000000 0.696956 0.585107
1.000000 0.714565 0.608545
1.000000 0.733639 0.633753
0.088472 0.560845 0.194644
0.101350 0.561303 0.194797
0.117433 0.561791 0.195193
0.145754 0.562768 0.196750
0.182376 0.564416 0.197757
0.222324 0.566491 0.200992
0.265965 0.569268 0.203586
0.312566 0.572137 0.207095
0.361730 0.575647 0.211582
0.416510 0.580133 0.231235
0.470741 0.584924 0.253361
0.523217 0.590112 0.278050
0.572900 0.595697 0.303044
0.619562 0.601617 0.329229
0.655787 0.601282 0.346288
0.690242 0.601129 0.357855
0.721157 0.601495 0.375341
0.749477 0.602930 0.393286
0.777279 0.605982 0.410956
0.805600 0.611170 0.428260
0.834195 0.618219 0.445197
0.863310 0.625544 0.457954
0.891264 0.634211 0.472145
0.918242 0.643793 0.487160
0.943786 0.654475 0.503319
0.967834 0.665919 0.519799
0.990295 0.678004 0.537499
1.000000 0.690944 0.556268
1.000000 0.704707 0.575982
1.000000 0.719478 0.596979
1.000000 0.735378 0.619623
1.000000 0.752651 0.643915
0.124697 0.608576 0.224979
0.134951 0.608850 0.225772
0.146761 0.609094 0.226261
0.171542 0.609827 0.226719
0.203738 0.610925 0.228397
0.241703 0.612665 0.231113
0.282994 0.615137 0.234440
0.327611 0.617975 0.238682
0.374792 0.620966 0.243290
0.425086 0.624353 0.252476
0.477516 0.627619 0.273442
0.528405 0.631220 0.296391
0.576715 0.635248 0.319371
0.622126 0.639582 0.343511
0.664240 0.643946 0.368261
0.697047 0.642847 0.385748
0.727565 0.641596 0.396612
0.755673 0.640925 0.410437
0.782559 0.642390 0.427924
0.809842 0.646174 0.445258
0.837369 0.652033 0.462654
0.864714 0.659449 0.479377
0.891722 0.667475 0.494545
0.918181 0.675868 0.508080
0.943359 0.685115 0.522118
0.967071 0.695003 0.537530
0.989227 0.705653 0.553674
1.000000 0.717006 0.571130
1.000000 0.729183 0.589868
1.000000 0.742336 0.609949
1.000000 0.756680 0.631708
1.000000 0.772335 0.655177
0.163821 0.653529 0.258701
0.171695 0.653925 0.258946
0.181765 0.653986 0.259220
0.201755 0.654597 0.260563
0.230503 0.655390 0.262852
0.265385 0.656641 0.264500
0.303807 0.657954 0.267979
0.344793 0.659724 0.271763
0.389288 0.661799 0.275578
0.435554 0.664271 0.281071
0.484657 0.666621 0.294835
0.533532 0.669123 0.315679
0.580011 0.671992 0.337713
0.624353 0.674922 0.359899
0.665614 0.678035 0.382849
0.703883 0.681209 0.404791
0.733394 0.679683 0.422492
0.761257 0.677943 0.432013
0.788724 0.677974 0.443397
0.815091 0.680323 0.460731
0.841550 0.684657 0.477790
0.867857 0.690700 0.494362
0.893614 0.698024 0.511040
0.918608 0.706508 0.527764
0.943175 0.714717 0.541344
0.966613 0.723445 0.555383
0.988556 0.732845 0.570459
1.000000 0.743038 0.586969
1.000000 0.753994 0.604883
1.000000 0.765835 0.624292
1.000000 0.778683 0.645350
1.000000 0.792935 0.668421
0.202396 0.694087 0.292851
0.208865 0.694392 0.293950
0.217350 0.694545 0.294102
0.234562 0.694881 0.295293
0.260380 0.695308 0.296361
0.291691 0.696132 0.298405
0.326452 0.697169 0.301579
0.365057 0.698390 0.305211
0.406378 0.699763 0.308934
0.448920 0.701320 0.313817
0.492927 0.702998 0.318517
0.539269 0.704372 0.337346
0.583856 0.705806 0.356451
0.626246 0.707515 0.377447
0.666163 0.709255 0.397864
0.703578 0.711452 0.418616
0.738521 0.713863 0.438819
0.766690 0.713039 0.455512
0.793729 0.712398 0.465553
0.820859 0.713649 0.476326
0.846769 0.716762 0.492164
0.872313 0.721584 0.508721
0.897215 0.727657 0.524987
0.921477 0.734920 0.541192
0.944671 0.742977 0.557824
0.967010 0.751614 0.573968
0.988495 0.759823 0.588098
1.000000 0.768734 0.603540
1.000000 0.778317 0.620386
1.000000 0.788724 0.638880
1.000000 0.800015 0.658930
1.000000 0.812985 0.681758
0.241032 0.729427 0.326238
0.246067 0.729488 0.326787
0.253391 0.729549 0.326970
0.268345 0.729702 0.327764
0.290288 0.729976 0.329381
0.317662 0.730404 0.331731
0.349706 0.730953 0.334112
0.384710 0.731624 0.336828
0.422675 0.732448 0.340673
0.462043 0.733425 0.344732
0.502678 0.734432 0.349798
0.544305 0.735622 0.358343
0.587518 0.736568 0.376196
0.628565 0.737606 0.395026
0.667689 0.738918 0.413947
0.704372 0.740414 0.432654
0.739071 0.742245 0.451423
0.771542 0.744594 0.470192
0.799039 0.744961 0.485969
0.825254 0.745449 0.496590
0.851499 0.747463 0.507164
0.876585 0.750912 0.521141
0.900633 0.755734 0.537743
0.924010 0.761837 0.553826
0.946624 0.768704 0.569848
0.968170 0.776333 0.586358
0.988495 0.784634 0.603326
1.000000 0.792996 0.619593
1.000000 0.801419 0.635706
1.000000 0.810636 0.653376
1.000000 0.820859 0.673060
1.000000 0.832822 0.695918
0.278325 0.761074 0.358953
0.283452 0.761227 0.359136
0.295872 0.766201 0.365332
0.308537 0.766262 0.365942
0.327855 0.766354 0.367132
0.351843 0.766384 0.368658
0.379980 0.766506 0.371038
0.411933 0.766720 0.373266
0.445869 0.767178 0.376928
0.482368 0.767666 0.380438
0.519677 0.768429 0.384588
0.557397 0.769223 0.389014
0.597284 0.769741 0.400641
0.637049 0.770321 0.417243
0.674708 0.771084 0.434333
0.710567 0.772030 0.451423
0.744533 0.773312 0.468360
0.776577 0.774868 0.485237
0.806577 0.776944 0.501946
0.832914 0.777981 0.517082
0.857786 0.779049 0.528130
0.882536 0.781338 0.538293
0.906340 0.784695 0.550744
0.928618 0.789364 0.566766
0.950042 0.794797 0.582605
0.970489 0.800931 0.598779
0.989960 0.807736 0.615167
1.000000 0.815305 0.632471
1.000000 0.823575 0.650629
1.000000 0.831754 0.668147
1.000000 0.841123 0.687770
1.000000 0.851774 0.710689
0.317998 0.792599 0.391974
0.322606 0.793393 0.392950
0.329320 0.794003 0.393500
0.340795 0.794614 0.395056
0.358312 0.795102 0.396551
0.379950 0.795254 0.398566
0.405493 0.795529 0.400244
0.434333 0.795560 0.402899
0.465492 0.795926 0.405951
0.498634 0.796292 0.408972
0.533135 0.796841 0.412909
0.568597 0.797452 0.417060
0.604395 0.798123 0.421607
0.642451 0.798398 0.435889
0.679164 0.798764 0.451209
0.714229 0.799283 0.466835
0.747524 0.800168 0.482765
0.779049 0.801328 0.498177
0.808835 0.802976 0.513848
0.836912 0.805112 0.529137
0.862211 0.806760 0.543542
0.885924 0.808530 0.555627
0.909422 0.811185 0.565942
0.932067 0.814481 0.577325
0.952758 0.818845 0.593408
0.972564 0.823941 0.609552
0.991394 0.829740 0.625849
1.000000 0.836179 0.642939
1.000000 0.843351 0.661189
1.000000 0.851591 0.681361
1.000000 0.860899 0.703334
1.000000 0.869718 0.726192
0.354864 0.821500 0.421241
0.359319 0.822019 0.422187
0.364721 0.822660 0.423285
0.375250 0.823148 0.424598
0.390448 0.823545 0.425971
0.409918 0.823728 0.427405
0.432868 0.823758 0.429236
0.458473 0.823789 0.431647
0.486976 0.823972 0.434302
0.517449 0.824247 0.437324
0.549401 0.824643 0.440803
0.582330 0.825101 0.444587
0.615808 0.825528 0.448524
0.650141 0.825895 0.455695
0.685695 0.826017 0.469551
0.719814 0.826200 0.483742
0.752255 0.826719 0.497963
0.783108 0.827481 0.512261
0.812375 0.828702 0.526665
0.840146 0.830320 0.541161
0.866209 0.832425 0.555474
0.890196 0.834501 0.569665
0.912657 0.836576 0.582269
0.934569 0.839231 0.592920
0.955566 0.842374 0.604669
0.974884 0.846281 0.619562
0.992950 0.850919 0.636225
1.000000 0.856321 0.653132
1.000000 0.862486 0.671626
1.000000 0.869780 0.692134
1.000000 0.878294 0.714809
1.000000 0.886229 0.740932
0.391791 0.849332 0.450721
0.395636 0.849821 0.451545
0.400671 0.850340 0.452094
0.409735 0.850797 0.453498
0.423438 0.851041 0.454749
0.440803 0.851102 0.456275
0.461128 0.851133 0.457679
0.484230 0.851072 0.459724
0.510094 0.851102 0.462074
0.537896 0.851164 0.465003
0.567346 0.851347 0.467750
0.597864 0.851560 0.471473
0.629175 0.851835 0.474800
0.660609 0.852110 0.478920
0.693660 0.852171 0.488289
0.726650 0.852323 0.501274
0.758541 0.852628 0.514549
0.788876 0.853300 0.527977
0.817685 0.854429 0.541650
0.845090 0.855894 0.555444
0.871000 0.857847 0.569146
0.895537 0.860044 0.582971
0.918212 0.862272 0.596704
0.939086 0.864439 0.610132
0.959411 0.866941 0.621332
0.978607 0.869841 0.633570
0.996368 0.873289 0.648127
1.000000 0.877653 0.665827
1.000000 0.882841 0.684779
1.000000 0.889128 0.705745
1.000000 0.896574 0.729000
1.000000 0.901762 0.755550
0.432441 0.877806 0.480751
0.435340 0.878019 0.481117
0.439094 0.878141 0.481788
0.446754 0.878264 0.482765
0.458595 0.878264 0.483436
0.473732 0.878172 0.484627
0.491859 0.878080 0.486244
0.512810 0.877897 0.487861
0.536095 0.877928 0.490211
0.561669 0.877928 0.492683
0.588891 0.878050 0.495613
0.617090 0.878172 0.498878
0.646021 0.878294 0.502220
0.675257 0.878447 0.505821
0.704738 0.878569 0.509483
0.736385 0.878386 0.520531
0.766812 0.878386 0.532677
0.796048 0.878691 0.545251
0.823911 0.879301 0.557733
0.850340 0.880247 0.570367
0.875364 0.881529 0.583246
0.899107 0.883116 0.595941
0.921538 0.885008 0.608759
0.942473 0.886931 0.621729
0.961608 0.888792 0.635706
0.980194 0.890898 0.647456
0.997711 0.893462 0.660304
1.000000 0.896574 0.675441
1.000000 0.900877 0.695338
1.000000 0.906157 0.716793
1.000000 0.912627 0.740352
1.000000 0.915373 0.767422
0.469337 0.902770 0.507988
0.472175 0.902922 0.508385
0.475349 0.903105 0.508782
0.482338 0.903166 0.509636
0.492470 0.903105 0.510216
0.506035 0.902953 0.511345
0.522057 0.902739 0.512749
0.540826 0.902556 0.514183
0.562127 0.902373 0.515923
0.585168 0.902251 0.518212
0.610040 0.902190 0.520928
0.635767 0.902159 0.524132
0.662470 0.902098 0.526970
0.689906 0.902098 0.530236
0.717250 0.902129 0.534051
0.745541 0.902129 0.539513
0.774746 0.901915 0.550561
0.802853 0.901976 0.562310
0.829679 0.902342 0.573907
0.855375 0.903014 0.585840
0.879728 0.903929 0.598077
0.902800 0.905180 0.610285
0.924712 0.906706 0.622492
0.945556 0.908385 0.634699
0.964050 0.909209 0.645716
0.981537 0.910674 0.660517
0.998383 0.912627 0.673701
1.000000 0.915007 0.688533
1.000000 0.918059 0.705379
1.000000 0.922271 0.726925
1.000000 0.927672 0.751034
1.000000 0.927977 0.778805
0.509087 0.927520 0.535973
0.511559 0.927703 0.536278
0.514549 0.927764 0.536858
0.520439 0.927733 0.537407
0.529168 0.927581 0.538079
0.540887 0.927306 0.538964
0.555077 0.926940 0.539666
0.571588 0.926513 0.541100
0.590295 0.926116 0.542596
0.610864 0.925750 0.544518
0.632959 0.925414 0.546899
0.656458 0.925109 0.549310
0.680751 0.924834 0.552087
0.705684 0.924529 0.555077
0.730953 0.924254 0.558007
0.756161 0.924041 0.561242
0.782773 0.923644 0.568811
0.809476 0.923369 0.579217
0.835111 0.923430 0.590265
0.859709 0.923796 0.601434
0.883268 0.924437 0.612970
0.905638 0.925353 0.624537
0.926909 0.926390 0.636164
0.946990 0.927550 0.647608
0.966033 0.928832 0.659266
0.984009 0.930266 0.671351
0.999664 0.931426 0.687678
1.000000 0.933074 0.702968
1.000000 0.935302 0.719722
1.000000 0.938262 0.738705
1.000000 0.940703 0.762142
1.000000 0.939879 0.790341
0.545800 0.948791 0.561364
0.547936 0.948974 0.561669
0.550530 0.949035 0.561975
0.555840 0.948974 0.562585
0.563500 0.948821 0.563287
0.573754 0.948516 0.563806
0.586389 0.948150 0.565057
0.601007 0.947784 0.566308
0.617853 0.947387 0.567803
0.636561 0.947021 0.569574
0.656672 0.946654 0.571740
0.678035 0.946288 0.574121
0.700252 0.945983 0.576776
0.723049 0.945678 0.579583
0.746273 0.945342 0.582727
0.769558 0.945037 0.586053
0.792996 0.944854 0.589502
0.818021 0.944427 0.598749
0.842435 0.944213 0.608972
0.865873 0.944305 0.619593
0.888273 0.944579 0.630304
0.909728 0.945129 0.641291
0.930114 0.945769 0.652430
0.949493 0.946593 0.663752
0.967895 0.947509 0.675441
0.985260 0.948547 0.687343
1.000000 0.949767 0.699550
1.000000 0.950683 0.717525
1.000000 0.952178 0.735317
1.000000 0.954376 0.754391
1.000000 0.953429 0.776699
1.000000 0.951171 0.803250
0.583429 0.968750 0.587091
0.585107 0.968811 0.587488
0.587366 0.968811 0.587610
0.591669 0.968688 0.587976
0.598535 0.968444 0.588464
0.607385 0.968109 0.589258
0.618311 0.967742 0.590112
0.631281 0.967285 0.591302
0.646296 0.966827 0.592615
0.662745 0.966430 0.594568
0.680873 0.966003 0.596612
0.700008 0.965667 0.598840
0.720150 0.965301 0.601312
0.741024 0.964904 0.604242
0.762112 0.964508 0.607263
0.783413 0.964111 0.610346
0.804837 0.963775 0.613642
0.826719 0.963470 0.618647
0.849607 0.963073 0.628138
0.871763 0.962860 0.638117
0.893004 0.962890 0.648402
0.913512 0.963073 0.659022
0.933043 0.963409 0.669947
0.951629 0.963867 0.681331
0.969238 0.964416 0.693019
0.985931 0.965087 0.704891
1.000000 0.965911 0.717159
1.000000 0.966888 0.729549
1.000000 0.967681 0.748745
1.000000 0.969116 0.769223
1.000000 0.965118 0.791745
1.000000 0.961730 0.817319
0.620081 0.986419 0.612482
0.621698 0.986419 0.612787
0.623499 0.986419 0.612879
0.627314 0.986328 0.613428
0.633295 0.986114 0.613733
0.641291 0.985901 0.614771
0.651240 0.985687 0.615808
0.663081 0.985412 0.617395
0.676692 0.985199 0.619196
0.691890 0.984985 0.621393
0.708278 0.984771 0.623560
0.725734 0.984527 0.626459
0.743954 0.984253 0.629236
0.762753 0.983917 0.632197
0.781857 0.983551 0.635126
0.801083 0.983124 0.638361
0.820401 0.982727 0.641688
0.839689 0.982422 0.645319
0.860166 0.981964 0.652247
0.880797 0.981537 0.661860
0.900786 0.981262 0.671931
0.920012 0.981109 0.682643
0.938354 0.981109 0.693599
0.955871 0.981201 0.704982
0.972503 0.981384 0.716579
0.988190 0.981689 0.728481
1.000000 0.982147 0.740505
1.000000 0.982727 0.752987
1.000000 0.983520 0.765530
1.000000 0.982818 0.786221
1.000000 0.975891 0.810636
1.000000 0.971710 0.835843
0.660395 1.000000 0.640803
0.661616 1.000000 0.641077
0.663111 1.000000 0.641291
0.666316 1.000000 0.641444
0.671321 1.000000 0.641962
0.677943 1.000000 0.642542
0.686397 1.000000 0.643549
0.696315 1.000000 0.644892
0.707881 1.000000 0.646174
0.720790 1.000000 0.648035
0.734951 1.000000 0.650202
0.750057 1.000000 0.652613
0.766018 0.999908 0.655238
0.782467 0.999451 0.657893
