cubelut/LC6.cube
# Created by Adobe Lightroom plugin Export LUT (1.18.0)
# www.johnrellis.com/lightroom/exportlut.htm
# Preset: LC11
# Color profile: /Library/Application Support/Adobe/Color/Profiles/Recommended/AdobeRGB1998.icc
LUT_3D_SIZE 5
DOMAIN_MIN 0.000000 0.000000 0.000000
DOMAIN_MAX 0.903226 0.903226 0.903226
0.068544 0.077424 0.083894
0.212314 0.082185 0.096132
0.580041 0.012512 0.140444
0.852415 0.276493 0.283818
1.000000 0.506188 0.478676
0.059419 0.272679 0.106722
0.275425 0.306401 0.135103
0.602319 0.339239 0.216007
0.854398 0.431922 0.342718
1.000000 0.585321 0.514641
0.163821 0.653529 0.258701
0.344793 0.659724 0.271763
0.665614 0.678035 0.382849
0.867857 0.690700 0.494362
1.000000 0.753994 0.604883
0.432441 0.877806 0.480751
0.512810 0.877897 0.487861
0.704738 0.878569 0.509483
0.899107 0.883116 0.595941
1.000000 0.900877 0.695338
0.697658 1.000000 0.667903
0.728817 1.000000 0.672389
0.816220 1.000000 0.686061
0.930755 1.000000 0.729519
1.000000 0.993835 0.813901
0.000000 0.078035 0.215457
0.215091 0.083223 0.265537
0.581292 0.097810 0.330816
0.843381 0.296330 0.414801
1.000000 0.511376 0.540215
0.000000 0.273869 0.303349
0.267369 0.302678 0.330144
0.600549 0.345617 0.374365
0.845396 0.443000 0.454292
1.000000 0.587091 0.565087
0.182437 0.650355 0.415930
0.351659 0.656641 0.423194
0.655573 0.670619 0.482795
0.857877 0.692653 0.560723
1.000000 0.756130 0.638636
0.450233 0.874876 0.547417
0.526848 0.875151 0.553765
0.707088 0.876555 0.566674
0.897063 0.881743 0.632593
1.000000 0.902159 0.721614
0.706844 1.000000 0.695003
0.736507 1.000000 0.698817
0.823301 1.000000 0.714015
0.932494 1.000000 0.750301
1.000000 0.993469 0.830137
0.000000 0.063325 0.549126
0.171786 0.045716 0.567803
0.576959 0.159518 0.606348
0.833188 0.365209 0.631006
1.000000 0.520745 0.671382
0.000000 0.247166 0.587732
0.216617 0.272221 0.597284
0.600732 0.367407 0.622126
0.838010 0.475380 0.640711
1.000000 0.577722 0.675380
0.211521 0.642786 0.635126
0.378027 0.648920 0.640253
0.653132 0.664698 0.654017
0.857115 0.686488 0.669123
1.000000 0.745266 0.711330
0.496315 0.867430 0.680507
0.561334 0.866850 0.684077
0.712551 0.871092 0.689052
0.894438 0.879484 0.722194
1.000000 0.904967 0.790768
0.722652 1.000000 0.766201
0.752560 1.000000 0.770687
0.831968 1.000000 0.781888
0.931395 1.000000 0.801724
1.000000 0.992615 0.870085
0.000000 0.001373 0.755001
0.229953 0.000000 0.760403
0.576745 0.171084 0.774777
0.836027 0.384771 0.792844
1.000000 0.579919 0.821805
0.000000 0.248142 0.767819
0.268772 0.267704 0.771206
0.595483 0.355505 0.781003
0.840635 0.490394 0.796475
1.000000 0.629816 0.824308
0.212131 0.599237 0.787564
0.351995 0.601984 0.790494
0.634516 0.631739 0.797421
0.856809 0.687678 0.810422
1.000000 0.748898 0.833341
0.521782 0.862089 0.819669
0.579278 0.862119 0.821500
0.721675 0.865019 0.828641
0.889616 0.874113 0.841611
1.000000 0.893919 0.863615
0.752987 1.000000 0.871458
0.777615 1.000000 0.873777
0.846830 1.000000 0.881071
0.935302 1.000000 0.893462
1.000000 0.991241 0.932036
0.222629 0.000000 0.956359
0.363470 0.000000 0.957794
0.621302 0.192050 0.961791
0.845731 0.420264 0.966125
1.000000 0.588342 0.973571
0.229160 0.246860 0.959167
0.370855 0.265202 0.960052
0.626429 0.350347 0.962799
0.847074 0.503410 0.966278
1.000000 0.633173 0.974121
0.270909 0.572290 0.964416
0.372168 0.567376 0.964813
0.630243 0.600366 0.966064
0.849851 0.671656 0.969390
1.000000 0.753475 0.978058
0.525139 0.844999 0.974426
0.564477 0.842374 0.974701
0.674495 0.831937 0.976257
0.859861 0.845182 0.978454
1.000000 0.898131 0.988830
0.764706 0.998566 0.992645
0.785000 0.997681 0.992309
0.849821 0.994965 0.991180
0.939361 0.991821 0.989380
1.000000 0.989960 0.987884
