cubelut/LC7.cube
# Created by Adobe Lightroom plugin Export LUT (1.18.0)
# www.johnrellis.com/lightroom/exportlut.htm
# Preset: LC7
# Color profile: /Library/Application Support/Adobe/Color/Profiles/Recommended/AdobeRGB1998.icc
LUT_3D_SIZE 32
DOMAIN_MIN 0.0 0.0 0.0
DOMAIN_MAX 1.0 1.0 1.0
0.156588 0.129732 0.174594
0.156588 0.129732 0.174594
0.156588 0.129732 0.174594
0.156588 0.129732 0.174594
0.156588 0.129732 0.174594
0.156588 0.129732 0.174594
0.156588 0.129732 0.174594
0.184939 0.127077 0.174014
0.235142 0.121523 0.172671
0.284428 0.115145 0.170901
0.335027 0.106935 0.168582
0.388373 0.097566 0.165469
0.445686 0.084260 0.161410
0.506920 0.067628 0.155978
0.570581 0.028321 0.149050
0.634363 0.000000 0.140597
0.694972 0.000000 0.130770
0.750393 0.000000 0.119814
0.800107 0.000000 0.107759
0.856199 0.000000 0.090639
0.902647 0.000000 0.071656
0.940337 0.000000 0.041505
0.971099 0.000000 0.000000
0.996765 0.000000 0.000000
1.000000 0.000000 0.000000
1.000000 0.000000 0.000000
1.000000 0.000000 0.000000
1.000000 0.000000 0.000000
1.000000 0.000000 0.064454
1.000000 0.000000 0.122835
1.000000 0.000000 0.170077
1.000000 0.000000 0.217563
0.156588 0.129732 0.174594
0.156588 0.129732 0.174594
0.156588 0.129732 0.174594
0.156588 0.129732 0.174594
0.156588 0.129732 0.174594
0.156588 0.129732 0.174594
0.156588 0.129732 0.174594
0.182528 0.128267 0.174014
0.232395 0.124392 0.172610
0.281498 0.119387 0.170809
0.331609 0.113283 0.168460
0.384436 0.105440 0.165408
0.441047 0.095705 0.161349
0.501823 0.083619 0.155978
0.564813 0.068025 0.149142
0.628290 0.029511 0.140749
0.688991 0.000000 0.130922
0.744747 0.000000 0.120058
0.794980 0.000000 0.108003
0.851133 0.000000 0.091066
0.897368 0.000000 0.072267
0.935302 0.000000 0.043732
0.966491 0.000000 0.000000
0.992676 0.000000 0.000000
1.000000 0.000000 0.000000
1.000000 0.000000 0.000000
1.000000 0.000000 0.000000
1.000000 0.000000 0.000000
1.000000 0.000000 0.049989
1.000000 0.000000 0.116823
1.000000 0.000000 0.165072
1.000000 0.000000 0.212558
0.156588 0.129732 0.174594
0.156588 0.129732 0.174594
0.156588 0.129732 0.174594
0.156588 0.129732 0.174594
0.156588 0.129732 0.174594
0.156588 0.129732 0.174594
0.156588 0.129732 0.174594
0.179934 0.129519 0.174014
0.229770 0.127687 0.172549
0.278721 0.124605 0.170657
0.328771 0.120394 0.168246
0.381353 0.115023 0.165133
0.437629 0.108492 0.161044
0.498146 0.100771 0.155612
0.560998 0.090364 0.148775
0.624475 0.076143 0.140352
0.685298 0.058289 0.130465
0.741299 0.002991 0.119448
0.791867 0.000000 0.107271
0.848386 0.000000 0.090028
0.894469 0.000000 0.071199
0.932555 0.000000 0.040620
0.963989 0.000000 0.000000
0.990448 0.000000 0.000000
1.000000 0.000000 0.000000
1.000000 0.000000 0.000000
1.000000 0.000000 0.000000
1.000000 0.000000 0.000000
1.000000 0.000000 0.033448
1.000000 0.000000 0.113283
1.000000 0.000000 0.162142
1.000000 0.000000 0.209964
0.156588 0.129732 0.174594
0.156588 0.129732 0.174594
0.156588 0.129732 0.174594
0.156588 0.129732 0.174594
0.156588 0.129732 0.174594
0.156588 0.129732 0.174594
0.156588 0.129732 0.174594
0.177798 0.131563 0.173953
0.227115 0.133883 0.172274
0.275822 0.134310 0.170230
0.325536 0.133761 0.167666
0.377813 0.131838 0.164401
0.433539 0.129702 0.160189
0.493416 0.126802 0.154635
0.556146 0.122225 0.147646
0.619257 0.116487 0.139040
0.680537 0.108614 0.128939
0.736568 0.098878 0.117647
0.789609 0.084535 0.104585
0.844205 0.062226 0.087282
0.889586 0.000000 0.067903
0.927550 0.000000 0.032105
0.959655 0.000000 0.000000
0.987030 0.000000 0.000000
1.000000 0.000000 0.000000
1.000000 0.000000 0.000000
1.000000 0.000000 0.000000
1.000000 0.000000 0.000000
1.000000 0.000000 0.022370
1.000000 0.000000 0.110842
1.000000 0.000000 0.160128
1.000000 0.000000 0.207736
0.156588 0.129732 0.174594
0.156588 0.129732 0.174594
0.156588 0.129732 0.174594
0.156588 0.129732 0.174594
0.156588 0.129732 0.174594
0.156588 0.129732 0.174594
0.156588 0.129732 0.174594
0.173037 0.133608 0.173953
0.222202 0.142000 0.171939
0.270634 0.147250 0.169619
0.320104 0.150698 0.166842
0.371679 0.152865 0.163394
0.427008 0.154849 0.158938
0.486763 0.156069 0.153170
0.549554 0.156619 0.145846
0.613367 0.156558 0.136751
0.675685 0.153658 0.126070
0.732662 0.149477 0.114076
0.789151 0.143252 0.099245
0.842405 0.133944 0.080964
0.886900 0.119997 0.059693
0.924651 0.100618 0.011444
0.956725 0.070344 0.000000
0.984436 0.000000 0.000000
1.000000 0.000000 0.000000
1.000000 0.000000 0.000000
1.000000 0.000000 0.000000
1.000000 0.000000 0.000000
1.000000 0.000000 0.000000
1.000000 0.000000 0.105379
1.000000 0.000000 0.156405
1.000000 0.000000 0.204593
0.156588 0.129732 0.174594
0.156588 0.129732 0.174594
0.156588 0.129732 0.174594
0.156588 0.129732 0.174594
0.156588 0.129732 0.174594
0.156588 0.129732 0.174594
0.156588 0.129732 0.174594
0.170108 0.134798 0.173953
0.218540 0.151156 0.171450
0.266941 0.162051 0.168704
0.315984 0.169802 0.165560
0.367681 0.175998 0.161746
0.422522 0.181735 0.156954
0.482155 0.186923 0.150759
0.545129 0.191440 0.142855
0.609277 0.194675 0.133120
0.671901 0.196353 0.121523
0.729580 0.195377 0.108492
0.789639 0.193240 0.090944
0.841917 0.188327 0.070192
0.886259 0.179690 0.030915
0.924102 0.167239 0.000000
0.982879 0.151369 0.000000
1.000000 0.129061 0.000000
1.000000 0.098817 0.000000
1.000000 0.029358 0.000000
1.000000 0.000000 0.000000
1.000000 0.000000 0.000000
1.000000 0.000000 0.080079
1.000000 0.000000 0.134249
1.000000 0.001251 0.180667
1.000000 0.117861 0.227298
0.156588 0.129732 0.174594
0.156588 0.129732 0.174594
0.156588 0.129732 0.174594
0.156588 0.129732 0.174594
0.156588 0.129732 0.174594
0.156588 0.129732 0.174594
0.156588 0.129732 0.174594
0.174441 0.139467 0.173556
0.222934 0.161074 0.170565
0.271702 0.178836 0.167086
0.321538 0.194278 0.162997
0.374212 0.204532 0.158419
0.430274 0.213657 0.152773
0.490578 0.222416 0.145541
0.553246 0.229923 0.136599
0.616480 0.235813 0.125704
0.678035 0.239933 0.112703
0.741024 0.242618 0.095644
0.800534 0.242893 0.073548
0.852415 0.239292 0.030884
0.897307 0.232975 0.000000
0.936370 0.223239 0.000000
0.969787 0.210513 0.000000
0.998047 0.194614 0.000000
1.000000 0.175265 0.000000
1.000000 0.151492 0.000000
1.000000 0.121492 0.000000
1.000000 0.103487 0.000000
1.000000 0.096376 0.063539
1.000000 0.102785 0.125551
1.000000 0.124666 0.173678
1.000000 0.161257 0.220951
0.156588 0.129732 0.174594
0.156588 0.129732 0.174594
0.156588 0.129732 0.174594
0.156588 0.129732 0.174594
0.156588 0.129732 0.174594
0.156588 0.129732 0.174594
0.162692 0.137636 0.173983
0.187228 0.156619 0.172061
0.218296 0.167391 0.170230
0.266911 0.188724 0.166384
0.316564 0.207523 0.161868
0.368322 0.225498 0.156374
0.423590 0.240970 0.149752
0.483406 0.252720 0.141848
0.545800 0.263218 0.132021
0.608972 0.271794 0.120027
0.674434 0.279637 0.104311
0.739925 0.286076 0.082948
0.797024 0.287785 0.053315
0.847776 0.285924 0.000000
0.892271 0.280766 0.000000
0.931243 0.272496 0.000000
0.964843 0.261692 0.000000
0.993408 0.248417 0.000000
1.000000 0.232181 0.000000
1.000000 0.213962 0.000000
1.000000 0.192599 0.000000
1.000000 0.178561 0.000000
1.000000 0.171389 0.020722
1.000000 0.170535 0.115267
1.000000 0.180301 0.166293
1.000000 0.202029 0.215030
0.154025 0.168032 0.172030
0.155062 0.167025 0.172091
0.156466 0.165805 0.172152
0.158968 0.162936 0.172335
0.161898 0.158877 0.172549
0.164401 0.153628 0.172885
0.174441 0.162081 0.172000
0.197757 0.179385 0.169924
0.232639 0.197391 0.166995
0.262974 0.200961 0.165377
0.312078 0.220768 0.160616
0.363561 0.240360 0.154726
0.418189 0.259922 0.147341
0.477516 0.280858 0.137514
0.539605 0.295903 0.126192
0.605859 0.308904 0.111513
0.675990 0.321202 0.090791
0.738766 0.328771 0.064057
0.794461 0.331975 0.000000
0.844450 0.330999 0.000000
0.888609 0.326726 0.000000
0.927489 0.319463 0.000000
0.961028 0.309575 0.000000
0.989807 0.297429 0.000000
1.000000 0.283085 0.000000
1.000000 0.266423 0.000000
1.000000 0.248325 0.000000
1.000000 0.235172 0.000000
1.000000 0.227268 0.000000
1.000000 0.223758 0.104524
1.000000 0.227665 0.159274
1.000000 0.241703 0.209354
0.150637 0.208530 0.168368
0.152438 0.207553 0.168429
0.154818 0.206424 0.168521
0.159976 0.203769 0.168643
0.166659 0.199741 0.168887
0.173922 0.194766 0.169192
0.180850 0.188632 0.169589
0.203311 0.203403 0.167453
0.235172 0.220096 0.164462
0.276524 0.237949 0.160403
0.305913 0.236271 0.159030
0.357305 0.254551 0.153140
0.412207 0.276188 0.145144
0.471321 0.298497 0.134676
0.538354 0.323949 0.119417
0.609094 0.349218 0.097780
0.677699 0.363439 0.070710
0.739406 0.371954 0.004547
0.794278 0.376074 0.000000
0.843381 0.376043 0.000000
0.886381 0.371893 0.000000
0.924041 0.364843 0.000000
0.956786 0.355291 0.000000
0.985046 0.343511 0.000000
1.000000 0.329900 0.000000
1.000000 0.314580 0.000000
1.000000 0.297734 0.000000
1.000000 0.284794 0.000000
1.000000 0.275914 0.000000
1.000000 0.271061 0.092103
1.000000 0.271916 0.152834
1.000000 0.281346 0.205447
0.145937 0.248173 0.163729
0.148165 0.247532 0.163760
0.152102 0.246372 0.163851
0.158968 0.244083 0.163973
0.169009 0.240482 0.164187
0.179995 0.235966 0.164431
0.191226 0.230442 0.164797
0.206760 0.230442 0.164279
0.237613 0.246128 0.161074
0.276524 0.263157 0.156832
0.322698 0.281102 0.151247
0.351995 0.275822 0.150118
0.408606 0.294469 0.142061
0.472541 0.321630 0.129274
0.540490 0.349218 0.111604
0.609003 0.375219 0.086854
0.675288 0.398413 0.033997
0.735286 0.412757 0.000000
0.789700 0.417487 0.000000
0.838865 0.418830 0.000000
0.881895 0.415290 0.000000
0.919768 0.408698 0.000000
0.952850 0.399603 0.000000
0.981476 0.388220 0.000000
1.000000 0.375036 0.000000
1.000000 0.360235 0.000000
1.000000 0.344121 0.000000
1.000000 0.330968 0.000000
1.000000 0.321569 0.000000
1.000000 0.314946 0.074922
1.000000 0.313298 0.144167
1.000000 0.318791 0.199344
0.139467 0.290532 0.157443
0.142641 0.289952 0.157473
0.147585 0.288792 0.157565
0.156497 0.286687 0.157687
0.169284 0.283574 0.157839
0.183749 0.279301 0.158114
0.199039 0.274418 0.158389
0.214054 0.268406 0.158785
0.239719 0.275608 0.156619
0.277470 0.291966 0.152010
0.322057 0.309850 0.145937
0.378119 0.333349 0.136416
0.438911 0.350500 0.125765
0.508934 0.372229 0.109194
0.579950 0.402045 0.081025
0.649866 0.428656 0.002228
0.713069 0.449561 0.000000
0.769070 0.465187 0.000000
0.818326 0.476600 0.000000
0.862425 0.476448 0.000000
0.900969 0.470039 0.000000
0.934844 0.461158 0.000000
0.964355 0.449897 0.000000
0.990173 0.436988 0.000000
1.000000 0.422583 0.000000
1.000000 0.407172 0.000000
1.000000 0.391150 0.000000
1.000000 0.379217 0.000000
1.000000 0.368963 0.000000
1.000000 0.361578 0.081636
1.000000 0.358343 0.149630
1.000000 0.361578 0.205112
0.128969 0.344305 0.147066
0.133639 0.343481 0.147158
0.139895 0.342229 0.147280
0.152468 0.339483 0.147585
0.168643 0.335607 0.147951
0.186526 0.330724 0.148440
0.205905 0.325139 0.148898
0.224949 0.319036 0.149386
0.243687 0.312749 0.149813
0.284489 0.332647 0.143465
0.334020 0.356115 0.134371
0.392767 0.382696 0.121248
0.460334 0.411536 0.101595
0.499123 0.404883 0.097841
0.572259 0.424201 0.069337
0.642359 0.452583 0.000000
0.705715 0.474342 0.000000
0.761685 0.490089 0.000000
0.811398 0.501701 0.000000
0.855131 0.509392 0.000000
0.893553 0.511925 0.000000
0.927947 0.503136 0.000000
0.957946 0.492256 0.000000
0.984314 0.479377 0.000000
1.000000 0.465003 0.000000
1.000000 0.449561 0.000000
1.000000 0.433631 0.000000
1.000000 0.421057 0.000000
1.000000 0.409888 0.000000
1.000000 0.401282 0.047669
1.000000 0.396277 0.137758
1.000000 0.396918 0.197299
0.115511 0.392187 0.135012
0.122713 0.391363 0.135073
0.130404 0.390082 0.135256
0.145144 0.387671 0.135561
0.165438 0.383612 0.136110
0.187015 0.380285 0.136263
0.210422 0.377295 0.136141
0.234134 0.373510 0.136080
0.258854 0.369451 0.140475
0.288701 0.372473 0.141360
0.336370 0.395270 0.122591
0.393133 0.420966 0.107057
0.457404 0.448463 0.083009
0.528862 0.476905 0.013062
0.568109 0.467872 0.000000
0.633936 0.475715 0.000000
0.696986 0.498238 0.000000
0.753170 0.514641 0.000000
0.803586 0.526574 0.000000
0.848051 0.534630 0.000000
0.887175 0.538964 0.000000
0.921538 0.540703 0.000000
0.951934 0.533928 0.000000
0.978973 0.521202 0.000000
1.000000 0.506859 0.000000
1.000000 0.491524 0.000000
1.000000 0.475471 0.000000
1.000000 0.462379 0.000000
1.000000 0.450477 0.000000
1.000000 0.440803 0.000000
1.000000 0.434394 0.126619
1.000000 0.432959 0.190982
0.092409 0.453712 0.113649
0.101656 0.453407 0.113588
0.113436 0.452308 0.113771
0.133913 0.450294 0.114015
0.159457 0.446845 0.114595
0.187503 0.442878 0.116060
0.218112 0.438087 0.125154
0.247898 0.432837 0.136019
0.276951 0.427863 0.147768
0.304936 0.422858 0.161440
0.342138 0.435767 0.145083
0.393652 0.461189 0.094911
0.455421 0.487678 0.045014
0.523278 0.514733 0.000000
0.595575 0.540764 0.000000
0.633692 0.528405 0.000000
0.689265 0.522850 0.000000
0.745571 0.539879 0.000000
0.796353 0.552239 0.000000
0.841459 0.560327 0.000000
0.880980 0.564599 0.000000
0.915862 0.566125 0.000000
0.946380 0.565423 0.000000
0.973327 0.562158 0.000000
0.997742 0.547936 0.000000
1.000000 0.532616 0.000000
1.000000 0.516747 0.000000
1.000000 0.503380 0.000000
1.000000 0.491188 0.000000
1.000000 0.480934 0.000000
1.000000 0.473732 0.121614
1.000000 0.471107 0.191287
0.078248 0.519341 0.102144
0.093233 0.518975 0.104158
0.108095 0.518303 0.105531
0.135500 0.516106 0.109651
0.166842 0.512902 0.115389
0.200320 0.508812 0.122744
0.232731 0.504540 0.132052
0.265110 0.499702 0.142672
0.296696 0.494514 0.154513
0.327001 0.489082 0.167636
0.355932 0.482948 0.181979
0.400763 0.505028 0.145480
0.455177 0.528985 0.079896
0.517571 0.553094 0.000000
0.584436 0.575830 0.000000
0.654017 0.596857 0.000000
0.690578 0.581933 0.000000
0.736995 0.566552 0.000000
0.789456 0.578210 0.000000
0.835813 0.587060 0.000000
0.876493 0.591791 0.000000
0.912230 0.593408 0.000000
0.943450 0.592370 0.000000
0.970825 0.589471 0.000000
0.994965 0.585168 0.000000
1.000000 0.574121 0.000000
1.000000 0.558373 0.000000
1.000000 0.544488 0.000000
1.000000 0.531579 0.000000
1.000000 0.520409 0.000000
1.000000 0.511864 0.112764
1.000000 0.507469 0.187289
0.085023 0.580621 0.107729
0.099306 0.580072 0.108644
0.114961 0.578882 0.110933
0.142000 0.576776 0.114473
0.175235 0.573602 0.119997
0.209445 0.569665 0.127657
0.243381 0.565240 0.136751
0.277317 0.560296 0.147219
0.310582 0.555047 0.158724
0.342779 0.549554 0.171786
0.374060 0.543450 0.185763
0.407691 0.545495 0.186130
0.456611 0.568505 0.140963
0.513115 0.591028 0.036042
0.574609 0.611719 0.000000
0.639857 0.630335 0.000000
0.706233 0.647303 0.000000
0.741909 0.630701 0.000000
0.781094 0.608972 0.000000
0.828519 0.612787 0.000000
0.869902 0.617853 0.000000
0.906310 0.619501 0.000000
0.938201 0.618402 0.000000
0.966247 0.615320 0.000000
0.990997 0.610590 0.000000
1.000000 0.604944 0.000000
1.000000 0.598688 0.000000
1.000000 0.584283 0.000000
1.000000 0.570764 0.000000
1.000000 0.558923 0.000000
1.000000 0.549401 0.100862
1.000000 0.543633 0.183230
0.093111 0.640528 0.113771
0.108125 0.640711 0.115175
0.130404 0.668635 0.122408
0.158389 0.666621 0.126528
0.192660 0.663203 0.132235
0.228611 0.658839 0.138918
0.264836 0.653620 0.148562
0.300969 0.647944 0.158236
0.336889 0.641810 0.169894
0.371771 0.635554 0.183108
0.405432 0.628840 0.196750
0.437568 0.621515 0.211917
0.476661 0.629999 0.193179
0.526848 0.648524 0.138277
0.582208 0.665675 0.000000
0.642145 0.681270 0.000000
0.704921 0.695155 0.000000
0.768856 0.707515 0.000000
0.801602 0.687190 0.000000
0.831876 0.656825 0.000000
0.872587 0.651270 0.000000
0.908049 0.651545 0.000000
0.939239 0.649195 0.000000
0.966552 0.644862 0.000000
0.990478 0.638788 0.000000
1.000000 0.631922 0.000000
1.000000 0.624933 0.000000
1.000000 0.619867 0.000000
1.000000 0.609735 0.000000
1.000000 0.596948 0.000000
1.000000 0.586358 0.083772
1.000000 0.579187 0.177127
0.107424 0.702693 0.124483
0.121309 0.705745 0.126253
0.137453 0.708644 0.128878
0.165316 0.710170 0.133394
0.198489 0.709895 0.139712
0.234806 0.707424 0.147250
0.271550 0.703273 0.155459
0.307988 0.698299 0.165164
0.344549 0.693111 0.176364
0.380377 0.687404 0.188724
0.415412 0.681361 0.201877
0.449042 0.674617 0.216464
0.480903 0.666712 0.232029
0.524163 0.681849 0.191989
0.573693 0.697261 0.129702
0.627924 0.711391 0.000000
0.686000 0.723995 0.000000
0.746059 0.734859 0.000000
0.806455 0.744045 0.000000
0.838590 0.723537 0.000000
0.863920 0.689357 0.000000
0.901610 0.678096 0.000000
0.933806 0.675959 0.000000
0.961944 0.671565 0.000000
0.986633 0.665339 0.000000
1.000000 0.658076 0.000000
1.000000 0.650355 0.000000
1.000000 0.644434 0.000000
1.000000 0.639704 0.000000
1.000000 0.634791 0.000000
1.000000 0.623224 0.061585
1.000000 0.614771 0.171481
0.121492 0.749599 0.134524
0.133944 0.752224 0.137270
0.148562 0.754726 0.140261
0.174105 0.756069 0.144228
0.207248 0.755856 0.150088
0.242222 0.753719 0.157076
0.278477 0.750179 0.165042
0.315160 0.745785 0.174197
0.351965 0.741176 0.184634
0.388281 0.736172 0.196628
0.424109 0.730892 0.209873
0.458991 0.724910 0.223850
0.492317 0.717861 0.238895
0.526268 0.716274 0.239475
0.569879 0.730129 0.191897
0.618433 0.742519 0.121340
0.670863 0.753536 0.000000
0.725612 0.762844 0.000000
0.782925 0.771023 0.000000
0.841337 0.778225 0.000000
0.873075 0.757656 0.000000
0.894255 0.720607 0.000000
0.928832 0.703456 0.000000
0.957641 0.698939 0.000000
0.982879 0.692409 0.000000
1.000000 0.684688 0.000000
1.000000 0.676326 0.000000
1.000000 0.669459 0.000000
1.000000 0.663661 0.000000
1.000000 0.659266 0.000000
1.000000 0.656886 0.000000
1.000000 0.649866 0.163607
0.137392 0.792691 0.148775
0.148440 0.794919 0.151492
0.163180 0.796963 0.154147
0.186923 0.798062 0.158755
0.217472 0.797818 0.163882
0.251255 0.795926 0.170657
0.286168 0.792935 0.177890
0.322301 0.789120 0.186465
0.358556 0.784939 0.196597
0.395056 0.780392 0.207736
0.431128 0.775570 0.220127
0.466499 0.770169 0.234043
0.500694 0.764034 0.248386
0.533562 0.757107 0.264042
0.569451 0.761593 0.245121
0.612055 0.772824 0.197879
0.659236 0.783078 0.132082
0.709987 0.792447 0.000000
0.764004 0.800870 0.000000
0.820523 0.808194 0.000000
0.878172 0.814481 0.000000
0.910430 0.794369 0.000000
0.928222 0.754574 0.000000
0.959380 0.731258 0.000000
0.984894 0.724117 0.000000
1.000000 0.715694 0.000000
1.000000 0.706508 0.000000
1.000000 0.698756 0.000000
1.000000 0.691920 0.000000
1.000000 0.686427 0.000000
1.000000 0.682826 0.000000
1.000000 0.682063 0.172854
0.166934 0.840085 0.174014
0.175570 0.840757 0.176150
0.186313 0.841154 0.177493
0.206882 0.840787 0.180697
0.234073 0.839597 0.185245
0.264958 0.837461 0.191226
0.298253 0.834806 0.198001
0.333227 0.831724 0.206302
0.369207 0.828397 0.215702
0.405493 0.824857 0.227054
0.441901 0.821012 0.239567
0.477852 0.816556 0.253391
0.512871 0.811307 0.268040
0.546532 0.805386 0.285863
0.578943 0.798795 0.304662
0.614069 0.806302 0.272465
0.654383 0.814939 0.225986
0.699336 0.822782 0.163973
0.747860 0.829709 0.000458
0.799344 0.835630 0.000000
0.852995 0.840513 0.000000
0.908110 0.844205 0.000000
0.938689 0.822934 0.000000
0.952880 0.780789 0.000000
0.980896 0.751980 0.000000
1.000000 0.743099 0.000000
1.000000 0.733516 0.000000
1.000000 0.724880 0.000000
1.000000 0.717128 0.000000
1.000000 0.710597 0.000000
1.000000 0.705776 0.000000
1.000000 0.703578 0.157015
0.191775 0.872770 0.196017
0.199069 0.873381 0.197910
0.208652 0.873838 0.199771
0.226658 0.873533 0.202976
0.250889 0.872465 0.207523
0.279210 0.870542 0.212314
0.310399 0.868009 0.218418
0.343267 0.865141 0.225834
0.377905 0.861997 0.235172
0.412909 0.858701 0.247044
0.448432 0.855161 0.261326
0.483925 0.851225 0.276829
0.518730 0.846616 0.293462
0.553094 0.841520 0.311254
0.586358 0.835904 0.330144
0.618341 0.831815 0.342687
0.651453 0.839933 0.303502
0.689754 0.847257 0.257176
0.732601 0.853788 0.199130
0.779141 0.859434 0.108949
0.828611 0.864103 0.000000
0.880369 0.867674 0.000000
0.933593 0.870115 0.000000
0.964233 0.848936 0.000000
0.972839 0.802884 0.000000
0.998871 0.769955 0.000000
1.000000 0.759976 0.000000
1.000000 0.750515 0.000000
1.000000 0.742000 0.000000
1.000000 0.734493 0.000000
1.000000 0.728573 0.000000
1.000000 0.725124 0.134279
0.227512 0.907195 0.233066
0.234379 0.907805 0.235447
0.242222 0.907958 0.237583
0.256901 0.907378 0.240665
0.277684 0.906035 0.244785
0.302251 0.904082 0.249851
0.330114 0.901549 0.256260
0.360540 0.898497 0.264042
0.392523 0.895079 0.273411
0.425818 0.891508 0.284520
0.459724 0.887572 0.297124
0.493935 0.883391 0.311345
0.528069 0.878874 0.327062
0.561608 0.873777 0.343694
0.594171 0.868040 0.361151
0.625818 0.861997 0.379828
0.654780 0.860441 0.378393
0.684688 0.866911 0.337713
0.720241 0.873014 0.291356
0.760769 0.878538 0.235843
0.805112 0.883238 0.160891
0.852506 0.886870 0.000000
0.902007 0.889220 0.000000
0.953033 0.890196 0.000000
0.983307 0.869108 0.000000
0.993072 0.825071 0.000000
1.000000 0.791043 0.000000
1.000000 0.777554 0.000000
1.000000 0.768032 0.000000
1.000000 0.759518 0.000000
1.000000 0.752468 0.000000
1.000000 0.747707 0.108278
0.258762 0.930785 0.273350
0.264714 0.931334 0.275853
0.271794 0.931426 0.277989
0.284520 0.930907 0.280888
0.302922 0.929747 0.284855
0.325078 0.928069 0.289830
0.350805 0.925933 0.296178
0.378943 0.923400 0.303716
0.409277 0.920592 0.313085
0.441321 0.917571 0.324346
0.474128 0.914275 0.337102
0.507805 0.910765 0.351629
0.541527 0.906889 0.367620
0.574701 0.902556 0.384527
0.607294 0.897734 0.402411
0.638941 0.892576 0.421149
0.669703 0.887144 0.441108
0.695003 0.888640 0.428382
0.721614 0.894499 0.388525
0.753841 0.899840 0.343023
0.790951 0.904356 0.289494
0.832334 0.907897 0.222263
0.876951 0.910277 0.116915
0.924193 0.911467 0.000000
0.973175 0.911467 0.000000
1.000000 0.891051 0.000000
1.000000 0.846860 0.000000
1.000000 0.812284 0.000000
1.000000 0.795895 0.000000
1.000000 0.786435 0.000000
1.000000 0.778378 0.000000
1.000000 0.772244 0.090364
0.302525 0.952941 0.322728
0.307805 0.953124 0.324804
0.313390 0.953002 0.326390
0.323705 0.952361 0.328801
0.338628 0.951110 0.332006
0.357580 0.949462 0.336370
0.379889 0.947417 0.342046
0.405463 0.945068 0.349340
0.433326 0.942473 0.358251
0.463111 0.939757 0.369116
0.494301 0.936767 0.381811
0.526604 0.933623 0.396338
0.559075 0.930205 0.412299
0.591394 0.926329 0.429145
0.622919 0.922026 0.446723
0.653773 0.917357 0.465003
0.683711 0.912474 0.484352
0.712856 0.907591 0.505028
0.733028 0.911254 0.481788
0.756008 0.916655 0.443305
0.784390 0.921416 0.398779
0.817746 0.925292 0.346410
0.855772 0.928069 0.282414
0.897642 0.929747 0.197452
0.942657 0.930205 0.000000
0.989929 0.929564 0.000000
1.000000 0.910399 0.000000
1.000000 0.867247 0.000000
1.000000 0.831754 0.000000
1.000000 0.812619 0.000000
1.000000 0.803433 0.000000
1.000000 0.795926 0.004761
0.352087 0.970825 0.374212
0.356146 0.970855 0.375952
0.360937 0.970703 0.377539
0.369604 0.970153 0.380041
0.383032 0.969238 0.383764
0.400397 0.968048 0.389166
0.421942 0.966766 0.396765
0.446571 0.965362 0.406226
0.474220 0.963745 0.417945
0.503868 0.961975 0.431678
0.534905 0.959960 0.447059
0.566674 0.957671 0.463874
0.598627 0.955016 0.481758
0.629969 0.951904 0.499977
0.660334 0.948333 0.518273
0.689235 0.944396 0.536187
0.717159 0.940215 0.554376
0.744137 0.935973 0.573297
0.770169 0.931884 0.593133
0.783841 0.937011 0.564141
0.801633 0.941863 0.529381
0.824125 0.946105 0.487556
0.851621 0.949462 0.436408
0.884459 0.951751 0.374517
0.922301 0.952880 0.297337
0.964508 0.952789 0.190616
1.000000 0.951568 0.000000
1.000000 0.933471 0.000000
1.000000 0.891356 0.000000
1.000000 0.854856 0.000000
1.000000 0.832761 0.000000
1.000000 0.823636 0.042573
0.432502 0.990082 0.450294
0.435554 0.990021 0.451667
0.438849 0.989746 0.452705
0.445319 0.989136 0.454658
0.455390 0.988128 0.457679
0.468788 0.986847 0.462043
0.485695 0.985351 0.468177
0.505577 0.983642 0.476020
0.528222 0.981720 0.485756
0.553063 0.979583 0.497139
0.579217 0.977203 0.509819
0.606470 0.974640 0.523949
0.634028 0.971801 0.538903
0.661494 0.968658 0.554345
