cubelut/LC7.cube
# Created by Adobe Lightroom plugin Export LUT (1.18.0)
# www.johnrellis.com/lightroom/exportlut.htm
# Preset: LC7
# Color profile: /Library/Application Support/Adobe/Color/Profiles/Recommended/AdobeRGB1998.icc
LUT_3D_SIZE 8
DOMAIN_MIN 0.000000 0.000000 0.000000
DOMAIN_MAX 0.903226 0.903226 0.903226
0.156588 0.129732 0.174594
0.156588 0.129732 0.174594
0.235142 0.121523 0.172671
0.445686 0.084260 0.161410
0.694972 0.000000 0.130770
0.902647 0.000000 0.071656
1.000000 0.000000 0.000000
1.000000 0.000000 0.064454
0.156588 0.129732 0.174594
0.156588 0.129732 0.174594
0.222202 0.142000 0.171939
0.427008 0.154849 0.158938
0.675685 0.153658 0.126070
0.886900 0.119997 0.059693
1.000000 0.000000 0.000000
1.000000 0.000000 0.000000
0.154025 0.168032 0.172030
0.161898 0.158877 0.172549
0.232639 0.197391 0.166995
0.418189 0.259922 0.147341
0.675990 0.321202 0.090791
0.888609 0.326726 0.000000
1.000000 0.283085 0.000000
1.000000 0.227268 0.000000
0.128969 0.344305 0.147066
0.168643 0.335607 0.147951
0.243687 0.312749 0.149813
0.460334 0.411536 0.101595
0.705715 0.474342 0.000000
0.893553 0.511925 0.000000
1.000000 0.465003 0.000000
1.000000 0.409888 0.000000
0.085023 0.580621 0.107729
0.175235 0.573602 0.119997
0.310582 0.555047 0.158724
0.456611 0.568505 0.140963
0.706233 0.647303 0.000000
0.869902 0.617853 0.000000
0.990997 0.610590 0.000000
1.000000 0.570764 0.000000
0.137392 0.792691 0.148775
0.217472 0.797818 0.163882
0.358556 0.784939 0.196597
0.500694 0.764034 0.248386
0.659236 0.783078 0.132082
0.878172 0.814481 0.000000
0.984894 0.724117 0.000000
1.000000 0.691920 0.000000
0.258762 0.930785 0.273350
0.302922 0.929747 0.284855
0.409277 0.920592 0.313085
0.541527 0.906889 0.367620
0.669703 0.887144 0.441108
0.790951 0.904356 0.289494
0.973175 0.911467 0.000000
1.000000 0.795895 0.000000
0.499763 1.000000 0.513390
0.518761 1.000000 0.520378
0.581628 0.994995 0.547539
0.675807 0.986358 0.597833
0.755245 0.970275 0.635431
0.841032 0.961425 0.691615
0.901030 0.977813 0.574975
1.000000 0.979858 0.248966
0.156588 0.129732 0.174594
0.156588 0.129732 0.174594
0.204776 0.116884 0.179141
0.399237 0.000000 0.167422
0.652064 0.000000 0.143618
0.874449 0.000000 0.095338
1.000000 0.000000 0.000000
1.000000 0.000000 0.000000
0.156588 0.129732 0.174594
0.156588 0.129732 0.174594
0.196475 0.127169 0.173678
0.392767 0.107088 0.164706
0.643214 0.024384 0.138399
0.866148 0.000000 0.084871
0.996246 0.000000 0.000000
1.000000 0.000000 0.000000
0.151034 0.163241 0.177707
0.154940 0.155734 0.172946
0.207736 0.174929 0.169986
0.385290 0.231876 0.154238
0.640314 0.278965 0.112215
0.863096 0.287480 0.000000
0.996857 0.263249 0.000000
1.000000 0.218601 0.000000
0.095033 0.331945 0.164401
0.133364 0.324651 0.151369
0.238621 0.306981 0.176211
0.414252 0.367620 0.123598
0.643427 0.425086 0.016663
0.855772 0.476295 0.000000
0.989197 0.451087 0.000000
1.000000 0.402258 0.000000
0.066438 0.567864 0.172824
0.166445 0.559655 0.179721
0.302953 0.538415 0.204288
0.431495 0.534234 0.204776
0.666255 0.608820 0.000000
0.847318 0.597742 0.000000
0.981994 0.603967 0.000000
1.000000 0.565240 0.000000
0.120882 0.779019 0.200961
0.201999 0.775906 0.208469
0.346563 0.763973 0.233036
0.490150 0.746334 0.277379
0.646326 0.767727 0.197482
0.871977 0.807004 0.000000
0.981292 0.720516 0.000000
1.000000 0.688014 0.000000
0.251926 0.920653 0.284459
0.291325 0.917144 0.288518
0.399969 0.909331 0.311742
0.533593 0.898283 0.358373
0.663172 0.880919 0.428809
0.787015 0.898985 0.271794
0.969146 0.905425 0.000000
1.000000 0.790585 0.000000
0.479744 1.000000 0.496925
0.502281 0.998627 0.506432
0.568780 0.993194 0.535332
0.666590 0.984741 0.587732
0.764096 0.972778 0.647272
0.843473 0.962402 0.695552
0.899626 0.976959 0.569421
1.000000 0.978058 0.231205
0.153384 0.124300 0.264286
0.176669 0.119295 0.258183
0.225498 0.104829 0.238529
0.401923 0.000000 0.276188
0.640681 0.000000 0.285435
0.867216 0.000000 0.267094
1.000000 0.000000 0.276402
1.000000 0.000000 0.281834
0.135836 0.135225 0.240818
0.154299 0.126467 0.234958
0.212375 0.110964 0.226352
0.388190 0.000000 0.255802
0.628016 0.000000 0.265843
0.857877 0.000000 0.259007
0.995056 0.000000 0.268009
1.000000 0.000000 0.273106
0.129946 0.190249 0.228367
0.133272 0.184421 0.223209
0.227756 0.201694 0.240146
0.377203 0.192569 0.234806
0.628931 0.205203 0.248173
0.854490 0.211032 0.252842
0.991119 0.219791 0.258244
1.000000 0.222232 0.258885
0.000000 0.351324 0.257908
0.089021 0.343877 0.248844
0.253819 0.332097 0.263310
0.393591 0.354711 0.242039
0.625757 0.413947 0.240330
0.847288 0.448615 0.239078
0.985779 0.433967 0.239658
1.000000 0.403449 0.230625
0.000000 0.579278 0.292668
0.115785 0.570764 0.291356
0.298741 0.549615 0.302861
0.432502 0.525139 0.334417
0.643366 0.592279 0.220371
0.834989 0.589776 0.183078
0.974395 0.603998 0.193790
1.000000 0.562676 0.166934
0.000000 0.783780 0.317998
0.171511 0.778805 0.322850
0.347814 0.762905 0.345068
0.496162 0.743435 0.377234
0.632715 0.748257 0.359136
0.848936 0.789700 0.155154
0.972076 0.714839 0.000000
1.000000 0.687709 0.000000
0.269627 0.923125 0.384741
0.328252 0.918578 0.400885
0.440711 0.907805 0.429236
0.561700 0.894713 0.462501
0.681056 0.877379 0.511589
0.788540 0.893553 0.401434
0.970153 0.905486 0.000000
1.000000 0.791379 0.000000
0.483894 1.000000 0.517388
0.518639 0.996460 0.535485
0.574731 0.991119 0.552850
0.668116 0.984314 0.595727
0.760098 0.972686 0.643519
0.843351 0.962310 0.696651
0.900786 0.977478 0.571649
1.000000 0.978882 0.227970
0.149447 0.097475 0.455665
0.198245 0.080293 0.452338
0.301518 0.000000 0.435157
0.415229 0.000000 0.413855
0.644923 0.000000 0.468238
0.854643 0.000000 0.479133
0.984161 0.000000 0.463050
1.000000 0.157321 0.479561
0.063081 0.115602 0.436255
0.149660 0.102205 0.432990
0.277501 0.000000 0.421271
0.405432 0.000000 0.404669
0.638819 0.000000 0.461189
0.847715 0.000000 0.470222
0.979828 0.000000 0.458473
1.000000 0.227878 0.483619
0.000000 0.239261 0.413367
0.000000 0.223697 0.406500
0.238102 0.208042 0.394873
0.388556 0.207004 0.388830
0.626856 0.190890 0.440986
0.844907 0.165957 0.454383
0.979583 0.279728 0.475135
1.000000 0.374640 0.501884
0.000000 0.379980 0.399451
0.000000 0.373785 0.394079
0.221622 0.366155 0.387884
0.430213 0.407965 0.426093
0.619837 0.394476 0.414130
0.826932 0.419165 0.434852
0.967071 0.454017 0.464607
1.000000 0.482216 0.488777
0.000000 0.609888 0.446418
0.000000 0.599268 0.438575
0.248631 0.578729 0.425605
0.459022 0.571252 0.451270
0.627100 0.589471 0.421271
0.818540 0.608484 0.434302
0.958190 0.624659 0.464912
1.000000 0.606928 0.471382
0.000000 0.803586 0.462318
0.000000 0.804807 0.465766
0.327031 0.785794 0.471565
0.529992 0.763607 0.514611
0.655360 0.742214 0.549157
0.828855 0.781918 0.433814
0.955444 0.732204 0.415442
1.000000 0.724575 0.432654
0.206607 0.929259 0.482460
0.284611 0.926299 0.492744
0.458473 0.914366 0.535424
0.620996 0.897551 0.597375
0.722591 0.882414 0.629999
0.805295 0.886381 0.604761
0.954314 0.901488 0.422980
1.000000 0.801663 0.296483
0.456855 1.000000 0.565118
0.501244 1.000000 0.583520
0.616968 0.991760 0.638209
0.720363 0.980041 0.688441
0.791867 0.970306 0.715511
0.859953 0.960052 0.748409
0.907866 0.974578 0.651942
1.000000 0.979187 0.243595
0.148653 0.000000 0.678889
0.214969 0.000000 0.677211
0.350072 0.000000 0.666712
0.504265 0.000000 0.652613
0.664546 0.000000 0.643366
0.849027 0.000000 0.651545
0.973358 0.000000 0.629908
1.000000 0.254612 0.621637
0.000000 0.043824 0.666896
0.158389 0.000000 0.667323
0.332891 0.000000 0.658656
0.493721 0.000000 0.643519
0.656397 0.000000 0.635737
0.845090 0.000000 0.647700
0.970886 0.037232 0.630091
1.000000 0.310094 0.626398
0.000000 0.260136 0.643793
0.000000 0.246983 0.639002
0.276432 0.233555 0.630335
0.468360 0.226596 0.625605
0.631952 0.200748 0.613031
0.826261 0.228550 0.631983
0.959655 0.316625 0.629603
1.000000 0.437812 0.640406
0.000000 0.449805 0.633997
0.000000 0.441505 0.628901
0.198245 0.418189 0.618158
0.435981 0.408698 0.611749
0.621088 0.412665 0.602136
0.812802 0.451484 0.624964
0.946380 0.510246 0.640742
1.000000 0.590997 0.671321
0.000000 0.619104 0.615290
0.000000 0.614221 0.610925
0.172915 0.600275 0.598657
0.416144 0.596185 0.594873
0.652644 0.635370 0.629603
0.802304 0.622797 0.617487
0.932921 0.654994 0.645411
1.000000 0.689998 0.675929
0.000000 0.806424 0.614099
0.000000 0.801938 0.610468
0.201358 0.785580 0.599817
0.465797 0.766506 0.601312
0.663844 0.752438 0.638758
0.799771 0.769863 0.620478
0.926421 0.775113 0.646632
1.000000 0.790036 0.676478
0.000000 0.934447 0.601282
0.149386 0.930755 0.603326
0.382849 0.918944 0.617670
0.588647 0.900938 0.656855
0.739467 0.883330 0.707362
0.819089 0.871427 0.730373
0.928588 0.892699 0.643702
1.000000 0.841886 0.609857
0.362097 1.000000 0.617548
0.414099 1.000000 0.628107
0.550805 0.995850 0.665095
0.709255 0.982696 0.728298
0.811185 0.969451 0.772671
0.871672 0.960174 0.794156
0.918578 0.965789 0.774014
1.000000 0.975341 0.614984
0.159579 0.000000 0.834409
0.226383 0.000000 0.833433
0.366644 0.000000 0.828092
0.524987 0.000000 0.824887
0.686549 0.000000 0.819089
0.844175 0.000000 0.808347
0.964202 0.000000 0.776059
1.000000 0.350042 0.752773
0.129152 0.096162 0.825559
0.206729 0.086824 0.824399
0.355261 0.022797 0.820798
0.517205 0.000000 0.818357
0.679347 0.000000 0.811917
0.837461 0.000000 0.802121
0.960235 0.171267 0.773922
1.000000 0.389349 0.754513
0.000000 0.281926 0.817655
0.136172 0.280369 0.816892
0.329961 0.276860 0.814786
0.504936 0.274357 0.810788
0.670924 0.278019 0.802396
0.827420 0.258915 0.792508
0.951415 0.377813 0.773739
1.000000 0.509636 0.765805
0.000000 0.459632 0.812802
0.000000 0.455756 0.809842
0.295537 0.454780 0.803281
0.504967 0.473945 0.800290
0.674128 0.491798 0.794034
0.819944 0.491981 0.784726
0.939513 0.573968 0.780819
1.000000 0.647486 0.785214
0.000000 0.632929 0.796506
0.000000 0.630426 0.794705
0.238193 0.624048 0.788815
0.468757 0.623865 0.781643
0.664820 0.644343 0.775387
0.802182 0.651179 0.767514
0.921752 0.700191 0.778622
1.000000 0.745724 0.794461
0.000000 0.799039 0.777218
0.000000 0.798520 0.776822
0.192813 0.791928 0.770809
0.455634 0.783383 0.763027
0.647944 0.779477 0.758938
0.817197 0.803861 0.779934
0.914397 0.806546 0.781704
0.996796 0.831937 0.803799
0.000000 0.943572 0.748867
0.000000 0.942046 0.749081
0.293278 0.933440 0.748806
0.536492 0.917205 0.755001
0.715816 0.898589 0.770382
0.837919 0.885618 0.798306
0.912932 0.891936 0.782162
0.992554 0.893400 0.794797
0.202487 1.000000 0.710414
0.286198 1.000000 0.714748
0.467659 1.000000 0.732815
0.650813 0.990600 0.766842
0.788846 0.975402 0.803891
0.879973 0.964080 0.836301
0.929137 0.958740 0.850584
0.998840 0.972717 0.792996
0.230350 0.101350 0.918029
0.272068 0.100710 0.917784
0.380224 0.097780 0.916747
0.514763 0.093538 0.914763
0.657374 0.100557 0.910582
0.801205 0.126497 0.905089
0.942931 0.129488 0.898833
1.000000 0.361578 0.861295
0.232364 0.185183 0.916655
0.273411 0.184573 0.916381
0.380865 0.183169 0.915221
0.514977 0.183017 0.912749
0.657862 0.194156 0.908751
0.801328 0.217563 0.903410
0.941253 0.224063 0.897215
1.000000 0.406378 0.861936
0.250248 0.337438 0.911589
0.288945 0.337926 0.911192
0.393072 0.341253 0.909819
0.525078 0.349462 0.907164
0.665492 0.367163 0.902953
0.803983 0.393927 0.897429
0.935607 0.401190 0.891508
1.000000 0.526299 0.864530
0.276707 0.490394 0.904784
0.327459 0.498177 0.903319
0.451575 0.523552 0.899901
0.566003 0.534386 0.897063
0.690455 0.551446 0.892912
0.812833 0.574823 0.887572
0.926696 0.574945 0.882567
1.000000 0.658808 0.868864
0.194949 0.617914 0.898650
0.260441 0.620813 0.897673
0.411017 0.634119 0.894255
0.589197 0.670527 0.887907
0.719600 0.698634 0.882414
0.822416 0.712215 0.877775
0.917540 0.713649 0.873228
0.997620 0.769863 0.873838
0.106050 0.763363 0.889738
0.209842 0.764248 0.888884
0.388434 0.769070 0.885710
0.563012 0.779721 0.880674
0.711116 0.794797 0.875120
0.829862 0.814939 0.870481
0.910857 0.819028 0.866239
0.989593 0.852598 0.877684
0.000000 0.911620 0.878386
0.068818 0.910826 0.877592
0.349340 0.907927 0.874846
0.543969 0.903532 0.870573
0.703822 0.898680 0.865629
0.822812 0.896056 0.862638
0.916197 0.905364 0.870390
0.985138 0.913634 0.877317
0.000000 1.000000 0.836210
0.065766 1.000000 0.836728
0.370062 1.000000 0.839384
0.577752 1.000000 0.846250
0.744656 0.986114 0.857847
0.860777 0.973724 0.871397
0.936217 0.966064 0.888243
0.987549 0.971557 0.877897
0.347417 0.277317 0.977722
0.370214 0.279362 0.977478
0.440681 0.287846 0.976562
0.541772 0.303990 0.974853
0.658137 0.330877 0.972259
0.779599 0.370489 0.968688
0.897368 0.406775 0.964660
1.000000 0.428748 0.960601
0.366186 0.325475 0.976532
0.387701 0.327672 0.976257
0.454658 0.335393 0.975341
0.552636 0.351293 0.973571
0.666224 0.377234 0.970916
0.784817 0.414771 0.967315
0.899351 0.448402 0.963317
1.000000 0.466285 0.959411
0.439796 0.461738 0.971893
0.456794 0.463691 0.971618
0.512444 0.471595 0.970611
0.597223 0.486275 0.968780
0.698268 0.508904 0.966033
0.804105 0.537835 0.962524
0.906340 0.562005 0.958801
1.000000 0.569665 0.955474
0.561089 0.629389 0.963439
0.572442 0.630854 0.963195
0.610681 0.636042 0.962280
0.672358 0.645411 0.960693
0.749142 0.658686 0.958404
0.833036 0.675288 0.955505
0.916808 0.688899 0.952453
1.000000 0.687098 0.949950
0.522576 0.685451 0.961425
0.551202 0.694759 0.960479
0.635279 0.725551 0.957397
0.737026 0.768185 0.953002
0.793484 0.774258 0.951293
0.858274 0.782040 0.949065
0.926513 0.791043 0.946471
0.995392 0.787533 0.944396
0.476448 0.766506 0.957794
0.506554 0.771664 0.957092
0.593805 0.788876 0.954681
0.701259 0.814267 0.951141
0.804868 0.844816 0.946960
0.876738 0.862119 0.943969
0.933440 0.866850 0.941711
0.990875 0.865324 0.939574
0.410956 0.867308 0.952483
0.447852 0.869566 0.951904
0.550561 0.877379 0.949950
0.675776 0.890074 0.946868
0.786099 0.903929 0.943450
0.870909 0.915526 0.940551
0.936919 0.925383 0.938109
0.987427 0.925963 0.935912
0.258457 0.986450 0.945342
0.320836 0.986053 0.944945
0.469459 0.984710 0.943511
0.632502 0.982544 0.941131
0.765591 0.980194 0.938476
0.861418 0.978027 0.935973
0.931060 0.976287 0.933928
0.986725 0.977630 0.934752
