cubelut/LC7.cube
# Created by Adobe Lightroom plugin Export LUT (1.18.0)
# www.johnrellis.com/lightroom/exportlut.htm
# Preset: LC7
# Color profile: /Library/Application Support/Adobe/Color/Profiles/Recommended/AdobeRGB1998.icc
LUT_3D_SIZE 5
DOMAIN_MIN 0.000000 0.000000 0.000000
DOMAIN_MAX 0.903226 0.903226 0.903226
0.156588 0.129732 0.174594
0.184939 0.127077 0.174014
0.570581 0.028321 0.149050
0.940337 0.000000 0.041505
1.000000 0.000000 0.064454
0.156588 0.129732 0.174594
0.187228 0.156619 0.172061
0.545800 0.263218 0.132021
0.931243 0.272496 0.000000
1.000000 0.171389 0.020722
0.092409 0.453712 0.113649
0.247898 0.432837 0.136019
0.595575 0.540764 0.000000
0.915862 0.566125 0.000000
1.000000 0.491188 0.000000
0.166934 0.840085 0.174014
0.333227 0.831724 0.206302
0.578943 0.798795 0.304662
0.908110 0.844205 0.000000
1.000000 0.717128 0.000000
0.499763 1.000000 0.513390
0.561944 0.996704 0.538384
0.705440 0.976379 0.603357
0.851499 0.966186 0.671199
1.000000 0.979858 0.248966
0.154818 0.127535 0.218326
0.183322 0.122011 0.199283
0.511437 0.000000 0.235447
0.904265 0.000000 0.217227
1.000000 0.000000 0.219577
0.149477 0.149752 0.192233
0.185641 0.158877 0.201266
0.490455 0.153292 0.203342
0.898466 0.151156 0.204959
1.000000 0.153719 0.203952
0.000000 0.453254 0.241550
0.242802 0.426368 0.252201
0.514794 0.467170 0.189456
0.883055 0.539269 0.148501
1.000000 0.484169 0.114992
0.145113 0.836423 0.308690
0.342504 0.825528 0.338994
0.589014 0.793698 0.406500
0.896178 0.833646 0.000000
1.000000 0.713100 0.000000
0.496010 1.000000 0.515373
0.553796 0.996643 0.533318
0.716365 0.979767 0.618128
0.855344 0.967803 0.678767
1.000000 0.980621 0.245914
0.149111 0.056947 0.573022
0.298924 0.000000 0.558221
0.534508 0.000000 0.523735
0.890043 0.000000 0.564904
1.000000 0.207523 0.551904
0.000000 0.207340 0.533806
0.225254 0.184543 0.520592
0.515435 0.155947 0.505913
0.876585 0.126894 0.550500
1.000000 0.387243 0.576013
0.000000 0.500175 0.507958
0.142672 0.481514 0.491646
0.543999 0.524254 0.530266
0.852354 0.532830 0.536370
1.000000 0.599237 0.594110
0.000000 0.846098 0.537652
0.247257 0.829252 0.535515
0.624292 0.796719 0.601770
0.852659 0.812589 0.544488
1.000000 0.771298 0.549798
0.409094 1.000000 0.583948
0.552239 0.996765 0.633783
0.768673 0.973907 0.733242
0.879332 0.956786 0.777584
1.000000 0.976440 0.453773
0.172396 0.000000 0.855772
0.330907 0.000000 0.853483
0.600061 0.000000 0.848875
0.871977 0.000000 0.833951
1.000000 0.352026 0.779355
0.093141 0.246220 0.845548
0.304997 0.241672 0.844266
0.588830 0.236484 0.837705
0.859586 0.217044 0.822232
1.000000 0.475074 0.785367
0.000000 0.537224 0.829404
0.215366 0.531487 0.824186
0.588708 0.562707 0.811276
0.836118 0.577295 0.799161
1.000000 0.697292 0.807584
0.000000 0.835477 0.809873
0.125612 0.827817 0.803098
0.569635 0.815305 0.791379
0.845670 0.833036 0.805936
0.991608 0.852201 0.822080
0.089204 1.000000 0.737911
0.387762 1.000000 0.750973
0.716426 0.985901 0.800229
0.896666 0.964843 0.851713
0.994934 0.971740 0.818296
0.347417 0.277317 0.977722
0.419471 0.285130 0.976867
0.598718 0.315648 0.973663
0.809873 0.382818 0.967651
1.000000 0.428748 0.960601
0.415015 0.421607 0.973449
0.474678 0.429175 0.972503
0.633661 0.457862 0.969116
0.825315 0.512078 0.963012
1.000000 0.540276 0.956664
0.550744 0.659022 0.962249
0.633143 0.694789 0.959014
0.739651 0.717189 0.955627
0.865324 0.735683 0.951446
0.997986 0.740047 0.947112
0.463813 0.790311 0.956603
0.559167 0.804929 0.954345
0.748623 0.843931 0.948302
0.893431 0.879667 0.942412
0.989899 0.881712 0.938567
0.258457 0.986450 0.945342
0.428626 0.985138 0.943969
0.703914 0.981384 0.939788
0.880735 0.977539 0.935393
0.986725 0.977630 0.934752
