cubelut/LC8.cube
# Created by Adobe Lightroom plugin Export LUT (1.18.0)
# www.johnrellis.com/lightroom/exportlut.htm
# Preset: LC8
# Color profile: /Library/Application Support/Adobe/Color/Profiles/Recommended/AdobeRGB1998.icc
LUT_3D_SIZE 8
DOMAIN_MIN 0.000000 0.000000 0.000000
DOMAIN_MAX 0.903226 0.903226 0.903226
0.240543 0.212436 0.262486
0.240543 0.212436 0.262486
0.240543 0.212436 0.262486
0.294255 0.208652 0.261295
0.384710 0.198734 0.258640
0.478798 0.184451 0.254856
0.609430 0.204288 0.270085
0.822141 0.231357 0.288212
0.240543 0.212436 0.262486
0.240543 0.212436 0.262486
0.240543 0.212436 0.262486
0.304845 0.215244 0.260533
0.392981 0.209598 0.257603
0.485512 0.203891 0.256809
0.618494 0.227481 0.273289
0.828733 0.259190 0.290929
0.238651 0.226749 0.262058
0.240848 0.232334 0.261143
0.267216 0.247227 0.259373
0.330083 0.255680 0.256748
0.409979 0.256443 0.255650
0.495460 0.268864 0.268101
0.629877 0.294560 0.281773
0.836362 0.337133 0.298283
0.219242 0.330358 0.259159
0.219974 0.334539 0.252201
0.268498 0.342473 0.250065
0.349523 0.351781 0.246159
0.435706 0.348333 0.251164
0.513176 0.358587 0.284215
0.658137 0.395727 0.297185
0.856535 0.449744 0.312505
0.186770 0.439979 0.254734
0.199283 0.442023 0.251682
0.259220 0.446662 0.251621
0.348028 0.452644 0.257450
0.449165 0.463966 0.265843
0.557488 0.477089 0.273381
0.708034 0.522362 0.297917
0.881804 0.582422 0.333379
0.195529 0.572930 0.271275
0.207492 0.573571 0.267613
0.262821 0.582208 0.262058
0.361028 0.596063 0.265873
0.476112 0.616693 0.271366
0.605341 0.642298 0.278386
0.758389 0.681239 0.285618
0.913664 0.716548 0.310399
0.179171 0.777829 0.280827
0.195132 0.779599 0.275578
0.262119 0.787442 0.264225
0.383917 0.797513 0.268803
0.513512 0.811124 0.276249
0.647242 0.825345 0.287022
0.782681 0.839567 0.302342
0.934173 0.869963 0.333410
0.246098 0.945464 0.306218
0.261784 0.946471 0.303014
0.323857 0.948913 0.297704
0.432288 0.951080 0.305516
0.553857 0.956329 0.321630
0.676631 0.958770 0.344671
0.798306 0.960388 0.380285
0.912871 0.961944 0.433417
0.240543 0.212436 0.262486
0.240543 0.212436 0.262486
0.240543 0.212436 0.262486
0.306523 0.196841 0.265721
0.396124 0.168154 0.259800
0.486091 0.185550 0.271641
0.619989 0.202518 0.286168
0.830686 0.221012 0.302800
0.240543 0.212436 0.262486
0.240543 0.212436 0.262486
0.240543 0.212436 0.262486
0.314641 0.196750 0.261357
0.400885 0.190799 0.262791
0.490272 0.207584 0.274876
0.627710 0.226169 0.288945
0.837156 0.250584 0.305577
0.237247 0.230655 0.265843
0.236454 0.236149 0.265690
0.261540 0.248600 0.259434
0.333074 0.252171 0.265293
0.413489 0.260410 0.274235
0.500053 0.272648 0.284733
0.641413 0.296025 0.297002
0.845487 0.333135 0.312444
0.214817 0.334691 0.272282
0.215030 0.338293 0.267826
0.249424 0.346715 0.254398
0.349767 0.354711 0.261082
0.440955 0.350958 0.266545
0.519402 0.364874 0.301701
0.669886 0.399756 0.311315
0.864561 0.449104 0.326085
0.190738 0.441321 0.274357
0.203311 0.443519 0.272007
0.250645 0.449012 0.265324
0.345525 0.455665 0.271122
0.450904 0.467201 0.279301
0.562615 0.480385 0.286107
0.713832 0.525475 0.313573
0.886534 0.582574 0.345434
0.198215 0.576349 0.289647
0.210269 0.578973 0.286809
0.251347 0.588128 0.274723
0.355444 0.601099 0.278080
0.474403 0.620478 0.283330
0.605798 0.644343 0.289982
0.761807 0.683253 0.297093
0.916350 0.717098 0.325078
0.180728 0.782406 0.301457
0.196902 0.785275 0.297276
0.248020 0.793088 0.279332
0.374212 0.802029 0.280797
0.508843 0.814084 0.287968
0.646082 0.828092 0.298711
0.784360 0.842313 0.313756
0.937591 0.872618 0.347784
0.247227 0.947112 0.323339
0.262638 0.947875 0.320226
0.312932 0.950774 0.308598
0.425666 0.952667 0.316197
0.548821 0.955566 0.330816
0.675288 0.958556 0.355474
0.799496 0.960632 0.393225
0.914549 0.962341 0.446937
0.240604 0.212253 0.266514
0.242252 0.211734 0.270909
0.259617 0.207523 0.284123
0.313451 0.193118 0.297215
0.400519 0.165011 0.304479
0.489754 0.190768 0.317357
0.626459 0.190768 0.330510
0.836088 0.152438 0.341497
0.236790 0.212833 0.278569
0.239384 0.211704 0.282292
0.261173 0.206790 0.291447
0.322026 0.190280 0.301366
0.405585 0.189181 0.308537
0.493507 0.210636 0.319524
0.633021 0.211490 0.331792
0.840787 0.194949 0.343877
0.226993 0.246372 0.297002
0.226474 0.245274 0.299504
0.237461 0.230900 0.305974
0.335393 0.240879 0.310277
0.414527 0.257816 0.316991
0.501457 0.272709 0.326085
0.647791 0.281102 0.336919
0.851621 0.299382 0.350439
0.202335 0.336431 0.312688
0.201328 0.339696 0.312963
0.245823 0.345464 0.314916
0.337713 0.349004 0.311894
0.430671 0.352331 0.331060
0.519615 0.363775 0.339910
0.673915 0.389136 0.348730
0.868284 0.428260 0.362066
0.190768 0.442267 0.320500
0.205631 0.443915 0.321294
0.252842 0.448524 0.321355
0.327062 0.453986 0.314061
0.443305 0.463294 0.321324
0.563012 0.475044 0.325383
0.714351 0.521782 0.361273
0.890013 0.571221 0.379950
0.198642 0.577691 0.337560
0.212924 0.580224 0.337591
0.256840 0.589319 0.334264
0.325078 0.603937 0.318395
0.458442 0.622705 0.322423
0.601556 0.645533 0.328496
0.767025 0.682521 0.334112
0.917327 0.712367 0.373083
0.178408 0.782498 0.358038
0.195743 0.785092 0.355871
0.247959 0.793332 0.345342
0.327214 0.805722 0.319280
0.484047 0.817441 0.324651
0.634638 0.829892 0.333898
0.781186 0.841917 0.349767
0.939605 0.871305 0.389227
0.242100 0.947539 0.373632
0.257053 0.948699 0.370336
0.308843 0.951812 0.361456
0.400702 0.954681 0.352117
0.539147 0.956909 0.369116
0.674434 0.958801 0.395605
0.802609 0.960113 0.433875
0.917632 0.961456 0.484657
0.242649 0.208530 0.328374
0.248569 0.207156 0.331640
0.273777 0.200870 0.342046
0.328038 0.184604 0.355688
0.407813 0.149783 0.365972
0.497536 0.165591 0.372961
0.642267 0.167117 0.397742
0.846983 0.086885 0.421637
0.232975 0.209781 0.338476
0.240177 0.208255 0.340826
0.268498 0.201694 0.348486
0.326970 0.184604 0.360204
0.413031 0.148531 0.370428
0.501457 0.187839 0.375830
0.648066 0.190433 0.400031
0.850797 0.133425 0.420722
0.209567 0.240482 0.354528
0.209598 0.234531 0.357336
0.225376 0.209445 0.364935
0.318608 0.208865 0.373114
0.422980 0.218082 0.380652
0.510918 0.255314 0.383429
0.658656 0.258427 0.402869
0.858946 0.235904 0.416785
0.181186 0.326574 0.373175
0.180789 0.324987 0.375036
0.231388 0.324315 0.379706
0.314397 0.319463 0.384894
0.431342 0.325017 0.391913
0.527581 0.352667 0.395300
0.685573 0.357336 0.407568
0.876371 0.374701 0.417823
0.190555 0.442725 0.387610
0.206058 0.444404 0.389136
0.255985 0.448463 0.392798
0.333165 0.452094 0.396704
0.431250 0.454536 0.395453
0.551995 0.468605 0.409003
0.718929 0.501915 0.419776
0.894316 0.551751 0.441932
0.196384 0.578119 0.405951
0.210941 0.579034 0.406165
0.256870 0.588342 0.408728
0.327520 0.602197 0.407599
0.419745 0.619654 0.392493
0.584344 0.640558 0.391333
0.771328 0.671839 0.396460
0.914794 0.713405 0.468482
0.167941 0.784329 0.438788
0.186465 0.786221 0.437629
0.241001 0.793057 0.432349
0.320165 0.804562 0.417243
0.428321 0.818906 0.389868
0.611872 0.829984 0.399451
0.778775 0.840940 0.421424
0.940551 0.866178 0.464118
0.236973 0.947356 0.452552
0.251499 0.948150 0.450050
0.297520 0.951354 0.439429
0.385290 0.955596 0.425849
0.532708 0.957305 0.438178
0.679561 0.958099 0.464912
0.811246 0.958770 0.500450
0.924132 0.960143 0.543847
0.246891 0.202914 0.396765
0.254215 0.201175 0.398993
0.281071 0.194125 0.406958
0.331182 0.178103 0.417914
0.406989 0.142428 0.432319
0.507103 0.109407 0.447486
0.660456 0.091402 0.482979
0.858671 0.000000 0.521508
0.236057 0.204501 0.404517
0.244266 0.202731 0.405921
0.273716 0.195560 0.412177
0.326940 0.179110 0.422370
0.406378 0.142214 0.436500
0.511009 0.134127 0.451026
0.665309 0.126406 0.485542
0.861753 0.000000 0.521386
0.184573 0.217777 0.420020
0.189151 0.211032 0.422156
0.232547 0.203250 0.427619
0.308080 0.194522 0.436316
0.409522 0.198032 0.448341
0.524468 0.202914 0.463783
0.682612 0.208377 0.494331
0.872953 0.180819 0.519677
0.152682 0.301762 0.437018
0.166079 0.300542 0.439155
0.214420 0.296696 0.445136
0.292210 0.287053 0.453925
0.410193 0.294133 0.464729
0.541863 0.300450 0.480842
0.706630 0.313054 0.501946
0.887633 0.307347 0.508690
0.167819 0.430396 0.461280
0.183658 0.430945 0.462776
0.232670 0.432471 0.468055
0.307500 0.432319 0.475837
0.402533 0.425086 0.485084
0.557977 0.423346 0.498451
0.736172 0.457984 0.506279
0.901030 0.520836 0.522789
0.185336 0.585992 0.494484
0.200748 0.588281 0.496345
0.249699 0.596307 0.502190
0.323613 0.608820 0.509911
0.417060 0.626215 0.514183
0.569543 0.635584 0.512139
0.763180 0.665675 0.533959
0.913359 0.717403 0.563531
0.150149 0.788663 0.537835
0.170779 0.791012 0.538201
0.230106 0.798154 0.537774
0.310155 0.809140 0.531518
0.416754 0.822446 0.512322
0.597833 0.830228 0.508904
0.784115 0.839017 0.528801
0.942229 0.859159 0.559625
0.233280 0.950134 0.549859
0.248539 0.951049 0.548363
0.298985 0.953979 0.542168
0.379492 0.956970 0.527703
0.510796 0.959838 0.516442
0.699367 0.955810 0.554528
0.828611 0.956695 0.581964
0.935027 0.959014 0.613519
0.255131 0.193118 0.483528
0.263706 0.190799 0.486183
0.294499 0.181460 0.495888
0.349462 0.160128 0.510704
0.429480 0.109560 0.530236
0.536797 0.000000 0.553124
0.685176 0.000000 0.590661
0.871885 0.000000 0.633570
0.243442 0.194583 0.494301
0.253086 0.192172 0.496742
0.286595 0.182681 0.504875
0.345098 0.160830 0.518395
0.428138 0.109163 0.536675
0.539788 0.046601 0.557916
0.689662 0.000000 0.594598
0.875242 0.000000 0.634791
0.179263 0.203677 0.515648
0.194339 0.201175 0.517845
0.242344 0.191379 0.524712
0.320348 0.175418 0.536126
0.425360 0.168826 0.551720
0.545006 0.157321 0.570459
0.700984 0.108980 0.605249
0.884337 0.000000 0.636500
0.089784 0.288701 0.539879
0.113283 0.285832 0.542565
0.174105 0.272282 0.550317
0.286168 0.264164 0.559289
0.412879 0.263706 0.571588
0.546960 0.261601 0.587732
0.716213 0.241154 0.618708
0.897795 0.238834 0.634089
0.089815 0.432563 0.569390
0.116518 0.431678 0.571283
0.182315 0.427222 0.577264
0.265263 0.413947 0.586419
0.367712 0.381231 0.597894
0.540734 0.382177 0.611353
0.739040 0.372992 0.634607
0.915007 0.425544 0.625666
0.098482 0.592645 0.601709
0.126558 0.592523 0.602655
0.194553 0.593011 0.606928
0.279240 0.592370 0.613886
0.376715 0.587060 0.623041
0.528740 0.576349 0.631952
0.764309 0.601526 0.641505
0.920745 0.687922 0.636835
0.113375 0.779690 0.641291
0.140475 0.780911 0.642084
0.208835 0.786709 0.645197
0.293034 0.797726 0.649256
0.411719 0.815702 0.652186
0.594873 0.830961 0.646296
0.794736 0.830838 0.648127
0.935454 0.857969 0.671015
0.228214 0.951537 0.658076
0.245701 0.952392 0.657527
0.302800 0.954925 0.654536
0.393408 0.957977 0.647150
0.520043 0.960204 0.635584
0.682063 0.958618 0.630121
0.852720 0.952514 0.665370
0.947997 0.956970 0.683894
0.275608 0.167147 0.633814
0.286778 0.163302 0.635737
0.324498 0.148135 0.641993
0.386847 0.111177 0.652064
0.470069 0.000000 0.665370
0.574762 0.000000 0.679896
0.694118 0.000000 0.694636
0.856962 0.000000 0.731685
0.260746 0.170382 0.639734
0.272953 0.166598 0.641382
0.313603 0.151553 0.647089
0.379217 0.115328 0.656519
0.464973 0.000000 0.668879
0.574121 0.000000 0.682399
0.694667 0.000000 0.696590
0.858518 0.000000 0.732876
0.186923 0.183902 0.655512
0.206119 0.180209 0.656825
0.262852 0.165957 0.661280
0.348608 0.144442 0.668971
0.454597 0.125887 0.678767
0.570764 0.095369 0.690425
0.696101 0.017090 0.702937
0.863981 0.000000 0.736660
0.000000 0.256504 0.674525
0.000000 0.248936 0.676051
0.156771 0.245548 0.679194
0.299443 0.241581 0.684871
0.429694 0.235538 0.692714
0.560937 0.227970 0.702022
0.697017 0.218906 0.712398
0.874266 0.181827 0.741909
0.000000 0.421668 0.690761
0.000000 0.418433 0.691829
0.098085 0.405493 0.695430
0.215824 0.374029 0.701045
0.370764 0.349981 0.707454
0.537102 0.349248 0.714900
0.695735 0.349065 0.723354
0.890501 0.348760 0.746822
0.000000 0.580468 0.707332
0.000000 0.579309 0.708095
0.143191 0.574365 0.710689
0.243870 0.562615 0.714900
0.347356 0.538262 0.720607
0.501762 0.512657 0.727016
0.708095 0.544884 0.731899
0.916503 0.591150 0.745327
0.110140 0.738247 0.722042
0.137453 0.738216 0.722591
0.205295 0.738186 0.724300
0.287968 0.738003 0.727260
0.404364 0.739712 0.730831
0.578058 0.753140 0.733516
0.780667 0.790372 0.733761
0.943481 0.830228 0.738247
0.250706 0.916045 0.746548
0.267155 0.917174 0.746792
0.322240 0.921508 0.747616
0.415625 0.929870 0.748470
0.546960 0.942016 0.748775
0.704128 0.956176 0.747372
0.849546 0.954223 0.735103
0.962280 0.953765 0.745357
0.298161 0.131411 0.757382
0.309606 0.125887 0.758083
0.347417 0.102907 0.760586
0.408484 0.000000 0.764797
0.487007 0.000000 0.770413
0.585657 0.000000 0.776425
0.693904 0.000000 0.782681
0.808011 0.000000 0.788785
0.283513 0.136904 0.759579
0.295903 0.131563 0.760220
0.336004 0.109804 0.762570
0.399786 0.018006 0.766537
0.482704 0.000000 0.771786
0.583795 0.000000 0.777493
0.693202 0.000000 0.783505
0.808225 0.000000 0.789425
0.218173 0.155825 0.766079
0.235264 0.151186 0.766598
0.287755 0.132631 0.768551
0.371527 0.114992 0.771725
0.469642 0.091127 0.775906
0.576440 0.044587 0.780880
0.690578 0.000000 0.786191
0.809049 0.000000 0.791470
0.000000 0.228824 0.774258
0.075074 0.227970 0.774624
0.207401 0.225132 0.776059
0.324712 0.220279 0.778500
0.442115 0.214145 0.781827
0.561669 0.208194 0.785855
0.685237 0.204868 0.790188
0.810819 0.210239 0.794553
0.000000 0.383001 0.782010
0.000000 0.378027 0.782467
0.000000 0.358038 0.783993
0.216098 0.324468 0.785641
0.388739 0.323674 0.788205
0.535027 0.325170 0.791348
0.676509 0.330968 0.794675
0.815030 0.350286 0.797787
0.000000 0.546380 0.787411
0.026337 0.544060 0.787747
0.151431 0.535302 0.788907
0.241703 0.516106 0.790890
0.339605 0.480903 0.793759
0.501701 0.468727 0.796048
0.681666 0.502525 0.797055
0.841489 0.562310 0.796658
0.185367 0.699855 0.791287
0.200809 0.699031 0.791531
0.245853 0.696162 0.792294
0.318700 0.691310 0.793484
0.428443 0.688808 0.794522
0.585687 0.702693 0.793912
0.772335 0.753140 0.790219
0.905669 0.800168 0.789090
0.335027 0.854154 0.792203
0.347662 0.854795 0.792264
0.392004 0.857298 0.792294
0.471138 0.863035 0.792142
0.584558 0.874449 0.791318
0.722377 0.894041 0.789456
0.859648 0.920409 0.787167
0.971496 0.950256 0.785855
