cubelut/LC8.cube
# Created by Adobe Lightroom plugin Export LUT (1.18.0)
# www.johnrellis.com/lightroom/exportlut.htm
# Preset: LC8
# Color profile: /Library/Application Support/Adobe/Color/Profiles/Recommended/AdobeRGB1998.icc
LUT_3D_SIZE 5
DOMAIN_MIN 0.000000 0.000000 0.000000
DOMAIN_MAX 0.903226 0.903226 0.903226
0.240543 0.212436 0.262486
0.240543 0.212436 0.262486
0.339055 0.204440 0.260075
0.503746 0.186770 0.257237
0.822141 0.231357 0.288212
0.240543 0.212436 0.262486
0.248569 0.222995 0.261601
0.362066 0.240543 0.256748
0.516228 0.253880 0.268132
0.831540 0.313024 0.295628
0.204074 0.385168 0.256809
0.238804 0.393835 0.244083
0.398199 0.406806 0.254978
0.563836 0.418524 0.285618
0.869261 0.514488 0.322240
0.192264 0.619104 0.273899
0.238834 0.627710 0.262150
0.424201 0.653315 0.268559
0.652644 0.696040 0.280461
0.920958 0.754757 0.307103
0.246098 0.945464 0.306218
0.299718 0.948486 0.296269
0.493446 0.954833 0.313603
0.707332 0.959197 0.352209
0.912871 0.961944 0.433417
0.240543 0.212436 0.262486
0.245487 0.211215 0.268101
0.355962 0.179324 0.290959
0.515038 0.194034 0.307469
0.836179 0.180392 0.330327
0.234257 0.229129 0.279515
0.233768 0.219242 0.287175
0.369696 0.233188 0.297612
0.525353 0.257572 0.314214
0.846281 0.284398 0.336797
0.188876 0.389624 0.302007
0.232395 0.396277 0.301946
0.394171 0.408148 0.301061
0.567926 0.424964 0.337652
0.876493 0.503288 0.358953
0.195438 0.621851 0.327703
0.239231 0.630396 0.322026
0.400458 0.657191 0.306554
0.649531 0.697810 0.317784
0.924956 0.749752 0.341222
0.241581 0.946166 0.357031
0.293248 0.949310 0.348180
0.474372 0.954925 0.346929
0.706111 0.958801 0.390173
0.915648 0.961120 0.470710
0.244511 0.205997 0.361944
0.268956 0.199954 0.371344
0.366674 0.166873 0.393530
0.531090 0.147585 0.412360
0.852506 0.000000 0.469856
0.202365 0.216251 0.383215
0.234073 0.206058 0.389532
0.362371 0.183291 0.405737
0.545098 0.217716 0.421942
0.862119 0.180270 0.466285
0.168887 0.373358 0.413397
0.218875 0.374029 0.417792
0.359411 0.369604 0.427802
0.582635 0.393988 0.442481
0.888884 0.441962 0.467597
0.186862 0.628809 0.457771
0.235660 0.638422 0.461372
0.365972 0.663569 0.458869
0.626520 0.694209 0.442878
0.921538 0.752865 0.521019
0.236423 0.949187 0.499825
0.282719 0.951751 0.491981
0.441779 0.958251 0.467750
0.722560 0.957671 0.515923
0.929686 0.959899 0.578943
0.259342 0.188052 0.519768
0.291020 0.178470 0.528313
0.396979 0.128267 0.554040
0.578790 0.000000 0.591455
0.876677 0.000000 0.664210
0.205966 0.196201 0.544457
0.250767 0.186221 0.550988
0.381689 0.144015 0.572168
0.584924 0.105837 0.603937
0.886748 0.000000 0.668269
0.001862 0.358465 0.588800
0.138155 0.348547 0.595300
0.324895 0.313573 0.612055
0.588251 0.310369 0.634241
0.911467 0.298924 0.666682
0.070588 0.632837 0.636133
0.164706 0.633783 0.640131
0.321202 0.631373 0.650721
0.586694 0.628382 0.663600
0.927062 0.729366 0.664729
0.228733 0.952117 0.686732
0.286656 0.954314 0.684657
0.457313 0.958923 0.672663
0.725734 0.957275 0.658198
0.951629 0.956451 0.700710
0.298161 0.131411 0.757382
0.335546 0.111086 0.759792
0.445838 0.000000 0.767453
0.611902 0.000000 0.777981
0.808011 0.000000 0.788785
0.242588 0.149691 0.764126
0.290410 0.132235 0.766110
0.424903 0.065583 0.772335
0.606287 0.000000 0.781216
0.808774 0.000000 0.790829
0.000000 0.291905 0.779080
0.000000 0.278172 0.779873
0.353307 0.270054 0.783474
0.582574 0.265690 0.789517
0.812222 0.277134 0.796262
0.061158 0.585260 0.788540
0.155612 0.578820 0.789578
0.303349 0.549493 0.792996
0.556054 0.529198 0.796292
0.854826 0.625147 0.795102
0.335027 0.854154 0.792203
0.377691 0.856352 0.792325
0.523766 0.867826 0.791867
0.757259 0.900053 0.788876
0.971496 0.950256 0.785855
