cubelut/LC8.cube
# Created by Adobe Lightroom plugin Export LUT (1.18.0)
# www.johnrellis.com/lightroom/exportlut.htm
# Preset: LC8
# Color profile: /Library/Application Support/Adobe/Color/Profiles/Recommended/AdobeRGB1998.icc
LUT_3D_SIZE 32
DOMAIN_MIN 0.0 0.0 0.0
DOMAIN_MAX 1.0 1.0 1.0
0.240543 0.212436 0.262486
0.240543 0.212436 0.262486
0.240543 0.212436 0.262486
0.240543 0.212436 0.262486
0.240543 0.212436 0.262486
0.240543 0.212436 0.262486
0.240543 0.212436 0.262486
0.240543 0.212436 0.262486
0.240543 0.212436 0.262486
0.240543 0.212436 0.262486
0.251652 0.211765 0.262272
0.272740 0.210391 0.261814
0.294255 0.208652 0.261295
0.316411 0.206607 0.260716
0.339055 0.204440 0.260075
0.361791 0.201755 0.259373
0.384710 0.198734 0.258640
0.407721 0.195590 0.257816
0.430518 0.192477 0.256931
0.454231 0.188449 0.255955
0.478798 0.184451 0.254856
0.503746 0.186770 0.257237
0.532372 0.193027 0.261540
0.567224 0.198978 0.265843
0.609430 0.204288 0.270085
0.658320 0.209628 0.274357
0.711757 0.215366 0.278569
0.767208 0.222568 0.283024
0.822141 0.231357 0.288212
0.873198 0.243320 0.294316
0.919738 0.258946 0.301671
0.961456 0.277897 0.310765
0.240543 0.212436 0.262486
0.240543 0.212436 0.262486
0.240543 0.212436 0.262486
0.240543 0.212436 0.262486
0.240543 0.212436 0.262486
0.240543 0.212436 0.262486
0.240543 0.212436 0.262486
0.240543 0.212436 0.262486
0.240543 0.212436 0.262486
0.240543 0.212436 0.262486
0.253300 0.211856 0.262211
0.274205 0.210697 0.261753
0.295750 0.209171 0.261204
0.317906 0.207309 0.260624
0.340581 0.205081 0.259983
0.363378 0.202701 0.259251
0.386297 0.199771 0.258518
0.409155 0.196689 0.257694
0.432074 0.193240 0.256809
0.455756 0.189700 0.255802
0.480323 0.185550 0.254734
0.505119 0.189456 0.257725
0.534051 0.195499 0.262058
0.569268 0.201450 0.266331
0.611566 0.206851 0.270512
0.660670 0.212406 0.274693
0.713985 0.218173 0.278935
0.769436 0.225254 0.283574
0.823911 0.234684 0.288670
0.874723 0.246921 0.294743
0.921019 0.262364 0.302129
0.962493 0.281102 0.311315
0.240543 0.212436 0.262486
0.240543 0.212436 0.262486
0.240543 0.212436 0.262486
0.240543 0.212436 0.262486
0.240543 0.212436 0.262486
0.240543 0.212436 0.262486
0.240543 0.212436 0.262486
0.240543 0.212436 0.262486
0.240543 0.212436 0.262486
0.240543 0.212436 0.262486
0.255039 0.212039 0.262150
0.275944 0.211185 0.261662
0.297307 0.209873 0.261112
0.319463 0.208316 0.260502
0.341924 0.206241 0.259861
0.364813 0.203922 0.259129
0.387610 0.201358 0.258366
0.410498 0.198245 0.257542
0.433417 0.195041 0.256626
0.456886 0.191501 0.255650
0.481483 0.187442 0.254551
0.506188 0.192630 0.258274
0.535149 0.198764 0.262577
0.570550 0.204410 0.266819
0.613153 0.210117 0.271092
0.662196 0.215732 0.275151
0.715572 0.221805 0.279454
0.770840 0.229343 0.283970
0.825223 0.238499 0.289128
0.875822 0.250919 0.295171
0.921874 0.266239 0.302678
0.963256 0.284916 0.311833
0.240543 0.212436 0.262486
0.240543 0.212436 0.262486
0.240543 0.212436 0.262486
0.240543 0.212436 0.262486
0.240543 0.212436 0.262486
0.240543 0.212436 0.262486
0.240543 0.212436 0.262486
0.240543 0.212436 0.262486
0.240543 0.212436 0.262486
0.240543 0.212436 0.262486
0.258518 0.212924 0.262028
0.279118 0.212589 0.261479
0.300267 0.211826 0.260899
0.322210 0.210697 0.260258
0.344579 0.208957 0.259586
0.367254 0.206912 0.258854
0.389899 0.204288 0.258091
0.412696 0.201755 0.257206
0.435523 0.198856 0.256321
0.459083 0.195499 0.255314
0.483497 0.193698 0.255192
0.508141 0.199313 0.259373
0.537469 0.205386 0.263645
0.572869 0.211398 0.267796
0.615503 0.217075 0.271977
0.664363 0.223087 0.275975
0.717403 0.229374 0.280095
0.772396 0.237308 0.284642
0.826413 0.246921 0.289738
0.876829 0.259190 0.295964
0.922789 0.274510 0.303410
0.964080 0.292760 0.312718
0.240543 0.212436 0.262486
0.240543 0.212436 0.262486
0.240543 0.212436 0.262486
0.240543 0.212436 0.262486
0.240543 0.212436 0.262486
0.240543 0.212436 0.262486
0.240543 0.212436 0.262486
0.240543 0.212436 0.262486
0.240543 0.212436 0.262486
0.244694 0.213016 0.262364
0.263890 0.214664 0.261753
0.283940 0.215427 0.261173
0.304845 0.215244 0.260533
0.326482 0.214572 0.259861
0.348547 0.213291 0.259159
0.370642 0.211795 0.258396
0.392981 0.209598 0.257603
0.415503 0.207309 0.256748
0.438148 0.204685 0.255802
0.461646 0.201419 0.254795
0.485512 0.203891 0.256809
0.510277 0.209476 0.261021
0.539940 0.215396 0.265141
0.575647 0.221347 0.269230
0.618494 0.227481 0.273289
0.667414 0.233646 0.277287
0.720302 0.240940 0.281346
0.775021 0.249027 0.285832
0.828733 0.259190 0.290929
0.878752 0.271763 0.297124
0.924346 0.286625 0.304753
0.965301 0.304845 0.313939
0.240543 0.212436 0.262486
0.240543 0.212436 0.262486
0.240543 0.212436 0.262486
0.240543 0.212436 0.262486
0.240543 0.212436 0.262486
0.240543 0.212436 0.262486
0.240543 0.212436 0.262486
0.240543 0.212436 0.262486
0.240543 0.212436 0.262486
0.251652 0.215366 0.262028
0.270085 0.218479 0.261357
0.289708 0.220127 0.260685
0.310155 0.220798 0.260014
0.331273 0.220554 0.259312
0.352880 0.219974 0.258549
0.374640 0.218753 0.257786
0.396735 0.217258 0.256962
0.418738 0.215244 0.256077
0.441230 0.212741 0.255131
0.464179 0.211917 0.255100
0.487617 0.216770 0.258915
0.512352 0.222263 0.263005
0.534264 0.225467 0.265873
0.569177 0.231876 0.269841
0.611170 0.238407 0.273808
0.659602 0.245304 0.277592
0.712703 0.253239 0.281743
0.768002 0.261875 0.286076
0.822568 0.272313 0.291112
0.873533 0.284672 0.297246
0.920104 0.299351 0.304753
0.961883 0.317235 0.313878
0.240543 0.212436 0.262486
0.240543 0.212436 0.262486
0.240543 0.212436 0.262486
0.240543 0.212436 0.262486
0.240543 0.212436 0.262486
0.240543 0.212436 0.262486
0.240543 0.212436 0.262486
0.240543 0.212436 0.262486
0.243137 0.214084 0.262333
0.258701 0.220523 0.261509
0.275700 0.224521 0.260777
0.294133 0.226993 0.260075
0.313970 0.228367 0.259373
0.334691 0.228977 0.258610
0.355901 0.228824 0.257847
0.377478 0.228061 0.257023
0.399237 0.226871 0.256168
0.421210 0.225132 0.255283
0.443214 0.223209 0.254337
0.465217 0.226902 0.257511
0.487892 0.231479 0.261234
0.512108 0.236301 0.264988
0.540978 0.241855 0.268742
0.575830 0.247837 0.272404
0.617487 0.254765 0.276158
0.665522 0.262333 0.279728
0.718196 0.270817 0.283818
0.772915 0.280522 0.288151
0.826780 0.291234 0.293156
0.877104 0.304082 0.299199
0.922942 0.318578 0.306828
0.964202 0.335790 0.316320
0.240543 0.212436 0.262486
0.240543 0.212436 0.262486
0.240543 0.212436 0.262486
0.240543 0.212436 0.262486
0.240543 0.212436 0.262486
0.240757 0.213260 0.262425
0.243198 0.217960 0.262058
0.248569 0.222995 0.261601
0.255283 0.225925 0.261234
0.268559 0.231388 0.260502
0.285283 0.235843 0.259709
0.302617 0.238346 0.259007
0.321080 0.239658 0.258305
0.341283 0.240574 0.257511
0.362066 0.240543 0.256748
0.383215 0.240177 0.255894
0.404669 0.239322 0.255009
0.426276 0.238193 0.254337
0.447303 0.241550 0.257694
0.469032 0.245182 0.260929
0.491554 0.249332 0.264591
0.516228 0.253880 0.268132
0.545739 0.259525 0.271702
0.581262 0.266026 0.275334
0.623621 0.273442 0.278813
0.671778 0.281865 0.282475
0.724117 0.291356 0.286198
0.778500 0.301610 0.290562
0.831540 0.313024 0.295628
0.880919 0.325872 0.301762
0.926055 0.340551 0.309361
0.966552 0.357183 0.318944
0.238651 0.226749 0.262058
0.238621 0.227359 0.261784
0.238560 0.228275 0.261570
0.239231 0.229740 0.261357
0.240848 0.232334 0.261143
0.243961 0.235355 0.260868
0.248936 0.238987 0.260472
0.256657 0.243076 0.259983
0.267216 0.247227 0.259373
0.279789 0.250156 0.258793
0.294438 0.252384 0.258183
0.312291 0.254795 0.257420
0.330083 0.255680 0.256748
0.348913 0.255955 0.256046
0.368444 0.255833 0.255283
0.389197 0.255406 0.254429
0.409979 0.256443 0.255650
0.430671 0.259068 0.258671
0.451453 0.261875 0.261662
0.473060 0.264988 0.264805
0.495460 0.268864 0.268101
0.520684 0.273503 0.271550
0.550896 0.279240 0.275151
0.587091 0.286290 0.278477
0.629877 0.294560 0.281773
0.678157 0.303685 0.285374
0.730465 0.314092 0.289006
0.784146 0.325261 0.293156
0.836362 0.337133 0.298283
0.884947 0.350225 0.304540
0.929198 0.364569 0.312444
0.969024 0.380835 0.322179
0.234928 0.252018 0.261265
0.234897 0.252537 0.260929
0.234897 0.253269 0.260502
0.235599 0.254734 0.259586
0.238560 0.256779 0.259342
0.243687 0.259312 0.259007
0.250584 0.262333 0.258610
0.259983 0.265721 0.258061
0.272129 0.269322 0.257420
0.287175 0.273167 0.256657
0.304204 0.275914 0.255894
0.320958 0.276310 0.255283
0.339635 0.276799 0.254582
0.357946 0.276097 0.253941
0.376654 0.275181 0.253269
0.395331 0.276493 0.256535
0.414740 0.279149 0.260441
0.435096 0.280949 0.263157
0.455634 0.283482 0.266026
0.476936 0.286351 0.269078
0.499397 0.290013 0.272374
0.525536 0.294835 0.275700
0.556847 0.300999 0.278935
0.594110 0.308690 0.282200
0.637598 0.317723 0.285313
0.686030 0.327855 0.288731
0.737911 0.339055 0.292363
0.790738 0.350774 0.296391
0.841794 0.363317 0.301457
0.889189 0.376379 0.307805
0.932372 0.390478 0.315679
0.971344 0.406226 0.325597
0.230320 0.278538 0.260624
0.230320 0.278996 0.260197
0.230350 0.279698 0.259434
0.230472 0.281041 0.257847
0.234501 0.282658 0.257206
0.240696 0.284794 0.256870
0.249332 0.287297 0.256413
0.260166 0.290043 0.255894
0.273564 0.293126 0.255222
0.289525 0.296483 0.254429
0.308110 0.299779 0.253513
0.328618 0.302647 0.252506
0.347692 0.302190 0.251835
0.366705 0.300755 0.251225
0.385748 0.299046 0.250584
0.403845 0.298802 0.254551
0.421790 0.301305 0.261753
0.440375 0.304540 0.267826
0.460548 0.306706 0.271092
0.481758 0.309361 0.273777
0.504387 0.312688 0.276982
0.531273 0.317845 0.279973
0.563317 0.324590 0.283024
0.601282 0.332921 0.286198
0.645167 0.342748 0.289250
0.693629 0.353887 0.292363
0.745174 0.365850 0.295781
0.797421 0.378424 0.299901
0.847440 0.391180 0.304936
0.893736 0.404303 0.311437
0.936034 0.418219 0.319585
0.974090 0.433509 0.329747
0.224949 0.305455 0.259770
0.224979 0.305882 0.259342
0.225040 0.306432 0.258427
0.225193 0.307713 0.256657
0.228031 0.309361 0.254765
0.235630 0.311040 0.254429
0.245548 0.313085 0.253971
0.257664 0.315465 0.253391
0.272038 0.318059 0.252720
0.289006 0.320775 0.251926
0.308171 0.323674 0.250980
0.329259 0.326726 0.249912
0.349035 0.325811 0.249271
0.370123 0.325689 0.248417
0.389227 0.322972 0.247898
0.408942 0.320470 0.247257
0.426337 0.321294 0.257084
0.444251 0.323674 0.265354
0.462837 0.326604 0.272160
0.482734 0.330602 0.277928
0.505547 0.333989 0.281010
0.532860 0.339483 0.283940
0.565454 0.346746 0.286931
0.603967 0.356146 0.289769
0.648096 0.366949 0.292607
0.696681 0.379095 0.295598
0.748104 0.392004 0.298955
0.800046 0.405402 0.303014
0.849668 0.418677 0.308141
0.895628 0.431983 0.314702
0.937469 0.445838 0.323156
0.975158 0.460548 0.333593
0.219242 0.330358 0.259159
0.219272 0.330755 0.258579
0.219333 0.331395 0.257633
0.219516 0.332616 0.255619
0.219974 0.334539 0.252201
0.228977 0.336217 0.251804
0.239933 0.338140 0.251316
0.252873 0.340215 0.250736
0.268498 0.342473 0.250065
0.286107 0.344640 0.249271
0.305272 0.347082 0.248356
0.326604 0.349401 0.247318
0.349523 0.351781 0.246159
0.374243 0.354345 0.246799
0.396429 0.353613 0.248997
0.416175 0.350866 0.250126
0.435706 0.348333 0.251164
0.453773 0.347967 0.259525
0.471534 0.349981 0.269535
0.490730 0.353185 0.277501
0.513176 0.358587 0.284215
0.540551 0.365545 0.289250
0.574121 0.373663 0.291936
0.613672 0.383948 0.294408
0.658137 0.395727 0.297185
0.706630 0.408728 0.299962
0.757565 0.422522 0.303258
0.808377 0.436316 0.307408
0.856535 0.449744 0.312505
0.901152 0.462928 0.319463
0.941802 0.476448 0.327977
0.978393 0.490547 0.338689
0.212131 0.357763 0.258244
0.212222 0.358129 0.257420
0.212314 0.358709 0.256352
0.212467 0.359869 0.254368
0.212894 0.361639 0.250614
0.220005 0.363348 0.248692
0.232242 0.365118 0.248173
0.246708 0.366857 0.247593
0.263554 0.368780 0.246891
0.281956 0.370825 0.246067
0.302037 0.372839 0.245151
0.324743 0.374884 0.245579
0.348791 0.376867 0.247593
0.373602 0.379187 0.249699
0.399023 0.381811 0.251957
0.421912 0.381720 0.254398
0.442512 0.379522 0.255741
0.462165 0.376776 0.256901
0.481392 0.375250 0.261173
0.500420 0.377783 0.273075
0.523430 0.383093 0.282139
0.551141 0.391089 0.289525
0.584222 0.401587 0.295903
0.623835 0.413458 0.299443
0.668391 0.426154 0.301915
0.716670 0.440009 0.304570
0.766781 0.454261 0.307836
0.816434 0.468299 0.311833
0.863218 0.481819 0.317296
0.906493 0.494850 0.324285
0.945861 0.507744 0.333257
0.981415 0.521355 0.344274
0.204074 0.385168 0.256809
0.204135 0.385565 0.256138
0.204288 0.385931 0.255070
0.204410 0.387152 0.252995
0.204929 0.388830 0.248875
0.209537 0.390692 0.245212
0.223056 0.392187 0.244694
0.238804 0.393835 0.244083
0.257786 0.395392 0.244358
0.279179 0.396979 0.245731
0.301488 0.398535 0.247196
0.324590 0.400275 0.248844
0.348455 0.402228 0.250675
0.372930 0.404334 0.252689
0.398199 0.406806 0.254978
0.423957 0.409552 0.257481
0.447395 0.409796 0.259800
0.468696 0.408270 0.261631
0.488472 0.405493 0.262791
0.511284 0.405341 0.264012
0.535363 0.410193 0.275517
0.563836 0.418524 0.285618
0.597711 0.429755 0.293614
0.636530 0.443122 0.300328
0.679622 0.457862 0.306249
0.727138 0.472541 0.309483
0.776150 0.487129 0.312627
0.824186 0.501305 0.316625
0.869261 0.514488 0.322240
0.911009 0.527031 0.329564
0.949126 0.539361 0.338598
0.983581 0.551995 0.349859
0.194797 0.412634 0.255467
0.194919 0.412909 0.254643
0.195010 0.413306 0.253788
0.195346 0.414282 0.251133
0.195895 0.415625 0.247196
0.203922 0.417060 0.245060
0.220096 0.418128 0.245792
0.238499 0.419348 0.246738
0.258244 0.420600 0.247837
0.279271 0.422065 0.249210
0.301427 0.423743 0.250614
0.324437 0.425544 0.252110
0.348150 0.427375 0.253849
0.372503 0.429541 0.256046
0.397406 0.431952 0.258152
0.422980 0.434485 0.260410
0.448798 0.437263 0.263096
0.472724 0.437903 0.265599
0.495796 0.437781 0.267582
0.519554 0.438148 0.268589
0.547051 0.441321 0.269169
0.577600 0.448402 0.276280
0.611719 0.459846 0.287480
0.650416 0.473487 0.296239
0.692927 0.488685 0.303624
0.738277 0.504753 0.310552
0.784848 0.520897 0.317418
0.831388 0.534905 0.321721
0.875212 0.547875 0.327550
0.915740 0.559960 0.335119
0.952789 0.571832 0.344640
0.986358 0.583856 0.356176
0.186770 0.439979 0.254734
0.188052 0.440131 0.254368
0.189609 0.440528 0.254185
0.193484 0.441108 0.253056
0.199283 0.442023 0.251682
0.207279 0.443214 0.249790
0.221530 0.444312 0.249638
0.239689 0.445441 0.250553
0.259220 0.446662 0.251621
0.280156 0.447913 0.252750
0.301762 0.449317 0.254246
0.324651 0.450813 0.255711
0.348028 0.452644 0.257450
0.372198 0.454688 0.259312
0.397101 0.457374 0.261234
0.422644 0.460395 0.263523
0.449165 0.463966 0.265843
0.476356 0.467903 0.268254
0.502403 0.470375 0.270787
0.528832 0.472877 0.273136
0.557488 0.477089 0.273381
0.590753 0.484138 0.273411
0.628016 0.493812 0.274968
0.666285 0.507286 0.287968
0.708034 0.522362 0.297917
0.752255 0.538231 0.306828
0.797024 0.554009 0.315221
0.840482 0.568872 0.324346
0.881804 0.582422 0.333379
0.920897 0.593988 0.341283
0.956695 0.604974 0.350958
0.989044 0.616541 0.363928
0.191165 0.465797 0.259434
0.192447 0.465827 0.259068
0.193423 0.462806 0.257939
0.197147 0.463355 0.257053
0.202670 0.464240 0.255772
0.210361 0.465522 0.253819
0.222446 0.466804 0.252873
0.239933 0.468086 0.253758
0.259251 0.469520 0.254856
0.279789 0.471199 0.255894
0.301518 0.472999 0.257115
0.324041 0.475105 0.258579
0.347448 0.477607 0.260197
0.371862 0.480568 0.261997
0.397162 0.483925 0.263828
0.423255 0.487831 0.265782
0.450477 0.492287 0.267948
0.478462 0.497200 0.270146
0.507561 0.502556 0.272526
0.536400 0.507256 0.274907
0.566613 0.512718 0.277348
0.600641 0.520897 0.277104
0.638697 0.531121 0.276585
0.680140 0.542992 0.276371
0.722072 0.557214 0.286809
0.765377 0.572808 0.299168
0.808682 0.588098 0.310216
0.850523 0.602350 0.321202
0.889982 0.615320 0.332830
0.926635 0.627466 0.345495
0.960632 0.638880 0.358556
0.991730 0.650385 0.373571
0.194736 0.494026 0.263645
0.195773 0.493721 0.263279
0.197452 0.493568 0.262760
0.200717 0.493751 0.261906
0.206241 0.494423 0.260441
0.213535 0.495674 0.258366
0.223850 0.497230 0.256382
0.241459 0.498817 0.257237
0.260777 0.500725 0.258061
0.281804 0.502739 0.259129
0.303624 0.505180 0.260349
0.326696 0.507866 0.261509
0.350683 0.510948 0.263005
0.375860 0.514580 0.264469
0.401862 0.518791 0.266117
0.428931 0.523430 0.267948
0.457160 0.528740 0.269871
0.486366 0.534478 0.271824
0.516686 0.540764 0.273930
0.548028 0.547509 0.275853
0.580102 0.554101 0.278019
0.614069 0.562036 0.280369
0.652064 0.572503 0.280186
0.693294 0.584558 0.279423
0.736690 0.597253 0.279332
0.780209 0.610407 0.285527
0.821317 0.624170 0.300908
0.860990 0.636927 0.315160
0.898466 0.648707 0.329473
0.933471 0.659693 0.343969
0.965576 0.670863 0.360876
0.994537 0.683772 0.382696
0.196292 0.530022 0.267613
0.197635 0.529656 0.267216
0.199130 0.529442 0.266850
0.202640 0.529686 0.265904
0.208225 0.530480 0.264225
0.215305 0.531945 0.262211
0.224643 0.533867 0.259556
0.242374 0.535790 0.259770
0.262364 0.538018 0.260533
0.283818 0.540520 0.261540
0.306462 0.543450 0.262516
0.330480 0.546685 0.263584
0.355474 0.550408 0.264927
0.381598 0.554711 0.266300
0.408728 0.559503 0.267765
0.436835 0.564813 0.269230
0.466163 0.570733 0.270909
0.496498 0.576959 0.272709
0.527855 0.583673 0.274479
0.560174 0.590692 0.276432
0.593378 0.597803 0.278416
0.627924 0.605615 0.280461
0.665644 0.615808 0.282475
0.706386 0.627649 0.282780
0.749081 0.640040 0.282597
0.792203 0.651850 0.283360
0.834073 0.662196 0.285740
0.871702 0.673060 0.304845
0.907256 0.683253 0.322759
0.940520 0.692744 0.340276
0.971038 0.702754 0.360327
0.998535 0.714504 0.385351
0.195529 0.572930 0.271275
0.196628 0.572595 0.270878
0.198520 0.572351 0.270237
0.201907 0.572595 0.269230
0.207492 0.573571 0.267613
0.215061 0.575189 0.265080
0.224308 0.577356 0.262150
0.241489 0.579736 0.261326
0.262821 0.582208 0.262058
0.285527 0.585168 0.262852
0.309697 0.588403 0.263706
0.334936 0.591943 0.264775
0.361028 0.596063 0.265873
0.388342 0.600488 0.267155
0.416785 0.605585 0.268437
0.446082 0.610895 0.269780
0.476112 0.616693 0.271366
0.507225 0.622766 0.273075
0.539147 0.629053 0.274601
0.571740 0.635554 0.276524
0.605341 0.642298 0.278386
0.639582 0.649134 0.280186
0.675624 0.657130 0.282383
0.715999 0.668757 0.284337
0.758389 0.681239 0.285618
0.800076 0.692164 0.286748
0.840482 0.701381 0.289555
0.878843 0.709071 0.294163
0.913664 0.716548 0.310399
0.945495 0.724514 0.332128
0.974792 0.732998 0.355657
1.000000 0.743374 0.384222
0.192264 0.619104 0.273899
0.193576 0.619196 0.273411
0.195163 0.619226 0.272862
0.199069 0.619928 0.271641
0.204746 0.621210 0.270054
0.212497 0.623102 0.267399
0.222324 0.625391 0.263828
0.238834 0.627710 0.262150
0.261936 0.630274 0.262669
0.286381 0.633051 0.263401
0.311894 0.636255 0.264225
0.338628 0.639826 0.265232
0.366155 0.643946 0.266117
0.394812 0.648402 0.267277
0.424201 0.653315 0.268559
0.454627 0.658778 0.269841
0.485725 0.664454 0.271275
0.517693 0.670405 0.273014
0.550378 0.676661 0.274601
0.583886 0.682948 0.276402
0.617975 0.689509 0.278355
0.652644 0.696040 0.280461
0.688045 0.702815 0.282780
0.725124 0.710750 0.285344
0.767544 0.723354 0.287907
0.810758 0.735958 0.290929
0.849516 0.743709 0.294255
0.886381 0.749905 0.299657
0.920958 0.754757 0.307103
0.952697 0.758999 0.320134
0.980468 0.765408 0.348821
1.000000 0.773953 0.382116
0.187137 0.671748 0.276555
0.188388 0.671778 0.276005
0.190311 0.671901 0.275364
0.194369 0.672511 0.273930
0.200687 0.673793 0.271885
0.209201 0.675532 0.268894
0.219516 0.677974 0.265080
0.235813 0.680415 0.262272
0.261143 0.683009 0.262821
0.287053 0.685817 0.263584
0.314794 0.688899 0.264378
0.342931 0.692409 0.265324
0.371954 0.696193 0.266331
0.401984 0.700435 0.267460
0.432593 0.705074 0.268711
0.463905 0.710018 0.270054
0.496010 0.715084 0.271550
0.528588 0.720485 0.273320
0.561761 0.725887 0.275151
0.595575 0.731502 0.277073
0.629755 0.736995 0.279240
0.664210 0.742580 0.281743
0.699092 0.748196 0.284367
0.734371 0.753750 0.287205
0.772183 0.761746 0.290776
0.815061 0.774228 0.294896
0.858732 0.786893 0.299840
0.894041 0.791501 0.306096
0.927214 0.794827 0.314183
0.957977 0.797177 0.325322
0.986145 0.799191 0.340429
1.000000 0.804746 0.376623
0.182040 0.723934 0.278325
0.183261 0.723812 0.277989
0.185306 0.724025 0.277317
0.189944 0.724697 0.275975
0.196536 0.726040 0.273564
0.205570 0.727901 0.270573
0.216495 0.730220 0.266300
0.232609 0.732937 0.262333
0.260014 0.735470 0.263005
0.288212 0.738247 0.263828
0.317632 0.741299 0.264652
0.347204 0.744656 0.265629
0.377630 0.748226 0.266850
0.409003 0.752193 0.268009
0.440803 0.756405 0.269413
0.472847 0.760922 0.271153
0.505699 0.765499 0.272953
0.538994 0.770108 0.274907
0.572351 0.774746 0.277134
0.606165 0.779171 0.279576
0.640131 0.783536 0.282109
0.674250 0.788022 0.284916
0.708797 0.792477 0.288029
0.743343 0.797086 0.291661
0.778256 0.801724 0.295415
0.813626 0.806882 0.299687
0.856229 0.818936 0.305486
0.900175 0.831815 0.312566
0.932708 0.834318 0.322637
0.962188 0.835325 0.336400
0.989014 0.836118 0.354467
1.000000 0.837491 0.378424
0.179171 0.777829 0.280827
0.180850 0.777676 0.280491
0.183139 0.777798 0.279454
0.187808 0.778439 0.278111
0.195132 0.779599 0.275578
0.204837 0.781216 0.272557
0.216556 0.783200 0.268132
0.232395 0.785458 0.263645
0.262119 0.787442 0.264225
0.291661 0.789700 0.265232
0.321965 0.792172 0.266178
0.352850 0.794705 0.267338
0.383917 0.797513 0.268803
0.415808 0.800626 0.270329
0.447944 0.803983 0.272038
0.480720 0.807492 0.273960
0.513512 0.811124 0.276249
0.546929 0.814725 0.278508
0.580133 0.818326 0.281254
0.613733 0.821866 0.283940
0.647242 0.825345 0.287022
0.680934 0.828824 0.290440
0.714839 0.832364 0.294102
0.748745 0.835966 0.298009
0.782681 0.839567 0.302342
0.816587 0.843198 0.307012
0.850340 0.846738 0.312047
0.891905 0.858000 0.320897
0.934173 0.869963 0.333410
0.965240 0.872221 0.349859
0.990875 0.871672 0.371038
1.000000 0.871794 0.398230
0.182986 0.826871 0.283970
0.184634 0.826871 0.283757
0.186954 0.827085 0.282872
0.191928 0.827665 0.281651
0.199771 0.828733 0.278996
0.209934 0.830137 0.275975
0.222354 0.831876 0.271397
0.238773 0.833768 0.266880
0.268223 0.835386 0.267887
0.298192 0.837156 0.269017
0.329381 0.838987 0.270176
0.360296 0.840970 0.271794
0.392004 0.843107 0.273320
0.423987 0.845457 0.275151
0.456153 0.848020 0.277348
0.488808 0.850767 0.279576
0.521752 0.853544 0.282139
0.554528 0.856382 0.285130
0.587762 0.859129 0.287999
0.620783 0.861814 0.291356
0.653864 0.864439 0.294957
0.687068 0.867094 0.298772
0.720089 0.869749 0.303014
0.753109 0.872435 0.307561
0.786099 0.875120 0.312413
0.819089 0.877775 0.318242
0.851743 0.880430 0.324956
0.884154 0.883055 0.332769
0.923461 0.892760 0.347204
0.963256 0.903685 0.367193
0.992920 0.906615 0.392279
1.000000 0.905241 0.422553
0.195590 0.871916 0.289158
0.197177 0.872007 0.288884
0.199710 0.872099 0.287999
0.204654 0.872587 0.286656
0.212497 0.873350 0.284581
0.222812 0.874327 0.281468
0.235233 0.875425 0.277195
0.251469 0.876616 0.273106
0.280003 0.877409 0.274296
0.309392 0.878325 0.275395
0.339483 0.879301 0.276707
0.370123 0.880430 0.278264
0.400885 0.881804 0.280186
0.432380 0.883330 0.282048
0.464057 0.885039 0.284520
0.495918 0.887022 0.287175
0.528252 0.889158 0.290135
0.560540 0.891264 0.293370
0.593042 0.893339 0.296818
0.625452 0.895384 0.300542
0.657649 0.897368 0.304509
0.690028 0.899382 0.308843
0.722408 0.901335 0.313542
0.754696 0.903319 0.319280
0.786923 0.905272 0.325689
0.818906 0.907225 0.333227
0.850645 0.909087 0.341741
0.881865 0.910887 0.351354
0.912352 0.912688 0.362158
0.948913 0.920897 0.382727
0.985718 0.930907 0.411292
1.000000 0.935180 0.445075
0.215824 0.909758 0.295781
0.217288 0.909850 0.295415
0.219852 0.910033 0.294774
0.224765 0.910491 0.293706
0.232456 0.911162 0.291814
0.242374 0.912016 0.288975
0.254673 0.913054 0.285618
0.271305 0.914092 0.282506
0.298131 0.914855 0.283848
0.326207 0.915648 0.285344
0.355230 0.916564 0.286931
0.384771 0.917540 0.288792
0.414588 0.918639 0.291081
0.445106 0.919829 0.293523
