cubelut/LC9.cube
# Created by Adobe Lightroom plugin Export LUT (1.18.0)
# www.johnrellis.com/lightroom/exportlut.htm
# Preset: LC9
# Color profile: /Library/Application Support/Adobe/Color/Profiles/Recommended/AdobeRGB1998.icc
LUT_3D_SIZE 32
DOMAIN_MIN 0.0 0.0 0.0
DOMAIN_MAX 1.0 1.0 1.0
0.236667 0.213382 0.271580
0.236667 0.213382 0.271580
0.236667 0.213382 0.271580
0.236667 0.213382 0.271580
0.236667 0.213382 0.271580
0.236667 0.213382 0.271580
0.254948 0.214206 0.271122
0.275914 0.215244 0.270512
0.296880 0.216464 0.269841
0.318822 0.218082 0.269078
0.342443 0.220066 0.268162
0.368322 0.222629 0.267033
0.397131 0.225559 0.265660
0.429725 0.229496 0.263951
0.466011 0.234714 0.261784
0.506249 0.240696 0.259129
0.549432 0.247532 0.255924
0.594263 0.255467 0.252201
0.639765 0.264103 0.247929
0.686397 0.273472 0.243076
0.732570 0.282811 0.237736
0.777066 0.291905 0.232059
0.819120 0.300725 0.226444
0.857542 0.311803 0.224979
0.892607 0.322240 0.224247
0.924712 0.331884 0.224247
0.953887 0.341009 0.225162
0.980652 0.349676 0.227024
1.000000 0.358038 0.230045
1.000000 0.366369 0.234409
1.000000 0.375158 0.240391
1.000000 0.384771 0.248417
0.236667 0.213382 0.271580
0.236667 0.213382 0.271580
0.236667 0.213382 0.271580
0.236667 0.213382 0.271580
0.236667 0.213382 0.271580
0.236667 0.213382 0.271580
0.255283 0.214664 0.271061
0.276188 0.216007 0.270451
0.297215 0.217441 0.269780
0.319310 0.219211 0.268986
0.342962 0.221256 0.268070
0.369055 0.223728 0.266941
0.398016 0.227085 0.265537
0.430854 0.231022 0.263798
0.467445 0.236088 0.261601
0.507988 0.242496 0.258885
0.551293 0.249668 0.255650
0.596216 0.257572 0.251865
0.641840 0.266087 0.247593
0.688533 0.275425 0.242679
0.734524 0.284855 0.237339
0.778897 0.293858 0.231662
0.820737 0.302983 0.226261
0.858946 0.313939 0.224918
0.893858 0.324132 0.224125
0.925719 0.333867 0.224125
0.954803 0.342779 0.225040
0.981384 0.351324 0.227054
1.000000 0.359564 0.230106
1.000000 0.367926 0.234562
1.000000 0.376562 0.240452
1.000000 0.386145 0.248661
0.236667 0.213382 0.271580
0.236667 0.213382 0.271580
0.236667 0.213382 0.271580
0.236667 0.213382 0.271580
0.236667 0.213382 0.271580
0.236667 0.213382 0.271580
0.255497 0.215366 0.271031
0.276524 0.217105 0.270390
0.297581 0.218723 0.269688
0.319493 0.220584 0.268894
0.343328 0.222782 0.267948
0.369482 0.225406 0.266819
0.398627 0.228763 0.265385
0.431495 0.233127 0.263615
0.468147 0.238346 0.261418
0.508934 0.244572 0.258671
0.552239 0.251896 0.255406
0.597284 0.259983 0.251591
0.643000 0.268711 0.247257
0.689693 0.277897 0.242344
0.735561 0.287236 0.236973
0.779904 0.296361 0.231266
0.821592 0.305516 0.226047
0.859678 0.316258 0.224887
0.894499 0.326665 0.223972
0.926268 0.335851 0.224155
0.955230 0.344762 0.225193
0.981811 0.353246 0.227085
1.000000 0.361364 0.230259
1.000000 0.369635 0.234623
1.000000 0.378302 0.240604
1.000000 0.387793 0.248814
0.236667 0.213382 0.271580
0.236667 0.213382 0.271580
0.236667 0.213382 0.271580
0.236667 0.213382 0.271580
0.236667 0.213382 0.271580
0.236667 0.213382 0.271580
0.255711 0.216770 0.270939
0.276555 0.219364 0.270237
0.297642 0.221469 0.269505
0.319738 0.223667 0.268681
0.343511 0.226017 0.267735
0.369879 0.228946 0.266545
0.399115 0.232486 0.265110
0.432105 0.237095 0.263310
0.469123 0.242435 0.261051
0.509941 0.248997 0.258274
0.553460 0.256565 0.254948
0.598627 0.264775 0.251072
0.644404 0.273808 0.246677
0.691249 0.283177 0.241672
0.737392 0.292515 0.236240
0.781521 0.301488 0.230503
0.822904 0.310826 0.225803
0.860624 0.321508 0.224491
0.895109 0.331273 0.223850
0.926635 0.340490 0.223941
0.955383 0.349126 0.224826
0.981872 0.357183 0.226871
1.000000 0.365332 0.229953
1.000000 0.373236 0.234440
1.000000 0.381689 0.240604
1.000000 0.390936 0.248844
0.236667 0.213382 0.271580
0.236667 0.213382 0.271580
0.236667 0.213382 0.271580
0.236667 0.213382 0.271580
0.236667 0.213382 0.271580
0.236667 0.213382 0.271580
0.256229 0.219150 0.270756
0.276951 0.223056 0.269993
0.297917 0.225925 0.269200
0.320195 0.228428 0.268345
0.344121 0.231174 0.267338
0.370459 0.234379 0.266148
0.399817 0.238315 0.264683
0.433021 0.243259 0.262821
0.470039 0.249119 0.260502
0.510887 0.255955 0.257664
0.554314 0.263676 0.254276
0.599359 0.272160 0.250370
0.645197 0.281071 0.245914
0.692012 0.290684 0.240848
0.738094 0.299840 0.235386
0.782315 0.308965 0.229557
0.823636 0.318730 0.225498
0.861265 0.328923 0.224186
0.895598 0.338628 0.223362
0.927031 0.347295 0.223606
0.955718 0.355474 0.224643
0.982116 0.363348 0.226688
1.000000 0.371160 0.229892
1.000000 0.378882 0.234318
1.000000 0.386938 0.240696
1.000000 0.396033 0.249058
0.236667 0.213382 0.271580
0.236667 0.213382 0.271580
0.236667 0.213382 0.271580
0.236667 0.213382 0.271580
0.236667 0.213382 0.271580
0.236667 0.213382 0.271580
0.255802 0.222019 0.270603
0.276677 0.227298 0.269718
0.297795 0.231052 0.268864
0.319982 0.234379 0.267948
0.343999 0.237949 0.266880
0.370428 0.241672 0.265629
0.399847 0.246098 0.264103
0.433234 0.251316 0.262181
0.470344 0.257420 0.259831
0.511223 0.264805 0.256901
0.554650 0.272709 0.253483
0.599573 0.281559 0.249485
0.645258 0.290776 0.244968
0.692134 0.300145 0.239872
0.738064 0.309880 0.234257
0.782254 0.318730 0.228397
0.813840 0.325078 0.225620
0.852720 0.335515 0.223972
0.888243 0.345006 0.223056
0.920745 0.353613 0.223148
0.950408 0.361791 0.224155
0.977630 0.369360 0.225956
1.000000 0.376867 0.229099
1.000000 0.384375 0.233555
1.000000 0.392279 0.239719
1.000000 0.401007 0.247929
0.236667 0.213382 0.271580
0.236667 0.213382 0.271580
0.236667 0.213382 0.271580
0.236667 0.213382 0.271580
0.236667 0.213382 0.271580
0.237247 0.214023 0.271519
0.251530 0.223331 0.270603
0.274479 0.231937 0.269444
0.295659 0.236301 0.268559
0.317876 0.240116 0.267613
0.341558 0.243900 0.266545
0.367590 0.248020 0.265263
0.396765 0.252903 0.263706
0.429816 0.258976 0.261753
0.466957 0.266453 0.259251
0.507866 0.274266 0.256291
0.551385 0.282841 0.252781
0.596460 0.291844 0.248722
0.642145 0.301213 0.244144
0.688594 0.310826 0.239017
0.734096 0.320348 0.233463
0.777676 0.328954 0.227665
0.818235 0.338720 0.224765
0.855711 0.348241 0.223331
0.890105 0.356817 0.222538
0.921874 0.364935 0.222568
0.951263 0.372564 0.223545
0.978271 0.379583 0.225589
1.000000 0.386633 0.228794
1.000000 0.393744 0.233371
1.000000 0.401160 0.239780
1.000000 0.409522 0.248264
0.236393 0.215122 0.271763
0.236240 0.216098 0.271855
0.236118 0.217166 0.271794
0.235874 0.219486 0.271366
0.238163 0.222782 0.270970
0.243656 0.226200 0.270603
0.252567 0.229404 0.270176
0.270878 0.236851 0.269230
0.294682 0.243809 0.268040
0.316960 0.247776 0.267094
0.341283 0.251896 0.265934
0.367742 0.256260 0.264622
0.397070 0.261479 0.263005
0.430335 0.267826 0.260990
0.467597 0.275456 0.258457
0.508751 0.284459 0.255314
0.552361 0.294224 0.251621
0.597467 0.304845 0.247318
0.643214 0.315038 0.242557
0.689906 0.324804 0.237278
0.735409 0.334386 0.231601
0.778988 0.343206 0.226200
0.819425 0.353246 0.224125
0.856779 0.362158 0.222690
0.891051 0.370397 0.221897
0.922759 0.377996 0.221958
0.951934 0.385016 0.222995
0.978912 0.391547 0.225101
1.000000 0.398077 0.228367
1.000000 0.404608 0.233219
1.000000 0.411627 0.239811
1.000000 0.419532 0.248600
0.233738 0.230716 0.273533
0.233677 0.231418 0.273350
0.233616 0.232517 0.272984
0.233585 0.234562 0.271672
0.236240 0.237308 0.270024
0.244511 0.239933 0.269657
0.255711 0.242435 0.269200
0.269627 0.244999 0.268650
0.290501 0.250889 0.267643
0.315679 0.257084 0.266392
0.339818 0.261204 0.265263
0.366674 0.265812 0.263890
0.396979 0.271458 0.262181
0.430396 0.278111 0.260105
0.467597 0.286168 0.257481
0.508812 0.295506 0.254246
0.552514 0.305638 0.250431
0.597803 0.316472 0.246036
0.643671 0.327520 0.241093
0.690486 0.339117 0.235477
0.736110 0.349859 0.229496
0.779599 0.359655 0.225315
0.820096 0.369299 0.223270
0.857420 0.377905 0.221653
0.891630 0.385657 0.221042
0.923247 0.392523 0.221164
0.952392 0.399054 0.222354
0.979217 0.405127 0.224521
1.000000 0.411017 0.228031
1.000000 0.416999 0.233036
1.000000 0.423407 0.239780
1.000000 0.430915 0.248997
0.230777 0.246616 0.275395
0.230747 0.247257 0.275059
0.230747 0.248173 0.274479
0.230838 0.250004 0.272770
0.231235 0.252781 0.269169
0.241520 0.254704 0.268620
0.254917 0.257023 0.268132
0.270481 0.258885 0.267582
0.288212 0.261021 0.266941
0.311284 0.266087 0.265812
0.338476 0.272160 0.264408
0.365362 0.276921 0.263005
0.395514 0.282658 0.261265
0.429725 0.289952 0.259037
0.467659 0.298436 0.256321
0.508721 0.307897 0.252995
0.552209 0.318242 0.249119
0.597314 0.329168 0.244633
0.643091 0.340368 0.239597
0.689967 0.352544 0.234470
0.735927 0.365087 0.229892
0.779812 0.376989 0.225284
0.820768 0.386938 0.222141
0.858213 0.395300 0.220645
0.892576 0.402502 0.220035
0.924071 0.408972 0.220157
0.953063 0.414832 0.221439
0.979736 0.420264 0.223911
1.000000 0.425513 0.227604
1.000000 0.430915 0.232792
1.000000 0.436805 0.239780
1.000000 0.443671 0.249149
0.227420 0.263005 0.277501
0.227420 0.263584 0.277012
0.227481 0.264347 0.276249
0.227634 0.265965 0.274388
0.228122 0.268467 0.270573
0.235355 0.270695 0.267491
0.250797 0.272465 0.266972
0.268376 0.274327 0.266392
0.287602 0.275853 0.265721
0.308141 0.277745 0.264958
0.333440 0.282689 0.263676
0.363561 0.289525 0.261967
0.393683 0.295232 0.260197
0.427924 0.302678 0.257908
0.466468 0.311803 0.255009
0.508629 0.322759 0.252323
0.552056 0.333806 0.249332
0.597040 0.345403 0.245945
0.642969 0.357488 0.241825
0.690059 0.370092 0.237461
0.736019 0.382391 0.232700
0.780026 0.393957 0.227939
0.821012 0.404639 0.223239
0.858549 0.413916 0.219425
0.892851 0.420722 0.218814
0.924376 0.426642 0.219089
0.953307 0.431830 0.220554
0.979980 0.436683 0.223148
1.000000 0.441291 0.227054
1.000000 0.446143 0.232395
1.000000 0.451362 0.239902
1.000000 0.457740 0.249638
0.223636 0.279728 0.279728
0.223667 0.280278 0.279179
0.223758 0.281010 0.278355
0.224002 0.282322 0.276280
0.224460 0.284672 0.272526
0.226535 0.287602 0.266239
0.244022 0.289067 0.265690
0.263462 0.290837 0.265049
0.284520 0.292210 0.264347
0.306645 0.293767 0.263615
0.329625 0.295689 0.263615
0.357183 0.301305 0.263462
0.386450 0.306950 0.261753
0.419501 0.314672 0.260502
0.456703 0.324163 0.258701
0.498116 0.335241 0.256229
0.542870 0.347539 0.253239
0.588373 0.359808 0.249638
0.634424 0.372045 0.245609
0.682124 0.384894 0.240970
0.729000 0.397436 0.236088
0.773861 0.409216 0.231205
0.815976 0.420020 0.226413
0.854551 0.429572 0.221958
0.889647 0.438056 0.217868
0.921691 0.443946 0.217868
0.951049 0.448829 0.219394
0.978119 0.453254 0.222019
1.000000 0.457404 0.226108
1.000000 0.461738 0.231601
1.000000 0.466529 0.239414
1.000000 0.472358 0.249546
0.219730 0.295781 0.281834
0.219760 0.296300 0.281315
0.219821 0.296971 0.280461
0.220035 0.298497 0.278416
0.220493 0.300755 0.274754
0.221439 0.303807 0.268284
0.238804 0.305394 0.267308
0.259220 0.307103 0.266941
0.281376 0.308843 0.266636
0.304204 0.310216 0.266728
0.327459 0.311894 0.266880
0.350866 0.313878 0.267063
0.380957 0.321202 0.266392
0.417853 0.332097 0.264500
0.454841 0.341741 0.262486
0.495979 0.353124 0.259983
0.540459 0.365606 0.256870
0.587030 0.378759 0.253147
0.634913 0.392065 0.248905
0.682887 0.405005 0.244083
0.729915 0.417517 0.239048
0.774899 0.429175 0.233890
0.816861 0.439521 0.229221
0.855314 0.448554 0.224765
0.890410 0.456519 0.220859
0.922454 0.463630 0.217411
0.951751 0.468360 0.218173
0.978698 0.472145 0.221103
1.000000 0.475776 0.225376
1.000000 0.479377 0.231449
1.000000 0.483589 0.239628
1.000000 0.488808 0.250309
0.214694 0.314519 0.284520
0.214755 0.314916 0.283848
0.214847 0.315618 0.283024
0.215030 0.317113 0.280980
0.215488 0.319280 0.277287
0.219638 0.321782 0.272465
0.236484 0.323613 0.271427
0.257084 0.325353 0.270970
0.279332 0.327367 0.270481
0.302922 0.329259 0.270207
0.327031 0.330907 0.270176
0.351324 0.332982 0.270237
0.376318 0.335607 0.270115
0.410254 0.345525 0.268986
0.451606 0.359136 0.266514
0.493355 0.371313 0.263676
0.537743 0.384314 0.260502
0.584314 0.397803 0.256626
0.632746 0.411597 0.252232
0.682795 0.425940 0.247257
0.730617 0.438788 0.242039
0.775570 0.450202 0.236912
0.817502 0.460182 0.232090
0.855894 0.468727 0.227726
0.890837 0.476204 0.223880
0.922759 0.482643 0.220584
0.952087 0.488380 0.217838
0.978973 0.491920 0.220035
1.000000 0.494942 0.224735
1.000000 0.498054 0.231083
1.000000 0.501549 0.239719
1.000000 0.506188 0.250950
0.208804 0.334295 0.287449
0.208896 0.334600 0.286870
0.208988 0.335302 0.285893
0.209171 0.336828 0.283787
0.209628 0.339025 0.280064
0.218082 0.341161 0.277104
0.234012 0.343145 0.275639
0.254307 0.345098 0.274815
0.277012 0.347326 0.274296
0.301152 0.349798 0.273655
0.326238 0.351690 0.273320
0.351720 0.353887 0.273167
0.377630 0.356451 0.272923
0.404913 0.360418 0.272709
0.443244 0.372900 0.270787
0.489204 0.389105 0.267491
0.534539 0.403235 0.264012
0.581170 0.417060 0.260136
0.629786 0.431434 0.255528
0.680232 0.446204 0.250523
0.729641 0.459937 0.245243
0.776272 0.472175 0.240055
0.818143 0.481910 0.235019
0.856382 0.490028 0.230716
0.891203 0.496773 0.227054
0.923003 0.502586 0.223972
0.952117 0.507683 0.221469
0.978912 0.512291 0.219608
1.000000 0.514855 0.223972
1.000000 0.517205 0.230655
1.000000 0.520165 0.239689
1.000000 0.524132 0.251530
0.201785 0.355596 0.290654
0.201877 0.355932 0.289921
0.201968 0.356603 0.289036
0.202182 0.357946 0.286931
0.202884 0.360021 0.283360
0.215702 0.361791 0.282017
0.231083 0.363897 0.280278
0.250034 0.366308 0.278172
0.273472 0.368566 0.277714
0.298558 0.371252 0.276860
0.324865 0.374060 0.276097
0.351751 0.376562 0.275853
0.379126 0.379461 0.275486
0.407141 0.382940 0.275120
0.437415 0.388495 0.274479
0.480262 0.403571 0.271855
0.529656 0.421698 0.267674
0.577691 0.437049 0.263554
0.626520 0.451820 0.258946
0.677180 0.467018 0.253727
0.726711 0.481025 0.248264
0.773831 0.493355 0.243107
0.817411 0.503899 0.238285
0.856138 0.511833 0.234134
0.890898 0.518090 0.230472
0.922576 0.523278 0.227726
0.951659 0.527764 0.225376
0.978424 0.531792 0.223850
1.000000 0.535485 0.223026
1.000000 0.537316 0.230320
1.000000 0.539605 0.239963
1.000000 0.543114 0.252506
0.193057 0.379034 0.294316
0.193088 0.379522 0.293675
0.193179 0.380255 0.292638
0.193423 0.381567 0.290532
0.199405 0.383276 0.288548
0.212406 0.385107 0.287297
0.227604 0.387427 0.285130
0.244877 0.390143 0.282017
0.268956 0.392798 0.280858
0.295354 0.395483 0.279973
0.323033 0.398718 0.279026
0.351568 0.401740 0.278264
0.380499 0.404822 0.277897
0.409949 0.408331 0.277256
0.439948 0.412390 0.276585
0.473518 0.419562 0.275456
0.520104 0.436744 0.272007
0.572229 0.456092 0.267185
0.623224 0.472847 0.262181
0.674220 0.488655 0.256870
0.724239 0.503075 0.251499
0.771695 0.515679 0.246128
0.815640 0.526024 0.241398
0.855375 0.534386 0.237369
0.891142 0.540795 0.234226
0.922667 0.545403 0.231540
0.951598 0.549218 0.229648
0.978241 0.552544 0.228367
1.000000 0.555627 0.228061
1.000000 0.558282 0.229984
1.000000 0.560021 0.240360
1.000000 0.562921 0.253696
0.182223 0.404517 0.298375
0.182345 0.404822 0.297673
0.183932 0.402106 0.296269
0.185641 0.403326 0.294499
0.195529 0.404852 0.293431
0.207919 0.406897 0.291966
0.222934 0.409522 0.289830
0.239780 0.412543 0.286503
0.261692 0.415625 0.283421
0.289647 0.418799 0.282506
0.318486 0.422278 0.281559
0.348455 0.426307 0.280278
0.379187 0.429786 0.279606
0.410346 0.433570 0.278935
0.442023 0.437964 0.278202
0.474342 0.443061 0.277317
0.511345 0.452216 0.275608
0.560845 0.470771 0.271336
0.614893 0.490913 0.265812
0.668055 0.508598 0.260166
0.718807 0.523919 0.254734
0.766903 0.536980 0.249546
0.811582 0.547662 0.244816
0.852049 0.556054 0.240940
0.888579 0.562585 0.237888
0.921630 0.567620 0.235782
0.951080 0.571283 0.234287
0.977874 0.574121 0.233555
1.000000 0.576684 0.233677
1.000000 0.579126 0.234684
1.000000 0.581109 0.240818
1.000000 0.583490 0.255253
0.168521 0.432044 0.303014
0.169192 0.431952 0.302251
0.172335 0.431983 0.301762
0.179019 0.432502 0.300999
0.188998 0.433875 0.299840
0.201694 0.435889 0.297948
0.216739 0.438605 0.295506
0.233860 0.441901 0.291783
0.253056 0.445747 0.286351
0.282933 0.449134 0.285100
0.314458 0.452857 0.283970
0.346899 0.457069 0.282536
0.380133 0.461585 0.281193
0.413581 0.465614 0.280339
0.447303 0.470222 0.279423
0.481605 0.475349 0.278416
0.516472 0.481117 0.277073
0.556878 0.491676 0.274846
0.609125 0.511192 0.269810
0.664088 0.530999 0.263615
0.716091 0.547387 0.257816
0.764553 0.560662 0.252720
0.809415 0.571344 0.248051
0.850065 0.579492 0.244511
0.886809 0.585626 0.241764
0.920012 0.590356 0.240055
0.950164 0.593896 0.239261
0.977539 0.596704 0.239200
1.000000 0.598657 0.239994
1.000000 0.600488 0.241703
1.000000 0.602533 0.244511
1.000000 0.604669 0.257115
0.155489 0.464637 0.309972
0.158358 0.464515 0.309514
0.161959 0.464485 0.309026
0.168887 0.465187 0.308202
0.179324 0.466468 0.306828
0.192569 0.468727 0.304662
0.208194 0.471565 0.301732
0.225925 0.475166 0.297490
0.245518 0.479286 0.291600
0.273564 0.483314 0.287205
0.308476 0.487098 0.286046
0.343847 0.491463 0.284550
0.379583 0.496345 0.282872
0.415869 0.501061 0.281437
0.452216 0.505730 0.280339
0.488808 0.510948 0.279088
0.525658 0.516655 0.277653
0.563043 0.523064 0.275914
0.606592 0.534813 0.273136
0.660151 0.554192 0.267369
0.712856 0.571374 0.261234
0.761624 0.584833 0.255894
0.806851 0.595636 0.251591
0.847745 0.603571 0.248325
0.884794 0.609430 0.245914
0.918273 0.613733 0.244755
0.948638 0.616907 0.244358
0.976287 0.619348 0.245090
1.000000 0.621424 0.246921
1.000000 0.622950 0.249607
1.000000 0.624567 0.253300
1.000000 0.626520 0.259648
0.138796 0.501305 0.318059
0.141970 0.501091 0.317571
0.146059 0.501122 0.317052
0.154025 0.501762 0.315892
0.165530 0.503227 0.314244
0.179812 0.505455 0.312078
0.196292 0.508446 0.308507
0.214878 0.512261 0.304021
0.235843 0.516564 0.297581
0.259464 0.521355 0.289220
0.299229 0.525261 0.287816
0.338659 0.529747 0.286107
0.377722 0.534630 0.284337
0.417151 0.540215 0.282139
0.456336 0.544915 0.280827
0.495399 0.550011 0.279393
0.534356 0.555505 0.277745
0.573510 0.561425 0.275975
0.612726 0.567712 0.273991
0.657923 0.579461 0.270512
0.709255 0.595789 0.264958
0.757931 0.609094 0.259495
0.802121 0.618891 0.255100
0.843442 0.626764 0.252140
0.880735 0.632380 0.250187
0.914549 0.636469 0.249363
0.945220 0.639338 0.249546
0.973236 0.641413 0.250950
0.998871 0.643122 0.253422
1.000000 0.644709 0.257176
1.000000 0.646326 0.262272
1.000000 0.648096 0.269078
0.113710 0.539483 0.326299
0.117311 0.539605 0.325963
0.121981 0.539879 0.325414
0.131502 0.541009 0.324285
0.145235 0.542748 0.322454
0.161440 0.545190 0.319860
0.180087 0.548363 0.316167
0.200412 0.552117 0.311131
0.223056 0.556451 0.304082
0.247745 0.561334 0.294804
0.285527 0.565789 0.289281
0.329839 0.570153 0.287541
0.373175 0.575036 0.285405
0.415717 0.580591 0.283177
0.458137 0.586145 0.280919
0.499977 0.591150 0.279332
0.541527 0.596460 0.277592
0.582818 0.602167 0.275669
0.623804 0.608118 0.273625
0.664515 0.614252 0.271427
0.709468 0.624445 0.268070
0.757473 0.637049 0.263188
0.801480 0.646204 0.259037
0.840757 0.652033 0.256291
0.878508 0.657496 0.254948
0.912566 0.661189 0.254734
0.943450 0.663661 0.255741
0.971618 0.665339 0.257877
0.997345 0.666712 0.261234
1.000000 0.667933 0.266148
1.000000 0.669337 0.272679
1.000000 0.671412 0.281529
0.061311 0.583948 0.336004
0.069215 0.584009 0.335546
0.077699 0.584344 0.334844
0.092927 0.585321 0.333562
0.112551 0.586999 0.331579
0.133547 0.589593 0.328710
0.156374 0.592920 0.324529
0.180362 0.596826 0.318944
0.205936 0.601251 0.311589
0.233402 0.606256 0.301762
0.266209 0.611536 0.290562
0.317632 0.615717 0.288731
0.366094 0.620539 0.286503
0.413031 0.625605 0.284154
0.458961 0.631159 0.281529
0.503899 0.636225 0.279362
0.547784 0.640742 0.277623
0.591058 0.645594 0.275700
0.633631 0.650629 0.273594
0.675593 0.655848 0.271519
0.716854 0.661158 0.269261
0.759518 0.668177 0.266911
0.802518 0.676051 0.263493
0.841032 0.680507 0.260990
0.876493 0.683528 0.259953
0.910796 0.686854 0.260716
0.941863 0.688899 0.262699
0.970214 0.690181 0.265660
0.996033 0.691157 0.270481
1.000000 0.692073 0.276616
1.000000 0.693263 0.284520
1.000000 0.695186 0.295171
0.000000 0.629908 0.345800
0.000000 0.629938 0.345373
0.000000 0.630274 0.344610
0.000000 0.631342 0.343359
0.025116 0.633204 0.341100
0.086641 0.635859 0.337835
0.121004 0.639246 0.333501
0.152346 0.643244 0.327489
0.183352 0.647730 0.319677
0.214847 0.652827 0.309667
0.248417 0.658259 0.296330
0.300328 0.662776 0.290288
0.355566 0.667079 0.288060
0.407233 0.671809 0.285679
0.456977 0.676783 0.282963
0.505150 0.682094 0.280003
0.551934 0.686183 0.278386
0.597436 0.690364 0.276585
0.641688 0.694575 0.274754
0.684779 0.698665 0.272862
0.726864 0.702815 0.271000
0.768063 0.706996 0.269078
0.806882 0.709987 0.268315
0.844694 0.713100 0.266880
0.878325 0.713710 0.266361
0.908232 0.712520 0.266941
0.939635 0.714229 0.270024
0.968261 0.715236 0.274388
0.994324 0.715938 0.280247
1.000000 0.716548 0.287968
1.000000 0.717617 0.297520
1.000000 0.719509 0.309941
0.000000 0.680140 0.356756
0.000000 0.680110 0.356146
0.000000 0.680476 0.355352
0.000000 0.681483 0.353979
0.000000 0.683162 0.351568
0.000000 0.685634 0.347906
0.034699 0.688594 0.343359
0.109468 0.692195 0.336950
0.152956 0.696254 0.328923
0.192508 0.700710 0.318486
0.231296 0.705501 0.305241
0.278691 0.710109 0.292699
0.341619 0.713649 0.290684
0.398505 0.717372 0.288396
0.451911 0.721431 0.285924
0.502922 0.725643 0.283024
0.552087 0.729671 0.280674
0.599451 0.732784 0.279118
0.645106 0.735897 0.277653
0.689296 0.738979 0.276341
0.732143 0.742000 0.274693
0.773831 0.745174 0.273442
0.814450 0.748409 0.272160
0.848661 0.747127 0.273625
0.881773 0.746273 0.274296
0.911131 0.743740 0.275639
0.936980 0.739834 0.277897
0.965667 0.740414 0.283452
0.991913 0.740749 0.290837
1.000000 0.741085 0.299718
1.000000 0.741939 0.310979
1.000000 0.743862 0.325505
0.000000 0.729244 0.367468
0.000000 0.729305 0.367010
0.000000 0.729671 0.366247
0.000000 0.730709 0.364538
0.000000 0.732296 0.362036
0.000000 0.734493 0.358404
0.000000 0.737270 0.353460
0.000000 0.740475 0.347021
0.110780 0.744076 0.338781
0.164858 0.747951 0.328344
0.212711 0.751980 0.315770
0.258885 0.756283 0.300420
0.325200 0.759243 0.295415
0.388037 0.762051 0.293431
0.445167 0.765133 0.291020
0.498817 0.768399 0.288609
0.550072 0.771542 0.286015
0.599145 0.774105 0.284428
0.646174 0.776242 0.283543
0.691493 0.778317 0.282536
0.735073 0.780392 0.281773
0.777249 0.782528 0.281041
0.818112 0.784726 0.280552
0.857664 0.787076 0.280278
0.887083 0.781735 0.284276
0.915953 0.777768 0.287053
0.941527 0.772671 0.290349
0.964141 0.766964 0.294224
0.989837 0.766293 0.302556
1.000000 0.766354 0.313451
1.000000 0.767147 0.326513
1.000000 0.769162 0.343023
0.000000 0.777340 0.378180
0.000000 0.777493 0.377539
0.000000 0.777768 0.376806
0.000000 0.778561 0.375189
0.000000 0.779843 0.372351
0.000000 0.781552 0.368658
0.000000 0.783505 0.363561
0.000000 0.785824 0.356970
0.000000 0.788327 0.348699
0.132174 0.791104 0.338903
0.192599 0.794034 0.326909
0.246281 0.797086 0.312902
0.307378 0.799588 0.302586
0.375372 0.801419 0.300877
0.435889 0.803433 0.298711
0.491676 0.805631 0.296635
0.544427 0.807889 0.294438
0.594659 0.810239 0.292210
0.642908 0.811551 0.291691
0.688869 0.812894 0.291386
0.733059 0.814206 0.291295
0.775662 0.815579 0.291295
0.816770 0.817014 0.291478
0.856443 0.818631 0.292180
0.893950 0.819547 0.293462
0.919707 0.811582 0.299687
0.945098 0.805386 0.304204
0.967529 0.798642 0.309239
0.987396 0.791714 0.314519
1.000000 0.790341 0.325628
1.000000 0.791012 0.340734
1.000000 0.792996 0.359319
0.000000 0.819577 0.387640
0.000000 0.819791 0.386969
0.000000 0.820096 0.386297
0.000000 0.820798 0.384680
0.000000 0.822019 0.381933
0.000000 0.823484 0.378119
0.000000 0.825345 0.373205
0.000000 0.827359 0.366949
0.000000 0.829648 0.359045
0.088411 0.832059 0.349767
0.172854 0.834562 0.339086
0.236973 0.837156 0.327306
0.296574 0.839506 0.315557
0.367041 0.840848 0.313085
