cubelut/LC9.cube
# Created by Adobe Lightroom plugin Export LUT (1.18.0)
# www.johnrellis.com/lightroom/exportlut.htm
# Preset: LC9
# Color profile: /Library/Application Support/Adobe/Color/Profiles/Recommended/AdobeRGB1998.icc
LUT_3D_SIZE 8
DOMAIN_MIN 0.000000 0.000000 0.000000
DOMAIN_MAX 0.903226 0.903226 0.903226
0.236667 0.213382 0.271580
0.236667 0.213382 0.271580
0.296880 0.216464 0.269841
0.397131 0.225559 0.265660
0.549432 0.247532 0.255924
0.732570 0.282811 0.237736
0.892607 0.322240 0.224247
1.000000 0.358038 0.230045
0.236667 0.213382 0.271580
0.236667 0.213382 0.271580
0.297917 0.225925 0.269200
0.399817 0.238315 0.264683
0.554314 0.263676 0.254276
0.738094 0.299840 0.235386
0.895598 0.338628 0.223362
1.000000 0.371160 0.229892
0.233738 0.230716 0.273533
0.236240 0.237308 0.270024
0.290501 0.250889 0.267643
0.396979 0.271458 0.262181
0.552514 0.305638 0.250431
0.736110 0.349859 0.229496
0.891630 0.385657 0.221042
1.000000 0.411017 0.228031
0.219730 0.295781 0.281834
0.220493 0.300755 0.274754
0.281376 0.308843 0.266636
0.380957 0.321202 0.266392
0.540459 0.365606 0.256870
0.729915 0.417517 0.239048
0.890410 0.456519 0.220859
1.000000 0.475776 0.225376
0.193057 0.379034 0.294316
0.199405 0.383276 0.288548
0.268956 0.392798 0.280858
0.380499 0.404822 0.277897
0.520104 0.436744 0.272007
0.724239 0.503075 0.251499
0.891142 0.540795 0.234226
1.000000 0.555627 0.228061
0.138796 0.501305 0.318059
0.165530 0.503227 0.314244
0.235843 0.516564 0.297581
0.377722 0.534630 0.284337
0.534356 0.555505 0.277745
0.709255 0.595789 0.264958
0.880735 0.632380 0.250187
0.998871 0.643122 0.253422
0.000000 0.680140 0.356756
0.000000 0.683162 0.351568
0.152956 0.696254 0.328923
0.341619 0.713649 0.290684
0.552087 0.729671 0.280674
0.732143 0.742000 0.274693
0.881773 0.746273 0.274296
0.991913 0.740749 0.290837
0.000000 0.861418 0.397253
0.000000 0.863371 0.391516
0.000000 0.869200 0.369757
0.298405 0.875975 0.334295
0.543755 0.881621 0.329168
0.733608 0.882933 0.328832
0.893706 0.883452 0.338445
0.999664 0.862058 0.366064
0.236667 0.213382 0.271580
0.236667 0.213382 0.271580
0.295140 0.211063 0.270237
0.394995 0.222751 0.265965
0.549554 0.248722 0.255833
0.736416 0.291600 0.236454
0.895750 0.334722 0.223606
1.000000 0.364935 0.230167
0.236667 0.213382 0.271580
0.236667 0.213382 0.271580
0.294072 0.218814 0.269780
0.395758 0.232090 0.265293
0.551446 0.259922 0.254795
0.738613 0.304417 0.235966
0.897795 0.349584 0.222965
1.000000 0.377600 0.230137
0.232059 0.235019 0.277684
0.231571 0.242466 0.274968
0.290257 0.250767 0.267735
0.394385 0.267063 0.265324
0.551232 0.302068 0.257328
0.737301 0.349706 0.241672
0.895842 0.392737 0.223972
1.000000 0.416632 0.228367
0.216770 0.300237 0.289036
0.217227 0.305180 0.283238
0.282017 0.312108 0.278386
0.381811 0.325078 0.277379
0.544396 0.369818 0.268132
0.735409 0.420050 0.250675
0.894896 0.457679 0.232883
1.000000 0.480232 0.225864
0.189151 0.382574 0.302190
0.202701 0.386328 0.299046
0.266148 0.396612 0.289982
0.381262 0.409949 0.286534
0.522789 0.440955 0.280827
0.726833 0.505150 0.261326
0.892973 0.541375 0.245396
1.000000 0.556176 0.239292
0.139773 0.505669 0.328099
0.165225 0.509239 0.325109
0.235630 0.522484 0.309819
0.374517 0.540581 0.292699
0.535393 0.560479 0.285893
0.709926 0.597742 0.273899
0.881529 0.633448 0.260746
0.999878 0.644526 0.265049
0.000000 0.685634 0.367620
0.000000 0.689754 0.362860
0.147921 0.702083 0.341802
0.331548 0.718807 0.300511
0.549248 0.733486 0.290379
0.732570 0.745327 0.285252
0.883268 0.749081 0.285832
0.993225 0.743557 0.303746
0.000000 0.863859 0.407019
0.000000 0.865476 0.401465
0.000000 0.871092 0.380835
0.293553 0.877653 0.347173
0.538598 0.880858 0.339208
0.731136 0.883085 0.339422
0.892882 0.884398 0.349920
0.999603 0.863859 0.377844
0.231968 0.216770 0.288884
0.234287 0.212955 0.289372
0.284245 0.202060 0.291691
0.385321 0.206210 0.285649
0.535119 0.230259 0.281437
0.722652 0.274113 0.271916
0.889799 0.324163 0.255161
1.000000 0.368200 0.240574
0.229953 0.224308 0.292393
0.230533 0.218997 0.293156
0.284337 0.211246 0.293126
0.384558 0.223667 0.289128
0.536217 0.247471 0.284367
0.724758 0.289128 0.273167
0.891295 0.337499 0.256321
1.000000 0.379065 0.242100
0.223514 0.251164 0.300023
0.223453 0.251347 0.300206
0.280858 0.255985 0.298802
0.380499 0.268894 0.296727
0.533410 0.294438 0.290318
0.724208 0.335882 0.276860
0.890929 0.379858 0.260136
1.000000 0.415320 0.247105
0.209445 0.303960 0.310704
0.208682 0.308843 0.309331
0.275090 0.316472 0.307897
0.373999 0.327489 0.304906
0.531395 0.364233 0.298497
0.723323 0.409094 0.283482
0.889708 0.447944 0.267124
1.000000 0.474647 0.256718
0.178256 0.386908 0.326818
0.196719 0.390570 0.326085
0.263432 0.401312 0.322393
0.371679 0.416144 0.312291
0.515007 0.440803 0.307652
0.719478 0.500298 0.292912
0.889189 0.536584 0.279240
1.000000 0.553429 0.273655
0.124666 0.510216 0.355810
0.156191 0.514336 0.354528
0.231662 0.528130 0.345678
0.351904 0.548760 0.320775
0.529229 0.568750 0.313512
0.707424 0.600702 0.304234
0.880491 0.634455 0.295354
0.999084 0.646448 0.301671
0.000000 0.688472 0.398474
0.000000 0.692470 0.395178
0.125856 0.705287 0.379797
0.302922 0.723964 0.341314
0.532403 0.738918 0.324681
0.726253 0.749630 0.319829
0.879789 0.751186 0.321355
0.991058 0.747036 0.340459
0.000000 0.865537 0.437385
0.000000 0.867491 0.432593
0.000000 0.873533 0.415137
0.265324 0.879667 0.385443
0.526024 0.882994 0.376989
0.723903 0.885069 0.375982
0.888029 0.885924 0.386145
0.996765 0.867338 0.411658
0.216983 0.229099 0.333562
0.217838 0.222904 0.333989
0.260899 0.204990 0.334905
0.368536 0.217258 0.334844
0.521294 0.211093 0.331670
0.715450 0.215885 0.315618
0.888121 0.282048 0.304875
1.000000 0.343023 0.293462
0.214542 0.239719 0.335576
0.215579 0.232273 0.336217
0.261631 0.219669 0.336767
0.367712 0.231052 0.336065
0.520470 0.225925 0.332006
0.715541 0.238468 0.317815
0.888548 0.299351 0.306615
1.000000 0.354711 0.294102
0.206455 0.269474 0.342229
0.207065 0.265568 0.342840
0.263005 0.264286 0.342596
0.366186 0.271611 0.340612
0.516960 0.272313 0.333288
0.710994 0.302770 0.324102
0.884825 0.350439 0.310887
1.000000 0.394324 0.297887
0.189487 0.322087 0.352361
0.189395 0.322301 0.352453
0.258457 0.326574 0.351507
0.361425 0.334264 0.348150
0.513603 0.355291 0.344030
0.711269 0.390814 0.333440
0.885832 0.430365 0.319615
1.000000 0.462318 0.309056
0.157717 0.393378 0.364660
0.176638 0.397314 0.365362
0.248173 0.408392 0.366278
0.350652 0.425055 0.360540
0.503197 0.444099 0.353582
0.709865 0.494606 0.345678
0.883787 0.528771 0.334203
1.000000 0.550103 0.329137
0.074708 0.516045 0.397528
0.121675 0.518791 0.396857
0.210300 0.533471 0.394629
0.326085 0.555596 0.380957
0.507774 0.578180 0.362829
0.698299 0.603754 0.356786
0.877226 0.637171 0.354559
0.997436 0.652216 0.361944
0.000000 0.694484 0.446723
0.000000 0.697749 0.444648
0.000000 0.709224 0.435370
0.269596 0.726925 0.410986
0.495094 0.744045 0.383276
0.710994 0.754910 0.377874
0.874174 0.756741 0.380835
0.989014 0.756771 0.401801
0.000000 0.867735 0.486610
0.000000 0.869322 0.483345
0.000000 0.874907 0.468818
0.173190 0.882841 0.441535
0.501061 0.885649 0.436194
0.710811 0.888029 0.434730
0.879484 0.888670 0.443641
0.992126 0.873991 0.465064
0.187350 0.252140 0.396429
0.188754 0.245151 0.396643
0.225620 0.216709 0.398444
0.350195 0.226108 0.396094
0.496651 0.228092 0.401038
0.699397 0.197604 0.401129
0.881376 0.213748 0.378424
1.000000 0.338659 0.379919
0.183474 0.264103 0.398779
0.185428 0.255406 0.398901
0.226658 0.232303 0.400000
0.350195 0.239078 0.398260
0.496590 0.241398 0.402136
0.698878 0.216373 0.401129
0.880949 0.240482 0.380316
1.000000 0.351904 0.381201
0.170962 0.297246 0.405798
0.172427 0.291142 0.406348
0.232059 0.282506 0.406806
0.347051 0.279026 0.405585
0.496407 0.284367 0.406195
0.699092 0.275059 0.402258
0.880827 0.316106 0.387457
1.000000 0.395300 0.385046
0.142885 0.354253 0.417090
0.143618 0.351629 0.417731
0.227970 0.351629 0.417487
0.335698 0.347784 0.416327
0.493080 0.355444 0.412970
0.696040 0.363867 0.404456
0.880156 0.411749 0.396551
1.000000 0.454932 0.385351
0.065400 0.434028 0.433570
0.108614 0.434668 0.433448
0.209110 0.437842 0.432654
0.324712 0.443671 0.430488
0.486183 0.455787 0.424628
0.697108 0.487495 0.418616
0.880247 0.522484 0.409827
1.000000 0.550744 0.403021
0.000000 0.532830 0.454200
0.000000 0.535241 0.454414
0.165377 0.548425 0.456886
0.295445 0.570977 0.456977
0.470375 0.595392 0.443732
0.688289 0.615229 0.434028
0.874876 0.647822 0.436744
0.995453 0.663844 0.438361
0.000000 0.704707 0.508446
0.000000 0.708461 0.508080
0.000000 0.720150 0.504875
0.208713 0.737301 0.492927
0.437171 0.753994 0.467323
0.687037 0.765316 0.457588
0.867124 0.768124 0.460548
0.987030 0.775509 0.482155
0.000000 0.874388 0.550256
0.000000 0.876341 0.549035
0.000000 0.881956 0.539879
0.000000 0.888487 0.517754
0.398657 0.893767 0.491951
0.695247 0.891020 0.511620
0.867826 0.893339 0.514733
0.986816 0.884520 0.530266
0.100343 0.291661 0.493294
0.103090 0.285985 0.493538
0.145937 0.245029 0.496193
0.325689 0.237705 0.495003
0.489448 0.236332 0.492500
0.678767 0.224033 0.497871
0.869200 0.246586 0.489357
0.992615 0.396094 0.489113
0.083619 0.308385 0.497444
0.089296 0.298650 0.498054
0.151308 0.264622 0.499886
0.322728 0.251011 0.498726
0.490089 0.249638 0.495674
0.679683 0.240970 0.499367
0.869413 0.267552 0.490517
0.992340 0.412390 0.491890
0.000000 0.345434 0.503807
0.011414 0.337957 0.504479
0.157504 0.319219 0.505669
0.303593 0.291936 0.505791
0.486000 0.293065 0.502647
0.678981 0.294896 0.502770
0.868101 0.331090 0.493782
0.990509 0.463111 0.500816
0.000000 0.407996 0.515099
0.000000 0.403296 0.515892
0.144533 0.396277 0.516533
0.284855 0.375402 0.515862
0.471687 0.365484 0.512718
0.675044 0.379339 0.508171
0.865049 0.422858 0.499916
0.988861 0.528588 0.510857
0.000000 0.493141 0.531975
0.000000 0.492103 0.532158
0.080323 0.489967 0.532036
0.262821 0.483192 0.531487
0.445106 0.473518 0.528862
0.673823 0.491157 0.520684
0.864012 0.538933 0.514061
0.991577 0.595514 0.515648
0.000000 0.595148 0.551385
0.000000 0.595300 0.551019
0.000000 0.597528 0.550530
0.222171 0.602106 0.549493
0.423377 0.612116 0.546288
0.664485 0.630182 0.536828
0.862882 0.662043 0.532830
0.990082 0.687495 0.530175
0.000000 0.722408 0.581933
0.000000 0.724056 0.581659
0.000000 0.731746 0.581567
0.037781 0.746639 0.579858
0.374762 0.764340 0.570520
0.648066 0.774197 0.555901
0.853483 0.782864 0.555901
0.982238 0.801541 0.570794
0.000000 0.880552 0.623804
0.000000 0.882475 0.622889
0.000000 0.888396 0.618647
0.000000 0.896147 0.606348
0.287785 0.902678 0.584741
0.632166 0.898924 0.575982
0.852598 0.898497 0.591485
0.979461 0.896880 0.599969
0.000000 0.346197 0.627710
0.000000 0.350561 0.627314
0.000000 0.303899 0.629145
0.247898 0.262089 0.628992
0.480232 0.254215 0.626154
0.681819 0.250584 0.621668
0.860410 0.287602 0.602716
0.985107 0.437537 0.586114
0.000000 0.364111 0.628595
0.000000 0.362554 0.628565
0.000000 0.321447 0.630213
0.235355 0.275029 0.630640
0.476204 0.268437 0.627588
0.680659 0.267430 0.622889
0.859983 0.306035 0.603571
0.984619 0.451850 0.587762
0.000000 0.411353 0.632166
0.000000 0.402869 0.632532
0.000000 0.374182 0.633845
0.200900 0.326452 0.634821
0.460151 0.314855 0.632013
0.675746 0.322087 0.626825
0.858549 0.364324 0.606775
0.982879 0.498695 0.593652
0.000000 0.474159 0.638239
0.000000 0.467903 0.638697
0.000000 0.449683 0.639521
0.172854 0.419196 0.640223
0.426154 0.391516 0.638788
0.664851 0.408606 0.632746
0.855711 0.452552 0.612909
0.980346 0.568627 0.603632
0.000000 0.553765 0.646723
0.000000 0.550927 0.646876
0.000000 0.541405 0.647333
0.067781 0.522393 0.647578
0.376318 0.498756 0.646387
0.644984 0.516686 0.639796
0.850950 0.561273 0.622217
0.977295 0.652705 0.617578
0.000000 0.645197 0.656672
0.000000 0.645808 0.656550
0.000000 0.643000 0.656641
0.000000 0.636591 0.656397
0.327489 0.628138 0.655024
0.619989 0.643824 0.647944
0.843534 0.682582 0.634760
0.974182 0.741573 0.634791
0.000000 0.745480 0.667262
0.000000 0.747494 0.667018
0.000000 0.749691 0.666712
0.000000 0.753017 0.666224
0.285069 0.760403 0.664271
0.599359 0.777523 0.658228
0.834836 0.798672 0.649165
0.975219 0.822965 0.648493
0.000000 0.870665 0.693782
0.000000 0.872953 0.693629
0.000000 0.880919 0.693019
0.000000 0.893187 0.692012
0.000000 0.911803 0.688869
0.552148 0.910552 0.670924
0.824918 0.904509 0.663996
0.970550 0.910124 0.668482
0.000000 0.379797 0.736690
0.000000 0.384741 0.736446
0.000000 0.363836 0.737087
0.000000 0.310765 0.737972
0.423651 0.306310 0.735378
0.650385 0.326360 0.730861
0.853147 0.380468 0.723934
0.980835 0.493996 0.687404
0.000000 0.392584 0.737026
0.000000 0.397162 0.736751
0.000000 0.376623 0.737423
0.000000 0.327733 0.738247
0.418280 0.319219 0.735836
0.648371 0.341161 0.731167
0.851957 0.395758 0.724117
0.980316 0.506249 0.688258
0.000000 0.428687 0.738277
0.000000 0.432563 0.738003
0.000000 0.418830 0.738430
0.000000 0.378943 0.739162
0.398352 0.362585 0.737301
0.641291 0.390082 0.732204
0.847715 0.445441 0.724758
0.978393 0.546349 0.691188
0.000000 0.477363 0.740780
0.000000 0.480537 0.740505
0.000000 0.485542 0.740047
0.000000 0.451789 0.740932
0.359014 0.432898 0.739590
0.628138 0.466133 0.733761
0.840055 0.522057 0.725643
0.975433 0.606744 0.696284
0.000000 0.554437 0.743832
0.000000 0.555413 0.743679
0.000000 0.558099 0.743160
0.000000 0.535424 0.743618
0.254917 0.512261 0.743069
0.609186 0.560113 0.735592
0.829282 0.613275 0.726925
0.971527 0.680385 0.703456
0.000000 0.643824 0.747494
0.000000 0.644892 0.747341
0.000000 0.648005 0.746914
0.000000 0.642634 0.746639
0.000000 0.617395 0.746761
0.544610 0.641321 0.740322
0.818601 0.713344 0.728756
0.967102 0.759762 0.712306
0.000000 0.741939 0.751308
0.000000 0.743130 0.751156
0.000000 0.746822 0.750790
0.000000 0.751736 0.750088
0.000000 0.743954 0.749783
0.463386 0.751492 0.745480
0.800259 0.804776 0.733364
0.962524 0.840513 0.722683
0.000000 0.842496 0.755276
0.000000 0.843839 0.755184
0.000000 0.848783 0.754818
0.000000 0.858061 0.754055
0.000000 0.865293 0.753079
0.429206 0.878904 0.749020
0.781064 0.903044 0.740719
0.958007 0.922026 0.734585
