cubelut/LC9.cube
# Created by Adobe Lightroom plugin Export LUT (1.18.0)
# www.johnrellis.com/lightroom/exportlut.htm
# Preset: LC9
# Color profile: /Library/Application Support/Adobe/Color/Profiles/Recommended/AdobeRGB1998.icc
LUT_3D_SIZE 5
DOMAIN_MIN 0.000000 0.000000 0.000000
DOMAIN_MAX 0.903226 0.903226 0.903226
0.236667 0.213382 0.271580
0.275914 0.215244 0.270512
0.466011 0.234714 0.261784
0.777066 0.291905 0.232059
1.000000 0.358038 0.230045
0.236393 0.215122 0.271763
0.270878 0.236851 0.269230
0.467597 0.275456 0.258457
0.778988 0.343206 0.226200
1.000000 0.398077 0.228367
0.208804 0.334295 0.287449
0.254307 0.345098 0.274815
0.443244 0.372900 0.270787
0.776272 0.472175 0.240055
1.000000 0.514855 0.223972
0.113710 0.539483 0.326299
0.200412 0.552117 0.311131
0.458137 0.586145 0.280919
0.757473 0.637049 0.263188
0.997345 0.666712 0.261234
0.000000 0.861418 0.397253
0.000000 0.867491 0.377050
0.432471 0.880278 0.331487
0.776120 0.882902 0.330724
0.999664 0.862058 0.366064
0.234623 0.214786 0.279332
0.265812 0.206821 0.283726
0.456916 0.219913 0.275731
0.774502 0.293339 0.257389
1.000000 0.372930 0.230045
0.228824 0.236820 0.289342
0.264317 0.239963 0.288579
0.454475 0.267674 0.283635
0.774685 0.338537 0.261143
1.000000 0.407477 0.234897
0.199557 0.340826 0.311070
0.253452 0.351598 0.307225
0.441016 0.378607 0.299046
0.773800 0.468147 0.273777
1.000000 0.513054 0.253391
0.102632 0.545617 0.355871
0.196536 0.558709 0.346075
0.443458 0.594324 0.308751
0.755306 0.639857 0.294011
0.997162 0.669581 0.297948
0.000000 0.863462 0.427161
0.000000 0.869474 0.410071
0.411719 0.880583 0.366644
0.769406 0.884001 0.365820
0.996979 0.865293 0.399420
0.205142 0.238956 0.361730
0.222873 0.210636 0.363561
0.425971 0.224979 0.364508
0.758267 0.176761 0.343297
1.000000 0.333440 0.331762
0.195743 0.271366 0.368536
0.227970 0.258213 0.369635
0.424842 0.266209 0.368383
0.757290 0.263951 0.350225
1.000000 0.373754 0.333928
0.153292 0.372412 0.388891
0.217533 0.375525 0.388495
0.417670 0.388983 0.382513
0.755550 0.443244 0.369146
1.000000 0.500450 0.351659
0.000000 0.561395 0.435370
0.134859 0.576013 0.435645
0.382269 0.614679 0.414313
0.743709 0.650324 0.395575
0.995605 0.686305 0.410773
0.000000 0.871489 0.517174
0.000000 0.876585 0.507134
0.289616 0.888853 0.463020
0.749599 0.890623 0.471870
0.989990 0.879332 0.497353
0.000000 0.306126 0.527886
0.030579 0.270176 0.529168
0.404700 0.240543 0.527031
0.729427 0.227359 0.525933
0.991180 0.406897 0.513817
0.000000 0.350713 0.534905
0.022004 0.322393 0.536309
0.393164 0.283238 0.535027
0.730068 0.285588 0.529900
0.989990 0.458534 0.522393
0.000000 0.467140 0.554833
0.000000 0.459480 0.555444
0.342443 0.427985 0.555169
0.727047 0.446174 0.542657
0.985626 0.588952 0.546654
0.000000 0.636683 0.582361
0.000000 0.639277 0.582574
0.282658 0.647883 0.580621
0.712001 0.676997 0.567529
0.986664 0.725734 0.563867
0.000000 0.882536 0.643671
0.000000 0.888334 0.640528
0.000000 0.901762 0.620630
0.686305 0.899321 0.599023
0.977539 0.900328 0.617517
0.000000 0.379797 0.736690
0.000000 0.379034 0.736538
0.282628 0.303929 0.737026
0.702846 0.336278 0.729366
0.980835 0.493996 0.687404
0.000000 0.417975 0.737850
0.000000 0.418463 0.737606
0.244266 0.343816 0.738643
0.697261 0.385657 0.730312
0.979004 0.534020 0.690272
0.000000 0.513512 0.742245
0.000000 0.516472 0.741695
0.050996 0.476844 0.742245
0.677363 0.522698 0.732784
0.973571 0.642298 0.699580
0.000000 0.668055 0.748379
0.000000 0.671351 0.747951
0.000000 0.660456 0.747616
0.617975 0.684504 0.738430
0.965972 0.779904 0.714778
0.000000 0.842496 0.755276
0.000000 0.847135 0.754910
0.000000 0.862394 0.753628
0.539086 0.884703 0.747066
0.958007 0.922026 0.734585
