cubelut/Moody7.cube
# Created by Adobe Lightroom plugin Export LUT (1.18.0)
# www.johnrellis.com/lightroom/exportlut.htm
# Preset: CP - INTERIOR DESIGN 29
# Color profile: /Library/Application Support/Adobe/Color/Profiles/Recommended/AdobeRGB1998.icc
LUT_3D_SIZE 5
DOMAIN_MIN 0.000000 0.000000 0.000000
DOMAIN_MAX 0.903226 0.903226 0.903226
0.047089 0.045197 0.056733
0.211246 0.054597 0.053407
0.393133 0.053346 0.063722
0.689570 0.075837 0.000000
0.962158 0.162478 0.000000
0.011170 0.209415 0.104280
0.217563 0.209079 0.099672
0.419043 0.198215 0.088808
0.715633 0.235294 0.000000
0.967895 0.275547 0.000000
0.000000 0.433509 0.178500
0.198123 0.442206 0.185000
0.447395 0.455360 0.160006
0.780819 0.516411 0.024842
0.985321 0.496223 0.000000
0.000000 0.775570 0.249088
0.000000 0.782193 0.192691
0.508690 0.786984 0.199069
0.793149 0.781460 0.154971
0.990112 0.726528 0.136568
0.000000 0.983368 0.335332
0.000000 0.983642 0.309911
0.481971 0.973724 0.392676
0.763760 0.962341 0.367529
0.981445 0.946777 0.346899
0.077394 0.077516 0.224735
0.211856 0.069215 0.231540
0.384253 0.084413 0.207126
0.673976 0.000000 0.195590
0.957031 0.091768 0.144991
0.066560 0.203464 0.244724
0.207065 0.215030 0.250004
0.401831 0.208896 0.232853
0.701259 0.213993 0.201663
0.963226 0.245487 0.149508
0.000000 0.431525 0.286625
0.169558 0.443854 0.276066
0.446571 0.460212 0.265202
0.781094 0.509331 0.219516
0.981689 0.483619 0.172641
0.000000 0.773922 0.360082
0.000000 0.781338 0.318914
0.486000 0.788846 0.297887
0.791928 0.782956 0.267887
0.989563 0.725032 0.254093
0.000000 0.982849 0.407996
0.000000 0.983032 0.390875
0.490944 0.972137 0.473457
0.764950 0.961730 0.451362
0.978119 0.946868 0.431739
0.114229 0.121065 0.420264
0.214084 0.127596 0.433509
0.428260 0.074434 0.446723
0.711635 0.000000 0.434974
0.948638 0.000000 0.345464
0.111238 0.207034 0.424262
0.222049 0.231205 0.440009
0.431525 0.207645 0.457679
0.710170 0.000000 0.425330
0.944305 0.000000 0.352270
0.000000 0.422187 0.467323
0.159487 0.432837 0.473640
0.436500 0.474830 0.497444
0.739040 0.439246 0.439643
0.967071 0.417243 0.383368
0.000000 0.768582 0.565240
0.000000 0.775509 0.556970
0.396277 0.792630 0.523339
0.782925 0.787411 0.526696
0.982300 0.732662 0.506310
0.000000 0.980346 0.580987
0.000000 0.980560 0.571496
0.420783 0.974762 0.577752
0.773342 0.957855 0.651514
0.967071 0.947051 0.635096
0.203677 0.156802 0.705287
0.296269 0.149508 0.714534
0.519524 0.079805 0.745083
0.773159 0.000000 0.726131
0.975219 0.000000 0.656214
0.177493 0.249607 0.706447
0.276829 0.246281 0.715541
0.509239 0.226780 0.746029
0.774380 0.000000 0.730312
0.973541 0.000000 0.652522
0.000000 0.435004 0.706294
0.098573 0.428138 0.709407
0.471870 0.482124 0.742306
0.772549 0.468910 0.746426
0.962432 0.379217 0.648341
0.000000 0.738155 0.751247
0.000000 0.742123 0.753445
0.417090 0.757839 0.761166
0.768704 0.795132 0.783566
0.945220 0.735134 0.716884
0.000000 0.974762 0.776699
0.000000 0.974121 0.774197
0.451301 0.967590 0.774014
0.761898 0.955413 0.799435
0.954376 0.948241 0.814817
0.344427 0.254368 0.929076
0.401953 0.252689 0.930785
0.559869 0.248417 0.936736
0.772396 0.246891 0.944793
0.981872 0.000000 0.900694
0.337072 0.333165 0.927703
0.396002 0.333745 0.929412
0.556970 0.339391 0.935363
0.770809 0.367224 0.944488
0.979156 0.246830 0.902434
0.161837 0.451209 0.923125
0.330358 0.490700 0.923705
0.570977 0.565576 0.927733
0.776913 0.613184 0.938079
0.966583 0.549859 0.909819
0.107973 0.702937 0.927031
0.264012 0.705501 0.926238
0.514580 0.721065 0.922301
0.784054 0.796292 0.926848
0.949126 0.794003 0.924163
0.147036 0.925719 0.939574
0.292882 0.926604 0.939239
0.544060 0.929900 0.938018
0.770443 0.935973 0.937285
0.945617 0.952270 0.947845
