cubelut/Moody6.cube
# Created by Adobe Lightroom plugin Export LUT (1.18.0)
# www.johnrellis.com/lightroom/exportlut.htm
# Preset: Moody6
# Color profile: /Library/Application Support/Adobe/Color/Profiles/Recommended/AdobeRGB1998.icc
LUT_3D_SIZE 32
DOMAIN_MIN 0.0 0.0 0.0
DOMAIN_MAX 1.0 1.0 1.0
0.156039 0.156039 0.156039
0.156741 0.155917 0.156008
0.157626 0.155764 0.156008
0.159731 0.155398 0.155978
0.163485 0.154910 0.155917
0.168276 0.154360 0.155825
0.174624 0.153506 0.155703
0.182925 0.152316 0.155550
0.193973 0.150759 0.155306
0.208713 0.148775 0.154940
0.227817 0.145541 0.154421
0.251530 0.141604 0.153689
0.279332 0.136080 0.152682
0.310887 0.129519 0.151308
0.345190 0.121065 0.149569
0.381720 0.109712 0.147463
0.420447 0.094606 0.144869
0.461677 0.071382 0.141695
0.504662 0.001038 0.137911
0.550683 0.000000 0.133242
0.598352 0.000000 0.127749
0.644923 0.000000 0.121645
0.689601 0.000000 0.115023
0.732357 0.000000 0.107820
0.778286 0.000000 0.099031
0.821683 0.000000 0.089387
0.860899 0.000000 0.079347
0.896788 0.000000 0.068635
0.929931 0.000000 0.055787
0.960540 0.000000 0.032319
0.988647 0.000000 0.009522
1.000000 0.000000 0.000000
0.156069 0.156802 0.156100
0.156802 0.156680 0.155947
0.157687 0.156527 0.155947
0.159976 0.156161 0.155917
0.163546 0.155856 0.155856
0.168490 0.155123 0.155764
0.174685 0.154269 0.155642
0.182834 0.153292 0.155489
0.193851 0.151919 0.155215
0.208499 0.149966 0.154849
0.227237 0.147219 0.154330
0.250614 0.143435 0.153597
0.278141 0.138705 0.152560
0.309270 0.132540 0.151186
0.343206 0.124880 0.149477
0.379522 0.114748 0.147341
0.417792 0.101198 0.144778
0.458656 0.081178 0.141634
0.501427 0.037568 0.137850
0.547234 0.000000 0.133242
0.594873 0.000000 0.127779
0.641627 0.000000 0.121645
0.686458 0.000000 0.114992
0.729488 0.000000 0.107759
0.775326 0.000000 0.099001
0.818326 0.000000 0.089448
0.857511 0.000000 0.079530
0.893584 0.000000 0.068727
0.927062 0.000000 0.055818
0.958038 0.000000 0.031952
0.986450 0.000000 0.008881
1.000000 0.000000 0.000000
0.156283 0.157687 0.156161
0.157015 0.157565 0.156008
0.157931 0.157412 0.155856
0.160189 0.157198 0.155825
0.163882 0.156863 0.155764
0.168673 0.156344 0.155673
0.174838 0.155489 0.155550
0.182956 0.154696 0.155367
0.193851 0.153353 0.155123
0.208347 0.151614 0.154726
0.227085 0.149233 0.154177
0.250340 0.145907 0.153414
0.277684 0.141695 0.152346
0.308690 0.136324 0.150973
0.342382 0.129488 0.149203
0.378424 0.120272 0.147097
0.416632 0.108431 0.144472
0.457160 0.091493 0.141329
0.499916 0.064424 0.137545
0.545586 0.000000 0.132906
0.593286 0.000000 0.127382
0.640040 0.000000 0.121218
0.685084 0.000000 0.114473
0.728115 0.000000 0.107240
0.774075 0.000000 0.098299
0.816709 0.000000 0.088838
0.855802 0.000000 0.078737
0.891936 0.000000 0.067811
0.925597 0.000000 0.053834
0.956725 0.000000 0.029114
0.985260 0.000000 0.006165
1.000000 0.000000 0.000000
0.156771 0.160006 0.156252
0.157504 0.159915 0.156100
0.158419 0.159762 0.155947
0.160555 0.159426 0.155642
0.164401 0.159213 0.155550
0.169314 0.158816 0.155428
0.175448 0.158145 0.155306
0.183658 0.157351 0.155123
0.194583 0.156466 0.154818
0.208988 0.155123 0.154421
0.227604 0.153445 0.153811
0.250767 0.150881 0.152987
0.277928 0.147707 0.151858
0.308629 0.143587 0.150423
0.342077 0.137850 0.148623
0.377935 0.130831 0.146426
0.415717 0.121462 0.143771
0.455909 0.108370 0.140566
0.498238 0.089723 0.136690
0.543420 0.055787 0.132021
0.590875 0.000000 0.126406
0.637598 0.000000 0.120119
0.682856 0.000000 0.113222
0.726406 0.000000 0.105715
0.773251 0.000000 0.096376
0.816037 0.000000 0.086488
0.855406 0.000000 0.075990
0.891783 0.000000 0.064393
0.925444 0.000000 0.046540
0.956420 0.000000 0.020050
0.984771 0.000000 0.000000
1.000000 0.000000 0.000000
0.157321 0.163912 0.156466
0.158206 0.163760 0.156313
0.159304 0.163607 0.156161
0.161471 0.163272 0.155703
0.165072 0.162844 0.155215
0.170077 0.162570 0.155093
0.176333 0.162051 0.154940
0.184604 0.161685 0.154726
0.195438 0.161166 0.154391
0.209812 0.160586 0.153933
0.228397 0.159579 0.153292
0.251255 0.158419 0.152346
0.278202 0.156588 0.151125
0.308629 0.153933 0.149569
0.342016 0.150149 0.147677
0.377813 0.145083 0.145327
0.415778 0.138216 0.142519
0.456123 0.129061 0.139132
0.498512 0.116213 0.135134
0.543542 0.097383 0.130220
0.590631 0.063325 0.124453
0.637171 0.000000 0.117922
0.682277 0.000000 0.110750
0.727199 0.000000 0.102602
0.773159 0.000000 0.092958
0.815488 0.000000 0.082612
0.854551 0.000000 0.071412
0.890745 0.000000 0.058930
0.924315 0.000000 0.033051
0.955291 0.000000 0.006500
0.983673 0.000000 0.000000
1.000000 0.000000 0.000000
0.157931 0.169253 0.156710
0.159030 0.169070 0.156558
0.160098 0.168917 0.156374
0.162600 0.168399 0.155947
0.166079 0.167727 0.155337
0.170901 0.167239 0.154665
0.177890 0.167575 0.154421
0.186343 0.167330 0.154177
0.197391 0.167453 0.153780
0.211887 0.167544 0.153231
0.230625 0.167819 0.152438
0.253544 0.167910 0.151400
0.280308 0.167483 0.150057
0.310613 0.166415 0.148348
0.343847 0.164584 0.146242
0.379583 0.161776 0.143709
0.417487 0.157412 0.140719
0.457832 0.151339 0.137118
0.500145 0.143099 0.132784
0.545373 0.131014 0.127596
0.592370 0.113222 0.121401
0.638880 0.084840 0.114473
0.702937 0.000000 0.102663
0.751308 0.000000 0.092226
0.797940 0.000000 0.080171
0.839292 0.000000 0.067231
0.876371 0.000000 0.048890
0.910094 0.000000 0.018463
0.940948 0.000000 0.000000
0.969299 0.000000 0.000000
0.995087 0.000000 0.000000
1.000000 0.000000 0.000000
0.158938 0.177279 0.156771
0.160006 0.177127 0.156619
0.161440 0.176761 0.156466
0.164279 0.176242 0.156039
0.168338 0.175479 0.155550
0.173312 0.174563 0.154788
0.179812 0.174319 0.153719
0.190066 0.175631 0.153262
0.202060 0.176486 0.152773
0.217624 0.177584 0.152071
0.237400 0.179049 0.151064
0.261265 0.180545 0.149783
0.288731 0.181765 0.148165
0.319341 0.182376 0.146181
0.352483 0.182193 0.143832
0.387793 0.181094 0.141054
0.425544 0.178927 0.137728
0.465797 0.175540 0.133730
0.508324 0.170321 0.128969
0.554192 0.162905 0.123079
0.602045 0.151766 0.116060
0.649470 0.135439 0.108095
0.696773 0.110689 0.098878
0.748348 0.062287 0.086732
0.795102 0.000000 0.073243
0.836728 0.000000 0.057832
0.874022 0.000000 0.025696
0.907683 0.000000 0.000000
0.938659 0.000000 0.000000
0.966979 0.000000 0.000000
0.992889 0.000000 0.000000
1.000000 0.000000 0.000000
0.160189 0.187350 0.156771
0.161288 0.187076 0.156619
0.162844 0.186862 0.156435
0.166140 0.186282 0.155978
0.170657 0.185397 0.155520
0.176303 0.184298 0.154879
0.182681 0.183047 0.154086
0.191073 0.183322 0.152926
0.205234 0.186221 0.151675
0.220981 0.188418 0.150820
0.240879 0.191135 0.149630
0.264622 0.194034 0.148165
0.291905 0.196628 0.146334
0.322179 0.198917 0.144106
0.355077 0.200504 0.141512
0.389929 0.201266 0.138460
0.427405 0.201236 0.134798
0.467323 0.200076 0.130465
0.509575 0.197848 0.125277
0.555016 0.193912 0.118898
0.602411 0.187655 0.111238
0.649378 0.177646 0.102571
0.700343 0.163363 0.091188
0.749477 0.141848 0.077852
0.794553 0.108583 0.062318
0.835203 0.017365 0.031617
0.871885 0.000000 0.000000
0.905394 0.000000 0.000000
0.936370 0.000000 0.000000
0.964813 0.000000 0.000000
0.990906 0.000000 0.000000
1.000000 0.000000 0.000000
0.161898 0.201144 0.156680
0.163149 0.200870 0.156527
0.164858 0.200656 0.156344
0.168460 0.199985 0.155917
0.173861 0.199008 0.155428
0.180331 0.197879 0.154635
0.187808 0.196414 0.153964
0.195529 0.194949 0.152987
0.206638 0.195804 0.151614
0.225498 0.201083 0.149355
0.245640 0.205173 0.147799
0.269444 0.209323 0.146059
0.296635 0.213443 0.143954
0.326818 0.217166 0.141451
0.359319 0.220279 0.138521
0.393866 0.222782 0.135103
0.431128 0.224491 0.131075
0.470832 0.225437 0.126253
0.512627 0.225437 0.120516
0.557794 0.224308 0.113405
0.604456 0.221256 0.104891
0.654383 0.215824 0.094118
0.704433 0.206973 0.080934
0.751583 0.193698 0.065156
0.795193 0.174502 0.034424
0.834806 0.146914 0.000000
0.870939 0.104738 0.000000
0.904082 0.000000 0.000000
0.934844 0.000000 0.000000
0.963195 0.000000 0.000000
0.989258 0.000000 0.000000
1.000000 0.000000 0.000000
0.164187 0.219272 0.156191
0.165560 0.218997 0.156039
0.167605 0.218662 0.155886
0.171725 0.217960 0.155581
0.177829 0.216892 0.154940
0.185458 0.215579 0.154147
0.194003 0.214054 0.153170
0.203281 0.212345 0.152163
0.212924 0.210605 0.151125
0.227146 0.212467 0.149416
0.250706 0.219974 0.146273
0.274540 0.225834 0.143587
0.301732 0.231296 0.141146
0.331762 0.236484 0.138277
0.364324 0.241276 0.134890
0.399176 0.245243 0.130983
0.436683 0.248844 0.126314
0.476326 0.251682 0.120790
0.518090 0.253758 0.114199
0.562615 0.254734 0.106172
0.611597 0.254917 0.095521
0.660578 0.252506 0.082673
0.707759 0.246769 0.067140
0.752407 0.237552 0.037720
0.794217 0.224094 0.000000
0.832883 0.205875 0.000000
0.868742 0.181338 0.000000
0.902068 0.147280 0.000000
0.933104 0.091646 0.000000
0.961852 0.000000 0.000000
0.988220 0.000000 0.000000
1.000000 0.000000 0.000000
0.166720 0.241581 0.155367
0.168399 0.241306 0.155215
0.170748 0.240970 0.154910
0.175540 0.240330 0.154543
0.182681 0.239261 0.153902
0.191470 0.238010 0.153048
0.201541 0.236515 0.152041
0.212314 0.234714 0.150820
0.223728 0.232822 0.149569
0.235447 0.230930 0.148287
0.253086 0.233829 0.145937
0.280888 0.243351 0.141726
0.307958 0.250462 0.137881
0.337835 0.257053 0.134371
0.370184 0.263035 0.130526
0.404791 0.268650 0.126009
0.441993 0.273594 0.120699
0.481270 0.278050 0.114382
0.523308 0.282017 0.106661
0.570703 0.286107 0.096132
0.618585 0.288334 0.083314
0.665705 0.287694 0.067475
0.711299 0.284428 0.035889
0.754635 0.277836 0.000000
0.795315 0.267887 0.000000
0.833097 0.254002 0.000000
0.868193 0.235843 0.000000
0.901030 0.212772 0.000000
0.931762 0.182162 0.000000
0.960327 0.138796 0.000000
0.986694 0.048127 0.000000
1.000000 0.000000 0.000000
0.169741 0.268650 0.153536
0.171695 0.268467 0.153384
0.174441 0.268101 0.153201
0.180087 0.267399 0.152712
0.188144 0.266392 0.152010
0.198367 0.265080 0.151125
0.209934 0.263554 0.150027
0.222568 0.261845 0.148592
0.235813 0.259892 0.147097
0.249454 0.257847 0.145388
0.263188 0.255711 0.143771
0.284184 0.259831 0.140597
0.325811 0.278630 0.132967
0.356725 0.286870 0.127443
0.389715 0.294377 0.121981
0.425055 0.301061 0.116304
0.464179 0.308141 0.109102
0.507866 0.315831 0.099519
0.553063 0.322332 0.087739
0.599359 0.327245 0.072694
0.644953 0.329686 0.048707
0.689296 0.329686 0.000000
0.731716 0.326665 0.000000
0.772091 0.320989 0.000000
0.810056 0.312200 0.000000
0.845518 0.300481 0.000000
0.878569 0.285222 0.000000
0.909453 0.266270 0.000000
0.938384 0.242893 0.000000
0.965423 0.213382 0.000000
0.990417 0.175143 0.000000
1.000000 0.117403 0.000000
0.174258 0.304448 0.150546
0.176455 0.304265 0.150362
0.179660 0.303655 0.150057
0.186069 0.302586 0.149599
0.195315 0.301091 0.148806
0.206973 0.299138 0.147829
0.220127 0.297276 0.146426
0.234470 0.295201 0.144930
0.249851 0.293156 0.143191
0.265965 0.291417 0.141207
0.282383 0.289647 0.138979
0.298924 0.287877 0.136629
0.324590 0.293889 0.131991
0.363195 0.308904 0.123629
0.398932 0.319799 0.115267
0.437354 0.330449 0.106294
0.477790 0.339635 0.096712
0.519432 0.347570 0.085145
0.562585 0.354376 0.070161
0.606348 0.359625 0.041779
0.649683 0.362676 0.000000
0.692042 0.363348 0.000000
0.732845 0.361608 0.000000
0.771908 0.357183 0.000000
0.808927 0.350103 0.000000
0.843748 0.340154 0.000000
0.876432 0.327459 0.000000
0.907134 0.311803 0.000000
0.936065 0.292546 0.000000
0.963256 0.269413 0.000000
0.988403 0.241154 0.000000
1.000000 0.205386 0.000000
0.178592 0.338384 0.146883
0.181216 0.338018 0.146731
0.184604 0.337499 0.146426
0.191653 0.336492 0.145937
0.201877 0.334874 0.144961
0.214603 0.333013 0.143771
0.229160 0.331060 0.142306
0.245090 0.328985 0.140536
0.261936 0.326970 0.138460
0.279789 0.325292 0.136141
0.299138 0.324712 0.133150
0.318975 0.324376 0.129854
0.339086 0.323919 0.126345
0.369665 0.332403 0.119142
0.411109 0.348180 0.107454
0.449287 0.359533 0.095521
0.488350 0.369940 0.081636
0.528679 0.378302 0.066194
0.570184 0.385534 0.031373
0.612055 0.391058 0.000000
0.653803 0.394781 0.000000
0.694850 0.396277 0.000000
0.734493 0.395453 0.000000
0.772671 0.392187 0.000000
0.808957 0.386328 0.000000
0.843229 0.377996 0.000000
0.875547 0.366979 0.000000
0.906035 0.353399 0.000000
0.934874 0.337072 0.000000
0.961975 0.317510 0.000000
0.987213 0.294347 0.000000
1.000000 0.266361 0.000000
0.184024 0.376165 0.141939
0.186770 0.376074 0.141695
0.190616 0.375525 0.141360
0.198306 0.374762 0.140627
0.209598 0.373419 0.139559
0.223484 0.371923 0.138033
0.239597 0.370275 0.136355
0.257450 0.368688 0.134127
0.276524 0.367346 0.131441
0.296757 0.366369 0.128206
0.317784 0.365545 0.124666
0.339544 0.364996 0.120668
0.361364 0.364385 0.116182
0.382971 0.363317 0.111482
0.416083 0.372198 0.101106
0.458991 0.387884 0.083955
0.498299 0.399084 0.064454
0.537377 0.408911 0.016693
0.577295 0.416327 0.000000
0.617578 0.422217 0.000000
0.657771 0.426215 0.000000
0.697414 0.428260 0.000000
0.735988 0.428168 0.000000
0.773281 0.425788 0.000000
0.809018 0.421118 0.000000
0.843107 0.414099 0.000000
0.875517 0.404669 0.000000
0.906340 0.392981 0.000000
0.935454 0.378698 0.000000
0.962799 0.361669 0.000000
0.988190 0.341497 0.000000
1.000000 0.317754 0.000000
0.191073 0.421851 0.134463
0.194217 0.421790 0.134157
0.198093 0.421485 0.133761
0.206638 0.420661 0.132967
0.219120 0.419348 0.131624
0.234562 0.417853 0.129732
0.252171 0.416358 0.127443
0.271763 0.414954 0.124483
0.292760 0.413458 0.121248
0.314702 0.412085 0.117220
0.337255 0.410651 0.112825
0.360174 0.409277 0.107729
0.383001 0.407538 0.102296
0.405432 0.405371 0.096529
0.427008 0.402655 0.090455
0.461555 0.411444 0.074495
0.504875 0.426429 0.029267
0.544976 0.437446 0.000000
0.584253 0.446784 0.000000
0.623804 0.453346 0.000000
0.663264 0.458137 0.000000
0.702266 0.460975 0.000000
0.740169 0.461585 0.000000
0.776852 0.459998 0.000000
0.812039 0.456153 0.000000
0.845701 0.450080 0.000000
0.877684 0.441718 0.000000
0.908080 0.431189 0.000000
0.936736 0.418341 0.000000
0.963592 0.402777 0.000000
0.988403 0.384680 0.000000
1.000000 0.363622 0.000000
0.198550 0.467262 0.125368
0.201663 0.466987 0.124971
0.205936 0.466499 0.124575
0.215030 0.465644 0.123537
0.228244 0.464363 0.121828
0.244694 0.462776 0.119753
0.263462 0.461158 0.116823
0.284245 0.459419 0.113375
0.306371 0.457801 0.109010
0.329625 0.456214 0.103883
0.353643 0.454810 0.098024
0.378149 0.453254 0.091188
0.402564 0.451514 0.083497
0.426551 0.449165 0.075013
0.449714 0.446174 0.065522
0.471565 0.442451 0.052857
0.507408 0.451209 0.000000
0.550713 0.465248 0.000000
0.590417 0.475257 0.000000
0.628717 0.483314 0.000000
0.667079 0.488411 0.000000
0.704952 0.491646 0.000000
0.742031 0.492866 0.000000
0.778103 0.492103 0.000000
0.812833 0.489113 0.000000
0.846159 0.483955 0.000000
0.878019 0.476661 0.000000
0.908263 0.467262 0.000000
0.936828 0.455543 0.000000
0.963531 0.441535 0.000000
0.988281 0.425025 0.000000
1.000000 0.405859 0.000000
0.206821 0.514244 0.113893
0.210483 0.514427 0.113191
0.219059 0.533043 0.107362
0.229313 0.532036 0.105928
0.243961 0.530449 0.103517
0.261936 0.528283 0.100313
0.282597 0.525933 0.096193
0.305180 0.523308 0.090791
0.329229 0.520897 0.084413
0.354406 0.518578 0.076112
0.380316 0.516381 0.065461
0.406500 0.513817 0.046754
0.432532 0.510918 0.013519
0.458167 0.507500 0.000000
0.482918 0.503563 0.000000
0.506645 0.499123 0.000000
0.529320 0.494179 0.000000
0.565820 0.501854 0.000000
0.606104 0.512078 0.000000
0.643641 0.519371 0.000000
0.679805 0.524834 0.000000
0.715846 0.527550 0.000000
0.751339 0.528435 0.000000
0.785672 0.527367 0.000000
0.818509 0.524041 0.000000
0.850004 0.518761 0.000000
0.880217 0.511528 0.000000
0.909270 0.502434 0.000000
0.937102 0.491463 0.000000
0.963439 0.478431 0.000000
0.987976 0.463142 0.000000
1.000000 0.445441 0.000000
0.216953 0.566033 0.098177
0.220920 0.568353 0.096864
0.226596 0.570489 0.095216
0.237156 0.571923 0.092592
0.252354 0.572259 0.088869
0.271153 0.571252 0.084016
0.292393 0.569390 0.077760
0.315679 0.567102 0.069978
0.340551 0.564874 0.059266
0.366491 0.562524 0.032319
0.393256 0.560235 0.000000
0.420417 0.557794 0.000000
0.447486 0.554772 0.000000
0.474189 0.551324 0.000000
0.500175 0.547326 0.000000
0.525322 0.542779 0.000000
0.549523 0.537835 0.000000
0.572869 0.532738 0.000000
0.608728 0.539147 0.000000
0.646845 0.547051 0.000000
0.683101 0.552972 0.000000
0.718624 0.557427 0.000000
0.753536 0.558892 0.000000
0.787503 0.558495 0.000000
0.820005 0.555840 0.000000
0.851255 0.551263 0.000000
0.881254 0.544701 0.000000
0.910002 0.536461 0.000000
0.937530 0.526238 0.000000
0.963592 0.514061 0.000000
0.987854 0.499763 0.000000
1.000000 0.483131 0.000000
0.226169 0.608606 0.082795
0.230320 0.610620 0.081209
0.235813 0.612604 0.079164
0.246342 0.613855 0.075563
0.261540 0.614221 0.070558
0.280400 0.613336 0.062959
0.302007 0.611627 0.049409
0.325444 0.609522 0.022400
0.350744 0.607446 0.000000
0.377264 0.605219 0.000000
0.404700 0.603052 0.000000
0.432593 0.600702 0.000000
0.460548 0.597711 0.000000
0.488197 0.594446 0.000000
0.515404 0.590509 0.000000
0.541802 0.586084 0.000000
0.567437 0.581292 0.000000
0.592370 0.576440 0.000000
0.616724 0.571588 0.000000
0.651728 0.576654 0.000000
0.687587 0.582147 0.000000
0.722347 0.586603 0.000000
0.756741 0.589441 0.000000
0.790036 0.589410 0.000000
0.822049 0.587304 0.000000
0.852720 0.583124 0.000000
0.882200 0.577081 0.000000
0.910521 0.569360 0.000000
0.937652 0.559808 0.000000
0.963317 0.548333 0.000000
0.987335 0.534813 0.000000
1.000000 0.519127 0.000000
0.235996 0.649561 0.065095
0.240146 0.651423 0.062867
0.245518 0.653223 0.060090
0.256046 0.654383 0.053101
0.271153 0.654719 0.037659
0.289647 0.653864 0.015839
0.311101 0.652308 0.000000
0.334539 0.650355 0.000000
0.359991 0.648188 0.000000
0.386694 0.646082 0.000000
0.414374 0.643793 0.000000
0.442634 0.641382 0.000000
0.471138 0.638575 0.000000
0.499580 0.635431 0.000000
0.527794 0.631952 0.000000
0.555718 0.628260 0.000000
0.583368 0.624475 0.000000
0.610681 0.620844 0.000000
0.637812 0.617395 0.000000
0.664729 0.614191 0.000000
0.699550 0.618402 0.000000
0.733944 0.622004 0.000000
0.766964 0.624506 0.000000
0.799954 0.625330 0.000000
0.831571 0.623468 0.000000
0.861662 0.619532 0.000000
0.890379 0.613489 0.000000
0.917815 0.605768 0.000000
0.943999 0.596185 0.000000
0.968627 0.584741 0.000000
0.991608 0.571374 0.000000
1.000000 0.555932 0.000000
0.249241 0.696773 0.030762
0.252964 0.697536 0.026673
0.257816 0.697963 0.021149
0.267552 0.697993 0.009796
0.282170 0.697444 0.000000
0.300359 0.696254 0.000000
0.321477 0.694759 0.000000
0.345037 0.693050 0.000000
0.370550 0.691432 0.000000
0.397742 0.689662 0.000000
0.425849 0.687984 0.000000
0.454841 0.685817 0.000000
0.483986 0.683284 0.000000
0.513085 0.680293 0.000000
0.542138 0.676875 0.000000
0.571008 0.673213 0.000000
0.599573 0.669429 0.000000
0.627893 0.665705 0.000000
0.655818 0.662043 0.000000
0.683528 0.658473 0.000000
0.710811 0.654994 0.000000
0.742916 0.656214 0.000000
0.773709 0.656428 0.000000
0.803159 0.655848 0.000000
0.833799 0.653986 0.000000
0.863310 0.650385 0.000000
0.891630 0.644831 0.000000
0.918700 0.637507 0.000000
0.944457 0.628412 0.000000
0.968719 0.617426 0.000000
0.991333 0.604547 0.000000
1.000000 0.589654 0.000000
0.260685 0.733822 0.005310
0.264195 0.734524 0.001221
0.269017 0.735073 0.000000
0.278569 0.735103 0.000000
0.292485 0.734615 0.000000
0.310063 0.733455 0.000000
0.330602 0.731930 0.000000
0.353521 0.730220 0.000000
0.378576 0.728481 0.000000
0.405310 0.726741 0.000000
0.433295 0.724971 0.000000
0.462104 0.722957 0.000000
0.491249 0.720546 0.000000
0.520897 0.717861 0.000000
0.550469 0.714900 0.000000
0.579980 0.711635 0.000000
0.609369 0.708370 0.000000
0.638666 0.705043 0.000000
0.667750 0.701747 0.000000
0.696651 0.698634 0.000000
0.725246 0.695613 0.000000
0.753536 0.692683 0.000000
0.783719 0.691829 0.000000
0.812039 0.689723 0.000000
0.834562 0.682765 0.000000
0.863493 0.679377 0.000000
0.891478 0.674403 0.000000
0.918212 0.667597 0.000000
0.943694 0.659022 0.000000
0.967742 0.648554 0.000000
0.990295 0.636286 0.000000
1.000000 0.622095 0.000000
0.275334 0.774746 0.010407
0.278904 0.775479 0.006867
0.283391 0.775784 0.000549
0.292393 0.775540 0.000000
0.305516 0.774685 0.000000
0.322148 0.773342 0.000000
0.341894 0.771542 0.000000
0.364019 0.769497 0.000000
0.388373 0.767208 0.000000
0.414282 0.764920 0.000000
0.441444 0.762509 0.000000
0.469673 0.760067 0.000000
0.498512 0.757351 0.000000
0.527672 0.754269 0.000000
0.556939 0.750790 0.000000
0.586206 0.747066 0.000000
0.615412 0.743282 0.000000
0.644709 0.739620 0.000000
0.674128 0.736416 0.000000
0.703761 0.733577 0.000000
0.733272 0.730953 0.000000
0.762387 0.728328 0.000000
0.790921 0.725490 0.000000
0.818143 0.721828 0.000000
0.843168 0.716915 0.000000
0.866514 0.710018 0.000000
0.893553 0.704952 0.000000
0.919432 0.698146 0.000000
0.944213 0.689693 0.000000
0.967742 0.679530 0.000000
0.989899 0.667628 0.000000
1.000000 0.653895 0.000000
0.287938 0.806485 0.033112
0.291234 0.807187 0.030762
0.295476 0.807492 0.024323
0.303838 0.807248 0.008789
0.316350 0.806485 0.000000
0.332158 0.805325 0.000000
0.351049 0.803891 0.000000
0.372412 0.802182 0.000000
0.396094 0.800351 0.000000
0.421485 0.798520 0.000000
0.448157 0.796567 0.000000
0.476204 0.794522 0.000000
0.504936 0.792325 0.000000
0.534173 0.789761 0.000000
0.563622 0.786801 0.000000
0.593225 0.783597 0.000000
0.622919 0.780301 0.000000
0.652735 0.777035 0.000000
0.682734 0.774014 0.000000
0.712825 0.771237 0.000000
0.742855 0.768673 0.000000
0.772641 0.766018 0.000000
0.801846 0.763241 0.000000
0.830320 0.760098 0.000000
0.854612 0.753719 0.000000
0.876890 0.746090 0.000000
0.897520 0.736446 0.000000
0.922698 0.729641 0.000000
0.946868 0.721248 0.000000
0.969787 0.711208 0.000000
0.991333 0.699458 0.000000
1.000000 0.685847 0.000000
0.302495 0.838163 0.071565
0.305699 0.838529 0.070527
0.309392 0.838590 0.067933
0.316991 0.838132 0.060761
0.328374 0.837247 0.037354
0.343175 0.836027 0.000000
0.360845 0.834562 0.000000
0.381140 0.832914 0.000000
0.403815 0.831235 0.000000
0.428290 0.829587 0.000000
0.454322 0.827848 0.000000
0.481636 0.826139 0.000000
0.509911 0.824247 0.000000
0.538872 0.821988 0.000000
0.568048 0.819333 0.000000
0.597498 0.816403 0.000000
0.627253 0.813260 0.000000
0.657130 0.810178 0.000000
0.687282 0.807279 0.000000
0.717556 0.804593 0.000000
0.747921 0.802090 0.000000
0.778042 0.799466 0.000000
0.807736 0.796780 0.000000
0.836912 0.793942 0.000000
0.864927 0.790372 0.000000
0.886503 0.781613 0.000000
0.906371 0.771328 0.000000
0.924681 0.759609 0.000000
0.947631 0.750912 0.000000
0.970062 0.741054 0.000000
0.991150 0.729488 0.000000
1.000000 0.716182 0.000000
0.317144 0.866056 0.098054
0.319921 0.866239 0.097078
0.323369 0.866239 0.095125
0.330327 0.865934 0.089876
0.341070 0.865354 0.081239
0.355077 0.864744 0.067323
0.372198 0.864195 0.033906
0.391974 0.863706 0.000000
0.414191 0.863249 0.000000
0.438300 0.862821 0.000000
0.464027 0.862303 0.000000
0.491127 0.861601 0.000000
0.519127 0.860624 0.000000
0.547906 0.859190 0.000000
0.577050 0.857298 0.000000
0.606531 0.854826 0.000000
0.636347 0.852079 0.000000
0.666377 0.849302 0.000000
0.696742 0.846555 0.000000
0.727321 0.843870 0.000000
0.757870 0.841276 0.000000
0.788388 0.838621 0.000000
0.818540 0.835813 0.000000
0.848234 0.832822 0.000000
0.877379 0.829709 0.000000
0.904692 0.825284 0.000000
0.923095 0.813291 0.000000
0.940093 0.800046 0.000000
0.955810 0.785885 0.000000
0.975738 0.774502 0.000000
0.995575 0.762417 0.000000
1.000000 0.748562 0.000000
0.338811 0.897581 0.139590
0.341161 0.897642 0.138705
0.343969 0.897520 0.137118
0.350195 0.897093 0.132876
0.359655 0.896422 0.125978
0.372168 0.895598 0.116609
0.387488 0.894713 0.103609
0.405402 0.893828 0.085115
0.425635 0.892912 0.053498
0.447944 0.891905 0.000000
0.471839 0.890806 0.000000
0.497261 0.889586 0.000000
0.523766 0.888151 0.000000
0.551232 0.886473 0.000000
