cubelut/Moody7.cube
# Created by Adobe Lightroom plugin Export LUT (1.18.0)
# www.johnrellis.com/lightroom/exportlut.htm
# Preset: CP - INTERIOR DESIGN 29
# Color profile: /Library/Application Support/Adobe/Color/Profiles/Recommended/AdobeRGB1998.icc
LUT_3D_SIZE 8
DOMAIN_MIN 0.000000 0.000000 0.000000
DOMAIN_MAX 0.903226 0.903226 0.903226
0.047089 0.045197 0.056733
0.132540 0.051514 0.057099
0.235569 0.055543 0.052644
0.334691 0.054871 0.060029
0.462287 0.049409 0.062409
0.640620 0.064240 0.000000
0.823331 0.115724 0.000000
0.962158 0.162478 0.000000
0.038117 0.128054 0.076143
0.136629 0.127077 0.073945
0.241581 0.117128 0.066499
0.341222 0.112490 0.071504
0.470985 0.115023 0.069276
0.649409 0.133150 0.000061
0.827878 0.169406 0.000000
0.963867 0.202853 0.000000
0.001343 0.236393 0.115084
0.125277 0.237400 0.118715
0.243198 0.236667 0.110506
0.360357 0.230564 0.100984
0.503075 0.238865 0.086671
0.679530 0.264042 0.009827
0.843320 0.288945 0.000000
0.969787 0.303960 0.000000
0.000000 0.356329 0.158267
0.091615 0.359106 0.155520
0.240299 0.364538 0.160983
0.363775 0.367468 0.150729
0.528710 0.391699 0.122255
0.728756 0.432746 0.017609
0.868193 0.434455 0.000000
0.979492 0.429175 0.000000
0.000000 0.527184 0.197604
0.000000 0.531365 0.182864
0.226078 0.540887 0.195407
0.405005 0.554314 0.176181
0.551080 0.558831 0.157565
0.731594 0.580804 0.110384
0.890318 0.587793 0.000000
0.991455 0.565179 0.000000
0.000000 0.731533 0.238132
0.000000 0.734401 0.216434
0.158633 0.740444 0.216617
0.409369 0.745998 0.199344
0.599603 0.748592 0.174624
0.752926 0.745846 0.148226
0.882261 0.720577 0.129671
0.992218 0.695705 0.107973
0.000000 0.882689 0.283574
0.000000 0.883787 0.266148
0.000000 0.886229 0.227695
0.379156 0.883940 0.264714
0.585229 0.881163 0.246738
0.748989 0.875181 0.227298
0.891020 0.866941 0.206271
0.983001 0.819059 0.212772
0.000000 0.983368 0.335332
0.000000 0.983520 0.327184
0.000000 0.983551 0.303899
0.393378 0.975860 0.397314
0.566308 0.971130 0.386786
0.727749 0.964324 0.371130
0.858091 0.956115 0.359686
0.981445 0.946777 0.346899
0.064912 0.063630 0.141390
0.133242 0.051911 0.144930
0.232120 0.069551 0.134859
0.329839 0.088106 0.142428
0.457740 0.077943 0.136294
0.635859 0.062745 0.117952
0.820127 0.098756 0.071717
0.960601 0.147921 0.000000
0.046876 0.126162 0.153872
0.131319 0.130861 0.156619
0.234562 0.129915 0.152346
0.335973 0.128237 0.147921
0.466011 0.125734 0.140261
0.644587 0.131136 0.119753
0.824796 0.158938 0.072877
0.962371 0.191897 0.000000
0.037690 0.235691 0.174929
0.124086 0.237858 0.176394
0.240299 0.238529 0.175235
0.357977 0.236240 0.166293
0.497444 0.240452 0.152712
0.674922 0.260624 0.125612
0.840513 0.282841 0.076844
0.968414 0.297429 0.000000
0.000000 0.355718 0.204288
0.101717 0.358618 0.202090
0.238437 0.364965 0.206241
0.362799 0.368902 0.196323
0.529747 0.394018 0.174014
0.724758 0.428473 0.132326
0.865782 0.430304 0.087770
0.978302 0.425238 0.000000
0.000000 0.526635 0.240604
0.000000 0.530755 0.229801
0.217044 0.541680 0.228733
0.402991 0.555810 0.211978
0.551293 0.560174 0.196109
0.732601 0.580865 0.161563
0.890623 0.586572 0.117708
0.990448 0.562676 0.079927
0.000000 0.731014 0.279301
0.000000 0.733822 0.262486
0.098756 0.741451 0.230869
0.400610 0.746670 0.231846
0.597284 0.749508 0.210605
0.752773 0.746456 0.188876
0.882475 0.720394 0.174777
0.992157 0.695003 0.158633
0.000000 0.882292 0.317693
0.000000 0.883421 0.303044
0.000000 0.887053 0.240757
0.370581 0.884276 0.292882
0.580804 0.881468 0.276799
0.747555 0.875486 0.258824
0.890501 0.867124 0.239994
0.982666 0.819089 0.244816
0.000000 0.983185 0.359197
0.000000 0.983337 0.351934
0.000000 0.983307 0.331823
0.396124 0.975433 0.422034
0.566857 0.970825 0.412024
0.727016 0.964172 0.397192
0.857572 0.956054 0.385748
0.980499 0.946807 0.373144
0.081178 0.082429 0.250919
0.128420 0.082155 0.254582
0.236851 0.076997 0.258305
0.338384 0.079042 0.241062
0.450050 0.060914 0.227817
0.618311 0.000000 0.226261
0.808743 0.000000 0.204623
0.955352 0.000000 0.177432
0.087343 0.128969 0.255528
0.141512 0.142519 0.259800
0.235691 0.138277 0.263676
0.336492 0.134768 0.247440
0.448646 0.135592 0.239597
0.627405 0.104128 0.228946
0.813779 0.089540 0.205936
0.957244 0.130312 0.178561
0.072511 0.228855 0.272496
0.131960 0.232425 0.274113
0.231693 0.243473 0.279118
0.341161 0.238987 0.268406
0.479622 0.235569 0.255222
0.659083 0.238376 0.236515
0.830716 0.250492 0.211063
0.963714 0.266087 0.183291
0.000000 0.353918 0.295659
0.106142 0.356756 0.296513
0.217716 0.367163 0.291722
0.359655 0.373510 0.288670
0.535576 0.396124 0.273503
0.711391 0.407813 0.248264
0.857786 0.409644 0.221103
0.974243 0.406378 0.194461
0.000000 0.524346 0.332677
0.000000 0.528496 0.329870
0.166751 0.543175 0.308354
0.381537 0.558709 0.302129
0.551446 0.564538 0.288701
0.736660 0.579828 0.267094
0.890043 0.578882 0.243778
0.986969 0.551598 0.219303
0.000000 0.729183 0.378668
0.000000 0.731930 0.370825
0.000000 0.741360 0.332280
0.364599 0.749050 0.322881
0.588159 0.752377 0.306737
0.751614 0.748379 0.290990
0.883238 0.719661 0.280797
0.991699 0.692836 0.268376
0.000000 0.881071 0.408331
0.000000 0.882109 0.399786
0.000000 0.885527 0.365057
0.343023 0.885008 0.380804
0.565881 0.882261 0.368322
0.742611 0.876432 0.353338
0.888060 0.867796 0.337804
0.981018 0.819791 0.338994
0.000000 0.982635 0.429236
0.000000 0.982849 0.422980
0.000000 0.982727 0.409094
0.352941 0.977234 0.451453
0.574578 0.969146 0.493721
0.727443 0.963256 0.481453
0.856931 0.955657 0.469856
0.976959 0.946899 0.457679
0.100832 0.107057 0.357946
0.139681 0.110445 0.361639
0.231846 0.116426 0.374182
0.351446 0.094057 0.374670
0.494118 0.000000 0.371038
0.645533 0.000000 0.350744
0.802579 0.000000 0.304326
0.945068 0.000000 0.288914
0.126223 0.157809 0.361669
0.155032 0.159274 0.364996
0.235721 0.161593 0.376684
0.351598 0.143526 0.378363
0.493416 0.078889 0.371710
0.645014 0.000000 0.348150
0.801816 0.000000 0.297490
0.947356 0.000000 0.289464
0.108309 0.224826 0.367010
0.147036 0.229191 0.368872
0.238987 0.251194 0.382879
0.352544 0.243473 0.390356
0.491279 0.212802 0.372290
0.643549 0.153536 0.337102
0.810910 0.141268 0.318059
0.954894 0.158816 0.294865
0.029877 0.345983 0.393500
0.110964 0.349157 0.395148
0.216281 0.360021 0.401099
0.351080 0.381018 0.412390
0.508324 0.368322 0.389532
0.685145 0.361364 0.364385
0.841550 0.358434 0.336950
0.966491 0.358618 0.310826
0.000000 0.520623 0.444251
0.000000 0.524651 0.444587
0.151888 0.538964 0.442908
0.325628 0.563378 0.424964
0.549279 0.571893 0.419409
0.742306 0.576226 0.403937
0.876524 0.553704 0.374731
0.979706 0.528649 0.344182
0.000000 0.725978 0.497414
0.000000 0.728695 0.494240
0.000000 0.737850 0.480018
0.281132 0.751797 0.443702
0.562829 0.755978 0.446937
0.747768 0.751644 0.433478
0.882444 0.720302 0.423743
0.989075 0.692958 0.409339
0.000000 0.878996 0.520043
0.000000 0.879973 0.515435
0.000000 0.883116 0.498268
0.254368 0.886809 0.470741
0.552575 0.881773 0.507103
0.737697 0.877195 0.495186
0.882231 0.868833 0.481422
0.975891 0.824063 0.478401
0.000000 0.981323 0.527886
0.000000 0.981476 0.524041
0.000000 0.981720 0.510918
0.283665 0.979095 0.510979
0.600092 0.965026 0.605859
0.735470 0.960662 0.597620
0.858824 0.954406 0.587640
0.970642 0.946960 0.576776
0.129061 0.134249 0.491981
0.163790 0.135683 0.496132
0.254551 0.136629 0.510887
0.381689 0.118532 0.532921
0.524346 0.000000 0.530236
0.703883 0.000000 0.536706
0.836637 0.000000 0.498299
0.956237 0.000000 0.448402
0.142733 0.175418 0.494728
0.172549 0.175845 0.498665
0.256565 0.174746 0.512932
0.382910 0.161196 0.537804
0.525628 0.081514 0.532982
0.703548 0.000000 0.535515
0.836088 0.000000 0.495247
0.955749 0.000000 0.444190
0.092714 0.231418 0.494667
0.151614 0.244816 0.501061
0.251102 0.259312 0.517693
0.378393 0.257664 0.544427
0.530694 0.218326 0.542931
0.702296 0.106355 0.530999
0.834043 0.000000 0.484321
0.953704 0.000000 0.428687
0.000000 0.349737 0.511711
0.091707 0.351232 0.513756
0.208591 0.355016 0.520989
0.362158 0.384771 0.549493
0.537804 0.372992 0.561303
0.698787 0.320562 0.523247
0.828367 0.263706 0.464607
0.950225 0.261326 0.427955
0.000000 0.513756 0.550927
0.000000 0.516777 0.552758
0.142123 0.527459 0.559350
0.324285 0.547967 0.571710
0.540673 0.581384 0.590356
0.709346 0.547448 0.549798
0.848844 0.514794 0.506584
0.965484 0.490547 0.468177
0.000000 0.719417 0.612634
0.000000 0.722347 0.612787
0.000000 0.732021 0.612146
0.278935 0.745449 0.606653
0.523156 0.757046 0.600732
0.739467 0.755703 0.603479
0.876402 0.732540 0.592798
0.974426 0.694301 0.556115
0.000000 0.875822 0.635828
0.000000 0.876738 0.633722
0.000000 0.879484 0.626062
0.257115 0.882444 0.614343
0.518669 0.881651 0.618097
0.736049 0.876371 0.644770
0.873594 0.870115 0.634485
0.966705 0.836423 0.628779
0.000000 0.979126 0.635370
0.000000 0.979217 0.633265
0.000000 0.979065 0.626581
0.273625 0.977142 0.620783
0.539086 0.969085 0.646662
0.747250 0.957183 0.705776
0.862974 0.953002 0.699123
0.963439 0.947234 0.690547
0.184817 0.152193 0.663386
0.217014 0.151095 0.666651
0.307347 0.142977 0.677943
0.435584 0.112398 0.697719
0.584314 0.000000 0.707973
0.729915 0.000000 0.692592
0.868315 0.000000 0.666499
0.971557 0.000000 0.618189
0.183383 0.188052 0.664485
0.214694 0.186709 0.667628
0.304417 0.179507 0.678737
0.432624 0.158480 0.698390
0.583978 0.085298 0.710689
0.730556 0.000000 0.694026
0.868437 0.000000 0.666102
0.971130 0.000000 0.616724
0.146731 0.267826 0.665797
0.186038 0.268681 0.669123
0.284031 0.266728 0.680201
0.418982 0.260380 0.699763
0.581018 0.240208 0.719631
0.732601 0.151278 0.699336
0.868742 0.000000 0.664607
0.969177 0.000000 0.611566
0.000000 0.350896 0.658381
0.000000 0.348150 0.659632
0.181643 0.349828 0.675441
0.389776 0.391699 0.699611
0.568963 0.405402 0.726864
0.734127 0.359045 0.709346
0.863798 0.291142 0.660945
0.964050 0.249271 0.604669
0.000000 0.525048 0.685634
0.000000 0.524987 0.686732
0.110536 0.524620 0.690639
0.323339 0.525750 0.697505
0.553552 0.579156 0.721126
0.731228 0.575586 0.725643
0.849577 0.516320 0.666102
0.950530 0.471382 0.609644
0.000000 0.700099 0.716152
0.000000 0.701595 0.717037
0.000000 0.706996 0.720150
0.295262 0.717342 0.725795
0.529808 0.734401 0.734463
0.731594 0.761501 0.751064
0.844236 0.725124 0.711421
0.949615 0.689540 0.671626
0.000000 0.869108 0.750271
0.000000 0.869993 0.749844
0.000000 0.872679 0.748226
0.283848 0.875273 0.746059
0.531365 0.874693 0.747585
0.722255 0.874510 0.757931
0.865232 0.872190 0.763546
0.957275 0.854582 0.757168
0.000000 0.975860 0.747768
0.000000 0.975769 0.746761
0.000000 0.975036 0.743771
0.323735 0.972015 0.742275
0.545098 0.965576 0.749722
0.725246 0.957671 0.772091
0.865568 0.951720 0.797757
0.956115 0.947936 0.791836
0.261295 0.179568 0.814542
0.286595 0.177646 0.816037
0.362768 0.169497 0.821347
0.473030 0.149630 0.830869
0.606165 0.109377 0.844450
0.751797 0.000000 0.842649
0.880156 0.000000 0.811826
0.980682 0.000000 0.763455
0.255558 0.210727 0.814359
0.281041 0.209018 0.815854
0.358038 0.202335 0.821195
0.469490 0.187930 0.830747
0.603693 0.164096 0.844358
0.750668 0.000000 0.843656
0.879911 0.000000 0.812619
0.980407 0.000000 0.763424
0.223941 0.290806 0.813230
0.253147 0.290196 0.814786
0.337621 0.288273 0.820188
0.455634 0.285100 0.829923
0.595056 0.282933 0.843626
0.746151 0.252659 0.846769
0.878782 0.150851 0.815366
0.979126 0.000000 0.763699
0.000000 0.346838 0.807797
0.000000 0.357153 0.809689
0.289433 0.399756 0.816373
0.433387 0.415259 0.826535
0.583093 0.432685 0.840543
0.739986 0.445289 0.850736
0.874632 0.381720 0.820890
0.975280 0.319554 0.766354
0.000000 0.512383 0.810086
0.000000 0.510613 0.810300
0.150546 0.504997 0.810941
0.351202 0.512963 0.816587
0.579553 0.591058 0.832425
0.738674 0.630457 0.851530
0.865843 0.587610 0.830442
0.963806 0.534997 0.777371
0.000000 0.679927 0.825895
0.000000 0.679744 0.826078
0.035615 0.679561 0.826658
0.335332 0.682612 0.827237
0.537133 0.697536 0.827207
0.734249 0.754788 0.842039
0.857572 0.754726 0.844877
0.945342 0.707271 0.795682
0.000000 0.832303 0.843076
0.000000 0.832853 0.843259
0.000000 0.834897 0.843870
0.334691 0.838926 0.844877
0.547570 0.845853 0.846677
0.722011 0.856779 0.851621
0.859068 0.875853 0.865904
0.936522 0.846647 0.832364
0.000000 0.969787 0.861753
0.000000 0.969543 0.861295
0.000000 0.968261 0.859739
0.373419 0.964782 0.858091
0.573236 0.958862 0.858824
0.730404 0.953338 0.862791
0.853696 0.950988 0.871427
0.949706 0.949401 0.877470
0.344427 0.254368 0.929076
0.362310 0.253849 0.929595
0.419623 0.252232 0.931365
0.507683 0.249393 0.934600
0.616327 0.248325 0.939269
0.739498 0.256413 0.945251
0.874510 0.174411 0.940154
0.981872 0.000000 0.900694
0.342443 0.280003 0.928710
0.360357 0.279728 0.929198
0.417914 0.278447 0.930999
0.506432 0.277348 0.934234
0.615503 0.279149 0.938903
0.738949 0.291325 0.944823
0.873320 0.226139 0.940185
0.981140 0.111849 0.901213
0.334874 0.356451 0.927153
0.353307 0.356756 0.927672
0.412604 0.358221 0.929442
0.503105 0.362371 0.932677
0.614069 0.372473 0.937285
0.738491 0.395666 0.943053
0.869444 0.358770 0.939879
0.978058 0.290074 0.903075
0.288457 0.440711 0.924193
0.331609 0.456458 0.924285
0.414893 0.477424 0.925597
0.507958 0.488167 0.928771
0.620417 0.507317 0.933288
0.742947 0.537163 0.939025
0.864591 0.524559 0.938628
0.971344 0.464485 0.906950
0.143618 0.513725 0.919615
0.190280 0.516197 0.920012
0.305760 0.529686 0.921752
0.488930 0.589624 0.923064
0.635035 0.639155 0.926757
0.750637 0.666163 0.933440
0.862394 0.678401 0.937530
0.961303 0.629999 0.913268
0.112703 0.667384 0.925414
0.172702 0.667964 0.925200
0.297337 0.671015 0.924224
0.438758 0.679438 0.922026
0.589105 0.702907 0.919890
0.756619 0.768490 0.926329
0.864683 0.797421 0.937224
0.951263 0.765164 0.921752
0.108705 0.803799 0.932189
0.174472 0.804379 0.932006
0.305089 0.806760 0.931334
0.450538 0.812253 0.929839
0.596551 0.821958 0.927428
0.727657 0.834195 0.924346
0.859068 0.870207 0.930785
0.944274 0.870054 0.932219
0.147036 0.925719 0.939574
0.202823 0.925994 0.939483
0.327001 0.926909 0.939086
0.471382 0.928679 0.938445
0.613733 0.931334 0.937621
0.741299 0.934905 0.937194
0.851286 0.940093 0.938476
0.945617 0.952270 0.947845
