cubelut/Moody8.cube
# Created by Adobe Lightroom plugin Export LUT (1.18.0)
# www.johnrellis.com/lightroom/exportlut.htm
# Preset: CP - INTERIOR DESIGN 15
# Color profile: /Library/Application Support/Adobe/Color/Profiles/Recommended/AdobeRGB1998.icc
LUT_3D_SIZE 8
DOMAIN_MIN 0.000000 0.000000 0.000000
DOMAIN_MAX 0.903226 0.903226 0.903226
0.088319 0.108431 0.107027
0.110140 0.111360 0.107576
0.168093 0.118502 0.107332
0.277165 0.125093 0.103822
0.421149 0.124636 0.092287
0.578454 0.128908 0.061860
0.723415 0.164248 0.000000
0.861509 0.229129 0.000000
0.088991 0.130373 0.111116
0.108278 0.132753 0.108919
0.169436 0.136477 0.107698
0.277592 0.145785 0.103304
0.420142 0.150607 0.090852
0.574121 0.159548 0.058747
0.719203 0.191501 0.000000
0.858671 0.250980 0.000000
0.079744 0.196323 0.118715
0.097322 0.197086 0.112337
0.177462 0.210452 0.107057
0.305272 0.225711 0.095125
0.430426 0.225956 0.080507
0.580072 0.242344 0.012421
0.725399 0.273716 0.000000
0.862730 0.322820 0.000000
0.000000 0.322972 0.125612
0.000000 0.323888 0.104463
0.156344 0.324010 0.102449
0.321050 0.366644 0.070375
0.512322 0.399542 0.000000
0.609277 0.371527 0.000000
0.728084 0.380133 0.000000
0.862547 0.418647 0.000000
0.000000 0.483528 0.130495
0.000000 0.484169 0.104952
0.093202 0.482826 0.066133
0.276005 0.487861 0.038666
0.484108 0.532219 0.000000
0.681849 0.571160 0.000000
0.765560 0.535882 0.000000
0.868376 0.533318 0.000000
0.000000 0.628168 0.151339
0.000000 0.630945 0.130129
0.000000 0.630518 0.000000
0.241337 0.625605 0.000000
0.429145 0.636286 0.000000
0.624445 0.668452 0.000000
0.822141 0.724025 0.000000
0.904509 0.693538 0.000000
0.000000 0.759030 0.203983
0.000000 0.759854 0.192416
0.000000 0.760555 0.072450
0.211276 0.756863 0.053681
0.399359 0.750423 0.028748
0.579187 0.767086 0.000000
0.746273 0.791684 0.000000
0.918364 0.840818 0.000000
0.000000 0.886290 0.297063
0.000000 0.886046 0.296452
0.000000 0.888090 0.237339
0.240848 0.888579 0.198215
0.420874 0.882567 0.196414
0.569543 0.881895 0.204776
0.724544 0.899260 0.203525
0.861082 0.915679 0.191318
0.084535 0.109194 0.124941
0.107210 0.108888 0.123201
0.168307 0.113283 0.122560
0.279728 0.116884 0.120455
0.422705 0.109377 0.109438
0.574029 0.106142 0.086610
0.718196 0.140505 0.003540
0.857145 0.209689 0.000000
0.086427 0.128206 0.126772
0.109255 0.129397 0.126986
0.170932 0.134371 0.125093
0.281773 0.139345 0.119875
0.423804 0.138735 0.108003
0.572900 0.142641 0.083986
0.715389 0.172763 0.000000
0.854337 0.233402 0.000000
0.080934 0.192569 0.135775
0.104616 0.195529 0.134340
0.176913 0.205692 0.126436
0.300084 0.215671 0.115450
0.431312 0.218418 0.100526
0.577539 0.231174 0.069581
0.718898 0.259403 0.000000
0.857328 0.308751 0.000000
0.000000 0.318303 0.148318
0.060822 0.321935 0.141878
0.156558 0.323461 0.123201
0.315587 0.357122 0.103517
0.497444 0.382055 0.039155
0.596338 0.355413 0.000000
0.721187 0.368688 0.000000
0.857328 0.408179 0.000000
0.000000 0.480354 0.159823
0.000000 0.482368 0.149508
0.088014 0.481758 0.101503
0.272129 0.481209 0.093385
0.479286 0.524834 0.000000
0.674495 0.561028 0.000000
0.759670 0.526513 0.000000
0.863493 0.524163 0.000000
0.000000 0.624598 0.180301
0.000000 0.625940 0.171786
0.000000 0.626947 0.080629
0.240269 0.622614 0.074403
0.426764 0.632227 0.014313
0.623804 0.665705 0.000000
0.819181 0.718868 0.000000
0.901518 0.687953 0.000000
0.000000 0.754910 0.225559
0.000000 0.754788 0.220890
0.000000 0.756008 0.147372
0.210147 0.753994 0.109621
0.399390 0.748318 0.103944
0.577539 0.763851 0.075898
0.744503 0.788296 0.000000
0.917540 0.838590 0.000000
0.000000 0.884031 0.309239
0.000000 0.884001 0.311345
0.000000 0.885496 0.272343
0.242710 0.886961 0.221988
0.426154 0.884123 0.225498
0.571069 0.881621 0.231022
0.724666 0.897948 0.229984
0.860685 0.914092 0.220584
0.067231 0.110536 0.175479
0.100587 0.106447 0.176425
0.165072 0.108248 0.170718
0.283207 0.096254 0.176181
0.439979 0.000000 0.157015
0.588739 0.000000 0.148013
0.727016 0.000000 0.123781
0.862760 0.137057 0.085481
0.078767 0.127047 0.179202
0.100618 0.123781 0.180331
0.170413 0.125826 0.175845
0.289860 0.116152 0.176730
0.442237 0.063722 0.162356
0.587610 0.023346 0.146975
0.725124 0.089357 0.121248
0.861295 0.175509 0.081239
0.067720 0.188632 0.186831
0.094728 0.190646 0.188144
0.184756 0.196689 0.191531
0.307958 0.195193 0.178744
0.451240 0.193393 0.162997
0.591974 0.197147 0.142580
0.726558 0.220523 0.113069
0.861295 0.271305 0.063478
0.000000 0.314214 0.209720
0.007691 0.318547 0.208164
0.173281 0.330632 0.202853
0.324010 0.350408 0.186862
0.487617 0.351324 0.159152
0.598840 0.332311 0.130770
0.729732 0.349706 0.093812
0.862364 0.386664 0.000000
0.000000 0.476722 0.231876
0.000000 0.479530 0.228122
0.136538 0.488075 0.216709
0.280186 0.484230 0.185336
0.487373 0.521508 0.169436
0.667659 0.541436 0.124300
0.753384 0.504814 0.059358
0.863462 0.506981 0.000000
0.000000 0.622950 0.255283
0.000000 0.624262 0.251896
0.078645 0.627741 0.240574
0.247745 0.625360 0.187961
0.427802 0.626490 0.180362
0.626612 0.660609 0.165469
0.813138 0.705074 0.114809
0.898466 0.675227 0.000000
0.000000 0.754604 0.293370
0.000000 0.754635 0.290990
0.055207 0.754788 0.284916
0.220310 0.754665 0.215579
0.407324 0.748043 0.210422
0.579522 0.759915 0.206607
0.748470 0.786740 0.201266
0.925200 0.842313 0.181521
0.000000 0.883696 0.356207
0.000000 0.883299 0.355749
0.184329 0.881895 0.364477
0.258854 0.886046 0.298283
0.434913 0.882841 0.299351
0.576776 0.880156 0.302770
0.727565 0.895872 0.309728
0.863676 0.913329 0.311528
0.000000 0.110506 0.280003
0.061433 0.104555 0.282689
0.185489 0.081910 0.289006
0.288518 0.058015 0.271031
0.438483 0.000000 0.274083
0.597650 0.000000 0.260685
0.735134 0.000000 0.223301
0.865385 0.000000 0.216281
0.000000 0.115999 0.286625
0.065309 0.114260 0.288212
0.181003 0.102968 0.293370
0.295384 0.087343 0.277317
0.444800 0.046815 0.277226
0.599634 0.000000 0.259251
0.733791 0.000000 0.231022
0.864988 0.000000 0.213718
0.000000 0.196262 0.289433
0.000000 0.193057 0.293217
0.156313 0.175418 0.303838
0.314366 0.177035 0.296025
0.464973 0.172427 0.286717
0.611475 0.109865 0.255406
0.738857 0.140047 0.236606
0.867948 0.191684 0.210880
0.000000 0.306889 0.308263
0.000000 0.309636 0.310124
0.149722 0.319493 0.316899
0.344305 0.335851 0.329290
0.487068 0.319402 0.296025
0.615595 0.309911 0.263859
0.738735 0.314458 0.232090
0.867704 0.344610 0.204837
0.000000 0.472877 0.338598
0.000000 0.475288 0.337346
0.104463 0.483986 0.335058
0.327947 0.496193 0.338750
0.503014 0.513451 0.324865
0.650477 0.502220 0.284031
0.742275 0.465675 0.227268
0.868864 0.484169 0.197574
0.000000 0.622339 0.360296
0.000000 0.625147 0.359594
0.000000 0.628138 0.354742
0.313329 0.631922 0.355322
0.444282 0.624018 0.320684
0.637140 0.655970 0.327611
0.802426 0.681086 0.301335
0.890959 0.649348 0.231815
0.000000 0.753140 0.387549
0.000000 0.753750 0.386206
0.000000 0.755001 0.383062
0.314458 0.755123 0.386542
0.429938 0.751553 0.340917
0.585901 0.754513 0.338781
0.754849 0.783139 0.350469
0.925017 0.834318 0.347601
0.000000 0.883757 0.435096
0.000000 0.883909 0.434791
0.108309 0.883513 0.434272
0.362829 0.880919 0.449165
0.451667 0.881865 0.402411
0.588037 0.878752 0.401617
0.731655 0.891691 0.412360
0.868193 0.911284 0.423438
0.000000 0.107485 0.425055
0.000000 0.099092 0.427619
0.174105 0.026276 0.434699
0.333776 0.000000 0.445014
0.452827 0.000000 0.410651
0.602014 0.000000 0.406744
0.739101 0.000000 0.397345
0.869657 0.000000 0.380316
0.000000 0.102235 0.430671
0.000000 0.097658 0.432837
0.162997 0.071199 0.438025
0.330144 0.000000 0.447517
0.457984 0.000000 0.415656
0.604578 0.000000 0.409339
0.740169 0.000000 0.397650
0.869841 0.000000 0.378271
0.000000 0.180850 0.436500
0.000000 0.166018 0.439002
0.093660 0.150881 0.444648
0.316960 0.124941 0.454932
0.473457 0.115755 0.431373
0.611017 0.167422 0.418067
0.742336 0.111238 0.397162
0.869566 0.041444 0.368353
0.000000 0.308995 0.436866
0.000000 0.308385 0.438636
0.062989 0.307591 0.445289
0.297917 0.292760 0.466468
0.497749 0.307927 0.458412
0.626093 0.317205 0.434089
0.747768 0.279576 0.392889
0.870481 0.285130 0.361486
0.000000 0.455055 0.457984
0.000000 0.457465 0.459663
0.000000 0.465492 0.465034
0.306157 0.479530 0.475837
0.525048 0.499123 0.493050
0.638544 0.466926 0.442237
0.749538 0.443580 0.390875
0.872099 0.445594 0.351598
0.000000 0.612238 0.478492
0.000000 0.614618 0.478859
0.000000 0.620813 0.479103
0.291356 0.625422 0.479622
0.498939 0.628809 0.489326
0.649470 0.646021 0.484596
0.779843 0.637140 0.436957
0.874968 0.598383 0.354650
0.000000 0.749905 0.497353
0.000000 0.750149 0.496223
0.000000 0.751125 0.493568
0.283360 0.752041 0.492470
0.486946 0.751125 0.501518
0.593591 0.744106 0.469276
0.762081 0.776181 0.489693
0.913939 0.809018 0.474983
0.000000 0.880095 0.527062
0.000000 0.880064 0.526299
0.000000 0.879850 0.524559
0.308659 0.880644 0.526146
0.504570 0.877470 0.539879
0.599512 0.877043 0.506065
0.732509 0.884062 0.511131
0.872801 0.906828 0.528740
0.000000 0.102541 0.576196
0.000000 0.091676 0.577752
0.093141 0.000000 0.581964
0.332280 0.000000 0.589380
0.498512 0.000000 0.590967
0.617304 0.000000 0.557549
0.745113 0.000000 0.545129
0.869322 0.000000 0.548058
0.000000 0.094514 0.577874
0.000000 0.082307 0.579034
0.127810 0.000000 0.583276
0.322728 0.000000 0.589319
0.497047 0.000000 0.592615
0.618708 0.000000 0.559258
0.745205 0.000000 0.545922
0.869047 0.037781 0.548058
0.000000 0.135073 0.582300
0.000000 0.132235 0.583093
0.000000 0.116823 0.586328
0.291905 0.037629 0.593256
0.496101 0.000000 0.601984
0.627161 0.000000 0.568750
0.747860 0.148959 0.551781
0.869871 0.210513 0.549523
0.000000 0.301701 0.577752
0.000000 0.297063 0.580102
0.000000 0.278721 0.589105
0.244419 0.246647 0.599268
0.488502 0.244327 0.610224
0.640894 0.272831 0.585870
0.752193 0.344732 0.565423
0.872282 0.333440 0.549920
0.000000 0.448402 0.581598
0.000000 0.448219 0.582452
0.000000 0.448188 0.585382
0.250553 0.450294 0.591058
0.469917 0.443122 0.610407
0.651331 0.469398 0.603357
0.756222 0.474128 0.574914
0.873259 0.439765 0.537194
0.000000 0.595148 0.595422
0.000000 0.596826 0.596612
0.000000 0.600885 0.599359
0.252354 0.607477 0.604669
0.480720 0.617212 0.613733
0.673182 0.639490 0.634241
0.763729 0.599725 0.576989
0.876371 0.577295 0.526207
0.000000 0.740688 0.612665
0.000000 0.742214 0.613123
0.000000 0.745907 0.613642
0.244236 0.751278 0.615198
0.469795 0.751400 0.616388
0.645258 0.752377 0.625727
0.775448 0.770169 0.624506
0.898192 0.768093 0.580377
0.000000 0.878569 0.632624
0.000000 0.878569 0.631891
0.000000 0.878508 0.629786
0.249332 0.878477 0.627985
0.464851 0.876982 0.629053
0.636347 0.874937 0.638819
0.732601 0.873472 0.613092
0.880125 0.901732 0.638697
0.000000 0.101228 0.711391
0.000000 0.089784 0.712825
0.000000 0.000000 0.715572
0.294347 0.000000 0.720424
0.498634 0.000000 0.726589
0.646387 0.000000 0.720058
0.756985 0.000000 0.688533
0.873014 0.000000 0.677028
0.000000 0.095155 0.711177
0.000000 0.082521 0.712459
0.000000 0.000000 0.715175
0.302037 0.000000 0.719722
0.491035 0.000000 0.724636
0.643397 0.000000 0.718898
0.755154 0.000000 0.687068
0.870420 0.000000 0.674983
0.000000 0.097780 0.716915
0.000000 0.089967 0.717281
0.000000 0.025452 0.718532
0.265476 0.000000 0.721431
0.471504 0.000000 0.725856
0.641840 0.000000 0.723842
0.759487 0.000000 0.692897
0.872404 0.152193 0.679927
0.000000 0.261570 0.715724
0.000000 0.246311 0.716274
0.000000 0.196078 0.718959
0.159823 0.181033 0.722774
0.441688 0.146670 0.728145
0.640833 0.125765 0.733028
0.765194 0.208957 0.702235
0.873136 0.346014 0.687251
0.000000 0.440009 0.702937
0.000000 0.437415 0.702632
0.000000 0.426337 0.706691
0.165896 0.408423 0.715846
0.396002 0.365820 0.725368
0.628138 0.388159 0.734615
0.766751 0.428382 0.710414
0.871550 0.497688 0.696651
0.000000 0.584527 0.710628
0.000000 0.584009 0.710780
0.000000 0.582330 0.711452
0.119905 0.579706 0.713039
0.409094 0.578515 0.715297
0.613825 0.578851 0.734035
0.775875 0.607324 0.729274
0.875303 0.610620 0.704707
0.000000 0.723629 0.723262
0.000000 0.724300 0.723781
0.000000 0.725643 0.724666
0.136324 0.727749 0.726558
0.424903 0.730312 0.729458
0.622065 0.738766 0.737301
0.795346 0.765133 0.760983
0.880278 0.719356 0.695766
0.000000 0.865049 0.741390
0.000000 0.865721 0.741329
0.000000 0.868864 0.742275
0.135378 0.871794 0.742428
0.425849 0.874357 0.743679
0.611505 0.874510 0.744381
0.767056 0.875151 0.751003
0.889738 0.894652 0.755276
0.000000 0.112703 0.844999
0.000000 0.102815 0.845609
0.000000 0.006226 0.846281
0.183688 0.000000 0.848478
0.452430 0.000000 0.851499
0.638849 0.000000 0.855558
0.778958 0.000000 0.846921
0.885405 0.000000 0.818601
0.000000 0.110414 0.844907
0.000000 0.100160 0.845518
0.000000 0.000000 0.846403
0.188937 0.000000 0.848325
0.453010 0.000000 0.851316
0.638483 0.000000 0.855314
0.777127 0.000000 0.846372
0.884459 0.000000 0.817960
0.000000 0.106813 0.847532
0.000000 0.095918 0.847868
0.000000 0.000000 0.848295
0.195926 0.000000 0.851194
0.453346 0.000000 0.853727
0.627466 0.000000 0.855955
0.774014 0.000000 0.848295
0.884764 0.000000 0.819699
0.000000 0.145998 0.850980
0.000000 0.139040 0.851377
0.000000 0.120943 0.851591
0.000000 0.022461 0.852934
0.394049 0.000000 0.854826
0.603693 0.000000 0.857511
0.769650 0.000000 0.852903
0.885679 0.000000 0.823880
0.000000 0.410193 0.843168
0.000000 0.404395 0.844083
0.000000 0.382544 0.846220
0.000000 0.277775 0.851896
0.290623 0.254490 0.853941
0.567468 0.245640 0.856626
0.761807 0.278843 0.857450
0.884642 0.369635 0.828946
0.000000 0.579339 0.838773
0.000000 0.577111 0.838407
0.000000 0.569360 0.837613
0.000000 0.554009 0.838041
0.321111 0.531151 0.844480
0.527947 0.487373 0.853696
0.752255 0.523461 0.861173
0.885832 0.565911 0.839384
0.000000 0.719448 0.846433
0.000000 0.718593 0.846189
0.000000 0.715480 0.845670
0.000000 0.710567 0.845396
0.306188 0.704524 0.844602
0.540002 0.699977 0.843748
0.730282 0.696437 0.858335
0.888823 0.730434 0.854154
0.000000 0.856657 0.859648
0.000000 0.856657 0.859617
0.000000 0.857084 0.860014
0.000000 0.857298 0.860533
0.344823 0.856870 0.860685
0.561852 0.857450 0.861265
0.739223 0.862760 0.864744
0.905760 0.889036 0.886839
