cubelut/Moody3.cube
# Created by Adobe Lightroom plugin Export LUT (1.18.0)
# www.johnrellis.com/lightroom/exportlut.htm
# Preset: Captain-America_Free-LR-Presets.co
# Color profile: /Library/Application Support/Adobe/Color/Profiles/Recommended/AdobeRGB1998.icc
LUT_3D_SIZE 32
DOMAIN_MIN 0.0 0.0 0.0
DOMAIN_MAX 1.0 1.0 1.0
0.000000 0.000000 0.000000
0.010742 0.003998 0.002625
0.025177 0.008515 0.006226
0.054627 0.020508 0.015229
0.072450 0.036469 0.027955
0.086976 0.051118 0.040497
0.103212 0.062135 0.053437
0.122194 0.068666 0.061616
0.144259 0.076081 0.067781
0.169802 0.083955 0.074495
0.198703 0.092988 0.082887
0.230533 0.103761 0.092012
0.264836 0.115724 0.102937
0.301061 0.129946 0.115480
0.338323 0.145968 0.130129
0.376074 0.163027 0.145754
0.414191 0.181949 0.163180
0.452247 0.201816 0.181827
0.489967 0.222904 0.201938
0.533959 0.248661 0.226902
0.580835 0.275883 0.253300
0.628565 0.304295 0.281498
0.674098 0.334234 0.311711
0.716915 0.365515 0.343847
0.756863 0.398322 0.377905
0.794736 0.433173 0.414588
0.831693 0.471168 0.454932
0.866819 0.514153 0.500877
0.898314 0.561425 0.551659
0.925841 0.610529 0.604395
0.949767 0.660151 0.657404
0.970550 0.709590 0.709865
0.005402 0.010681 0.004395
0.012848 0.012940 0.005097
0.028840 0.017243 0.007568
0.057679 0.028016 0.015595
0.074281 0.042573 0.028382
0.088441 0.055726 0.040925
0.104494 0.064088 0.053010
0.123171 0.071199 0.061341
0.145083 0.077913 0.067536
0.170596 0.085908 0.074586
0.199374 0.095247 0.082307
0.230869 0.105592 0.091798
0.264927 0.117891 0.102480
0.300969 0.131899 0.115297
0.338048 0.147585 0.129641
0.375677 0.164797 0.145480
0.413550 0.183261 0.162539
0.451606 0.202914 0.181308
0.489021 0.223941 0.201389
0.532708 0.249180 0.225742
0.578943 0.275975 0.252079
0.626246 0.303868 0.279820
0.671717 0.333532 0.309728
0.714595 0.364477 0.341588
0.754604 0.397192 0.375616
0.792630 0.431800 0.412207
0.829770 0.469551 0.452277
0.865141 0.512291 0.498054
0.897063 0.559411 0.548730
0.924834 0.608606 0.601709
0.948913 0.658412 0.655116
0.969879 0.707881 0.707698
0.013794 0.025483 0.010529
0.020081 0.027985 0.010163
0.031373 0.029572 0.011902
0.059785 0.041321 0.017639
0.076326 0.051667 0.027344
0.090181 0.060395 0.040070
0.106203 0.067506 0.052277
0.124819 0.074159 0.060945
0.146609 0.080934 0.067170
0.171969 0.089143 0.074159
0.200504 0.098116 0.081941
0.232120 0.108736 0.091402
0.265934 0.120851 0.102358
0.301823 0.134890 0.115358
0.338659 0.150607 0.129458
0.376104 0.167514 0.145174
0.413977 0.185733 0.162264
0.451698 0.205234 0.180728
0.489143 0.225986 0.201083
0.532738 0.250950 0.225315
0.578546 0.277409 0.251164
0.625574 0.305058 0.278965
0.670954 0.334295 0.308598
0.713741 0.365057 0.340459
0.753780 0.397467 0.374334
0.791836 0.431922 0.410895
0.829007 0.469520 0.450904
0.864500 0.511955 0.496559
0.896513 0.559167 0.547570
0.924376 0.608179 0.600458
0.948577 0.657862 0.653864
0.969574 0.707271 0.706538
0.031220 0.055604 0.023621
0.038666 0.057313 0.024323
0.047150 0.058747 0.026093
0.061494 0.060975 0.028290
0.077211 0.065400 0.032685
0.094484 0.069947 0.039734
0.110140 0.075166 0.051331
0.128481 0.081300 0.060365
0.150332 0.088106 0.066529
0.175479 0.096010 0.073518
0.203861 0.105104 0.081880
0.235111 0.115816 0.091218
0.268711 0.128023 0.102083
0.304265 0.141726 0.114870
0.340856 0.156924 0.129000
0.377996 0.173495 0.144900
0.415595 0.191470 0.162142
0.453010 0.210391 0.180362
0.491066 0.231174 0.200656
0.533410 0.255283 0.224857
0.578424 0.280797 0.250217
0.624811 0.308019 0.277531
0.670069 0.336828 0.307225
0.713039 0.367376 0.339025
0.753475 0.399756 0.373205
0.791958 0.434241 0.409979
0.829404 0.471687 0.450477
0.865019 0.514275 0.496620
0.896971 0.560998 0.547478
0.924712 0.609766 0.600458
0.948760 0.658869 0.653498
0.969635 0.707759 0.705867
0.051575 0.073304 0.038941
0.056275 0.073732 0.039734
0.060822 0.074403 0.041505
0.068025 0.075288 0.044038
0.078309 0.077607 0.045838
0.093507 0.081758 0.049836
0.113405 0.087526 0.053254
0.134340 0.092836 0.059449
0.155886 0.099031 0.065614
0.180758 0.106996 0.072847
0.208835 0.116243 0.081117
0.239780 0.126650 0.090669
0.273075 0.138674 0.101717
0.308202 0.151980 0.114443
0.344366 0.166873 0.128878
0.381323 0.183108 0.144411
0.418647 0.200473 0.161776
0.455879 0.219120 0.180453
0.494820 0.239750 0.201297
0.536492 0.263005 0.224796
0.580865 0.287907 0.250156
0.626612 0.314488 0.277379
0.671229 0.342504 0.306615
0.713924 0.372503 0.338262
0.754177 0.404273 0.372412
0.792538 0.438300 0.409369
0.829953 0.475349 0.449775
0.865446 0.517082 0.495674
0.897246 0.563317 0.546593
0.924926 0.611444 0.599420
0.948882 0.660151 0.652613
0.969757 0.708614 0.704952
0.064881 0.088899 0.054994
0.067140 0.089235 0.055604
0.069795 0.089815 0.056123
0.076020 0.090486 0.058045
0.084810 0.092470 0.059052
0.096223 0.095155 0.060365
0.113069 0.100252 0.061860
0.135714 0.107637 0.063691
0.162509 0.115236 0.065553
0.188571 0.122591 0.071809
0.216312 0.131441 0.080323
0.246860 0.141695 0.089754
0.279667 0.153262 0.101442
0.314336 0.166323 0.114015
0.350011 0.180667 0.128420
0.386603 0.196231 0.144503
0.423590 0.212985 0.161776
0.460395 0.230838 0.180301
0.500053 0.251591 0.202182
0.541314 0.273960 0.225254
0.585412 0.298222 0.250675
0.630854 0.324102 0.278019
0.692622 0.364538 0.320165
0.733730 0.394476 0.352941
0.772061 0.425910 0.387854
0.808835 0.459388 0.425177
0.844480 0.496101 0.466102
0.877501 0.537652 0.512840
0.906828 0.582422 0.562982
0.932433 0.628717 0.614557
0.954742 0.675257 0.665919
0.974151 0.721645 0.716457
0.074220 0.107881 0.064546
0.076204 0.108125 0.064851
0.079255 0.108736 0.065064
0.085298 0.109682 0.065888
0.093629 0.111147 0.067323
0.104677 0.113924 0.068391
0.118379 0.117281 0.069154
0.136965 0.123232 0.071687
0.164096 0.133211 0.073365
0.195010 0.143160 0.075624
0.228458 0.152926 0.079194
0.258885 0.162570 0.089601
0.291569 0.173831 0.101228
0.325597 0.186160 0.114443
0.360571 0.199619 0.129305
0.396246 0.214237 0.145480
0.432441 0.230045 0.162814
0.470649 0.248112 0.182620
0.510338 0.268376 0.204837
0.552026 0.290318 0.228641
0.597284 0.314916 0.254734
0.643671 0.341405 0.283268
0.688685 0.369757 0.314519
0.731441 0.399939 0.348577
0.771145 0.431617 0.384405
0.808682 0.464912 0.422522
0.844694 0.501152 0.464088
0.877745 0.541833 0.510826
0.907042 0.585870 0.561059
0.932525 0.631159 0.612512
0.954772 0.676936 0.663874
0.974182 0.722805 0.714626
0.084382 0.129244 0.072999
0.086366 0.129610 0.073243
0.088960 0.130098 0.073793
0.094881 0.130983 0.074495
0.103700 0.132387 0.075715
0.114504 0.134890 0.077180
0.127687 0.138216 0.078370
0.143526 0.142367 0.080140
0.163912 0.148959 0.082887
0.194736 0.161257 0.084810
0.228611 0.173251 0.087861
0.265202 0.184756 0.091615
0.300999 0.195956 0.099702
0.334234 0.207279 0.113008
0.368780 0.219883 0.128450
0.403723 0.233433 0.144686
0.440192 0.248783 0.162722
0.478462 0.266453 0.183139
0.516808 0.285100 0.205051
0.557671 0.305791 0.228367
0.602106 0.329259 0.254337
0.647333 0.354498 0.282689
0.691341 0.381598 0.313451
0.733303 0.410376 0.346929
0.772457 0.440772 0.382910
0.809689 0.473060 0.420935
0.845457 0.507927 0.462104
0.878447 0.547478 0.508782
0.907561 0.590509 0.559228
0.932921 0.634760 0.610620
0.955138 0.679835 0.662257
0.974487 0.724941 0.713100
0.096407 0.154574 0.083436
0.098451 0.155001 0.083314
0.101198 0.155337 0.084077
0.107027 0.156435 0.084901
0.115724 0.157778 0.085817
0.126619 0.159762 0.087343
0.139681 0.163088 0.089082
0.155001 0.167056 0.090700
0.173098 0.171725 0.092500
0.195377 0.179049 0.096193
0.228580 0.193088 0.099245
0.265049 0.206760 0.102815
0.303655 0.220005 0.107515
0.343450 0.232395 0.113436
0.378515 0.243870 0.126802
0.413672 0.256840 0.143923
0.450874 0.271794 0.163088
0.487800 0.287877 0.183352
0.525078 0.304997 0.205051
0.565301 0.324498 0.228519
0.608698 0.346593 0.253849
0.652796 0.370703 0.282200
0.695827 0.396399 0.312932
0.736751 0.423774 0.346380
0.775296 0.452735 0.381994
0.812070 0.483558 0.420020
0.847440 0.517388 0.461341
0.880003 0.555383 0.507683
0.908782 0.596979 0.558038
0.933928 0.640070 0.609461
0.955840 0.683986 0.661128
0.975036 0.728145 0.712001
0.110323 0.183688 0.095430
0.112551 0.183993 0.095552
0.114961 0.184268 0.095949
0.120912 0.185061 0.096895
0.129427 0.186679 0.098054
0.140383 0.188540 0.099519
0.153475 0.190951 0.101717
0.168734 0.195010 0.103395
0.186343 0.199619 0.105379
0.206058 0.204837 0.107698
0.229801 0.212436 0.111482
0.264744 0.227726 0.116182
0.303166 0.242741 0.120638
0.342809 0.256687 0.126223
0.384497 0.270939 0.133272
0.426856 0.284764 0.143465
0.462745 0.298131 0.162814
0.498543 0.312535 0.183505
0.535241 0.328222 0.205447
0.575006 0.346563 0.228885
0.617182 0.367132 0.254093
0.659541 0.389532 0.282048
0.700771 0.413214 0.312261
0.740291 0.438727 0.345068
0.777768 0.465858 0.380468
0.814054 0.495094 0.418128
0.849180 0.527459 0.459358
0.881590 0.564324 0.506065
0.910185 0.604669 0.556909
0.935180 0.646754 0.608881
0.957061 0.689662 0.660731
0.976104 0.732998 0.711940
0.126314 0.215213 0.109529
0.128206 0.215457 0.109865
0.130831 0.215946 0.110109
0.136568 0.216770 0.110842
0.145296 0.218082 0.112032
0.156374 0.220066 0.113771
0.169528 0.222690 0.116091
0.184329 0.225803 0.118288
0.201602 0.230320 0.120241
0.221012 0.235538 0.122744
0.242374 0.241398 0.125216
0.267033 0.248844 0.129335
0.303593 0.265263 0.136080
0.344640 0.282383 0.141787
0.386328 0.298070 0.148898
0.428595 0.312749 0.157321
0.470436 0.326299 0.166903
0.509026 0.339330 0.182559
0.545037 0.353582 0.204501
0.584253 0.370489 0.227848
0.625330 0.389593 0.253300
0.666529 0.410285 0.281468
0.706844 0.432624 0.311803
0.745327 0.456458 0.344915
0.782071 0.482063 0.380102
0.817746 0.509636 0.417639
0.852293 0.540337 0.458747
0.884001 0.575372 0.505486
0.912078 0.613916 0.556023
0.936614 0.654353 0.607996
0.958221 0.695857 0.659937
0.977050 0.737942 0.711177
0.144442 0.249699 0.125795
0.146517 0.250126 0.126192
0.149294 0.250584 0.126589
0.154574 0.251316 0.127199
0.163180 0.252659 0.128634
0.173922 0.254398 0.130251
0.187045 0.257023 0.132448
0.202121 0.259861 0.135256
0.218906 0.263828 0.137667
0.237675 0.268864 0.139986
0.258640 0.274540 0.142855
0.282933 0.282261 0.146548
0.317144 0.297978 0.155184
0.355901 0.315496 0.164828
0.398016 0.333196 0.172030
0.440253 0.349004 0.180240
0.482033 0.363470 0.189609
0.524041 0.377111 0.200168
0.567620 0.391180 0.211978
0.607538 0.406592 0.233829
0.646723 0.423590 0.260258
0.685481 0.442237 0.288792
0.723201 0.462135 0.319188
0.759335 0.483680 0.352270
0.794369 0.507073 0.387427
0.828763 0.532891 0.425025
0.861601 0.561791 0.466590
0.891508 0.594812 0.513207
0.917876 0.630884 0.563226
0.941222 0.668849 0.614221
0.961761 0.708034 0.665187
0.979828 0.748165 0.715724
0.166140 0.289189 0.145602
0.167910 0.289555 0.145937
0.170535 0.289616 0.146151
0.175906 0.290318 0.146792
0.183932 0.291386 0.148013
0.194308 0.292760 0.149355
0.207248 0.294835 0.151614
0.221866 0.297368 0.154238
0.238468 0.300633 0.157534
0.258305 0.307103 0.161227
0.280461 0.314580 0.165042
0.304723 0.322454 0.169375
0.331029 0.330846 0.174197
0.358801 0.339422 0.179324
0.396979 0.356512 0.190738
0.438880 0.374151 0.198611
0.480385 0.389807 0.207645
0.521904 0.404273 0.217563
0.565301 0.419104 0.228550
0.610651 0.434668 0.241154
0.654780 0.450172 0.258091
0.692317 0.466804 0.286534
0.728847 0.484718 0.317388
0.763973 0.504265 0.350500
0.798337 0.525689 0.385443
0.832120 0.549645 0.423255
0.864408 0.576654 0.464759
0.893736 0.607691 0.511589
0.919707 0.641810 0.561639
0.942718 0.677974 0.612787
0.963073 0.715511 0.663874
0.980926 0.754360 0.714778
0.187716 0.326909 0.165713
0.189639 0.327184 0.166140
0.191989 0.327367 0.166415
0.196933 0.327977 0.166934
0.204807 0.328710 0.168002
0.215213 0.330571 0.169894
0.228092 0.333288 0.172519
0.243107 0.336614 0.175723
0.260197 0.340551 0.179477
0.278874 0.345525 0.183322
0.299962 0.351995 0.187381
0.322881 0.359289 0.191592
0.347692 0.366766 0.196292
0.373968 0.374517 0.201022
0.401343 0.382330 0.206210
0.437385 0.397375 0.218601
0.478157 0.414405 0.226993
0.519432 0.430121 0.236027
0.562646 0.445960 0.246403
0.607782 0.462440 0.258762
0.652796 0.478492 0.273167
0.696620 0.493965 0.290501
0.735317 0.509636 0.315740
0.769650 0.527276 0.348913
0.803372 0.546777 0.384344
0.836576 0.568811 0.422095
0.868193 0.593896 0.463996
0.896849 0.622736 0.510735
0.922240 0.654810 0.561181
0.944823 0.688991 0.612421
0.964782 0.724819 0.663783
0.982422 0.762020 0.714717
0.212924 0.368475 0.189578
0.214633 0.368872 0.190005
0.216770 0.369085 0.190372
0.221775 0.369726 0.191104
0.229343 0.370703 0.192355
0.239384 0.372259 0.193973
0.251499 0.374365 0.196445
0.265690 0.376928 0.199222
0.281926 0.380224 0.202792
0.300084 0.384253 0.207126
0.320012 0.389776 0.211276
0.341772 0.396307 0.215366
0.365240 0.403265 0.220066
0.390051 0.410559 0.224887
0.416083 0.417487 0.229648
0.442786 0.424353 0.234653
0.476417 0.437385 0.247868
0.517235 0.454597 0.256168
0.560357 0.471931 0.265965
0.605188 0.489418 0.277592
0.649958 0.506126 0.291478
0.693385 0.522026 0.308232
0.734951 0.537224 0.327428
0.774655 0.552178 0.349218
0.808774 0.569482 0.382849
0.841520 0.589776 0.421149
0.872618 0.613092 0.463661
0.900786 0.640162 0.511467
0.925719 0.670314 0.562463
0.947936 0.702693 0.614191
0.967620 0.736873 0.666011
0.984833 0.772641 0.717525
0.239445 0.410651 0.215732
0.241367 0.411017 0.216098
0.243290 0.411231 0.216403
0.247990 0.411841 0.217014
0.255131 0.412726 0.218448
0.264683 0.414130 0.220188
0.276188 0.415991 0.222293
0.289921 0.418433 0.225193
0.305455 0.421393 0.228763
0.322820 0.424964 0.232944
0.341588 0.428840 0.237583
0.361883 0.434363 0.241520
0.383551 0.440131 0.245487
0.406714 0.446235 0.249821
0.430945 0.452399 0.254154
0.456214 0.458625 0.258854
0.482521 0.464912 0.263676
0.515496 0.477333 0.276677
0.558160 0.496315 0.286564
0.603204 0.515557 0.297978
0.647883 0.533562 0.311650
0.691432 0.550286 0.328191
0.732937 0.565942 0.347204
0.772671 0.581109 0.368536
0.811429 0.596704 0.392615
0.848081 0.613764 0.421790
0.878294 0.634913 0.464942
0.905486 0.659724 0.513298
0.929625 0.687404 0.564294
0.951110 0.717342 0.616052
0.970153 0.749111 0.667567
0.986877 0.782712 0.718746
0.266361 0.450965 0.242496
0.267796 0.451118 0.242832
0.269871 0.451331 0.243076
0.274083 0.451789 0.243870
0.280735 0.452644 0.244938
0.289525 0.453803 0.246464
0.300389 0.455299 0.248722
0.313207 0.457404 0.251347
0.327947 0.460060 0.254795
0.344213 0.463081 0.258396
0.362219 0.466651 0.263005
0.381476 0.471015 0.267582
0.402197 0.476600 0.271672
0.424140 0.482368 0.275853
0.447303 0.488136 0.280095
0.471412 0.493996 0.284489
0.496712 0.500008 0.288975
0.523247 0.506493 0.293797
0.557305 0.519707 0.306615
0.600641 0.539666 0.319005
0.645014 0.558892 0.332280
0.688289 0.576440 0.348150
0.729641 0.592584 0.366400
0.769284 0.608148 0.387610
0.808133 0.623926 0.411627
0.845701 0.640558 0.438788
0.880735 0.658289 0.470619
0.909514 0.679316 0.513542
0.933074 0.704585 0.565026
0.954009 0.732265 0.617151
0.972656 0.761868 0.668696
0.988983 0.793545 0.720180
0.293889 0.491279 0.270665
0.295415 0.491646 0.271000
0.303288 0.500755 0.277745
0.307439 0.501152 0.278294
0.313573 0.501701 0.279423
0.321599 0.502647 0.280858
0.331792 0.503746 0.282689
0.343725 0.505303 0.284977
0.357580 0.507378 0.287877
0.373053 0.510124 0.291386
0.390265 0.513329 0.295628
0.408789 0.516930 0.300328
0.428351 0.521477 0.304356
0.449409 0.526818 0.308019
0.471656 0.532311 0.311864
0.495033 0.537896 0.315709
0.519554 0.543786 0.320195
0.545098 0.549676 0.324437
0.571893 0.555962 0.329320
0.605432 0.568383 0.342290
0.646784 0.586938 0.357641
0.689326 0.605066 0.372747
0.730007 0.621546 0.390723
0.769131 0.637110 0.411383
0.807156 0.652766 0.434791
0.843961 0.669093 0.461891
0.878050 0.686122 0.493294
0.908751 0.703975 0.528588
0.936065 0.723354 0.567224
0.956939 0.747951 0.617853
0.975128 0.775235 0.669551
0.990997 0.804746 0.721218
0.323705 0.535607 0.301793
0.325780 0.537133 0.302831
0.328344 0.538537 0.304021
0.332891 0.540154 0.305608
0.339239 0.541680 0.307073
0.347387 0.543175 0.308873
0.357000 0.544457 0.310765
0.368383 0.546105 0.312932
0.381659 0.548241 0.315740
0.396582 0.550927 0.319249
0.413062 0.553979 0.323125
0.431006 0.557488 0.327489
0.450080 0.561181 0.332494
0.470161 0.566125 0.335943
0.491432 0.571221 0.339910
0.513878 0.576379 0.343816
0.537285 0.581689 0.347845
0.561852 0.587304 0.352483
0.587488 0.593042 0.357244
0.614252 0.599207 0.362615
0.646601 0.610498 0.375738
0.686122 0.628199 0.394598
0.726802 0.645655 0.412238
0.765774 0.662043 0.433143
0.803891 0.678340 0.456825
0.840574 0.695094 0.484443
0.874662 0.712032 0.515709
0.905272 0.729427 0.550347
0.932677 0.747707 0.587640
0.957031 0.767391 0.627314
0.977691 0.789548 0.670832
0.993133 0.816770 0.722469
0.352026 0.579126 0.331823
0.354131 0.580468 0.332921
0.356573 0.581964 0.334234
0.360845 0.583459 0.335576
0.366918 0.584924 0.337102
0.374609 0.586206 0.338872
0.383795 0.587488 0.340642
0.394781 0.588983 0.342992
0.407385 0.590997 0.345739
0.421729 0.593347 0.348943
0.437629 0.596277 0.352850
0.454963 0.599512 0.357244
0.473243 0.602686 0.361852
0.492592 0.606531 0.366613
0.512840 0.611017 0.370062
0.534142 0.615595 0.374121
0.556512 0.620386 0.378271
0.579797 0.625299 0.382727
0.604181 0.630549 0.387549
0.629664 0.636133 0.393011
0.656001 0.641962 0.399054
0.686854 0.652094 0.412573
0.723964 0.668544 0.435462
0.762844 0.685817 0.456489
0.800717 0.702815 0.480537
0.837247 0.719844 0.508049
0.871183 0.736599 0.538415
0.901762 0.753323 0.571801
0.929137 0.770657 0.607721
0.953521 0.789029 0.645716
0.975158 0.808804 0.685359
0.993774 0.830655 0.727260
0.381903 0.622889 0.364050
0.383825 0.624140 0.365209
0.386328 0.625452 0.366278
0.390326 0.626886 0.367773
0.396185 0.628138 0.369390
0.403357 0.629328 0.370977
0.412024 0.630365 0.372747
0.422461 0.631708 0.375036
0.434394 0.633356 0.377783
0.448005 0.635370 0.380835
0.463111 0.637751 0.384405
0.479561 0.640467 0.388861
0.497047 0.643244 0.393286
0.515587 0.646265 0.398322
0.534966 0.650111 0.402869
0.555383 0.654383 0.406836
0.576898 0.659052 0.411658
0.599573 0.663935 0.416754
0.623194 0.669184 0.422553
0.647791 0.674739 0.428840
0.673274 0.680568 0.435737
0.699367 0.686549 0.443458
0.728450 0.695552 0.457679
0.763577 0.711666 0.486305
0.801511 0.729793 0.511009
0.837827 0.747219 0.538109
0.871336 0.763882 0.567834
0.901427 0.779934 0.599847
0.928435 0.796262 0.634119
0.952514 0.813321 0.670192
0.973754 0.831724 0.708186
0.992065 0.852079 0.748714
0.417151 0.669581 0.402411
0.418616 0.670222 0.403143
0.420386 0.670710 0.403815
0.423896 0.671443 0.404822
0.428931 0.672114 0.406134
0.435523 0.672877 0.407477
0.443671 0.673762 0.409216
0.453468 0.674922 0.411383
0.464942 0.676478 0.414099
0.477974 0.678370 0.417456
0.492439 0.680629 0.421454
0.508141 0.682979 0.425818
0.524956 0.685481 0.430610
0.542535 0.688106 0.435828
0.560967 0.690761 0.441077
0.580194 0.694392 0.445563
0.600305 0.698268 0.450599
0.621332 0.702419 0.455665
0.643305 0.706844 0.461646
0.666072 0.711543 0.468208
0.689570 0.716487 0.475105
0.713680 0.721645 0.482826
0.738277 0.726955 0.491005
0.765072 0.734585 0.504601
0.798550 0.750668 0.536126
0.834714 0.768521 0.562127
0.868162 0.785245 0.590600
0.898222 0.800992 0.621332
0.925261 0.816648 0.654017
0.949401 0.832700 0.688472
0.970672 0.849943 0.725246
0.989044 0.869047 0.764645
0.451789 0.709682 0.440528
0.453193 0.710292 0.441444
0.454932 0.710872 0.442176
0.458137 0.711391 0.443000
0.462867 0.711971 0.444404
0.468940 0.712551 0.445747
0.476478 0.713283 0.447486
0.485389 0.714076 0.449531
0.496010 0.715389 0.452338
0.508232 0.716854 0.455787
0.521782 0.718685 0.459724
0.536431 0.720638 0.464179
0.552209 0.722774 0.469123
0.568841 0.725032 0.474525
0.586389 0.727443 0.480415
0.604517 0.730220 0.486213
0.623377 0.733822 0.491554
0.643183 0.737728 0.497139
0.663752 0.741939 0.503441
0.685145 0.746456 0.510338
0.707240 0.751186 0.517601
0.729946 0.756252 0.525566
0.753170 0.761532 0.533959
0.776791 0.766964 0.542565
0.799557 0.771450 0.551324
0.831266 0.787106 0.584039
0.864408 0.803983 0.611780
0.894530 0.819608 0.641108
0.921660 0.834714 0.672175
0.945922 0.850126 0.705440
0.967376 0.866575 0.741360
0.985992 0.884550 0.779599
0.493965 0.750637 0.487312
0.495583 0.751247 0.488350
0.497169 0.751614 0.488960
0.499886 0.751919 0.489815
0.503899 0.752224 0.490822
0.509239 0.752590 0.492073
0.515831 0.752926 0.493568
0.523766 0.753445 0.495460
0.533135 0.754055 0.497688
0.543908 0.755062 0.500816
0.555871 0.756222 0.504143
0.569116 0.757717 0.508263
0.583398 0.759365 0.512963
0.598444 0.761135 0.517815
0.614282 0.762966 0.523033
0.630793 0.764950 0.528679
0.647883 0.767666 0.533867
0.665827 0.771023 0.539178
0.684840 0.774929 0.545129
0.704738 0.779232 0.551812
0.725399 0.783841 0.559106
0.746578 0.788663 0.566796
0.768002 0.793454 0.574517
0.789700 0.798215 0.582574
0.811368 0.802823 0.590448
0.833707 0.808042 0.600183
0.862760 0.822446 0.633021
0.891875 0.837522 0.661952
0.918853 0.852140 0.691432
0.943023 0.866880 0.723507
0.964446 0.882475 0.758206
0.983307 0.899260 0.794827
0.535515 0.786465 0.533227
0.536828 0.787015 0.533928
0.538231 0.787381 0.534661
0.540826 0.787747 0.535607
0.544366 0.787991 0.536461
0.549157 0.788357 0.537713
0.555138 0.788785 0.539178
0.562371 0.789303 0.541131
0.570916 0.790066 0.543664
0.580743 0.791104 0.546685
0.591699 0.792325 0.550134
0.603937 0.793851 0.554253
0.617060 0.795529 0.558770
0.631006 0.797299 0.563622
0.645533 0.799161 0.568811
0.660822 0.801083 0.574334
0.676783 0.803220 0.580224
0.693233 0.806332 0.585290
0.710567 0.809812 0.590906
0.728756 0.813657 0.597314
0.747555 0.817716 0.604181
0.766873 0.821927 0.611322
0.786435 0.826108 0.618647
0.806180 0.830320 0.626337
0.825986 0.834379 0.633906
0.845792 0.838346 0.641718
0.865599 0.842374 0.649622
0.891539 0.855283 0.682002
0.917205 0.869230 0.712581
0.941161 0.883482 0.743679
0.962554 0.898375 0.777188
0.981506 0.913909 0.811612
0.579278 0.822446 0.581415
0.580407 0.822843 0.582055
0.581506 0.823026 0.582513
0.583520 0.823178 0.583032
0.586572 0.823301 0.583856
0.590661 0.823484 0.584710
0.595758 0.823758 0.586023
0.602106 0.824155 0.587762
0.609644 0.824826 0.589960
0.618372 0.825711 0.592645
0.628199 0.826810 0.595941
0.639338 0.828244 0.599908
0.651209 0.829740 0.604211
0.663905 0.831327 0.608820
0.677119 0.832914 0.613611
0.691005 0.834592 0.618677
0.705440 0.836393 0.624079
0.720485 0.838590 0.629786
0.736080 0.841550 0.635096
0.752407 0.844785 0.640894
0.769314 0.848203 0.647242
0.786709 0.851743 0.653986
0.804318 0.855314 0.660853
0.822049 0.858915 0.667903
0.839933 0.862394 0.675135
0.857786 0.865843 0.682490
0.875700 0.869352 0.690059
0.893462 0.872831 0.697871
0.916228 0.884184 0.728908
0.938842 0.897581 0.761746
0.960266 0.911711 0.793454
0.979370 0.926177 0.825620
0.621973 0.855039 0.627955
0.622827 0.855253 0.628382
0.623896 0.855436 0.628870
0.625727 0.855589 0.629511
0.628565 0.855802 0.630304
0.632471 0.856199 0.631586
0.637598 0.856870 0.633448
0.643885 0.857694 0.635828
0.651423 0.858793 0.638849
0.660029 0.860136 0.642451
0.669551 0.861601 0.646387
0.680018 0.863218 0.650752
0.691066 0.864836 0.655360
0.702785 0.866484 0.660182
0.714839 0.867979 0.664912
0.727291 0.869444 0.669734
0.740261 0.870909 0.674891
0.753658 0.872587 0.680476
0.767544 0.874784 0.685725
0.781888 0.877379 0.691188
0.796780 0.880125 0.696986
0.812070 0.883024 0.703212
0.827512 0.885924 0.709590
0.843168 0.888823 0.716335
0.858854 0.891752 0.723171
0.874540 0.894652 0.730190
0.890227 0.897612 0.737514
0.905821 0.900603 0.745083
0.921294 0.903746 0.753079
0.940826 0.913787 0.782223
0.960479 0.926482 0.814542
0.979339 0.939818 0.843870
0.669886 0.887419 0.679438
0.670558 0.887541 0.679774
0.671351 0.887602 0.680049
0.672786 0.887633 0.680415
0.675013 0.887724 0.680964
0.678157 0.887877 0.681880
0.682338 0.888182 0.683284
0.687434 0.888640 0.685054
0.693507 0.889220 0.687221
0.700587 0.889982 0.689967
0.708492 0.890867 0.693080
0.717250 0.891875 0.696559
0.726619 0.892943 0.700282
