cubelut/Moody6.cube
# Created by Adobe Lightroom plugin Export LUT (1.18.0)
# www.johnrellis.com/lightroom/exportlut.htm
# Preset: Moody6
# Color profile: /Library/Application Support/Adobe/Color/Profiles/Recommended/AdobeRGB1998.icc
LUT_3D_SIZE 5
DOMAIN_MIN 0.000000 0.000000 0.000000
DOMAIN_MAX 0.903226 0.903226 0.903226
0.156039 0.156039 0.156039
0.182925 0.152316 0.155550
0.345190 0.121065 0.149569
0.644923 0.000000 0.121645
0.929931 0.000000 0.055787
0.160189 0.187350 0.156771
0.191073 0.183322 0.152926
0.355077 0.200504 0.141512
0.649378 0.177646 0.102571
0.936370 0.000000 0.000000
0.184024 0.376165 0.141939
0.257450 0.368688 0.134127
0.416083 0.372198 0.101106
0.697414 0.428260 0.000000
0.935454 0.378698 0.000000
0.249241 0.696773 0.030762
0.345037 0.693050 0.000000
0.542138 0.676875 0.000000
0.742916 0.656214 0.000000
0.944457 0.628412 0.000000
0.356847 0.920714 0.170809
0.417304 0.917815 0.127687
0.576623 0.903685 0.000000
0.783658 0.889799 0.000000
0.970916 0.854154 0.000000
0.148348 0.164492 0.208591
0.190005 0.158816 0.193210
0.359442 0.117708 0.163699
0.646113 0.154330 0.107546
0.923186 0.000000 0.002747
0.152712 0.207553 0.212345
0.197665 0.197665 0.197665
0.371832 0.196048 0.163607
0.658778 0.238956 0.091371
0.925597 0.000000 0.000000
0.137392 0.399054 0.229923
0.230289 0.393194 0.201328
0.418708 0.377874 0.154208
0.691859 0.424170 0.000000
0.934020 0.398779 0.000000
0.172549 0.707179 0.216342
0.305882 0.703609 0.202060
0.529168 0.686763 0.109499
0.746273 0.660578 0.000000
0.945525 0.634791 0.000000
0.359838 0.921508 0.315648
0.414282 0.918944 0.290043
0.570977 0.911284 0.185397
0.777646 0.895476 0.000000
0.973693 0.858000 0.000000
0.000000 0.220890 0.492561
0.147433 0.186343 0.474372
0.397833 0.134737 0.416052
0.684565 0.000000 0.368994
0.939513 0.000000 0.153262
0.000000 0.299077 0.492653
0.133089 0.265049 0.477516
0.408667 0.215976 0.424231
0.692531 0.000000 0.353735
0.941772 0.000000 0.137819
0.000000 0.487526 0.511467
0.174350 0.473762 0.493538
0.441047 0.441047 0.441047
0.715419 0.397925 0.342931
0.946319 0.331853 0.080262
0.117464 0.731167 0.528771
0.256992 0.724697 0.512779
0.502312 0.712398 0.470954
0.749935 0.685115 0.366918
0.951934 0.610956 0.000000
0.420630 0.919615 0.579248
0.479652 0.917113 0.581170
0.590997 0.911986 0.539361
0.756344 0.900359 0.404700
0.969848 0.860868 0.000000
0.000000 0.329229 0.785519
0.000000 0.302586 0.781552
0.401312 0.268833 0.761746
0.686122 0.166873 0.719173
0.926970 0.000000 0.629145
0.000000 0.398199 0.782650
0.000000 0.379858 0.777737
0.405005 0.343481 0.758755
0.686885 0.272099 0.717067
0.925353 0.083131 0.624323
0.000000 0.554040 0.780728
0.136995 0.548028 0.775143
0.449226 0.537957 0.755856
0.696712 0.496956 0.715358
0.925170 0.424231 0.624353
0.202090 0.754452 0.787930
0.308263 0.751278 0.781704
0.517357 0.745998 0.765591
0.731014 0.730953 0.731014
0.929961 0.657160 0.619623
0.485023 0.925505 0.795987
0.527642 0.923095 0.793668
0.642237 0.916442 0.785367
0.774990 0.905486 0.758358
0.936828 0.881529 0.651331
0.230533 0.510643 0.937804
0.344213 0.528862 0.935363
0.507103 0.541558 0.930022
0.671321 0.517052 0.921813
0.873655 0.456275 0.907317
0.265049 0.544488 0.936278
0.364172 0.560052 0.933959
0.535180 0.585290 0.927886
0.681514 0.559075 0.919677
0.874479 0.502647 0.905699
0.320592 0.634668 0.934813
0.382422 0.638453 0.933318
0.574334 0.674159 0.925933
0.713649 0.670436 0.916838
0.880644 0.628473 0.904173
0.468727 0.776486 0.932677
0.505028 0.778195 0.931395
0.608179 0.783444 0.927733
0.760067 0.799649 0.919463
0.894133 0.783230 0.905730
0.608453 0.905882 0.930938
0.630396 0.906432 0.930114
0.702480 0.909117 0.927855
0.802914 0.912078 0.922759
0.909056 0.909056 0.909056
