cubelut/Moody6.cube
# Created by Adobe Lightroom plugin Export LUT (1.18.0)
# www.johnrellis.com/lightroom/exportlut.htm
# Preset: Moody6
# Color profile: /Library/Application Support/Adobe/Color/Profiles/Recommended/AdobeRGB1998.icc
LUT_3D_SIZE 8
DOMAIN_MIN 0.000000 0.000000 0.000000
DOMAIN_MAX 0.903226 0.903226 0.903226
0.156039 0.156039 0.156039
0.163485 0.154910 0.155917
0.193973 0.150759 0.155306
0.279332 0.136080 0.152682
0.420447 0.094606 0.144869
0.598352 0.000000 0.127749
0.778286 0.000000 0.099031
0.929931 0.000000 0.055787
0.157321 0.163912 0.156466
0.165072 0.162844 0.155215
0.195438 0.161166 0.154391
0.278202 0.156588 0.151125
0.415778 0.138216 0.142519
0.590631 0.063325 0.124453
0.773159 0.000000 0.092958
0.924315 0.000000 0.033051
0.161898 0.201144 0.156680
0.173861 0.199008 0.155428
0.206638 0.195804 0.151614
0.296635 0.213443 0.143954
0.431128 0.224491 0.131075
0.604456 0.221256 0.104891
0.795193 0.174502 0.034424
0.934844 0.000000 0.000000
0.174258 0.304448 0.150546
0.195315 0.301091 0.148806
0.249851 0.293156 0.143191
0.324590 0.293889 0.131991
0.477790 0.339635 0.096712
0.649683 0.362676 0.000000
0.808927 0.350103 0.000000
0.936065 0.292546 0.000000
0.198550 0.467262 0.125368
0.228244 0.464363 0.121828
0.306371 0.457801 0.109010
0.402564 0.451514 0.083497
0.507408 0.451209 0.000000
0.667079 0.488411 0.000000
0.812833 0.489113 0.000000
0.936828 0.455543 0.000000
0.235996 0.649561 0.065095
0.271153 0.654719 0.037659
0.359991 0.648188 0.000000
0.471138 0.638575 0.000000
0.583368 0.624475 0.000000
0.699550 0.618402 0.000000
0.831571 0.623468 0.000000
0.943999 0.596185 0.000000
0.287938 0.806485 0.033112
0.316350 0.806485 0.000000
0.396094 0.800351 0.000000
0.504936 0.792325 0.000000
0.622919 0.780301 0.000000
0.742855 0.768673 0.000000
0.854612 0.753719 0.000000
0.946868 0.721248 0.000000
0.356847 0.920714 0.170809
0.375586 0.919738 0.159121
0.436072 0.917082 0.110323
0.528710 0.913512 0.000000
0.633448 0.900023 0.000000
0.753109 0.891875 0.000000
0.874052 0.882475 0.000000
0.970916 0.854154 0.000000
0.155642 0.158419 0.167849
0.164218 0.157107 0.164981
0.196201 0.154269 0.159060
0.280949 0.156863 0.152285
0.417304 0.147646 0.141604
0.589349 0.087068 0.123598
0.770138 0.000000 0.093385
0.919829 0.000000 0.046387
0.156252 0.167544 0.168704
0.165835 0.165835 0.165835
0.199374 0.164553 0.160342
0.283452 0.169986 0.151705
0.417853 0.172335 0.139193
0.588006 0.140932 0.119753
0.765438 0.000000 0.087465
0.913725 0.000000 0.023438
0.158633 0.205234 0.170352
0.171603 0.204440 0.167361
0.210330 0.200351 0.160952
0.299016 0.215396 0.148501
0.430396 0.239567 0.128664
0.600763 0.243565 0.100862
0.777737 0.206149 0.033631
0.921965 0.000000 0.000000
0.157992 0.306554 0.164981
0.184451 0.304662 0.163760
0.247013 0.297948 0.155520
0.324132 0.294408 0.141604
0.463294 0.329961 0.108248
0.626825 0.361273 0.017884
0.787564 0.353918 0.000000
0.923583 0.301122 0.000000
0.175509 0.470954 0.151003
0.210361 0.466926 0.147127
0.295598 0.458015 0.133333
0.392798 0.446113 0.109285
0.495247 0.441047 0.065064
0.654414 0.479652 0.000000
0.802853 0.488746 0.000000
0.929839 0.457313 0.000000
0.212222 0.645350 0.123171
0.248234 0.643946 0.115694
0.342260 0.638178 0.084932
0.457862 0.630884 0.000000
0.575341 0.619959 0.000000
0.696651 0.616114 0.000000
0.828000 0.623255 0.000000
0.939788 0.595911 0.000000
0.269444 0.798672 0.126436
0.297673 0.795956 0.114260
0.380774 0.791379 0.060639
0.493385 0.786191 0.000000
0.614862 0.776699 0.000000
0.736172 0.764523 0.000000
0.847593 0.747768 0.000000
0.940948 0.717922 0.000000
0.349706 0.917327 0.211795
0.369146 0.916991 0.203799
0.430030 0.914794 0.169253
0.522972 0.911711 0.074647
0.632959 0.904723 0.000000
0.751522 0.894316 0.000000
0.871794 0.882200 0.000000
0.969024 0.852995 0.000000
0.141238 0.168551 0.235904
0.158175 0.163241 0.230106
0.206699 0.158602 0.211276
0.298680 0.135409 0.202792
0.442084 0.066773 0.164584
0.612512 0.095613 0.130709
0.789029 0.108339 0.065370
0.929595 0.000000 0.000000
0.146181 0.184390 0.234318
0.158907 0.177768 0.228733
0.208530 0.169772 0.212436
0.301976 0.147372 0.198398
0.441779 0.120516 0.165164
0.612665 0.140902 0.128603
0.785306 0.161227 0.054566
0.926696 0.000000 0.000000
0.147036 0.232456 0.239384
0.163302 0.228092 0.233677
0.217868 0.217868 0.217868
0.318334 0.210330 0.194583
0.456580 0.214908 0.163851
0.628840 0.238163 0.116823
0.791531 0.268894 0.000000
0.927794 0.148135 0.000000
0.139071 0.331945 0.254551
0.161379 0.331945 0.248356
0.237308 0.327916 0.223972
0.345403 0.319005 0.198398
0.490181 0.333837 0.157168
0.651270 0.355352 0.090303
0.803586 0.376745 0.000000
0.931823 0.330083 0.000000
0.119783 0.492592 0.265843
0.157290 0.492073 0.254337
0.268070 0.487037 0.226474
0.397131 0.476448 0.196536
0.519310 0.465675 0.148592
0.671687 0.481880 0.000000
0.813504 0.492622 0.000000
0.935271 0.472358 0.000000
0.131594 0.660426 0.255985
0.175723 0.660060 0.241733
0.306767 0.653956 0.226291
0.440375 0.644099 0.189090
0.571099 0.631281 0.123293
0.700313 0.621607 0.000000
0.831327 0.619043 0.000000
0.944121 0.604852 0.000000
0.232456 0.808865 0.274571
0.266941 0.806821 0.269322
0.357641 0.800961 0.246677
0.475288 0.793454 0.201724
0.602594 0.783047 0.112306
0.732753 0.771695 0.000000
0.854368 0.754910 0.000000
0.948669 0.725124 0.000000
0.361212 0.918608 0.349554
0.373632 0.917540 0.338689
0.427344 0.915068 0.313359
0.516991 0.913725 0.271946
0.622980 0.907073 0.181460
0.742641 0.897826 0.000000
0.868070 0.885985 0.000000
0.971893 0.856504 0.000000
0.000000 0.196963 0.390906
0.071748 0.180697 0.387091
0.215427 0.168460 0.366125
0.319158 0.147555 0.332372
0.455695 0.041901 0.316960
0.634791 0.000000 0.273167
0.800870 0.000000 0.166171
0.932555 0.000000 0.004822
0.022309 0.222599 0.392340
0.090303 0.209506 0.387488
0.212131 0.187106 0.367895
0.322484 0.165713 0.335058
0.461707 0.091737 0.316075
0.637049 0.000000 0.264042
0.799283 0.000000 0.165377
0.931548 0.000000 0.000000
0.046967 0.286809 0.393408
0.105592 0.279179 0.387671
0.203830 0.253513 0.369757
0.332311 0.233005 0.341436
0.482856 0.190768 0.312993
0.657374 0.097383 0.247623
0.815702 0.075868 0.165042
0.939147 0.127535 0.000000
0.021302 0.391577 0.409888
0.110719 0.386481 0.403418
0.222995 0.372290 0.384253
0.354864 0.354864 0.354864
0.507073 0.337346 0.312749
0.667323 0.323369 0.253300
0.816464 0.310613 0.155703
0.940581 0.310643 0.000000
0.000000 0.532677 0.430762
0.113558 0.529442 0.424170
0.239963 0.523278 0.403540
0.386542 0.516625 0.368292
0.539147 0.500084 0.325536
0.689570 0.487556 0.260349
0.828611 0.470375 0.148226
0.944915 0.453773 0.000000
0.097932 0.686366 0.441871
0.161624 0.690028 0.439551
0.280064 0.683680 0.416632
0.424292 0.675074 0.382818
0.571801 0.661769 0.336034
0.712703 0.643580 0.268193
0.841032 0.618952 0.147097
0.951751 0.589990 0.000000
0.233341 0.818631 0.452888
0.267124 0.818235 0.450050
0.360510 0.815183 0.440223
0.471504 0.809903 0.411017
0.595209 0.800717 0.357244
0.729244 0.787900 0.275364
0.858549 0.765286 0.136324
0.954620 0.720302 0.000000
0.417060 0.920897 0.519005
0.436500 0.920073 0.520226
0.489448 0.916716 0.517327
0.537743 0.915099 0.471015
0.623102 0.910124 0.410071
0.731930 0.902464 0.311559
0.858854 0.891295 0.119142
0.973602 0.860349 0.000000
0.000000 0.248508 0.591424
0.000000 0.231846 0.588678
0.146456 0.203433 0.573480
0.345159 0.174563 0.550530
0.488960 0.117739 0.512505
0.646693 0.000000 0.484443
0.804898 0.000000 0.429908
0.939971 0.000000 0.320897
0.000000 0.276677 0.590723
0.000000 0.263340 0.589258
0.136721 0.228885 0.577844
0.343969 0.201114 0.552178
0.490547 0.153628 0.513390
0.649683 0.000000 0.483925
0.806790 0.000000 0.426490
0.940734 0.000000 0.312749
0.000000 0.352880 0.595514
0.000000 0.345525 0.592493
0.134310 0.312902 0.578820
0.339239 0.281041 0.553857
0.495430 0.247166 0.515099
0.653925 0.176394 0.477913
0.809171 0.000000 0.413092
0.941009 0.000000 0.283543
0.000000 0.454322 0.599298
0.000000 0.449073 0.594720
0.172885 0.432929 0.581689
0.344121 0.405585 0.559777
0.511955 0.379126 0.524559
0.670100 0.340215 0.477546
0.818326 0.273869 0.399664
0.945769 0.110658 0.249638
0.000000 0.577111 0.605676
0.000000 0.574853 0.602411
0.211368 0.565728 0.589288
0.374609 0.552117 0.567163
0.532952 0.532952 0.532952
0.683436 0.503868 0.480049
0.825223 0.456886 0.392798
0.948363 0.383978 0.232731
0.000000 0.702358 0.604608
0.123018 0.701015 0.601312
0.262974 0.694545 0.588190
0.409674 0.685847 0.568231
0.554070 0.673854 0.538354
0.702144 0.661707 0.494697
0.836912 0.628077 0.413519
0.953246 0.566247 0.243870
0.248875 0.827878 0.613764
0.279179 0.826230 0.611139
0.367773 0.821714 0.603845
0.484321 0.815396 0.593317
0.595727 0.807767 0.565332
0.716640 0.797482 0.512383
0.848142 0.776120 0.426215
0.951720 0.717220 0.256382
0.434699 0.920714 0.644160
0.450629 0.919615 0.643519
0.501366 0.916167 0.641413
0.583276 0.913451 0.642756
0.644770 0.909514 0.605524
0.731075 0.903716 0.546746
0.843320 0.894499 0.445502
0.965545 0.864958 0.258457
0.000000 0.315984 0.761471
0.000000 0.306401 0.760098
0.000000 0.279210 0.750942
0.316503 0.258946 0.737209
0.495216 0.220188 0.715511
0.653376 0.144900 0.685115
0.804074 0.000000 0.644251
0.932341 0.000000 0.577874
0.000000 0.337438 0.753902
0.000000 0.328496 0.751949
0.000000 0.299382 0.745022
0.313542 0.279911 0.731899
0.492439 0.245304 0.711513
0.651606 0.183169 0.682460
0.803128 0.000000 0.642145
0.931609 0.000000 0.575586
0.000000 0.408911 0.756435
0.000000 0.402564 0.753780
0.031647 0.381720 0.746487
0.321263 0.357885 0.734127
0.497017 0.330480 0.713619
0.657130 0.287480 0.684962
0.806851 0.225650 0.641962
0.932769 0.043793 0.572168
0.000000 0.500542 0.756771
0.000000 0.496803 0.753811
0.162936 0.487282 0.746914
0.358007 0.478340 0.738643
0.520012 0.462531 0.721401
0.672602 0.432410 0.693904
0.814755 0.394079 0.647791
0.935027 0.319432 0.573144
0.000000 0.605402 0.754055
0.000000 0.603998 0.752377
0.223758 0.599603 0.746212
0.389746 0.594415 0.735439
0.540154 0.586297 0.717739
0.679072 0.564843 0.690639
0.813626 0.535302 0.646021
0.931029 0.480781 0.573419
0.109987 0.721096 0.754391
0.175540 0.721584 0.753964
0.299229 0.719173 0.748135
0.435798 0.714900 0.737362
0.565270 0.707332 0.720424
0.696651 0.696590 0.696651
0.822202 0.672084 0.653742
0.938109 0.603662 0.553613
0.301091 0.843687 0.764675
0.330205 0.843320 0.763882
0.406989 0.839261 0.757992
0.507042 0.833127 0.747768
0.613367 0.824765 0.732204
0.720668 0.814023 0.709102
0.833616 0.799130 0.665766
0.936950 0.749935 0.574456
0.475105 0.924712 0.767941
0.488014 0.923705 0.766964
0.530510 0.920653 0.763790
0.597192 0.916899 0.759426
0.674800 0.911162 0.751217
0.748440 0.905180 0.727993
0.835111 0.898741 0.679561
0.943572 0.878080 0.590600
0.000000 0.390204 0.866423
0.000000 0.388800 0.866331
0.061891 0.384222 0.863035
0.318883 0.375616 0.857450
0.479042 0.357153 0.847776
0.628870 0.325383 0.833890
0.779263 0.270085 0.814755
0.913420 0.217502 0.773159
0.000000 0.406592 0.863462
0.000000 0.405097 0.863249
0.096742 0.400458 0.860166
0.323033 0.391669 0.854002
0.479194 0.373388 0.844327
0.626856 0.341955 0.830137
0.775784 0.288945 0.810483
0.909911 0.236576 0.769039
0.000000 0.463294 0.864378
0.000000 0.461891 0.863493
0.180270 0.459632 0.859800
0.361120 0.460243 0.853361
0.497261 0.443030 0.843595
0.635737 0.416938 0.830198
0.780850 0.377325 0.812375
0.911986 0.343084 0.772122
0.000000 0.541650 0.865324
0.008728 0.540551 0.863828
0.242435 0.539910 0.860044
0.407050 0.549126 0.853696
0.535485 0.546593 0.844083
0.656062 0.526574 0.832059
0.789578 0.495979 0.815274
0.912718 0.464851 0.774746
0.143771 0.630915 0.862425
0.190158 0.630396 0.861082
0.300053 0.630518 0.857420
0.427192 0.632654 0.852171
0.561425 0.638819 0.843015
0.673396 0.628260 0.830289
0.794400 0.603998 0.812833
0.910918 0.580652 0.774838
0.274266 0.730648 0.861418
0.301549 0.731014 0.860655
0.379431 0.732204 0.857908
0.480232 0.733913 0.853544
0.587488 0.734249 0.846555
0.702388 0.735134 0.835477
0.808408 0.721004 0.817685
0.910521 0.699031 0.781003
0.390173 0.831388 0.863127
0.408881 0.831785 0.862791
0.463386 0.832090 0.860533
0.541131 0.832578 0.856718
0.630152 0.831724 0.849821
0.725704 0.829129 0.839200
0.821775 0.821714 0.821775
0.913237 0.797726 0.784329
0.514946 0.927855 0.873411
0.526360 0.927245 0.872526
0.566247 0.925872 0.870420
0.623407 0.922728 0.865415
0.692622 0.917998 0.857786
0.767727 0.912016 0.848020
0.840513 0.904814 0.832792
0.920195 0.893919 0.796841
0.230533 0.510643 0.937804
0.271122 0.516411 0.937316
0.373938 0.535210 0.934478
0.466804 0.544823 0.931548
0.550225 0.536584 0.928099
0.645441 0.521721 0.923217
0.752956 0.498268 0.916777
0.873655 0.456275 0.907317
0.240024 0.520226 0.936797
0.278294 0.525719 0.936309
0.378210 0.543694 0.933684
0.475257 0.556878 0.930327
0.555352 0.548302 0.926970
0.648005 0.533165 0.922118
0.753323 0.508934 0.915496
0.872923 0.467292 0.906004
0.269932 0.553429 0.935760
0.302647 0.557946 0.935149
0.391638 0.572442 0.932372
0.511650 0.602625 0.928801
0.579431 0.592889 0.925475
0.661677 0.576837 0.920500
0.759823 0.553704 0.914122
0.874479 0.515587 0.904967
0.289708 0.600549 0.935637
0.320867 0.604639 0.935180
0.405737 0.617121 0.932708
0.520317 0.641627 0.928710
0.615656 0.657252 0.923980
0.685481 0.643122 0.919554
0.772305 0.622187 0.913512
0.878538 0.588617 0.904692
0.359106 0.672938 0.933837
0.377874 0.674586 0.933623
0.430457 0.677852 0.932158
0.505974 0.682307 0.930053
0.628656 0.709041 0.924041
0.710292 0.712764 0.918456
0.786587 0.696376 0.912657
0.883848 0.672206 0.904295
0.442573 0.754421 0.932372
0.454414 0.754879 0.931884
0.493690 0.756680 0.930449
0.554437 0.759579 0.928405
0.631037 0.763821 0.925566
0.734218 0.781186 0.920226
0.809903 0.779965 0.914519
0.892699 0.763485 0.906035
0.533745 0.836240 0.932219
0.542565 0.836606 0.931853
0.571954 0.837797 0.930785
0.620356 0.840085 0.929076
0.682460 0.843076 0.926452
0.752956 0.846250 0.922606
0.830472 0.850858 0.916106
0.899443 0.841154 0.905852
0.608453 0.905882 0.930938
0.614862 0.906004 0.930663
0.637873 0.906676 0.929870
0.677790 0.908202 0.928710
0.729274 0.910033 0.926757
0.787655 0.911742 0.923735
0.849058 0.912444 0.918853
0.909056 0.909056 0.909056
