cubelut/Moody3.cube
# Created by Adobe Lightroom plugin Export LUT (1.18.0)
# www.johnrellis.com/lightroom/exportlut.htm
# Preset: Captain-America_Free-LR-Presets.co
# Color profile: /Library/Application Support/Adobe/Color/Profiles/Recommended/AdobeRGB1998.icc
LUT_3D_SIZE 8
DOMAIN_MIN 0.000000 0.000000 0.000000
DOMAIN_MAX 0.903226 0.903226 0.903226
0.000000 0.000000 0.000000
0.072450 0.036469 0.027955
0.144259 0.076081 0.067781
0.264836 0.115724 0.102937
0.414191 0.181949 0.163180
0.580835 0.275883 0.253300
0.756863 0.398322 0.377905
0.898314 0.561425 0.551659
0.051575 0.073304 0.038941
0.078309 0.077607 0.045838
0.155886 0.099031 0.065614
0.273075 0.138674 0.101717
0.418647 0.200473 0.161776
0.580865 0.287907 0.250156
0.754177 0.404273 0.372412
0.897246 0.563317 0.546593
0.096407 0.154574 0.083436
0.115724 0.157778 0.085817
0.173098 0.171725 0.092500
0.303655 0.220005 0.107515
0.450874 0.271794 0.163088
0.608698 0.346593 0.253849
0.775296 0.452735 0.381994
0.908782 0.596979 0.558038
0.166140 0.289189 0.145602
0.183932 0.291386 0.148013
0.238468 0.300633 0.157534
0.331029 0.330846 0.174197
0.480385 0.389807 0.207645
0.654780 0.450172 0.258091
0.798337 0.525689 0.385443
0.919707 0.641810 0.561639
0.266361 0.450965 0.242496
0.280735 0.452644 0.244938
0.327947 0.460060 0.254795
0.402197 0.476600 0.271672
0.496712 0.500008 0.288975
0.645014 0.558892 0.332280
0.808133 0.623926 0.411627
0.933074 0.704585 0.565026
0.381903 0.622889 0.364050
0.396185 0.628138 0.369390
0.434394 0.633356 0.377783
0.497047 0.643244 0.393286
0.576898 0.659052 0.411658
0.673274 0.680568 0.435737
0.801511 0.729793 0.511009
0.928435 0.796262 0.634119
0.535515 0.786465 0.533227
0.544366 0.787991 0.536461
0.570916 0.790066 0.543664
0.617060 0.795529 0.558770
0.676783 0.803220 0.580224
0.747555 0.817716 0.604181
0.825986 0.834379 0.633906
0.917205 0.869230 0.712581
0.712978 0.912963 0.724941
0.717433 0.913237 0.726375
0.734035 0.914641 0.732815
0.763821 0.917998 0.745968
0.796628 0.918883 0.756344
0.842527 0.925689 0.778927
0.891478 0.935210 0.803677
0.939330 0.944823 0.828702
0.035462 0.031312 0.064271
0.076936 0.041474 0.067964
0.150820 0.089204 0.095247
0.270878 0.140200 0.142153
0.415808 0.203342 0.199741
0.574792 0.290440 0.281712
0.747677 0.405005 0.395972
0.891081 0.564538 0.561669
0.059510 0.077333 0.069368
0.090059 0.088441 0.079347
0.163424 0.114107 0.102663
0.280552 0.156893 0.141238
0.422217 0.218723 0.198917
0.578485 0.302190 0.280125
0.746975 0.411475 0.391852
0.889952 0.565881 0.556390
0.103365 0.158877 0.104128
0.129976 0.170108 0.114137
0.184543 0.182895 0.121614
0.313634 0.227451 0.139773
0.451179 0.279515 0.198581
0.602655 0.352453 0.281254
0.763729 0.452766 0.396368
0.900603 0.595972 0.564691
0.174197 0.293095 0.167697
0.195468 0.299016 0.174075
0.248661 0.309209 0.183658
0.332738 0.332433 0.197238
0.475013 0.386084 0.227298
0.640894 0.443763 0.279637
0.785916 0.520745 0.397375
0.912200 0.639063 0.567224
0.276463 0.455879 0.264897
0.289708 0.457008 0.266667
0.334234 0.462928 0.274907
0.403723 0.475837 0.289189
0.493965 0.497169 0.304082
0.641688 0.556481 0.346258
0.804227 0.621363 0.422766
0.928405 0.703883 0.574517
0.386084 0.622705 0.378424
0.397284 0.624323 0.380621
0.434668 0.629694 0.388464
0.496986 0.640742 0.404578
0.576837 0.657740 0.423987
0.673426 0.680781 0.449317
0.800748 0.729976 0.522423
0.926604 0.795071 0.639185
0.535088 0.782498 0.539178
0.541924 0.782528 0.540154
0.568994 0.785397 0.548119
0.616205 0.792447 0.564721
0.676631 0.801572 0.587182
0.746181 0.815702 0.609888
0.823087 0.831571 0.637171
0.914672 0.866697 0.713100
0.711666 0.911162 0.726772
0.716823 0.911772 0.728939
0.733700 0.913420 0.735561
0.763638 0.917021 0.748836
0.801755 0.921141 0.765713
0.844968 0.926696 0.785336
0.891508 0.934997 0.806638
0.938537 0.944060 0.829831
0.075532 0.070283 0.131472
0.100435 0.072847 0.136812
0.167941 0.086915 0.151095
0.290562 0.141756 0.199527
0.430518 0.232792 0.270207
0.587823 0.346319 0.370825
0.752316 0.454292 0.476417
0.889311 0.606165 0.624506
0.090517 0.106538 0.145022
0.115389 0.111177 0.151186
0.180545 0.120668 0.162509
0.298528 0.174166 0.208530
0.436011 0.259739 0.280644
0.590845 0.354559 0.369757
0.752956 0.458717 0.472999
0.889830 0.608698 0.622034
0.114382 0.174990 0.159365
0.140719 0.184604 0.168490
0.215366 0.212528 0.194705
0.328588 0.255924 0.236240
0.464668 0.317357 0.296574
0.613916 0.390784 0.371069
0.766262 0.488960 0.474098
0.897093 0.628077 0.622980
0.184268 0.300908 0.219181
0.208530 0.310460 0.228489
0.280369 0.339696 0.257816
0.360052 0.359686 0.272862
0.502739 0.409705 0.304814
0.650690 0.466285 0.371283
0.789670 0.547570 0.476936
0.910033 0.666072 0.626825
0.283787 0.460121 0.310155
0.304082 0.466865 0.318883
0.362005 0.485420 0.342412
0.428717 0.498116 0.357519
0.516106 0.519951 0.371618
0.660670 0.575433 0.410559
0.813596 0.634516 0.482734
0.925383 0.720699 0.629755
0.395300 0.628443 0.420508
0.411170 0.633417 0.427649
0.455543 0.644129 0.444099
0.513848 0.652979 0.457801
0.589441 0.667353 0.476905
0.680842 0.688655 0.500816
0.806210 0.738918 0.568536
0.929046 0.802182 0.672328
0.549584 0.787594 0.575738
0.560815 0.789242 0.581415
0.588739 0.792569 0.591241
0.630915 0.798062 0.603784
0.687037 0.806363 0.622431
0.753658 0.820371 0.644038
0.828824 0.837430 0.670039
0.919280 0.873808 0.741756
0.720119 0.912535 0.746151
0.725643 0.912902 0.748684
0.741115 0.914153 0.754055
0.771145 0.918334 0.767514
0.807279 0.922301 0.782376
0.849546 0.927977 0.801358
0.894621 0.936584 0.820981
0.940581 0.945983 0.842527
0.112825 0.102876 0.248692
0.140597 0.107210 0.254673
0.214298 0.118410 0.270787
0.309972 0.140993 0.288823
0.452186 0.218784 0.347295
0.604242 0.332891 0.429328
0.755459 0.471534 0.540642
0.883543 0.639857 0.684779
0.130953 0.145724 0.266361
0.155550 0.148318 0.270115
0.225132 0.155337 0.282414
0.319707 0.173892 0.298589
0.459846 0.247623 0.355810
0.607568 0.354559 0.436164
0.755581 0.488167 0.547143
0.883207 0.649256 0.689021
0.156649 0.227787 0.284276
0.182467 0.234440 0.292119
0.254215 0.250217 0.311955
0.348730 0.265751 0.328374
0.481788 0.336522 0.385260
0.626673 0.428260 0.467903
0.766598 0.554742 0.584192
0.891905 0.674708 0.699947
0.199222 0.326574 0.307195
0.222354 0.333898 0.314672
0.293614 0.357977 0.338903
0.396460 0.396857 0.378668
0.516625 0.444221 0.427741
0.653346 0.505608 0.492287
0.785214 0.593408 0.585870
0.904265 0.700893 0.700435
0.296452 0.469459 0.381048
0.315160 0.474952 0.387549
0.374975 0.495827 0.411872
0.463813 0.532616 0.452125
0.546929 0.552148 0.467567
0.687373 0.601526 0.506798
0.816373 0.661067 0.588769
0.920928 0.745144 0.702846
0.405585 0.636774 0.484138
0.423163 0.643885 0.492836
0.473243 0.657191 0.513115
0.549676 0.677546 0.547295
0.618006 0.689021 0.565728
0.698634 0.707332 0.583856
0.819883 0.756283 0.637598
0.933776 0.811521 0.719112
0.556725 0.789853 0.618372
0.568505 0.792386 0.624079
0.605676 0.800381 0.642054
0.656458 0.811551 0.664424
0.707668 0.819455 0.679316
0.768124 0.830900 0.696742
0.836851 0.845579 0.716304
0.924346 0.881651 0.778683
0.726406 0.914305 0.770962
0.732937 0.915190 0.774166
0.753414 0.917662 0.783932
0.782925 0.921386 0.796628
0.816526 0.925170 0.808896
0.856291 0.930571 0.825101
0.899046 0.939055 0.841947
0.943420 0.948608 0.860563
0.168490 0.159579 0.402319
0.193912 0.163790 0.406592
0.264195 0.175448 0.418372
0.360082 0.191501 0.437110
0.470832 0.228489 0.458228
0.624445 0.323033 0.525048
0.771725 0.461219 0.609979
0.894530 0.635950 0.726650
0.185458 0.199191 0.414618
0.208621 0.202426 0.418647
0.274571 0.210330 0.428321
0.367102 0.222995 0.444465
0.477180 0.256413 0.465217
0.629328 0.345342 0.531090
0.773404 0.480201 0.615747
0.894774 0.646387 0.730526
0.220005 0.287663 0.437568
0.243534 0.293736 0.443732
0.303166 0.300999 0.452766
0.392370 0.313878 0.470497
0.497078 0.337499 0.487282
0.642512 0.412360 0.548333
0.777157 0.537835 0.633753
0.894713 0.678523 0.742092
0.257115 0.387488 0.456519
0.278264 0.393133 0.462257
0.343572 0.412299 0.482033
0.433997 0.436561 0.510369
0.533257 0.451881 0.527367
0.665553 0.522515 0.584741
0.787320 0.623163 0.668147
0.897642 0.732937 0.766445
0.310613 0.495064 0.482155
0.328771 0.500267 0.487556
0.385412 0.517510 0.505730
0.471412 0.547173 0.537224
0.578119 0.585199 0.577478
0.692256 0.632258 0.627405
0.808743 0.693050 0.691951
0.912322 0.772457 0.775235
0.411780 0.638117 0.555962
0.426337 0.642237 0.560998
0.475166 0.655055 0.577722
0.553155 0.677424 0.608270
0.639979 0.705684 0.645777
0.714687 0.724269 0.664210
0.835904 0.770840 0.705989
0.933501 0.822904 0.779416
0.563867 0.791073 0.671565
0.574090 0.792844 0.675135
0.608331 0.799863 0.688228
0.661219 0.813230 0.709926
0.722621 0.829801 0.734432
0.780301 0.839567 0.750637
0.844327 0.853178 0.766201
0.930236 0.888487 0.816281
0.727047 0.912932 0.797604
0.732784 0.913573 0.799802
0.752499 0.916014 0.807553
0.787381 0.922423 0.823392
0.824399 0.928527 0.837919
0.861936 0.933654 0.850675
0.902800 0.941344 0.864988
0.945708 0.950652 0.879911
0.245182 0.244236 0.586389
0.266636 0.247929 0.589227
0.329564 0.257847 0.596674
0.421881 0.274815 0.613428
0.531304 0.296818 0.633753
0.644068 0.338201 0.647700
0.785550 0.463813 0.704860
0.907622 0.632746 0.785794
0.259007 0.275975 0.591577
0.278019 0.278264 0.593591
0.337560 0.285924 0.601190
0.427131 0.300755 0.617304
0.534264 0.319707 0.636316
0.646265 0.358160 0.650141
0.786404 0.480140 0.707301
0.907378 0.642084 0.787594
0.297429 0.363043 0.615991
0.314092 0.364813 0.618036
0.367956 0.371191 0.625330
0.450416 0.382025 0.637598
0.551141 0.395575 0.653132
0.659876 0.426001 0.665187
0.793545 0.537255 0.719966
0.908751 0.676692 0.796567
0.334386 0.463111 0.635706
0.351843 0.466651 0.638697
0.409064 0.480446 0.651514
0.489235 0.496223 0.667170
0.582452 0.509636 0.680934
0.683986 0.533898 0.691707
0.807889 0.620417 0.742855
0.912016 0.731624 0.813138
0.377661 0.566888 0.649866
0.393683 0.570672 0.653407
0.446357 0.583429 0.665126
0.529259 0.606134 0.684260
0.618463 0.628077 0.705043
0.706905 0.641749 0.716701
0.820523 0.704707 0.764920
0.913756 0.793301 0.833066
0.436957 0.670954 0.668971
0.452552 0.674708 0.672938
0.500328 0.684413 0.683009
0.571588 0.700496 0.699916
0.652094 0.722072 0.722438
0.743404 0.753719 0.755489
0.841764 0.795468 0.798764
0.926818 0.848478 0.852903
0.575555 0.797665 0.737362
0.586511 0.800107 0.740810
0.619623 0.806516 0.750362
0.669062 0.818631 0.766293
0.730831 0.835508 0.787716
0.801846 0.855711 0.815488
0.858518 0.867124 0.827756
0.941772 0.899321 0.862181
0.734005 0.914244 0.835142
0.739376 0.914794 0.836667
0.757839 0.917174 0.842344
0.788907 0.922393 0.852842
0.827573 0.929778 0.866545
0.870359 0.939055 0.882444
0.909545 0.945861 0.894621
0.950378 0.954833 0.905821
0.358892 0.366522 0.770291
0.374517 0.369421 0.771511
0.424872 0.379065 0.776486
0.501366 0.394110 0.784543
0.593652 0.412390 0.794064
0.696407 0.440650 0.804074
0.798886 0.490333 0.811643
0.913085 0.641566 0.855741
0.373083 0.393378 0.775631
0.387366 0.395422 0.776608
0.434730 0.403174 0.780972
0.508232 0.415991 0.787991
0.599207 0.433509 0.797513
0.701076 0.461280 0.807828
0.802243 0.508965 0.815244
0.914824 0.653651 0.858610
0.406378 0.463050 0.785153
0.419043 0.464637 0.786191
0.461494 0.470863 0.789975
0.529320 0.481544 0.796139
0.615259 0.497871 0.804929
0.711818 0.520562 0.814664
0.807919 0.559258 0.820981
0.916228 0.683375 0.862638
0.452918 0.555718 0.796078
0.467079 0.559533 0.797696
0.510369 0.570397 0.802884
0.567712 0.578485 0.808011
0.642451 0.590112 0.815763
0.728450 0.603601 0.825193
0.817594 0.630457 0.830838
0.919646 0.730831 0.870359
0.498939 0.649531 0.805905
0.511589 0.652766 0.807736
0.551415 0.662745 0.813535
0.610346 0.676783 0.822385
0.675654 0.687007 0.831449
0.750729 0.695521 0.840208
0.833494 0.712795 0.846830
0.925872 0.791836 0.882933
0.554284 0.743099 0.817502
0.564172 0.745113 0.818906
0.596765 0.751797 0.823789
0.645716 0.761807 0.831907
0.707729 0.775051 0.843626
0.780056 0.790524 0.857145
0.852049 0.801846 0.865080
0.933654 0.856138 0.899046
0.612329 0.826658 0.830533
0.619928 0.827756 0.831571
0.645960 0.832059 0.835935
0.687526 0.839322 0.843259
0.744381 0.850492 0.854520
0.810819 0.865812 0.869932
0.878843 0.886595 0.890715
0.946044 0.914977 0.918853
0.739986 0.917723 0.877867
0.745602 0.918425 0.879088
0.763241 0.920287 0.882567
0.793393 0.924651 0.889647
0.832181 0.931762 0.900237
0.875273 0.941924 0.913695
0.920653 0.954253 0.929564
0.958312 0.962005 0.937987
0.558770 0.570520 0.922911
0.567346 0.572442 0.923095
0.597559 0.580529 0.924346
0.645930 0.592737 0.926146
0.708064 0.608911 0.928801
0.778927 0.627924 0.932280
0.854307 0.654902 0.934844
0.926940 0.690974 0.936706
0.570001 0.588128 0.923766
0.578058 0.589807 0.923949
0.606317 0.596490 0.925109
0.652918 0.607660 0.926940
0.713008 0.622431 0.929564
0.782101 0.639979 0.933013
0.856291 0.665248 0.935729
0.927947 0.700038 0.937621
0.599268 0.636530 0.925536
0.606317 0.637873 0.925750
0.631281 0.643061 0.927001
0.671778 0.650416 0.928435
0.726650 0.661707 0.931090
0.791012 0.675715 0.934691
0.861265 0.695918 0.937652
0.929992 0.726589 0.939452
0.636744 0.700404 0.928222
0.642451 0.701137 0.928405
0.663233 0.704433 0.929503
0.698329 0.709743 0.931182
0.746242 0.717433 0.933715
0.804074 0.727474 0.937133
0.868711 0.741665 0.940490
0.933288 0.766537 0.942321
0.669520 0.763516 0.931121
0.675471 0.764675 0.931395
0.696284 0.769253 0.932799
0.729152 0.775326 0.935119
0.770687 0.781094 0.937713
0.821622 0.788510 0.941131
0.879301 0.797238 0.945129
0.938689 0.816220 0.947051
0.710231 0.829923 0.934661
0.715724 0.831083 0.935119
0.733577 0.834592 0.936645
0.761929 0.839475 0.939086
0.799741 0.845853 0.942596
0.843259 0.851713 0.946410
0.892393 0.857023 0.950378
0.945983 0.868864 0.953338
0.755367 0.891447 0.939239
0.759701 0.892180 0.939666
0.774044 0.894438 0.941100
0.797391 0.897948 0.943450
0.829129 0.903044 0.947143
0.867826 0.909789 0.952422
0.911711 0.917357 0.959136
0.957702 0.924224 0.963531
0.800839 0.943145 0.945708
0.804227 0.943603 0.946136
0.815122 0.944884 0.947417
0.833677 0.947082 0.949523
0.859709 0.950652 0.953002
0.892546 0.956023 0.958190
0.931334 0.963928 0.965850
0.973846 0.975982 0.977417
