cubelut/Moody10.cube
# Created by Adobe Lightroom plugin Export LUT (1.18.0)
# www.johnrellis.com/lightroom/exportlut.htm
# Preset: SP-07
# Color profile: /Library/Application Support/Adobe/Color/Profiles/Recommended/AdobeRGB1998.icc
LUT_3D_SIZE 32
DOMAIN_MIN 0.0 0.0 0.0
DOMAIN_MAX 1.0 1.0 1.0
0.266270 0.266270 0.266270
0.266514 0.266239 0.266514
0.266728 0.266270 0.266880
0.267521 0.266117 0.267552
0.268711 0.265965 0.268559
0.270665 0.265843 0.269627
0.273838 0.265751 0.270817
0.278782 0.265599 0.271794
0.286107 0.265476 0.272862
0.296818 0.265263 0.273808
0.311162 0.264805 0.274723
0.329473 0.264164 0.275578
0.351904 0.263066 0.276341
0.378729 0.261265 0.277012
0.409125 0.258579 0.277775
0.442542 0.254704 0.278691
0.478645 0.249607 0.279973
0.517205 0.243839 0.281682
0.558099 0.237705 0.284031
0.602564 0.231662 0.287175
0.648615 0.227756 0.291234
0.694453 0.228122 0.296086
0.738399 0.233921 0.302129
0.779324 0.245304 0.309392
0.817075 0.260929 0.318029
0.851225 0.279698 0.328496
0.881559 0.300908 0.340826
0.907713 0.326299 0.355932
0.929229 0.357977 0.374517
0.945708 0.398230 0.397009
0.957397 0.447944 0.424353
0.965026 0.504265 0.458198
0.266361 0.266331 0.266728
0.266514 0.266300 0.266880
0.266850 0.266239 0.267094
0.267582 0.266087 0.267765
0.268833 0.266026 0.268772
0.270848 0.266026 0.269993
0.273960 0.265965 0.270939
0.278935 0.265965 0.271977
0.286442 0.265904 0.272953
0.297215 0.265751 0.273899
0.311467 0.265476 0.274723
0.329808 0.264836 0.275639
0.352209 0.263828 0.276402
0.379004 0.262028 0.277134
0.409430 0.259342 0.277775
0.442878 0.255375 0.278752
0.478981 0.250431 0.279942
0.517510 0.244816 0.281804
0.558343 0.238895 0.284092
0.602747 0.233188 0.287266
0.648737 0.229648 0.291386
0.694545 0.230137 0.296147
0.738491 0.236240 0.302251
0.779385 0.247562 0.309422
0.817044 0.263188 0.318212
0.851194 0.281651 0.328405
0.881590 0.302586 0.341039
0.907683 0.328069 0.356176
0.929198 0.359747 0.374578
0.945647 0.400000 0.397192
0.957305 0.449561 0.424567
0.964935 0.505669 0.458228
0.266331 0.266331 0.267338
0.266545 0.266361 0.267613
0.266850 0.266300 0.267613
0.267643 0.266331 0.268193
0.268986 0.266300 0.269108
0.271031 0.266331 0.270176
0.274205 0.266392 0.271183
0.279179 0.266484 0.272160
0.286748 0.266575 0.273106
0.297490 0.266514 0.273960
0.311955 0.266270 0.274876
0.330236 0.265812 0.275700
0.352697 0.264775 0.276463
0.379614 0.263005 0.277134
0.409888 0.260288 0.277897
0.443366 0.256413 0.278874
0.479347 0.251621 0.280064
0.517784 0.246128 0.281834
0.558648 0.240513 0.284245
0.603052 0.235294 0.287449
0.649012 0.232303 0.291356
0.694697 0.233188 0.296361
0.738552 0.239445 0.302373
0.779446 0.250706 0.309667
0.817105 0.266087 0.318242
0.851286 0.284245 0.328649
0.881559 0.305150 0.341131
0.907652 0.330358 0.356329
0.929137 0.362036 0.374853
0.945556 0.402319 0.397559
0.957153 0.451942 0.425055
0.964813 0.507713 0.458564
0.266331 0.266911 0.268681
0.266545 0.266941 0.268986
0.266850 0.266972 0.269352
0.267643 0.267155 0.269383
0.269139 0.267308 0.269932
0.271397 0.267369 0.270756
0.274754 0.267582 0.271611
0.279850 0.267887 0.272465
0.287541 0.268132 0.273411
0.298405 0.268284 0.274235
0.312963 0.268254 0.275029
0.331334 0.267857 0.275792
0.353826 0.266941 0.276555
0.380560 0.265232 0.277256
0.410986 0.262394 0.278050
0.444282 0.258671 0.278965
0.480232 0.254154 0.280247
0.518608 0.249149 0.282078
0.559289 0.244236 0.284489
0.603601 0.239780 0.287663
0.649531 0.237766 0.291691
0.695033 0.239628 0.296727
0.738735 0.246311 0.302556
0.779507 0.257633 0.309850
0.817105 0.272587 0.318669
0.851255 0.289982 0.328954
0.881498 0.310246 0.341497
0.907591 0.335546 0.356909
0.928985 0.367010 0.375219
0.945342 0.407294 0.397894
0.956939 0.456672 0.425299
0.964508 0.512200 0.459358
0.266331 0.268803 0.270481
0.266575 0.268833 0.270695
0.266850 0.268925 0.270970
0.267582 0.269139 0.271305
0.269108 0.269932 0.271275
0.271672 0.270451 0.271458
0.275364 0.270451 0.272160
0.280858 0.270695 0.272862
0.288670 0.271122 0.273716
0.299870 0.271366 0.274540
0.314397 0.271427 0.275334
0.332860 0.271122 0.276066
0.355505 0.270268 0.276799
0.382238 0.268528 0.277379
0.412573 0.265812 0.278233
0.445777 0.262272 0.279240
0.481544 0.258213 0.280613
0.519646 0.254124 0.282506
0.560266 0.250187 0.284947
0.604364 0.247257 0.288090
0.650050 0.246769 0.292088
0.695613 0.249760 0.297063
0.739071 0.256809 0.303136
0.779812 0.267918 0.310277
0.817258 0.282261 0.319127
0.851225 0.298772 0.329595
0.881468 0.318517 0.342077
0.907439 0.343145 0.357366
0.928771 0.374823 0.376074
0.945006 0.415320 0.398688
0.956512 0.464393 0.426368
0.964050 0.518975 0.460304
0.266087 0.272709 0.271855
0.266423 0.272709 0.272068
0.266728 0.272831 0.272251
0.267613 0.273045 0.272648
0.269078 0.273838 0.272862
0.271672 0.275242 0.272740
0.275883 0.276036 0.272770
0.281773 0.275944 0.273442
0.290166 0.275731 0.274174
0.301549 0.275853 0.274907
0.316381 0.275975 0.275608
0.335027 0.275639 0.276280
0.357702 0.274662 0.277012
0.384436 0.272923 0.277653
0.414496 0.270420 0.278447
0.447669 0.267338 0.279545
0.483253 0.264256 0.280980
0.521111 0.261265 0.282872
0.561547 0.258824 0.285496
0.605524 0.257725 0.288640
0.650843 0.258885 0.292607
0.696071 0.262943 0.297581
0.739406 0.270359 0.303593
0.779995 0.281132 0.310826
0.817288 0.294499 0.319615
0.851255 0.310094 0.330266
0.881376 0.329107 0.342809
0.907225 0.353613 0.358312
0.928466 0.385138 0.376837
0.944610 0.425818 0.399634
0.955993 0.474495 0.427344
0.963470 0.528069 0.461616
0.265812 0.278630 0.273106
0.266117 0.278721 0.273259
0.266545 0.278813 0.273442
0.267613 0.279026 0.273777
0.269291 0.279362 0.274266
0.271763 0.280797 0.274235
0.276158 0.282383 0.274052
0.282780 0.283299 0.273960
0.291508 0.282933 0.274601
0.303410 0.282414 0.275242
0.318914 0.281712 0.275914
0.337621 0.281193 0.276585
0.360296 0.280186 0.277195
0.387060 0.278691 0.277867
0.416999 0.276677 0.278752
0.449928 0.274449 0.279881
0.485145 0.272587 0.281376
0.522759 0.271153 0.283360
0.563012 0.270573 0.286046
0.606653 0.271397 0.289220
0.651820 0.274174 0.293187
0.696803 0.279026 0.298192
0.739864 0.286595 0.304082
0.780209 0.296727 0.311620
0.817411 0.308843 0.320409
0.851225 0.323491 0.331029
0.881224 0.342290 0.343877
0.906981 0.366583 0.359258
0.928038 0.398352 0.378149
0.943969 0.439246 0.401068
0.955261 0.487098 0.428931
0.962707 0.539147 0.463447
0.265599 0.286229 0.274296
0.265934 0.286320 0.274418
0.266453 0.286381 0.274540
0.267613 0.286564 0.274876
0.269566 0.286931 0.275303
0.272435 0.287572 0.275608
0.276738 0.289067 0.275486
0.283604 0.290623 0.275242
0.293156 0.291478 0.275059
0.305364 0.290715 0.275639
0.321080 0.289830 0.276188
0.340307 0.288579 0.276799
0.363470 0.287266 0.277409
0.390021 0.286229 0.278202
0.419837 0.285161 0.279057
0.452247 0.284154 0.280247
0.487251 0.283696 0.281834
0.524590 0.284276 0.283879
0.564660 0.285618 0.286473
0.608057 0.288273 0.289830
0.652857 0.292058 0.293767
0.697505 0.297612 0.298863
0.740383 0.304845 0.304845
0.780484 0.314153 0.312505
0.817563 0.325048 0.321294
0.851225 0.339269 0.332067
0.881010 0.357641 0.345098
0.906645 0.381994 0.360418
0.927489 0.414252 0.379339
0.943267 0.454932 0.402319
0.954406 0.501976 0.430762
0.961791 0.552087 0.465461
0.265599 0.295048 0.275486
0.266026 0.295048 0.275608
0.266636 0.295171 0.275731
0.268009 0.295323 0.275975
0.270359 0.295537 0.276249
0.273777 0.295811 0.276799
0.278416 0.296880 0.276860
0.285069 0.298436 0.276616
0.294713 0.300023 0.276341
0.307500 0.301030 0.275944
0.323247 0.300359 0.276402
0.342687 0.299474 0.276921
0.366033 0.298344 0.277562
0.393103 0.296941 0.278355
0.422644 0.296727 0.279301
0.454780 0.297276 0.280583
0.489509 0.298558 0.282231
0.526543 0.301030 0.284367
0.566308 0.303960 0.287053
0.609369 0.307805 0.290349
0.653925 0.312444 0.294530
0.698299 0.317876 0.299626
0.740871 0.324712 0.305882
0.780789 0.332799 0.313329
0.817685 0.343236 0.322362
0.851164 0.356786 0.333257
0.880827 0.375341 0.346258
0.906157 0.400214 0.361852
0.926787 0.432959 0.380652
0.942382 0.473365 0.403998
0.953399 0.518700 0.432441
0.960754 0.566613 0.468055
0.266148 0.305303 0.276493
0.266667 0.305364 0.276616
0.267247 0.305486 0.276738
0.268925 0.305669 0.276890
0.271580 0.305974 0.277226
0.275547 0.306279 0.277592
0.281010 0.306554 0.278202
0.287694 0.308446 0.277928
0.297002 0.310552 0.277623
0.309667 0.312779 0.277165
0.325536 0.314488 0.276585
0.344884 0.314488 0.276890
0.368139 0.314214 0.277531
0.394903 0.314031 0.278386
0.424842 0.313878 0.279423
0.457404 0.314366 0.280735
0.491676 0.317357 0.282444
0.528405 0.320989 0.284672
0.568017 0.325048 0.287480
0.610834 0.329381 0.290776
0.655116 0.334112 0.294987
0.699184 0.339361 0.300267
0.741421 0.345281 0.306676
0.781125 0.352789 0.314366
0.817777 0.362860 0.323674
0.851011 0.376562 0.334478
0.880430 0.395453 0.347509
0.905577 0.420966 0.363043
0.925933 0.454261 0.382391
0.941314 0.493660 0.405707
0.952239 0.537346 0.434852
0.959594 0.582361 0.470924
0.266880 0.319158 0.277379
0.267399 0.319310 0.277409
0.268254 0.319371 0.277531
0.270054 0.319646 0.277745
0.273167 0.320012 0.277989
0.277653 0.320470 0.278477
0.283818 0.321019 0.279057
0.291386 0.322210 0.279423
0.300511 0.324987 0.279057
0.312627 0.328099 0.278538
0.328130 0.331579 0.277836
0.347173 0.334508 0.276982
0.369818 0.335515 0.277073
0.396338 0.336614 0.277958
0.426032 0.337774 0.279088
0.458259 0.339239 0.280644
0.493202 0.340703 0.282506
0.530175 0.343450 0.284886
0.569604 0.347906 0.287877
0.612238 0.352392 0.291386
0.656275 0.356786 0.295720
0.699977 0.361151 0.301152
0.742061 0.366552 0.307591
0.781399 0.373846 0.315526
0.817777 0.384039 0.324651
0.850797 0.398383 0.335637
0.879942 0.418097 0.348730
0.904784 0.444556 0.364508
0.924926 0.477699 0.383978
0.940124 0.515770 0.407782
0.950927 0.557122 0.437385
0.958312 0.598779 0.474128
0.267674 0.338445 0.278080
0.268284 0.338567 0.278202
0.269322 0.338720 0.278202
0.271366 0.339086 0.278416
0.274846 0.339666 0.278752
0.279820 0.340337 0.279332
0.286534 0.341131 0.280003
0.295079 0.342046 0.280888
0.304784 0.344793 0.280888
0.316625 0.348730 0.280186
0.331579 0.353033 0.279393
0.350225 0.357458 0.278508
0.372107 0.361181 0.277379
0.397284 0.363256 0.277165
0.426703 0.365209 0.278447
0.458808 0.367041 0.280186
0.493385 0.369146 0.282383
0.530755 0.370947 0.285008
0.570977 0.372290 0.288121
0.613672 0.375738 0.291966
0.657404 0.379370 0.296422
0.700862 0.383398 0.302098
0.742458 0.388708 0.308721
0.781643 0.396307 0.316533
0.817777 0.407111 0.325872
0.850401 0.422553 0.336858
0.879271 0.443397 0.349981
0.903807 0.470436 0.365972
0.923735 0.502831 0.385504
0.938781 0.539178 0.409949
0.949554 0.577539 0.440131
0.956970 0.615686 0.477852
0.268162 0.364233 0.278752
0.269017 0.364416 0.278874
0.270054 0.364599 0.278965
0.272435 0.364965 0.279210
0.276341 0.365606 0.279667
0.281956 0.366369 0.280217
0.289189 0.367407 0.281041
0.298528 0.368597 0.281987
0.309758 0.369848 0.283421
0.321508 0.373938 0.282750
0.336339 0.378485 0.281895
0.354223 0.383154 0.280888
0.375799 0.387793 0.279759
0.400061 0.391669 0.278416
0.426978 0.393591 0.277897
0.458869 0.395789 0.279881
0.493446 0.397742 0.282292
0.530541 0.399359 0.285100
0.570855 0.400549 0.288426
0.614313 0.401251 0.292363
0.658534 0.402197 0.297063
0.701625 0.406348 0.302892
0.742977 0.412177 0.309667
0.781704 0.420508 0.317449
0.817472 0.432471 0.326696
0.849821 0.449195 0.337713
0.878355 0.471168 0.350835
0.902647 0.498085 0.367071
0.922362 0.529168 0.387243
0.937285 0.563226 0.412390
0.948089 0.598199 0.443336
0.955566 0.632715 0.481971
0.268986 0.394324 0.279820
0.269932 0.394385 0.279911
0.271061 0.394781 0.280064
0.273686 0.395087 0.280430
0.278111 0.395636 0.280888
0.284215 0.396460 0.281682
0.292302 0.397436 0.282628
0.302190 0.398566 0.283879
0.314275 0.399725 0.285527
0.327855 0.401923 0.286503
0.342443 0.406104 0.285679
0.360021 0.410468 0.284611
0.380682 0.414618 0.283482
0.404486 0.418769 0.282017
0.431312 0.422461 0.280613
0.458778 0.423346 0.279515
0.493233 0.425055 0.282170
0.530297 0.426490 0.285374
0.570550 0.427802 0.288823
0.613764 0.428962 0.292851
0.658045 0.430182 0.297734
0.701778 0.432105 0.303502
0.743130 0.437171 0.310246
0.781582 0.446937 0.317967
0.816922 0.460456 0.327276
0.848966 0.478462 0.338415
0.877226 0.500633 0.351843
0.901335 0.526757 0.368200
0.920897 0.556023 0.388983
0.935760 0.587213 0.414954
0.946563 0.618585 0.446937
0.954070 0.649989 0.486610
0.270512 0.425910 0.281773
0.271519 0.426001 0.281926
0.272770 0.426184 0.282170
0.275883 0.426520 0.282475
0.280674 0.427008 0.283177
0.287327 0.427802 0.284092
0.295964 0.428534 0.285222
0.306706 0.429419 0.286656
0.319554 0.430396 0.288426
0.334722 0.431434 0.290471
0.350256 0.434028 0.290867
0.367559 0.437629 0.289738
0.387671 0.441199 0.288579
0.410590 0.444709 0.287297
0.436255 0.448035 0.285679
0.464576 0.451026 0.284062
0.492805 0.451514 0.282170
0.529625 0.453254 0.285405
0.569940 0.455299 0.289006
0.612940 0.457527 0.293278
0.656977 0.459968 0.298009
0.700435 0.463478 0.303868
0.741970 0.468757 0.310521
0.780911 0.476539 0.318242
0.816068 0.490822 0.327520
0.847868 0.509270 0.338598
0.875853 0.531121 0.352239
0.899840 0.555871 0.369482
0.919341 0.582544 0.390814
0.934203 0.610407 0.417639
0.945037 0.638514 0.450904
0.952605 0.667048 0.491127
0.273411 0.456580 0.284977
0.274510 0.456703 0.285191
0.275914 0.456855 0.285405
0.279271 0.457038 0.285801
0.284398 0.457435 0.286564
0.291752 0.457893 0.287541
0.300999 0.458595 0.288762
0.312474 0.459174 0.290410
0.326177 0.459937 0.292241
0.342077 0.460609 0.294408
0.359930 0.461311 0.297002
0.377050 0.464485 0.296086
0.396460 0.467750 0.294957
0.418555 0.471077 0.293553
0.443091 0.474311 0.292058
0.470222 0.477607 0.290227
0.499886 0.480690 0.288304
0.529198 0.481086 0.285893
0.568719 0.484016 0.288884
0.611536 0.487770 0.293065
0.655299 0.492103 0.297856
0.698543 0.497658 0.303532
0.739895 0.504967 0.310094
0.778531 0.514488 0.317937
0.814237 0.526116 0.327337
0.846464 0.541131 0.338933
0.874388 0.561669 0.352850
0.898283 0.584405 0.370764
0.917723 0.608270 0.393011
0.932647 0.632654 0.420874
0.943511 0.657893 0.454871
0.951049 0.684230 0.496376
0.277684 0.486824 0.289311
0.278874 0.486824 0.289403
0.280522 0.486976 0.289677
0.284031 0.487221 0.290105
0.289830 0.487526 0.290867
0.297551 0.487953 0.291997
0.307378 0.488502 0.293339
0.319615 0.489082 0.294835
0.334020 0.489693 0.296818
0.350439 0.490333 0.299107
0.368780 0.491096 0.301732
0.387915 0.492531 0.303563
0.406836 0.495888 0.302190
0.427924 0.499367 0.300725
0.451514 0.502953 0.298955
0.477607 0.506706 0.297215
0.506157 0.510399 0.295079
0.537316 0.514214 0.292699
0.568688 0.515801 0.289738
0.609430 0.520714 0.292180
0.652888 0.527062 0.297032
0.695949 0.534356 0.302464
0.737026 0.542901 0.309117
0.775692 0.553155 0.316960
0.811398 0.564935 0.326696
0.843778 0.578424 0.338689
0.872465 0.593347 0.353429
0.896727 0.611597 0.372045
0.916197 0.632441 0.395483
0.931090 0.654078 0.424353
0.941924 0.676905 0.459236
0.949554 0.701228 0.501366
0.283024 0.518883 0.294041
0.284306 0.518975 0.294194
0.286107 0.519005 0.294408
0.289952 0.519249 0.294865
0.295933 0.519646 0.295781
0.304265 0.520073 0.296727
0.314794 0.520653 0.298192
0.327428 0.521324 0.299779
0.342260 0.522118 0.301732
0.359350 0.522911 0.303960
0.378180 0.523949 0.306584
0.398505 0.525078 0.309606
0.418402 0.527855 0.309941
0.439094 0.532036 0.308263
0.461891 0.536400 0.306432
0.487129 0.541039 0.304295
0.514855 0.545769 0.302068
0.544945 0.550378 0.299474
0.577386 0.554986 0.296635
0.609766 0.557275 0.293339
0.649805 0.563378 0.295109
0.692775 0.571679 0.300847
0.733852 0.580774 0.307530
0.772488 0.590967 0.315740
0.808255 0.602014 0.325994
0.840818 0.613977 0.338720
0.869688 0.626734 0.354437
0.894469 0.640528 0.373968
0.914611 0.655543 0.397955
0.929564 0.674586 0.427710
0.940398 0.695583 0.463874
0.947936 0.718471 0.506737
0.288945 0.556481 0.298833
0.290410 0.556481 0.298924
0.292271 0.556695 0.299168
0.296300 0.556970 0.299626
0.302739 0.557458 0.300542
0.311589 0.558099 0.301610
0.322576 0.558862 0.302800
0.335729 0.559808 0.304509
0.351171 0.560876 0.306462
0.368566 0.562066 0.308690
0.387854 0.563439 0.311192
0.408789 0.564904 0.314275
0.431342 0.566644 0.317540
0.451575 0.571069 0.315984
0.473854 0.575830 0.314000
0.498329 0.580591 0.311986
0.525170 0.585565 0.309545
0.554376 0.590295 0.306828
0.585657 0.594934 0.303990
0.618616 0.599390 0.300877
0.650813 0.601831 0.297551
0.689021 0.608026 0.298650
0.730282 0.616907 0.305852
0.769070 0.626215 0.314427
0.805142 0.635828 0.325505
0.837919 0.645869 0.339025
0.867033 0.656641 0.355627
0.891997 0.668360 0.376349
0.912230 0.681514 0.401404
0.927672 0.696437 0.431678
0.938811 0.714076 0.468482
0.946288 0.735958 0.511955
0.295445 0.600275 0.303349
0.296941 0.600458 0.303624
0.298894 0.600610 0.303868
0.303288 0.600916 0.304387
0.310002 0.601434 0.305089
0.319280 0.601984 0.306188
0.330755 0.602838 0.307561
0.344366 0.603845 0.309117
0.360204 0.605035 0.311040
0.378027 0.606317 0.313542
0.397955 0.607782 0.316167
0.419379 0.609308 0.318975
0.442481 0.610986 0.322484
0.465583 0.613550 0.324651
0.487373 0.617945 0.322667
0.511315 0.622461 0.320562
0.537469 0.626978 0.318059
0.565850 0.631189 0.315587
0.596002 0.635401 0.312657
0.627680 0.639185 0.309636
0.659907 0.642786 0.306432
0.691035 0.644739 0.303349
0.726467 0.649866 0.304051
0.765560 0.657832 0.313420
0.801938 0.665888 0.325078
0.835080 0.674434 0.339391
0.864439 0.683680 0.356939
0.889586 0.694087 0.378668
0.909911 0.705989 0.404761
0.925383 0.719783 0.436225
0.936553 0.736019 0.474037
0.944457 0.754513 0.517296
0.303593 0.646357 0.308507
0.304997 0.646387 0.308782
0.307256 0.646509 0.308934
0.311742 0.646876 0.309575
0.318944 0.647272 0.310307
0.328374 0.647852 0.311498
0.340185 0.648646 0.312932
0.354284 0.649439 0.314702
0.370672 0.650416 0.316747
0.389075 0.651484 0.319188
0.409186 0.652735 0.321935
0.431220 0.654078 0.325109
0.454688 0.655451 0.328710
0.479805 0.656825 0.332799
0.503227 0.659632 0.333501
0.526726 0.663325 0.331365
0.552331 0.666773 0.329168
0.579858 0.670069 0.326726
0.608881 0.673121 0.323980
0.638972 0.675929 0.321324
0.669795 0.678462 0.318303
0.700526 0.680812 0.315373
0.729671 0.681971 0.312474
0.762173 0.685817 0.312474
0.798856 0.692866 0.325017
0.832212 0.700465 0.340063
0.861814 0.708766 0.358556
0.887114 0.718318 0.380987
0.907561 0.729458 0.408087
0.922972 0.742794 0.440711
0.934112 0.758297 0.479835
0.942077 0.775570 0.523827
0.315007 0.690181 0.315435
0.316655 0.690242 0.315618
0.318730 0.690364 0.315862
0.323369 0.690517 0.316503
0.330846 0.690852 0.317327
0.340673 0.691341 0.318639
0.352758 0.691768 0.320073
0.367254 0.692317 0.321996
0.383795 0.693019 0.324376
0.402472 0.693751 0.326970
0.423102 0.694453 0.330083
0.445472 0.695216 0.333623
0.469490 0.696040 0.337591
0.495033 0.696712 0.342107
0.521935 0.697444 0.347082
0.545525 0.699825 0.345586
0.570184 0.702174 0.343542
0.596582 0.704433 0.341466
0.624292 0.706538 0.338964
0.652888 0.708400 0.336553
0.681819 0.710262 0.333806
0.710658 0.711971 0.331060
0.739315 0.713619 0.328222
0.766262 0.714321 0.325628
0.795651 0.717525 0.324804
0.829374 0.724575 0.340642
0.859251 0.732479 0.360052
0.884672 0.741695 0.383185
0.905150 0.752621 0.411444
0.920592 0.765408 0.445167
0.931701 0.779904 0.485389
0.939788 0.795499 0.530144
0.331273 0.728511 0.325414
0.332921 0.728542 0.325536
0.335149 0.728603 0.325750
0.339818 0.728695 0.326452
0.347173 0.728908 0.327550
0.357183 0.729061 0.328862
0.369482 0.729335 0.330480
0.383948 0.729641 0.332586
0.400763 0.729946 0.335119
0.419532 0.730251 0.338201
0.440375 0.730587 0.341558
0.463050 0.730800 0.345434
0.487404 0.731044 0.349767
0.513298 0.731228 0.354833
0.540551 0.731289 0.360235
0.567285 0.731777 0.364202
0.591028 0.733425 0.362310
0.616083 0.734981 0.360388
0.642054 0.736507 0.358373
0.668757 0.737911 0.356023
0.695735 0.739254 0.353674
0.722591 0.740627 0.351080
0.749386 0.742031 0.348394
0.775662 0.743465 0.345464
0.800046 0.744106 0.342992
0.826719 0.747768 0.342107
0.856474 0.755489 0.361089
0.882109 0.764675 0.385260
0.902770 0.775174 0.414282
0.918242 0.787137 0.449500
0.929442 0.800259 0.490547
0.937682 0.813993 0.536370
0.352422 0.761898 0.338872
0.354101 0.761898 0.339055
0.356237 0.761868 0.339391
0.360906 0.761959 0.340093
0.368292 0.762020 0.341100
0.378088 0.762112 0.342626
0.390265 0.762173 0.344518
0.404730 0.762295 0.346960
0.421637 0.762325 0.349737
0.440558 0.762295 0.352972
0.461494 0.762295 0.356786
0.484199 0.762264 0.360967
0.508721 0.762081 0.365789
0.534630 0.761868 0.371283
0.561700 0.761593 0.377356
0.589441 0.761257 0.384100
0.614160 0.761898 0.386084
0.637537 0.763180 0.384405
0.661646 0.764370 0.382269
0.686244 0.765621 0.380255
0.711086 0.766934 0.377966
0.735897 0.768276 0.375555
0.760708 0.769711 0.373297
0.785031 0.771237 0.370550
0.808713 0.773007 0.367834
0.830442 0.773861 0.365423
0.854551 0.778561 0.366094
0.879545 0.786831 0.386938
0.900359 0.796658 0.417243
0.915984 0.807492 0.453437
0.927367 0.818936 0.495827
0.935790 0.830472 0.542809
0.377905 0.792203 0.356390
0.379431 0.792172 0.356603
0.381567 0.792203 0.357031
0.386358 0.792203 0.357733
0.393500 0.792203 0.359014
0.403235 0.792172 0.360601
0.415351 0.792111 0.362768
0.429694 0.792081 0.365301
0.446448 0.791958 0.368383
0.465217 0.791836 0.372015
0.486061 0.791653 0.376043
0.508690 0.791379 0.380926
0.533043 0.791043 0.386236
0.558556 0.790616 0.392126
0.585046 0.790188 0.398840
0.611963 0.789731 0.406134
0.638880 0.789334 0.414221
0.660578 0.790494 0.413306
0.682551 0.791714 0.411566
0.704952 0.793027 0.409613
0.727596 0.794369 0.407752
0.750301 0.795743 0.405615
0.772976 0.797238 0.403388
0.795285 0.798825 0.400977
0.817105 0.800504 0.398535
0.838132 0.802396 0.396124
0.857206 0.803464 0.393774
0.878050 0.808591 0.396857
0.898131 0.816556 0.419623
0.913878 0.825925 0.457679
0.925505 0.835447 0.501305
0.934234 0.844633 0.549065
0.407568 0.821378 0.378302
0.409155 0.821347 0.378637
0.411292 0.821317 0.378943
0.415839 0.821317 0.379736
0.422919 0.821225 0.381018
0.432349 0.821225 0.382971
0.444282 0.821073 0.385199
0.458625 0.820920 0.388159
0.475196 0.820676 0.391516
0.493660 0.820432 0.395361
0.514183 0.820096 0.399847
0.536492 0.819699 0.405066
0.560204 0.819242 0.410895
0.584924 0.818753 0.417548
0.610254 0.818235 0.424781
0.635859 0.817716 0.432746
0.661250 0.817258 0.441474
0.684810 0.817258 0.448280
0.704524 0.818448 0.446784
0.724697 0.819638 0.445228
0.745174 0.820829 0.443488
0.765713 0.822080 0.441688
0.786191 0.823392 0.439948
0.806424 0.824796 0.438178
0.826200 0.826200 0.435981
0.845243 0.827756 0.433997
0.863371 0.829404 0.431922
0.880278 0.831266 0.429816
0.896757 0.835264 0.435950
0.912169 0.842008 0.461341
0.924041 0.849485 0.506371
0.933013 0.856779 0.555108
0.442115 0.849302 0.405524
0.443671 0.849271 0.405859
0.445747 0.849210 0.406226
0.450111 0.849149 0.407233
0.457099 0.849027 0.408576
0.466438 0.848844 0.410681
0.478126 0.848600 0.413153
0.492103 0.848325 0.416175
0.508232 0.847990 0.420020
0.526452 0.847532 0.424384
0.546258 0.847013 0.429236
0.567651 0.846433 0.434852
0.590204 0.845792 0.441230
0.613581 0.845090 0.448554
0.637415 0.844358 0.456428
0.661219 0.843687 0.465064
0.684840 0.843046 0.474647
0.707820 0.842527 0.484962
0.727565 0.842832 0.488777
0.745480 0.843717 0.487373
0.763607 0.844633 0.486213
0.781979 0.845518 0.484993
0.800259 0.846464 0.483589
0.818296 0.847379 0.482277
0.835904 0.848325 0.481025
0.852842 0.849363 0.479530
0.868956 0.850431 0.478248
0.883909 0.851652 0.476844
0.897581 0.853025 0.475410
0.910704 0.856291 0.484443
0.922850 0.861540 0.511315
0.932067 0.867369 0.561089
0.482795 0.873899 0.439155
0.484260 0.873869 0.439368
0.486244 0.873808 0.439918
0.490547 0.873686 0.441047
0.497353 0.873472 0.442512
0.506310 0.873167 0.444770
0.517601 0.872801 0.447456
0.530938 0.872343 0.450935
0.546258 0.871794 0.454963
0.563500 0.871122 0.459754
0.582147 0.870329 0.465187
0.602136 0.869535 0.471351
0.622980 0.868650 0.478309
0.644373 0.867704 0.485847
