cubelut/Moody5.cube
# Created by Adobe Lightroom plugin Export LUT (1.18.0)
# www.johnrellis.com/lightroom/exportlut.htm
# Preset: nightcolor
# Color profile: /Library/Application Support/Adobe/Color/Profiles/Recommended/AdobeRGB1998.icc
LUT_3D_SIZE 8
DOMAIN_MIN 0.000000 0.000000 0.000000
DOMAIN_MAX 0.903226 0.903226 0.903226
0.244755 0.222385 0.165805
0.248020 0.222263 0.165682
0.281376 0.220981 0.164279
0.381445 0.215824 0.159121
0.579431 0.200259 0.141115
0.772885 0.177584 0.107912
0.887907 0.161898 0.073274
0.944579 0.155978 0.042359
0.244480 0.226352 0.165347
0.248966 0.226719 0.165103
0.284154 0.230228 0.163180
0.389776 0.233036 0.156619
0.591699 0.232334 0.135317
0.780789 0.221775 0.098543
0.890532 0.207156 0.061707
0.944976 0.196078 0.020508
0.242313 0.263493 0.161166
0.252476 0.264256 0.160616
0.288548 0.266545 0.158907
0.391058 0.288365 0.149233
0.592798 0.322881 0.118166
0.777462 0.331365 0.065736
0.884977 0.314763 0.000000
0.941558 0.292546 0.000000
0.233188 0.374670 0.142031
0.252903 0.377356 0.140505
0.315892 0.382696 0.135927
0.407507 0.385687 0.128267
0.584039 0.434546 0.080598
0.769558 0.460426 0.000000
0.880919 0.441627 0.000000
0.938048 0.407691 0.000000
0.198367 0.585321 0.000000
0.238437 0.586786 0.000000
0.342596 0.589044 0.000000
0.471473 0.589593 0.000000
0.613062 0.593225 0.000000
0.771908 0.604883 0.000000
0.877592 0.576287 0.000000
0.932921 0.528954 0.000000
0.144625 0.760800 0.000000
0.205112 0.757778 0.000000
0.332036 0.756619 0.000000
0.473610 0.753841 0.000000
0.617731 0.749844 0.000000
0.759243 0.743130 0.000000
0.869169 0.711299 0.000000
0.925139 0.651331 0.000000
0.112642 0.855009 0.000000
0.178347 0.853971 0.000000
0.304997 0.851652 0.000000
0.440558 0.846769 0.000000
0.575433 0.839811 0.000000
0.706294 0.829923 0.000000
0.831632 0.817777 0.000000
0.916320 0.774075 0.000000
0.129671 0.900786 0.000000
0.178744 0.900084 0.000000
0.285283 0.897429 0.000000
0.404273 0.892424 0.000000
0.525841 0.886290 0.000000
0.643610 0.877012 0.000000
0.757076 0.865537 0.000000
0.865507 0.852567 0.000000
0.244877 0.222263 0.169863
0.249485 0.221592 0.169863
0.286961 0.216251 0.170962
0.394781 0.199832 0.165469
0.598199 0.163424 0.149874
0.786404 0.122438 0.122499
0.893736 0.109773 0.097566
0.946868 0.119997 0.084260
0.244083 0.227085 0.169986
0.249729 0.227054 0.169894
0.288029 0.226017 0.168795
0.397742 0.221164 0.163699
0.603021 0.205844 0.145724
0.789151 0.186038 0.116121
0.895201 0.174228 0.090425
0.947173 0.171511 0.078706
0.240452 0.266300 0.169619
0.248753 0.267002 0.166567
0.290532 0.268162 0.165103
0.400183 0.286625 0.156558
0.606195 0.313695 0.129488
0.787167 0.315953 0.090517
0.891539 0.299443 0.057801
0.944152 0.279545 0.042115
0.222904 0.384100 0.154360
0.240909 0.385626 0.148470
0.312993 0.389197 0.144411
0.417884 0.395758 0.135683
0.605371 0.443519 0.090761
0.783749 0.459022 0.000000
0.887541 0.435370 0.000000
0.940398 0.401160 0.000000
0.157992 0.590723 0.059174
0.209781 0.592706 0.047303
0.330480 0.595789 0.001373
0.472084 0.598932 0.000000
0.622583 0.602655 0.000000
0.779599 0.607141 0.000000
0.881010 0.573693 0.000000
0.934356 0.525536 0.000000
0.062196 0.765560 0.000000
0.165621 0.765011 0.000000
0.316564 0.763180 0.000000
0.468116 0.759060 0.000000
0.617121 0.753384 0.000000
0.761196 0.744839 0.000000
0.870909 0.710658 0.000000
0.925994 0.649805 0.000000
0.007355 0.858000 0.000000
0.147890 0.857511 0.000000
0.292668 0.854734 0.000000
0.434730 0.849088 0.000000
0.572992 0.841276 0.000000
0.706081 0.831235 0.000000
0.833066 0.818997 0.000000
0.917144 0.774044 0.000000
0.111513 0.901640 0.000000
0.166751 0.900847 0.000000
0.279515 0.898100 0.000000
0.401282 0.893004 0.000000
0.523461 0.885893 0.000000
0.642725 0.876860 0.000000
0.757107 0.865629 0.000000
0.865904 0.852720 0.000000
0.247013 0.220920 0.208621
0.256657 0.219364 0.208347
0.291844 0.214694 0.207858
0.401007 0.189364 0.224979
0.603571 0.002167 0.230594
0.790097 0.000000 0.190921
0.895079 0.000000 0.175357
0.947204 0.000000 0.169223
0.241703 0.228092 0.208957
0.252201 0.226169 0.208988
0.293004 0.222873 0.208621
0.406317 0.200778 0.221378
0.611414 0.084077 0.216922
0.792844 0.000000 0.186252
0.895903 0.000000 0.173526
0.946990 0.001770 0.168093
0.239200 0.268925 0.207919
0.248417 0.268772 0.207736
0.293309 0.268070 0.207126
0.410498 0.264408 0.203311
0.612268 0.253666 0.190982
0.790463 0.241184 0.173861
0.893400 0.235386 0.162936
0.944732 0.236667 0.161013
0.219486 0.383215 0.221164
0.231907 0.384588 0.216129
0.289311 0.390967 0.195743
0.418250 0.394263 0.190127
0.611536 0.424384 0.169253
0.786191 0.426764 0.148013
0.888304 0.404700 0.141207
0.940307 0.379004 0.147158
0.136080 0.592737 0.220035
0.163943 0.594446 0.204685
0.270054 0.598810 0.151461
0.450416 0.598505 0.140566
0.620356 0.599176 0.122408
0.782284 0.595819 0.097108
0.882078 0.559136 0.104036
0.934112 0.514122 0.127077
0.000000 0.766598 0.169039
0.000000 0.766903 0.143771
0.249943 0.766751 0.071809
0.441627 0.762509 0.046784
0.608911 0.755978 0.000000
0.763485 0.746212 0.000000
0.872404 0.705806 0.000000
0.925353 0.644099 0.095827
0.000000 0.858335 0.094484
0.000000 0.858213 0.062165
0.251652 0.855924 0.000000
0.416449 0.850401 0.000000
0.565026 0.842313 0.000000
0.703639 0.831449 0.000000
0.833219 0.818235 0.000000
0.915221 0.770687 0.072847
0.082094 0.901701 0.083101
0.154971 0.900969 0.086580
0.275547 0.898222 0.088380
0.399420 0.892882 0.083253
0.523735 0.885679 0.088960
0.644007 0.876341 0.098726
0.758236 0.864988 0.108583
0.866148 0.852018 0.124056
0.252201 0.214389 0.340063
0.271000 0.211337 0.337316
0.330602 0.199832 0.335271
0.421729 0.177066 0.333410
0.617639 0.000000 0.383886
0.793454 0.000000 0.378241
0.895537 0.000000 0.337591
0.944640 0.000000 0.315160
0.236576 0.223819 0.335027
0.258091 0.221225 0.334539
0.323919 0.211368 0.334356
0.421729 0.191257 0.333227
0.619806 0.027771 0.379309
0.795285 0.000000 0.370581
0.895933 0.000000 0.332830
0.943603 0.000000 0.319371
0.216556 0.291325 0.336950
0.230930 0.284764 0.337163
0.299565 0.265568 0.338018
0.425666 0.252781 0.336522
0.624537 0.198459 0.359075
0.794186 0.128511 0.340490
0.891539 0.163424 0.319554
0.939910 0.243381 0.320623
0.200839 0.397436 0.334325
0.216983 0.397803 0.334844
0.283085 0.397955 0.335210
0.424842 0.395544 0.332921
0.628199 0.390356 0.327642
0.792599 0.385809 0.322087
0.887175 0.384985 0.320043
0.935180 0.387610 0.322057
0.082979 0.592004 0.373022
0.128389 0.594659 0.369146
0.242466 0.600244 0.351110
0.417304 0.601312 0.318517
0.621424 0.597375 0.312810
0.783810 0.581445 0.310613
0.878843 0.550195 0.315038
0.928099 0.521660 0.323796
0.000000 0.764523 0.361975
0.000000 0.763088 0.353094
0.211154 0.764614 0.327916
0.414710 0.761288 0.308721
0.600031 0.753811 0.306371
0.763516 0.744106 0.303777
0.868406 0.701045 0.312200
0.918761 0.648829 0.327245
0.000000 0.857633 0.318700
0.000000 0.857053 0.313512
0.243198 0.854368 0.304723
0.426673 0.847349 0.319005
0.571984 0.839231 0.320226
0.707576 0.828855 0.322423
0.833341 0.816587 0.325872
0.907774 0.770474 0.343450
0.105409 0.900267 0.289586
0.170169 0.899290 0.291447
0.311742 0.895140 0.312108
0.449592 0.888029 0.344732
0.556817 0.881193 0.349401
0.664515 0.872465 0.355962
0.767727 0.861967 0.360967
0.865751 0.850248 0.368688
0.249821 0.195621 0.569238
0.280705 0.189487 0.567041
0.369757 0.164981 0.565454
0.490211 0.104921 0.561425
0.630457 0.000000 0.558068
0.790433 0.000000 0.557244
0.888151 0.000000 0.508598
0.937102 0.000000 0.462135
0.220554 0.209995 0.566400
0.257237 0.204685 0.563409
0.355383 0.183810 0.562402
0.484688 0.135164 0.561608
0.631189 0.000000 0.558862
0.790890 0.000000 0.554253
0.887846 0.000000 0.505974
0.935912 0.066072 0.464424
0.101350 0.288762 0.564385
0.144320 0.272679 0.564019
0.300237 0.254765 0.564721
0.464820 0.228885 0.563745
0.633845 0.183627 0.561730
0.793393 0.128939 0.546380
0.885832 0.186862 0.503716
0.930297 0.298558 0.482094
0.000000 0.445472 0.562707
0.090211 0.440284 0.563287
0.237675 0.419471 0.563500
0.428565 0.393378 0.562158
0.631708 0.384375 0.558984
0.788327 0.389868 0.538811
0.875578 0.428016 0.521355
0.916167 0.488075 0.530266
0.000000 0.606317 0.558312
0.000000 0.606012 0.558038
0.209293 0.605554 0.557763
0.418067 0.603449 0.555962
0.627192 0.600763 0.553521
0.777310 0.598932 0.551568
0.862303 0.598322 0.550744
0.906401 0.599512 0.551843
0.000000 0.768307 0.548119
0.000000 0.768521 0.545708
0.201663 0.768704 0.538933
0.431952 0.763546 0.536706
0.628595 0.752987 0.554955
0.764981 0.744350 0.549920
0.853330 0.714473 0.549828
0.898772 0.689143 0.554620
0.000000 0.856992 0.493935
0.000000 0.856474 0.492592
0.263279 0.853178 0.492866
0.462654 0.843931 0.513054
0.630823 0.830777 0.557519
0.732631 0.823178 0.558190
0.831907 0.814542 0.560296
0.889616 0.781979 0.570397
0.157504 0.898650 0.448402
0.213199 0.897490 0.451484
0.348058 0.892515 0.468727
0.506462 0.881865 0.512840
0.642054 0.869444 0.570733
0.715877 0.863127 0.575067
0.790127 0.855741 0.577783
0.863340 0.847654 0.582177
0.237369 0.176059 0.732631
0.270726 0.169009 0.732204
0.364202 0.140169 0.732448
0.487953 0.042664 0.731014
0.627527 0.000000 0.729305
0.777768 0.000000 0.726986
0.875975 0.000000 0.670375
0.925902 0.000000 0.602991
0.205875 0.193088 0.735592
0.245823 0.187076 0.735439
0.349828 0.163485 0.734798
0.481239 0.105745 0.733181
0.625574 0.000000 0.730892
0.778592 0.000000 0.727993
0.875914 0.000000 0.669673
0.924804 0.106081 0.604578
0.000000 0.260288 0.733120
0.117159 0.257023 0.733333
0.292943 0.244511 0.733089
0.454078 0.220554 0.731685
0.615045 0.183505 0.729793
0.777462 0.131960 0.726802
0.873014 0.194919 0.667414
0.919341 0.304692 0.612787
0.000000 0.422065 0.729824
0.000000 0.415869 0.730312
0.217990 0.397742 0.730282
0.424109 0.388464 0.727199
0.604395 0.385412 0.724025
0.771908 0.388495 0.720729
0.863401 0.428138 0.670130
0.906645 0.489204 0.637629
0.000000 0.588434 0.726040
0.000000 0.586267 0.725917
0.210269 0.580743 0.725338
0.436439 0.582696 0.722835
0.625452 0.599634 0.719051
0.767239 0.604578 0.716243
0.848722 0.623224 0.690150
0.888243 0.652003 0.683223
0.000000 0.750973 0.719509
0.000000 0.750332 0.718807
0.208225 0.749386 0.718044
0.444190 0.747463 0.716304
0.634546 0.745235 0.714107
0.762387 0.742763 0.711421
0.835843 0.741299 0.709743
0.875975 0.741634 0.710018
0.000000 0.854124 0.664210
0.000000 0.853025 0.663447
0.282750 0.848844 0.663508
0.481239 0.839292 0.669856
0.649104 0.826169 0.687922
0.761654 0.815976 0.711177
0.828489 0.812161 0.711482
0.871092 0.797787 0.714534
0.212680 0.895140 0.598016
0.260960 0.893767 0.600458
0.386877 0.888212 0.611841
0.538781 0.877409 0.638911
0.675898 0.863798 0.680812
0.766934 0.853330 0.717830
0.812619 0.849485 0.718288
0.859953 0.845365 0.719783
0.228305 0.165988 0.819821
0.258244 0.160189 0.819883
0.342168 0.137850 0.819303
0.453986 0.081483 0.818112
0.579370 0.000000 0.816678
0.712520 0.000000 0.814572
0.849729 0.000000 0.811612
0.911559 0.000000 0.738247
0.204715 0.184390 0.818906
0.238682 0.179721 0.818967
0.329778 0.161837 0.818418
0.446937 0.123842 0.817380
0.575525 0.000000 0.815702
0.710506 0.000000 0.813321
0.848447 0.000000 0.810147
0.910124 0.130556 0.737453
0.093446 0.253819 0.818784
0.163577 0.251438 0.818601
0.290776 0.243381 0.817838
0.427314 0.229923 0.816587
0.566857 0.213321 0.814542
0.707851 0.203494 0.811856
0.846769 0.219608 0.808469
0.905394 0.317967 0.739773
0.000000 0.389380 0.816159
0.091859 0.388708 0.815915
0.279484 0.392737 0.814725
0.430060 0.396155 0.813199
0.574426 0.403693 0.810697
0.713130 0.419745 0.807584
0.842222 0.446113 0.803891
0.894469 0.502159 0.747768
0.000000 0.538048 0.810330
0.095247 0.538262 0.809903
0.295537 0.544457 0.808469
0.484199 0.572839 0.805081
0.624048 0.599573 0.801450
0.732509 0.610529 0.798672
0.834409 0.624903 0.795743
0.879789 0.654139 0.761349
0.000000 0.681239 0.803250
0.130159 0.681697 0.802976
0.316136 0.685481 0.801785
0.499031 0.698451 0.799100
0.656519 0.721523 0.795132
0.760922 0.742428 0.791958
0.829099 0.746731 0.790555
0.867338 0.756802 0.777523
0.104158 0.818418 0.795560
0.192081 0.818235 0.795438
0.351537 0.817258 0.794522
0.521630 0.815518 0.792874
0.666133 0.813413 0.790646
0.766842 0.811887 0.788937
0.826719 0.811429 0.788388
0.860868 0.811734 0.788663
0.278294 0.889921 0.740047
0.318273 0.888334 0.740627
0.433112 0.882506 0.744167
0.571527 0.872068 0.752102
0.692622 0.860136 0.764523
0.777005 0.850706 0.778164
0.827237 0.845762 0.789425
0.857877 0.844266 0.789700
0.226291 0.165042 0.857145
0.250370 0.161135 0.857115
0.320378 0.146578 0.856657
0.416571 0.116823 0.856046
0.525689 0.054749 0.854978
0.641810 0.000000 0.853422
0.761624 0.000000 0.851255
0.880308 0.074556 0.848112
0.210605 0.182498 0.856840
0.236973 0.179477 0.856809
0.311681 0.167880 0.856382
0.411536 0.146883 0.855680
0.523156 0.115145 0.854582
0.640833 0.078157 0.852934
0.761227 0.083070 0.850614
0.879576 0.159854 0.847318
0.160800 0.247929 0.856107
0.197330 0.246769 0.855955
0.288548 0.242283 0.855406
0.400549 0.237339 0.854734
0.519432 0.233646 0.853330
0.641108 0.239689 0.851225
0.762325 0.267399 0.848386
0.877043 0.318791 0.844724
0.184482 0.378180 0.853208
0.220127 0.379248 0.853025
0.309728 0.381720 0.852323
0.422156 0.388922 0.851133
0.540551 0.401984 0.849210
0.658076 0.422858 0.846586
0.770352 0.454047 0.843320
0.872007 0.494911 0.839536
0.215274 0.504051 0.848753
0.260166 0.508965 0.848356
0.378515 0.529747 0.846494
0.528222 0.577478 0.842466
0.613153 0.589014 0.840543
0.701900 0.604761 0.838071
0.787747 0.625116 0.835386
0.865232 0.649928 0.832670
0.248539 0.624842 0.843259
0.287755 0.627741 0.842832
0.398108 0.640314 0.841093
0.541131 0.669154 0.837613
0.673518 0.710658 0.832883
0.753689 0.735653 0.829984
0.808927 0.745205 0.828733
0.860105 0.756100 0.827634
0.301030 0.741756 0.837034
0.335424 0.743221 0.836637
0.435309 0.749264 0.835203
0.567742 0.762509 0.832578
0.687648 0.780545 0.829343
0.773922 0.798306 0.826627
0.824704 0.810086 0.825376
0.857206 0.812039 0.824857
0.375128 0.849271 0.830625
0.403388 0.848966 0.830350
0.490272 0.848051 0.829435
0.604089 0.846616 0.827970
0.707210 0.845121 0.826322
0.781277 0.844053 0.825101
0.827726 0.843473 0.824430
0.856382 0.843351 0.824216
