cubelut/Moody2.cube
# Created by Adobe Lightroom plugin Export LUT (1.18.0)
# www.johnrellis.com/lightroom/exportlut.htm
# Preset: CatchaFirecolor
# Color profile: /Library/Application Support/Adobe/Color/Profiles/Recommended/AdobeRGB1998.icc
LUT_3D_SIZE 32
DOMAIN_MIN 0.0 0.0 0.0
DOMAIN_MAX 1.0 1.0 1.0
0.142824 0.133608 0.164614
0.144656 0.134371 0.165316
0.147250 0.134798 0.166171
0.152682 0.136782 0.168399
0.161257 0.138949 0.171267
0.171511 0.141634 0.174624
0.184298 0.144381 0.178317
0.199863 0.147494 0.182467
0.219089 0.150973 0.187259
0.242222 0.155062 0.192874
0.269749 0.159915 0.199710
0.301183 0.165957 0.207736
0.335912 0.173037 0.217044
0.373632 0.181186 0.227787
0.414374 0.190860 0.239780
0.458137 0.201938 0.252964
0.503471 0.214206 0.267491
0.548699 0.228397 0.282811
0.591333 0.244327 0.299351
0.642145 0.267247 0.321965
0.690455 0.293187 0.345983
0.733669 0.322118 0.371313
0.769833 0.353521 0.397406
0.800259 0.387701 0.424689
0.826932 0.423072 0.451911
0.850736 0.459785 0.479652
0.871611 0.497139 0.507408
0.889036 0.535515 0.536187
0.902708 0.575525 0.566735
0.912779 0.616999 0.599298
0.919890 0.656764 0.631861
0.924529 0.693904 0.663569
0.143709 0.135439 0.165530
0.145113 0.135744 0.165866
0.147738 0.136324 0.166323
0.153628 0.137881 0.168307
0.162173 0.140017 0.171054
0.172335 0.142672 0.174533
0.184909 0.145418 0.178103
0.200443 0.148501 0.182254
0.219364 0.152193 0.187045
0.242252 0.156313 0.192569
0.269322 0.161410 0.199313
0.300267 0.167300 0.207279
0.334630 0.174350 0.216434
0.372045 0.182498 0.227054
0.412238 0.192050 0.238865
0.455543 0.203128 0.251987
0.500389 0.215366 0.266331
0.545373 0.229221 0.281498
0.588006 0.244724 0.297765
0.638392 0.267155 0.319921
0.685634 0.292058 0.343053
0.728725 0.319707 0.367834
0.765194 0.350256 0.393439
0.796109 0.383307 0.420081
0.823178 0.418250 0.447364
0.847501 0.454810 0.475135
0.869017 0.492439 0.503319
0.887144 0.530968 0.532250
0.901427 0.570977 0.562737
0.911955 0.612726 0.595544
0.919432 0.653101 0.628473
0.924285 0.690608 0.660395
0.144930 0.137881 0.166934
0.146151 0.138003 0.167300
0.147921 0.138399 0.167483
0.154238 0.140200 0.168795
0.163394 0.142031 0.171145
0.173678 0.144442 0.174411
0.186191 0.147005 0.177981
0.201419 0.150240 0.182132
0.220157 0.153902 0.186801
0.242710 0.158175 0.192447
0.269749 0.163210 0.199069
0.300481 0.169223 0.206943
0.334600 0.176394 0.216129
0.371801 0.184756 0.226810
0.411658 0.194339 0.238407
0.454658 0.205203 0.251438
0.499367 0.217533 0.265568
0.544060 0.231144 0.280735
0.586816 0.246738 0.296971
0.636957 0.268772 0.318730
0.683680 0.293004 0.341833
0.726619 0.320012 0.365820
0.763180 0.349828 0.391424
0.794156 0.382269 0.417884
0.821439 0.416846 0.445045
0.845945 0.453132 0.472786
0.867735 0.490517 0.500999
0.886168 0.529076 0.530083
0.900786 0.569207 0.560815
0.911559 0.610956 0.593591
0.919158 0.651362 0.626612
0.924163 0.689113 0.658778
0.147738 0.143404 0.170016
0.149111 0.143648 0.170230
0.150820 0.144045 0.170565
0.155032 0.144778 0.171176
0.164034 0.147097 0.172702
0.176608 0.149172 0.174258
0.189029 0.151431 0.177829
0.204318 0.154330 0.181888
0.222934 0.158145 0.186648
0.245487 0.162509 0.192264
0.272068 0.167849 0.198886
0.302556 0.174197 0.206638
0.336248 0.181582 0.215915
0.372961 0.190158 0.226413
0.412573 0.199710 0.237919
0.455116 0.210636 0.250797
0.499397 0.222873 0.264775
0.543664 0.236423 0.279759
0.587671 0.252171 0.296452
0.635584 0.273045 0.317327
0.680781 0.296025 0.339330
0.723049 0.321691 0.362921
0.759976 0.350378 0.387854
0.791684 0.382483 0.414801
0.819821 0.417121 0.442512
0.845182 0.453803 0.471015
0.867552 0.491646 0.499886
0.886229 0.530449 0.529442
0.900847 0.570367 0.560296
0.911620 0.611566 0.592950
0.919188 0.651453 0.625727
0.924132 0.688594 0.657588
0.151400 0.151369 0.174228
0.152773 0.151461 0.174441
0.154421 0.151797 0.174746
0.158175 0.152407 0.175357
0.164584 0.153475 0.175998
0.175265 0.155978 0.177279
0.190860 0.158968 0.178714
0.208408 0.161807 0.181491
0.226780 0.165072 0.186282
0.249088 0.169741 0.191775
0.275273 0.175204 0.198489
0.305364 0.181918 0.206180
0.338689 0.189578 0.215457
0.374914 0.198276 0.225681
0.414343 0.208133 0.237339
0.456855 0.219333 0.249973
0.501274 0.231724 0.264042
0.545434 0.245396 0.279210
0.591394 0.261875 0.296788
0.637629 0.281743 0.316960
0.681392 0.303532 0.338415
0.722774 0.328130 0.361456
0.759213 0.355535 0.385992
0.790860 0.386358 0.412604
0.819028 0.419989 0.440345
0.844541 0.456184 0.469215
0.867002 0.493355 0.498146
0.885801 0.531518 0.527733
0.900542 0.570825 0.558465
0.911376 0.611566 0.591119
0.919066 0.651118 0.623987
0.924102 0.688167 0.656001
0.155825 0.161410 0.178958
0.157107 0.161654 0.179263
0.158724 0.161807 0.179446
0.162387 0.162234 0.180056
0.168246 0.163272 0.180819
0.176669 0.164675 0.181582
0.189578 0.167819 0.183139
0.208499 0.172061 0.184726
0.231632 0.176272 0.186801
0.255436 0.180911 0.191714
0.281498 0.186587 0.198245
0.311345 0.193271 0.206119
0.344121 0.201175 0.215213
0.380133 0.210025 0.225589
0.419409 0.220157 0.236820
0.461738 0.231662 0.249790
0.505882 0.244144 0.263737
0.549523 0.257816 0.278630
0.597284 0.275212 0.297276
0.642267 0.294285 0.317235
0.685267 0.315496 0.338659
0.726101 0.339300 0.361761
0.790677 0.395850 0.411597
0.818601 0.428290 0.439582
0.843198 0.461891 0.467384
0.864591 0.496040 0.495033
0.882567 0.530358 0.522484
0.896971 0.565667 0.550835
0.908019 0.602350 0.580743
0.916167 0.639277 0.611597
0.921874 0.674189 0.641779
0.925475 0.706783 0.671015
0.161379 0.175662 0.185214
0.162631 0.175875 0.185428
0.164675 0.175967 0.185702
0.168612 0.176516 0.186374
0.174777 0.177371 0.187442
0.183108 0.178866 0.188144
0.194247 0.180789 0.189181
0.209689 0.184604 0.191257
0.233555 0.191257 0.193118
0.262730 0.198001 0.195712
0.295659 0.204959 0.199191
0.326085 0.211856 0.207462
0.359289 0.219791 0.216800
0.395666 0.228916 0.227146
0.434760 0.239231 0.238804
0.476326 0.250553 0.251469
0.519158 0.262913 0.265354
0.566125 0.278233 0.282139
0.612940 0.295964 0.301244
0.657801 0.315343 0.322210
0.702296 0.337926 0.345464
0.743923 0.363684 0.371099
0.780240 0.393622 0.399695
0.811765 0.426795 0.429999
0.839231 0.461952 0.460365
0.862272 0.496895 0.489662
0.881132 0.531334 0.518273
0.896086 0.566033 0.546838
0.907469 0.602136 0.576989
0.915740 0.638422 0.607935
0.921660 0.672938 0.638239
0.925414 0.705409 0.667750
0.167758 0.191531 0.192233
0.169100 0.191714 0.192538
0.170901 0.191806 0.192691
0.175113 0.192355 0.193332
0.181308 0.193088 0.194339
0.189670 0.194369 0.195346
0.200443 0.196323 0.196536
0.213687 0.198947 0.197879
0.231388 0.203220 0.200626
0.259831 0.212497 0.202976
0.293065 0.221622 0.206088
0.330114 0.230564 0.209567
0.367254 0.239139 0.215976
0.403143 0.248020 0.226383
0.441871 0.258183 0.237827
0.482826 0.269474 0.250370
0.527092 0.282444 0.264744
0.574395 0.298314 0.281895
0.618189 0.314305 0.300481
0.661036 0.332250 0.320836
0.703792 0.352911 0.343359
0.744045 0.376715 0.368505
0.779568 0.404059 0.396216
0.810605 0.434668 0.425940
0.837858 0.467567 0.456092
0.860990 0.501030 0.485634
0.880064 0.534112 0.514153
0.895293 0.567773 0.542901
0.906981 0.602808 0.573083
0.915496 0.638453 0.604242
0.921538 0.672755 0.635035
0.925444 0.704891 0.664820
0.175570 0.211124 0.201022
0.177127 0.211337 0.201266
0.179110 0.211582 0.201511
0.183383 0.212070 0.202121
0.189883 0.212924 0.203128
0.198428 0.213962 0.204379
0.209079 0.215854 0.205692
0.222263 0.218418 0.206943
0.238010 0.221561 0.208652
0.258518 0.226841 0.211704
0.290684 0.238254 0.215030
0.327459 0.249546 0.218265
0.367864 0.260502 0.222446
0.411627 0.271366 0.226871
0.451942 0.281590 0.236759
0.494026 0.293400 0.249882
0.540490 0.307805 0.265202
0.584283 0.322057 0.281926
0.625513 0.336400 0.299992
0.666529 0.352667 0.319890
0.707820 0.371740 0.342016
0.746578 0.393500 0.366705
0.780911 0.418494 0.394263
0.811215 0.446693 0.423407
0.838041 0.477272 0.453407
0.860929 0.508598 0.482673
0.879973 0.540093 0.511284
0.895171 0.572198 0.540002
0.906889 0.605921 0.570214
0.915435 0.640497 0.601495
0.921538 0.673945 0.632410
0.925505 0.705470 0.662257
0.185245 0.234928 0.211521
0.186740 0.235019 0.211673
0.188754 0.235142 0.211917
0.193179 0.235691 0.212467
0.199924 0.236454 0.213413
0.208835 0.237339 0.214664
0.219638 0.238773 0.216373
0.232792 0.241428 0.217594
0.248478 0.244724 0.219211
0.266667 0.248447 0.221225
0.289250 0.254276 0.224460
0.324163 0.267185 0.228641
0.364172 0.280491 0.232486
0.407813 0.293614 0.236851
0.458198 0.308721 0.242435
0.511192 0.323980 0.250004
0.555261 0.337133 0.265110
0.596582 0.349798 0.282078
0.636011 0.362737 0.300053
0.675257 0.377417 0.319799
0.714168 0.394202 0.341527
0.750179 0.413306 0.365423
0.782467 0.434852 0.391608
0.811307 0.459510 0.419837
0.837308 0.486885 0.448920
0.860014 0.516045 0.478218
0.879240 0.545892 0.506950
0.894774 0.576928 0.536217
0.906798 0.609766 0.567041
0.915557 0.643732 0.598932
0.921752 0.676753 0.630549
0.925719 0.708003 0.661067
0.196231 0.261509 0.223209
0.197726 0.261662 0.223423
0.199832 0.261814 0.223728
0.204318 0.262425 0.224216
0.211490 0.263157 0.225193
0.220706 0.264378 0.226658
0.232120 0.265873 0.228305
0.245457 0.268193 0.230228
0.261112 0.271458 0.231754
0.279423 0.275334 0.233799
0.299870 0.279637 0.235843
0.324041 0.285588 0.239200
0.362219 0.300816 0.244968
0.408820 0.318791 0.250065
0.459693 0.336584 0.255619
0.511925 0.353155 0.261692
0.562951 0.367468 0.268498
0.606622 0.378943 0.280613
0.644068 0.389990 0.298650
0.681788 0.402808 0.318059
0.719142 0.417762 0.339605
0.753750 0.434607 0.363378
0.785092 0.454078 0.389715
0.813260 0.476295 0.417823
0.838743 0.501213 0.446876
0.860929 0.527947 0.475898
0.879759 0.555474 0.504448
0.895018 0.584375 0.533562
0.906950 0.615137 0.564050
0.915679 0.647608 0.596094
0.921874 0.679561 0.627893
0.925872 0.709926 0.658686
0.209110 0.292210 0.237064
0.210910 0.292302 0.237095
0.213046 0.292546 0.237461
0.217777 0.292943 0.238071
0.225040 0.293858 0.239017
0.234531 0.295109 0.240513
0.246311 0.296788 0.242130
0.260044 0.298711 0.244327
0.275944 0.301854 0.246433
0.294133 0.305913 0.248325
0.314824 0.310460 0.250645
0.340398 0.318273 0.254429
0.387518 0.343145 0.266423
0.434577 0.363745 0.274601
0.487892 0.385321 0.280003
0.540673 0.403723 0.286137
0.589899 0.418219 0.293339
0.635431 0.429664 0.301335
0.678645 0.439582 0.310674
0.714626 0.449897 0.329229
0.747066 0.461616 0.351812
0.776638 0.475380 0.376471
0.803586 0.491585 0.402777
0.828519 0.510826 0.430365
0.850980 0.532525 0.458503
0.870542 0.555840 0.486549
0.886839 0.580133 0.514275
0.899992 0.605921 0.542596
0.910185 0.633753 0.572412
0.917723 0.663081 0.603357
0.923064 0.691890 0.633814
0.926543 0.719753 0.663539
0.226963 0.332128 0.255344
0.228550 0.332250 0.255467
0.230838 0.332219 0.255650
0.235538 0.332311 0.256077
0.242863 0.332555 0.256748
0.252354 0.332982 0.257694
0.264317 0.334203 0.259281
0.278477 0.336004 0.261326
0.294896 0.338720 0.264134
0.316167 0.346288 0.267613
0.340826 0.355108 0.271733
0.369024 0.364935 0.276371
0.400275 0.375799 0.281163
0.433845 0.386450 0.286107
0.482307 0.408087 0.295628
0.534966 0.429358 0.301366
0.583642 0.445472 0.307683
0.628687 0.457740 0.315160
0.671565 0.468452 0.323827
0.712947 0.478553 0.333989
0.750118 0.487922 0.347814
0.778561 0.498878 0.372259
0.804623 0.512322 0.398413
0.829038 0.528588 0.425788
0.851102 0.547417 0.453742
0.870359 0.568048 0.481697
0.886564 0.590082 0.509636
0.899748 0.613794 0.538201
0.910063 0.639643 0.568048
0.917754 0.667536 0.599420
0.923186 0.695277 0.630365
0.926726 0.722377 0.660700
0.243626 0.368994 0.272007
0.245304 0.369268 0.272313
0.247471 0.369085 0.272343
0.252323 0.369177 0.272679
0.259709 0.369360 0.273411
0.269963 0.370794 0.274815
0.283146 0.373724 0.277073
0.298650 0.377264 0.279728
0.316930 0.381811 0.283238
0.337774 0.387884 0.287144
0.361913 0.396155 0.290684
0.389227 0.405646 0.294896
0.419318 0.415656 0.299321
0.451240 0.425483 0.303593
0.484474 0.434699 0.307805
0.528801 0.452369 0.317357
0.576654 0.470283 0.323186
0.621210 0.484016 0.329656
0.663935 0.495705 0.337621
0.705470 0.506676 0.347265
0.743709 0.516533 0.359258
0.778286 0.525353 0.373327
0.806760 0.535515 0.394354
0.830655 0.549126 0.421820
0.852293 0.565332 0.450050
0.871183 0.583398 0.478340
0.887144 0.602991 0.506310
0.900175 0.624414 0.534966
0.910399 0.648280 0.565087
0.918029 0.674342 0.596796
0.923461 0.700710 0.628168
0.927001 0.726619 0.658778
0.265141 0.416266 0.292760
0.266941 0.416754 0.293034
0.269322 0.416724 0.293126
0.274449 0.417151 0.293614
0.282139 0.417670 0.294499
0.292515 0.418738 0.295628
0.305486 0.420569 0.297368
0.320958 0.423285 0.299748
0.339117 0.427131 0.302708
0.359869 0.432105 0.306493
0.383307 0.439155 0.310155
0.409827 0.447913 0.314122
0.438666 0.457008 0.318334
0.469154 0.465858 0.322301
0.500542 0.474037 0.326329
0.531975 0.480781 0.329747
0.570581 0.493660 0.340063
0.614557 0.508995 0.345739
0.656855 0.522026 0.353124
0.698329 0.534051 0.362188
0.736629 0.544488 0.373510
0.771298 0.553643 0.386999
0.802579 0.562371 0.402289
0.831540 0.571771 0.419409
0.853605 0.584863 0.446265
0.872343 0.600580 0.474891
0.888212 0.618189 0.503777
0.901244 0.637934 0.533349
0.911437 0.660334 0.564569
0.918914 0.685054 0.597223
0.924163 0.710170 0.629450
0.927489 0.734981 0.660792
0.288731 0.466682 0.314702
0.290776 0.467170 0.315068
0.293126 0.467384 0.315282
0.298405 0.467750 0.315862
0.306432 0.468360 0.316625
0.317174 0.469306 0.317723
0.330266 0.471107 0.319402
0.346136 0.473671 0.321691
0.364324 0.477028 0.324712
0.384741 0.481147 0.328130
0.407294 0.485725 0.332158
0.431861 0.492195 0.335241
0.458076 0.498787 0.338628
0.485664 0.505089 0.342016
0.514122 0.510979 0.345281
0.543267 0.516411 0.348455
0.572961 0.521569 0.351781
0.607996 0.531640 0.362097
0.650202 0.546563 0.369696
0.692226 0.560632 0.378851
0.731136 0.572564 0.389960
0.766140 0.582666 0.403632
0.797879 0.591882 0.418738
0.827115 0.601312 0.435218
0.853330 0.611109 0.453437
0.875212 0.621790 0.474311
0.890471 0.636896 0.503532
0.902953 0.654231 0.533532
0.912657 0.674220 0.565087
0.919738 0.696376 0.597620
0.924681 0.719112 0.629541
0.927825 0.741878 0.660609
0.313329 0.513024 0.336339
0.315007 0.513085 0.336400
0.317327 0.513054 0.336522
0.322240 0.513207 0.336980
0.330114 0.513603 0.337774
0.340307 0.514214 0.338750
0.353246 0.515496 0.340429
0.368414 0.517357 0.342443
0.385962 0.519799 0.345129
0.405615 0.522850 0.348333
0.427314 0.526757 0.352270
0.450568 0.531273 0.356237
0.475380 0.536980 0.359533
0.501244 0.542351 0.362921
0.528038 0.547295 0.366003
0.554925 0.551751 0.368994
0.582757 0.555962 0.372015
0.611139 0.560235 0.375250
0.644617 0.569421 0.385687
0.684932 0.584131 0.395666
0.723934 0.597253 0.406226
0.759121 0.608118 0.419013
0.791135 0.617700 0.433448
0.820768 0.627314 0.449470
0.847501 0.636927 0.466865
0.870665 0.646509 0.485420
0.889982 0.656397 0.505303
0.903899 0.669612 0.531609
0.913420 0.687251 0.563561
0.920317 0.707301 0.596674
0.925170 0.728206 0.629084
0.928191 0.749355 0.660548
0.340551 0.556603 0.359411
0.342748 0.557214 0.359930
0.359747 0.577234 0.372015
0.364508 0.577173 0.372412
0.371740 0.577081 0.373053
0.381231 0.576989 0.373816
0.393164 0.577111 0.374853
0.407446 0.577630 0.376318
0.423957 0.578790 0.378637
0.442573 0.580713 0.381659
0.462898 0.583001 0.384955
0.484718 0.585626 0.389014
0.507164 0.588922 0.392157
0.530877 0.592676 0.394842
0.555291 0.596155 0.397589
0.580316 0.599420 0.400061
0.605921 0.602533 0.402625
0.632136 0.605646 0.405310
0.658991 0.608911 0.408026
0.689906 0.616388 0.418128
0.725032 0.628107 0.430335
0.759152 0.638911 0.442023
0.790402 0.648432 0.455421
0.819272 0.657496 0.469947
0.845029 0.665736 0.485481
0.867399 0.673793 0.502220
0.886168 0.681880 0.520439
0.901549 0.690974 0.540581
0.913848 0.701839 0.563165
0.920897 0.718776 0.595361
0.925566 0.737545 0.628077
0.928496 0.756741 0.659632
0.375372 0.602411 0.387182
0.378973 0.605066 0.389136
0.383337 0.607813 0.391058
0.389746 0.610163 0.393072
0.397955 0.611872 0.394842
0.407630 0.612848 0.396246
0.418860 0.613245 0.397559
0.432074 0.613703 0.399084
0.447578 0.614832 0.401434
0.464637 0.616266 0.403998
0.483650 0.618219 0.407263
0.503899 0.620478 0.410895
0.525231 0.622614 0.414832
0.546960 0.625727 0.417395
0.569482 0.628748 0.419745
0.592584 0.631434 0.422095
0.616266 0.633997 0.424384
0.640589 0.636622 0.427008
0.665736 0.639521 0.429969
0.691554 0.642908 0.433295
0.720211 0.649378 0.443519
0.752255 0.660060 0.458289
0.783932 0.670619 0.470924
0.813291 0.680293 0.484810
0.839567 0.688930 0.499886
0.862486 0.696986 0.516289
0.881621 0.704707 0.534264
0.897246 0.713252 0.554498
0.909758 0.723140 0.576959
0.919402 0.734463 0.601007
0.925933 0.747768 0.627405
0.928771 0.765042 0.659266
0.406897 0.639368 0.411658
0.410559 0.641779 0.413458
0.414801 0.644190 0.415412
0.420783 0.646357 0.417456
0.428412 0.647944 0.419257
0.437232 0.648737 0.420600
0.447517 0.649134 0.421912
0.459571 0.649500 0.423468
0.473579 0.650294 0.425330
0.489418 0.651514 0.427832
0.507073 0.653193 0.431128
0.525933 0.654963 0.434516
0.545403 0.656519 0.438056
0.565667 0.658412 0.441505
0.586175 0.660792 0.443763
0.607355 0.662928 0.446113
0.628992 0.665003 0.448280
0.651240 0.667201 0.450782
0.674372 0.669520 0.453559
0.698238 0.672419 0.456977
0.722683 0.675654 0.460822
0.749233 0.681392 0.470802
0.778378 0.691218 0.487343
0.807919 0.701656 0.500542
0.834501 0.710719 0.515038
0.857633 0.718715 0.530877
0.876982 0.726162 0.548516
0.892851 0.733913 0.568292
0.905608 0.742763 0.590173
0.915557 0.752529 0.613245
0.922942 0.763272 0.636927
0.928099 0.774868 0.661067
0.441230 0.674434 0.437263
0.444678 0.676509 0.439277
0.448676 0.678614 0.441047
0.454383 0.680476 0.443091
0.461189 0.681758 0.444709
0.469276 0.682368 0.446082
0.478370 0.682582 0.447333
0.489082 0.682826 0.448707
0.501610 0.683314 0.450477
0.515831 0.684047 0.452705
0.531609 0.685054 0.455512
0.548669 0.686366 0.458778
0.566400 0.687495 0.461982
0.584985 0.688685 0.465522
0.603937 0.690486 0.468574
0.623499 0.692622 0.471046
0.643885 0.695033 0.473823
0.665217 0.697719 0.477028
0.687282 0.700771 0.480903
0.710140 0.704219 0.485237
0.733455 0.708064 0.490028
0.757259 0.712184 0.495399
0.782040 0.717861 0.505241
0.808652 0.727413 0.523766
0.835111 0.737209 0.538567
0.857633 0.745357 0.554925
0.876280 0.752560 0.572992
0.891478 0.759579 0.592401
0.903716 0.767086 0.613184
0.913207 0.775174 0.634760
0.920256 0.784085 0.657038
0.925170 0.793973 0.680018
0.486946 0.713588 0.470985
0.489113 0.714443 0.472023
0.491493 0.715114 0.472847
0.495277 0.715663 0.473823
0.500450 0.715969 0.474678
0.506859 0.716060 0.475471
0.514763 0.716152 0.476661
0.524315 0.716365 0.477913
0.535729 0.716945 0.479927
0.548577 0.717708 0.482277
0.563012 0.718868 0.485115
0.578424 0.719966 0.488289
0.594476 0.720943 0.491463
0.611048 0.721920 0.494667
0.628199 0.722744 0.498116
0.645563 0.724361 0.500420
0.663691 0.726162 0.502953
0.682643 0.728267 0.505913
0.702266 0.730678 0.509178
0.722560 0.733303 0.512871
0.743282 0.736202 0.517052
0.764340 0.739345 0.521569
0.785641 0.742580 0.526390
0.807492 0.746822 0.534630
0.830411 0.754788 0.554620
0.853086 0.763272 0.570581
0.871946 0.770443 0.588067
0.887449 0.776974 0.606775
0.899962 0.783597 0.626520
0.909667 0.790616 0.647272
0.916930 0.798276 0.668727
0.922026 0.807034 0.691279
0.523522 0.741756 0.497902
0.525536 0.742519 0.498878
0.527764 0.743252 0.499825
0.531121 0.743709 0.500633
0.535607 0.744015 0.501457
0.541070 0.744015 0.502220
0.547875 0.743893 0.503075
0.555871 0.743923 0.504143
0.565637 0.744167 0.505730
0.576928 0.744778 0.507866
0.589563 0.745571 0.510369
0.603143 0.746456 0.513268
0.617548 0.747311 0.516258
0.632654 0.748165 0.519432
0.648310 0.749050 0.522911
0.664393 0.750210 0.526055
0.680903 0.752071 0.528893
0.698146 0.754147 0.531945
0.716091 0.756435 0.535393
0.734737 0.759060 0.539483
0.753750 0.761837 0.543847
0.773098 0.764858 0.548760
0.792569 0.768002 0.554131
0.811948 0.771145 0.559716
0.828153 0.771084 0.562554
0.847837 0.777890 0.583948
0.867033 0.785122 0.600977
0.882963 0.791501 0.618799
0.895842 0.797513 0.637720
0.905943 0.803708 0.657710
0.913512 0.810575 0.678950
0.918914 0.818509 0.701442
0.567987 0.773068 0.531090
0.569940 0.773861 0.532219
0.571832 0.774319 0.532891
0.574395 0.774502 0.533532
0.577661 0.774380 0.533837
0.581842 0.774105 0.534234
0.587060 0.773648 0.534569
0.593378 0.773220 0.535088
0.600977 0.772854 0.535912
0.609949 0.772763 0.537194
0.620081 0.772732 0.538872
0.631373 0.772976 0.540978
0.643610 0.773312 0.543359
0.656428 0.773526 0.545922
0.669612 0.773617 0.548394
0.683314 0.773770 0.551202
0.697475 0.774502 0.553552
0.712428 0.775875 0.556146
0.728420 0.777768 0.559442
0.745235 0.780056 0.563622
0.762570 0.782712 0.568475
0.780117 0.785428 0.573571
0.797452 0.788052 0.578759
0.814542 0.790372 0.583734
0.831235 0.792538 0.588556
0.847745 0.794675 0.594324
0.864073 0.799954 0.615412
0.879423 0.805661 0.633021
0.892363 0.811063 0.650721
0.902556 0.816495 0.669856
0.910338 0.822538 0.690608
0.915984 0.829465 0.712428
0.603418 0.795773 0.558404
0.605280 0.796445 0.559472
0.607019 0.796872 0.560296
0.609277 0.797024 0.560845
0.612055 0.796902 0.561151
0.615778 0.796719 0.561578
0.620417 0.796445 0.562127
0.626032 0.796170 0.562860
0.632807 0.796017 0.563867
0.640986 0.796109 0.565484
0.650111 0.796231 0.567437
0.660334 0.796536 0.569757
0.671321 0.796963 0.572442
0.682795 0.797269 0.575128
0.694667 0.797513 0.577996
0.706935 0.797787 0.580865
0.719753 0.798123 0.584131
0.732937 0.799252 0.586877
0.746822 0.800778 0.590204
0.761440 0.802640 0.594263
0.776425 0.804685 0.598688
0.791592 0.806790 0.603479
0.806668 0.808835 0.608331
0.821530 0.810727 0.613184
0.836149 0.812497 0.618036
0.850462 0.814115 0.622644
0.864530 0.815732 0.627466
0.877836 0.819821 0.648096
0.889921 0.824613 0.666896
0.899992 0.829465 0.685512
0.907713 0.834836 0.705745
0.913390 0.840726 0.726406
0.641840 0.817105 0.589166
0.643305 0.817472 0.590021
0.644373 0.817655 0.590417
0.645899 0.817594 0.590661
0.647944 0.817319 0.590692
0.650721 0.817014 0.590845
0.654292 0.816617 0.591119
0.658869 0.816312 0.591669
0.664668 0.816129 0.592645
0.671473 0.816129 0.594049
0.679347 0.816220 0.595911
0.688258 0.816556 0.598230
0.697841 0.816892 0.600885
0.707881 0.817166 0.603632
0.718105 0.817319 0.606195
0.728695 0.817472 0.608942
0.739742 0.817624 0.611933
0.751278 0.818112 0.615167
0.763149 0.819242 0.618128
0.775662 0.820615 0.621759
0.788602 0.822202 0.625971
0.801694 0.823819 0.630457
0.814755 0.825406 0.635065
0.827665 0.826963 0.639673
0.840330 0.828367 0.644221
0.852781 0.829648 0.648676
0.865019 0.830961 0.653376
0.876982 0.832242 0.658228
0.887755 0.835447 0.677943
0.897093 0.839719 0.698238
0.904936 0.844388 0.717494
0.910826 0.849393 0.736965
0.675837 0.833951 0.617609
0.676753 0.834134 0.618128
0.677638 0.834257 0.618463
0.679042 0.834257 0.618799
0.681117 0.834195 0.619226
0.684077 0.834195 0.619928
0.688258 0.834409 0.621302
0.693416 0.834745 0.623041
0.699702 0.835264 0.625360
0.706905 0.835904 0.628107
0.714870 0.836606 0.631281
0.723415 0.837339 0.634668
0.732265 0.837980 0.638087
0.741268 0.838499 0.641382
0.750271 0.838865 0.644495
0.759213 0.838987 0.647333
0.768368 0.839139 0.650172
0.777981 0.839322 0.653437
0.787778 0.839902 0.656764
0.797910 0.840818 0.660029
0.808377 0.841855 0.663905
0.818967 0.842924 0.667994
0.829526 0.843961 0.672206
0.839994 0.844968 0.676478
0.850248 0.845914 0.680873
0.860288 0.846830 0.685176
0.870176 0.847745 0.689631
0.879789 0.848692 0.694331
0.889220 0.849729 0.699458
0.897093 0.852201 0.717800
0.903563 0.855741 0.737484
0.909209 0.859678 0.754452
0.716915 0.851316 0.653956
0.717494 0.851408 0.654292
0.718013 0.851377 0.654444
0.718868 0.851286 0.654505
0.720211 0.851133 0.654566
0.722225 0.850980 0.654902
0.724971 0.850858 0.655482
0.728573 0.850828 0.656489
0.732906 0.850889 0.657801
0.738125 0.850980 0.659632
0.743862 0.851102 0.661646
0.750240 0.851316 0.663935
0.757046 0.851469 0.666468
0.764096 0.851621 0.668940
