cubelut/Moody2.cube
# Created by Adobe Lightroom plugin Export LUT (1.18.0)
# www.johnrellis.com/lightroom/exportlut.htm
# Preset: CatchaFirecolor
# Color profile: /Library/Application Support/Adobe/Color/Profiles/Recommended/AdobeRGB1998.icc
LUT_3D_SIZE 5
DOMAIN_MIN 0.000000 0.000000 0.000000
DOMAIN_MAX 0.903226 0.903226 0.903226
0.142824 0.133608 0.164614
0.199863 0.147494 0.182467
0.414374 0.190860 0.239780
0.733669 0.322118 0.371313
0.902708 0.575525 0.566735
0.167758 0.191531 0.192233
0.213687 0.198947 0.197879
0.441871 0.258183 0.237827
0.744045 0.376715 0.368505
0.906981 0.602808 0.573083
0.265141 0.416266 0.292760
0.320958 0.423285 0.299748
0.500542 0.474037 0.326329
0.771298 0.553643 0.386999
0.911437 0.660334 0.564569
0.486946 0.713588 0.470985
0.524315 0.716365 0.477913
0.628199 0.722744 0.498116
0.764340 0.739345 0.521569
0.899962 0.783597 0.626520
0.746395 0.861997 0.681575
0.756588 0.861692 0.684565
0.784512 0.859281 0.689418
0.837766 0.862150 0.715633
0.888396 0.867185 0.745388
0.153353 0.145113 0.220768
0.206821 0.150973 0.233585
0.419806 0.220279 0.318608
0.713954 0.375830 0.447059
0.890013 0.605859 0.603479
0.173495 0.199680 0.239719
0.237339 0.222049 0.265293
0.448829 0.283574 0.332036
0.727443 0.412421 0.444221
0.893400 0.621912 0.603540
0.274571 0.421180 0.344640
0.345006 0.446754 0.364843
0.502403 0.475471 0.382422
0.764767 0.554192 0.439948
0.903349 0.680171 0.605005
0.509239 0.715236 0.508049
0.553979 0.721218 0.522057
0.645441 0.727077 0.538079
0.768612 0.742519 0.557977
0.898283 0.787991 0.649836
0.757809 0.861357 0.699062
0.766903 0.861112 0.701595
0.799405 0.861631 0.714107
0.844083 0.863432 0.733883
0.889464 0.868345 0.758602
0.194430 0.179782 0.420630
0.270878 0.185000 0.432532
0.454536 0.201083 0.457313
0.733181 0.381353 0.545892
0.883452 0.655604 0.675746
0.226932 0.270634 0.450050
0.299962 0.275578 0.460853
0.490120 0.291905 0.483650
0.737850 0.462013 0.561517
0.882231 0.688655 0.690181
0.293523 0.453223 0.474891
0.368048 0.473945 0.491341
0.568475 0.535515 0.538506
0.762020 0.621576 0.604700
0.887999 0.736538 0.702235
0.519921 0.708797 0.575616
0.566583 0.714504 0.587518
0.689662 0.740475 0.631739
0.786099 0.757961 0.648859
0.896269 0.799130 0.707546
0.756344 0.858274 0.720516
0.774594 0.859159 0.730282
0.815854 0.861631 0.752132
0.851377 0.863371 0.765164
0.889647 0.868681 0.781460
0.328161 0.274907 0.658473
0.391547 0.282872 0.662531
0.556512 0.311437 0.677119
0.745266 0.384466 0.685756
0.890410 0.638270 0.735103
0.372229 0.372320 0.669154
0.427222 0.378912 0.672450
0.575219 0.402106 0.682124
0.749538 0.455604 0.689021
0.888365 0.664637 0.739010
0.455177 0.551812 0.677546
0.511131 0.566552 0.683589
0.639399 0.600336 0.698085
0.769406 0.622278 0.706172
0.885161 0.748440 0.760311
0.558892 0.722835 0.691524
0.597101 0.727291 0.695460
0.697627 0.747066 0.713375
0.809232 0.781033 0.745205
0.887419 0.825101 0.789273
0.762417 0.856413 0.764401
0.777371 0.857145 0.769131
0.818601 0.860716 0.784421
0.862852 0.867124 0.804990
0.892088 0.871763 0.813993
0.573754 0.527520 0.829252
0.600641 0.535882 0.829252
0.680171 0.562219 0.829526
0.784573 0.601923 0.830350
0.884672 0.664149 0.828855
0.612421 0.586755 0.828031
0.634150 0.592370 0.828092
0.701076 0.611353 0.828550
0.792203 0.639338 0.829648
0.884520 0.689052 0.828946
0.684077 0.698939 0.826230
0.704768 0.706966 0.826688
0.748775 0.715785 0.827634
0.812772 0.727687 0.829435
0.885344 0.756710 0.830564
0.734188 0.788815 0.825498
0.748928 0.792386 0.825986
0.791653 0.803708 0.828336
0.843565 0.818875 0.832700
0.889403 0.830869 0.836454
0.795102 0.861418 0.828824
0.804013 0.862058 0.829526
0.831540 0.864897 0.832517
0.867033 0.870268 0.838315
0.898314 0.879332 0.848386
