cubelut/Moody9.cube
# Created by Adobe Lightroom plugin Export LUT (1.18.0)
# www.johnrellis.com/lightroom/exportlut.htm
# Preset: Lovely Landscapes 07 - Free
# Color profile: /Library/Application Support/Adobe/Color/Profiles/Recommended/AdobeRGB1998.icc
LUT_3D_SIZE 32
DOMAIN_MIN 0.0 0.0 0.0
DOMAIN_MAX 1.0 1.0 1.0
0.140627 0.163729 0.198489
0.144472 0.163760 0.198550
0.149874 0.163851 0.198550
0.161685 0.164065 0.198611
0.179904 0.164248 0.198642
0.199008 0.164553 0.198795
0.218112 0.164706 0.198978
0.237888 0.165225 0.199313
0.258518 0.165866 0.199619
0.279911 0.166445 0.200076
0.302983 0.167239 0.200534
0.327550 0.168063 0.201297
0.353918 0.168765 0.201633
0.382025 0.169589 0.202365
0.411963 0.170382 0.202853
0.443702 0.171267 0.203372
0.477302 0.172000 0.203891
0.512840 0.172580 0.204349
0.549828 0.173159 0.204593
0.591028 0.173251 0.204501
0.633387 0.172976 0.204013
0.676326 0.172305 0.203128
0.717372 0.171267 0.202121
0.755825 0.170169 0.201114
0.791958 0.168917 0.200107
0.825895 0.167422 0.199069
0.857908 0.166171 0.198154
0.888151 0.164920 0.197299
0.916777 0.163821 0.196719
0.943847 0.162783 0.196323
0.969390 0.161929 0.196048
0.993256 0.161410 0.196109
0.140505 0.167330 0.198581
0.144381 0.167361 0.198611
0.149752 0.167605 0.198611
0.161593 0.167788 0.198581
0.179751 0.168429 0.198672
0.198642 0.168490 0.198734
0.217929 0.168612 0.198947
0.237613 0.168856 0.199283
0.258091 0.169253 0.199619
0.279637 0.169772 0.200076
0.302495 0.170504 0.200656
0.326970 0.171206 0.201297
0.353216 0.172091 0.201846
0.381353 0.172763 0.202396
0.411109 0.173800 0.202976
0.442817 0.174563 0.203616
0.476326 0.175540 0.203922
0.511711 0.176089 0.204410
0.548638 0.176761 0.204654
0.589593 0.176974 0.204593
0.631586 0.176913 0.204013
0.674342 0.176394 0.203159
0.715389 0.175387 0.202060
0.753933 0.174197 0.201083
0.790158 0.173251 0.199954
0.824308 0.171969 0.198886
0.856504 0.170474 0.197971
0.886870 0.169467 0.197208
0.915648 0.168246 0.196628
0.942901 0.167117 0.196109
0.968566 0.165988 0.195804
0.992523 0.165438 0.195773
0.140322 0.172366 0.198672
0.144381 0.172519 0.198581
0.149752 0.172610 0.198703
0.161532 0.173098 0.198764
0.179568 0.173709 0.198764
0.198489 0.173648 0.198947
0.217563 0.173526 0.199039
0.237125 0.173556 0.199405
0.257755 0.173770 0.199771
0.279240 0.174289 0.200290
0.302129 0.174838 0.200809
0.326635 0.175540 0.201450
0.352880 0.176150 0.201907
0.380896 0.177279 0.202518
0.410651 0.178164 0.203128
0.442359 0.178927 0.203647
0.475776 0.180056 0.204166
0.511101 0.180789 0.204440
0.548089 0.181552 0.204776
0.588861 0.182162 0.204593
0.630732 0.182010 0.204044
0.673365 0.181521 0.203128
0.714412 0.180972 0.201999
0.753017 0.179873 0.200900
0.789273 0.178836 0.199893
0.823484 0.177584 0.198825
0.855741 0.176242 0.197910
0.886229 0.175204 0.197116
0.915099 0.173800 0.196445
0.942382 0.172824 0.195895
0.968078 0.171695 0.195621
0.992126 0.170932 0.195560
0.139773 0.183658 0.198734
0.144045 0.183780 0.198764
0.149813 0.183932 0.198734
0.161746 0.184360 0.198795
0.179324 0.184878 0.198795
0.198062 0.184482 0.198917
0.217105 0.183871 0.199283
0.236851 0.183322 0.199557
0.257328 0.183322 0.200046
0.278813 0.183322 0.200534
0.301671 0.183871 0.201144
0.326177 0.184421 0.201694
0.352361 0.185275 0.202213
0.380377 0.186221 0.202853
0.410101 0.187106 0.203464
0.441718 0.188235 0.203952
0.475105 0.189456 0.204471
0.510338 0.190616 0.204807
0.547662 0.191531 0.204990
0.587884 0.192233 0.204654
0.629267 0.192599 0.204135
0.671656 0.192538 0.203098
0.712734 0.192203 0.201999
0.751583 0.191531 0.200839
0.788296 0.190494 0.199680
0.822812 0.189425 0.198672
0.855375 0.188174 0.197604
0.886015 0.187045 0.196933
0.914946 0.185855 0.196231
0.942199 0.184604 0.195621
0.967834 0.183291 0.195254
0.991791 0.182437 0.195224
0.138918 0.200626 0.198795
0.143435 0.200565 0.198825
0.149447 0.200595 0.198825
0.161471 0.200595 0.198917
0.178561 0.200687 0.198978
0.197299 0.199893 0.199222
0.216403 0.198520 0.199557
0.236088 0.197482 0.199985
0.256596 0.196902 0.200412
0.278050 0.196780 0.201114
0.300938 0.196841 0.201541
0.325414 0.197513 0.202090
0.351629 0.198184 0.202731
0.379675 0.199191 0.203342
0.409400 0.200473 0.203922
0.441047 0.201877 0.204379
0.474586 0.203189 0.204990
0.509911 0.204685 0.205203
0.547814 0.205905 0.205203
0.587762 0.207126 0.204837
0.628779 0.207828 0.204227
0.670954 0.208469 0.203159
0.711940 0.208530 0.201907
0.750759 0.208194 0.200748
0.787472 0.207492 0.199466
0.822141 0.206455 0.198337
0.854734 0.205417 0.197391
0.885435 0.204044 0.196506
0.914366 0.202762 0.195804
0.941650 0.201511 0.195224
0.967315 0.200076 0.194888
0.991302 0.198825 0.194797
0.138399 0.218143 0.199222
0.142733 0.218235 0.199222
0.148440 0.218173 0.199130
0.159915 0.218051 0.199252
0.176425 0.217929 0.199435
0.195712 0.217868 0.199619
0.215702 0.216526 0.199924
0.235325 0.214878 0.200443
0.255863 0.213718 0.201114
0.277562 0.213046 0.201663
0.300389 0.213138 0.202182
0.324987 0.213596 0.202853
0.351232 0.214328 0.203403
0.379309 0.215457 0.203983
0.409094 0.216922 0.204532
0.440803 0.218509 0.205173
0.474311 0.220340 0.205600
0.509728 0.222049 0.205661
0.548302 0.223941 0.205447
0.588067 0.225559 0.205051
0.629084 0.226932 0.204257
0.671351 0.227878 0.203037
0.724331 0.230137 0.201633
0.762264 0.230137 0.200565
0.797910 0.229557 0.199344
0.831357 0.228580 0.198306
0.862730 0.227543 0.197360
0.892271 0.226169 0.196658
0.920165 0.224796 0.195987
0.946593 0.223209 0.195560
0.971405 0.221714 0.195377
0.994568 0.220279 0.195438
0.137972 0.237125 0.199832
0.141909 0.237156 0.199863
0.147646 0.237095 0.199893
0.158816 0.236942 0.200107
0.174563 0.236820 0.200229
0.193545 0.236545 0.200534
0.214481 0.236362 0.200748
0.235569 0.235142 0.201053
0.256382 0.233463 0.201694
0.278294 0.232517 0.202457
0.301396 0.232425 0.203098
0.326268 0.232761 0.203738
0.352636 0.233738 0.204349
0.380865 0.234958 0.204898
0.410773 0.236576 0.205478
0.442390 0.238437 0.205997
0.475990 0.240391 0.206149
0.512596 0.242771 0.206149
0.551507 0.245121 0.205814
0.591791 0.247379 0.205173
0.633692 0.249546 0.204166
0.677058 0.251225 0.202884
0.718898 0.252445 0.201389
0.758358 0.252934 0.200107
0.795254 0.252750 0.198795
0.829435 0.252079 0.197665
0.861234 0.251102 0.196689
0.890990 0.249668 0.195956
0.919066 0.248112 0.195315
0.945495 0.246342 0.194827
0.970367 0.244633 0.194553
0.993622 0.242863 0.194553
0.137667 0.256046 0.200931
0.141604 0.256077 0.200961
0.146792 0.255985 0.200992
0.157565 0.255894 0.201114
0.172793 0.255741 0.201328
0.191043 0.255619 0.201450
0.211398 0.255314 0.201907
0.233310 0.255253 0.202213
0.255436 0.254337 0.202731
0.277501 0.253117 0.203311
0.300755 0.252842 0.204074
0.325536 0.253147 0.204807
0.352056 0.254093 0.205509
0.380255 0.255558 0.206027
0.410193 0.257481 0.206577
0.441871 0.259495 0.206821
0.475959 0.262028 0.206882
0.512932 0.264958 0.206668
0.551354 0.267826 0.206149
0.591272 0.270481 0.205386
0.632868 0.273167 0.204135
0.675929 0.275486 0.202701
0.717525 0.277226 0.201053
0.756863 0.277897 0.199649
0.793698 0.278080 0.198215
0.827939 0.277592 0.197086
0.859831 0.276555 0.195987
0.889708 0.274968 0.195163
0.917876 0.273320 0.194461
0.944427 0.271458 0.193851
0.969390 0.269474 0.193729
0.992706 0.267399 0.193698
0.137514 0.276158 0.202304
0.141299 0.276097 0.202365
0.146273 0.276127 0.202487
0.156741 0.275975 0.202518
0.171481 0.275914 0.202640
0.189273 0.275792 0.202884
0.209232 0.275669 0.203220
0.230838 0.275578 0.203525
0.253666 0.275456 0.204044
0.276829 0.275151 0.204593
0.300298 0.274723 0.205173
0.325170 0.275090 0.205905
0.351751 0.276249 0.206760
0.380011 0.277867 0.207340
0.409918 0.279911 0.207645
0.442023 0.282567 0.207767
0.476875 0.285557 0.207584
0.513603 0.288945 0.207065
0.551659 0.292088 0.206455
0.591333 0.295232 0.205386
0.632685 0.298436 0.204044
0.675502 0.301366 0.202243
0.716854 0.303471 0.200534
0.756008 0.304753 0.198856
0.792752 0.305058 0.197421
0.826963 0.304448 0.196201
0.858854 0.303441 0.195010
0.888731 0.302007 0.194095
0.916930 0.300053 0.193423
0.943511 0.298100 0.192752
0.968505 0.295689 0.192508
0.991852 0.293400 0.192508
0.137728 0.297398 0.203738
0.141268 0.297368 0.203891
0.146242 0.297398 0.203891
0.156374 0.297307 0.203952
0.170809 0.297276 0.204166
0.188266 0.297185 0.204410
0.207919 0.297185 0.204746
0.229374 0.297063 0.205081
0.251926 0.297185 0.205570
0.275364 0.297307 0.206180
0.299504 0.297368 0.206851
0.324773 0.297887 0.207218
0.351446 0.299138 0.207858
0.379767 0.300969 0.208286
0.410437 0.303685 0.208530
0.443275 0.307042 0.208591
0.478187 0.310582 0.208072
0.514794 0.314305 0.207492
0.552697 0.318029 0.206546
0.592126 0.321508 0.205295
0.633204 0.325139 0.203677
0.675380 0.328527 0.201816
0.716121 0.330938 0.199771
0.754757 0.332341 0.198032
0.791226 0.332738 0.196414
0.825406 0.332341 0.195041
0.857420 0.331304 0.193851
0.887510 0.329808 0.192844
0.915892 0.327825 0.192172
0.942657 0.325536 0.191562
0.967773 0.323186 0.191226
0.991272 0.320531 0.191287
0.137697 0.320073 0.205539
0.141299 0.320043 0.205600
0.146273 0.320073 0.205600
0.156161 0.320043 0.205722
0.170413 0.320104 0.205966
0.187778 0.320165 0.206088
0.207462 0.320226 0.206485
0.228672 0.320378 0.206912
0.251316 0.320470 0.207218
0.274968 0.320806 0.207736
0.299229 0.321141 0.208194
0.324437 0.321599 0.208560
0.351446 0.323217 0.208804
0.380682 0.325750 0.208957
0.411505 0.328801 0.209110
0.444160 0.332403 0.209110
0.478737 0.336217 0.208621
0.515190 0.340368 0.207736
0.552941 0.344396 0.206577
0.592218 0.348486 0.205020
0.633143 0.352605 0.203281
0.675105 0.356451 0.200992
0.715724 0.359319 0.198978
0.754238 0.361028 0.196933
0.790555 0.361578 0.195285
0.824643 0.361212 0.193851
0.856535 0.360113 0.192477
0.886595 0.358434 0.191379
0.914946 0.356390 0.190677
0.941680 0.353948 0.190005
0.966857 0.351232 0.189761
0.990356 0.348363 0.189792
0.137819 0.344671 0.207279
0.141176 0.344732 0.207309
0.146334 0.344732 0.207431
0.156039 0.344732 0.207584
0.170352 0.344854 0.207584
0.187625 0.344976 0.207889
0.207340 0.345220 0.207980
0.228794 0.345434 0.208255
0.251560 0.345800 0.208713
0.275395 0.346166 0.208927
0.300053 0.346654 0.209232
0.325933 0.347784 0.209567
0.356725 0.352636 0.209873
0.386847 0.355749 0.209751
0.418616 0.359380 0.209262
0.452064 0.363378 0.208927
0.487282 0.367712 0.208316
0.524193 0.372259 0.207309
0.561791 0.376501 0.206119
0.601007 0.380804 0.204379
0.641749 0.385077 0.202152
0.682856 0.388922 0.199924
0.722194 0.391485 0.197665
0.759640 0.392828 0.195743
0.795041 0.393164 0.193881
0.828305 0.392584 0.192447
0.859556 0.391119 0.191104
0.889006 0.389105 0.190097
0.916777 0.386694 0.189334
0.943084 0.383825 0.188846
0.967803 0.380774 0.188663
0.990997 0.377447 0.188663
0.136721 0.372839 0.208652
0.140536 0.372869 0.208560
0.145357 0.372900 0.208591
0.155550 0.372808 0.208713
0.170230 0.372778 0.208835
0.187747 0.372839 0.208865
0.207828 0.372961 0.209049
0.229557 0.373205 0.209232
0.252842 0.373632 0.209415
0.277470 0.374884 0.209659
0.303380 0.376440 0.209812
0.330236 0.377935 0.210117
0.357946 0.379706 0.210300
0.386328 0.381353 0.210361
0.418402 0.385595 0.209628
0.452125 0.390204 0.208713
0.487434 0.394965 0.207736
0.524041 0.399847 0.206607
0.561486 0.404364 0.205325
0.600458 0.409064 0.203555
0.640864 0.413947 0.201297
0.681758 0.418097 0.198642
0.720912 0.420935 0.196292
0.758206 0.422522 0.194095
0.793515 0.422889 0.192233
0.826749 0.422278 0.190463
0.858061 0.420874 0.189151
0.887510 0.418769 0.188174
0.915373 0.416083 0.187381
0.941772 0.413092 0.186862
0.966613 0.409827 0.186526
0.989899 0.406226 0.186740
0.134981 0.401373 0.209201
0.139071 0.401312 0.209262
0.143923 0.401404 0.209262
0.154574 0.401312 0.209384
0.169345 0.401312 0.209415
0.187442 0.401587 0.209476
0.208194 0.402106 0.209476
0.230503 0.402808 0.209628
0.254337 0.403754 0.209720
0.279454 0.404883 0.209751
0.305730 0.406256 0.209873
0.332952 0.407904 0.209903
0.360937 0.409552 0.209964
0.389563 0.411261 0.209842
0.418616 0.412757 0.209812
0.451942 0.417365 0.208652
0.487190 0.422522 0.207156
0.523827 0.427832 0.205539
0.561151 0.432776 0.204105
0.599939 0.437842 0.202090
0.640375 0.443091 0.199771
0.680964 0.447791 0.197147
0.719966 0.450843 0.194583
0.757229 0.452613 0.192203
0.792447 0.453162 0.190158
0.825650 0.452552 0.188388
0.856962 0.451057 0.186893
0.886442 0.448829 0.185733
0.914336 0.446052 0.185031
0.940764 0.442878 0.184482
0.965637 0.439307 0.184360
0.988983 0.435431 0.184604
0.131960 0.433326 0.209201
0.136080 0.433387 0.209232
0.141482 0.433356 0.209232
0.152499 0.433478 0.209140
0.168215 0.433539 0.209323
0.187198 0.433722 0.209262
0.208377 0.434150 0.209293
0.231357 0.434638 0.209354
0.255802 0.435523 0.209201
0.281590 0.436652 0.209171
0.308354 0.437964 0.209171
0.336004 0.439673 0.209018
0.364477 0.441444 0.208896
0.393652 0.443091 0.208713
0.423224 0.444678 0.208377
0.452857 0.445960 0.208133
0.487221 0.450782 0.206577
0.523766 0.456458 0.204410
0.561151 0.461769 0.202274
0.599878 0.467292 0.200168
0.640070 0.472877 0.197543
0.680476 0.477821 0.194766
0.719203 0.481178 0.192203
0.756252 0.483101 0.189853
0.791409 0.483650 0.187655
0.824674 0.483131 0.185855
0.856107 0.481666 0.184329
0.885771 0.479408 0.183200
0.913848 0.476570 0.182498
0.940429 0.473274 0.182010
0.965454 0.469490 0.182010
0.988830 0.465370 0.182376
0.127413 0.467536 0.208377
0.131868 0.467689 0.208255
0.137453 0.467750 0.208286
0.149508 0.467842 0.208255
0.166293 0.467903 0.208225
0.186130 0.468208 0.208225
0.208286 0.468666 0.208194
0.232303 0.469368 0.208072
0.257664 0.470161 0.208011
0.284123 0.471260 0.207828
0.311528 0.472511 0.207675
0.339757 0.473854 0.207431
0.368566 0.475319 0.207095
0.397986 0.476722 0.206699
0.427802 0.478096 0.206241
0.458015 0.479377 0.205814
0.488472 0.480568 0.205203
0.523491 0.485298 0.203281
0.561181 0.491218 0.200748
0.600214 0.497353 0.197818
0.640528 0.503502 0.194797
0.680873 0.508782 0.191897
0.719478 0.512352 0.189181
0.756405 0.514366 0.186740
0.791440 0.515007 0.184726
0.824643 0.514488 0.183017
0.855985 0.512902 0.181430
0.885588 0.510491 0.180362
0.913603 0.507408 0.179690
0.940032 0.503777 0.179385
0.964904 0.499763 0.179446
0.988159 0.495247 0.179904
0.121157 0.503136 0.206577
0.125978 0.503166 0.206485
0.132326 0.503166 0.206516
0.145083 0.503227 0.206485
0.163058 0.503380 0.206332
0.184176 0.503685 0.206302
0.207431 0.504112 0.206241
0.232456 0.504692 0.206027
0.258671 0.505486 0.205814
0.285954 0.506523 0.205570
0.314153 0.507774 0.205234
0.343023 0.509178 0.204807
0.372564 0.510674 0.204379
0.402533 0.512047 0.203891
0.432898 0.513237 0.203281
0.463325 0.514305 0.202731
0.494179 0.515343 0.201968
0.525414 0.516411 0.201205
0.560967 0.520958 0.198764
0.600000 0.527459 0.195468
0.640436 0.534081 0.191714
0.680446 0.539574 0.188174
0.718898 0.543267 0.185428
0.755673 0.545434 0.183078
0.790677 0.546136 0.180880
0.823758 0.545556 0.179324
0.855131 0.543908 0.178103
0.884794 0.541436 0.177096
0.912810 0.538201 0.176516
0.939269 0.534386 0.176211
0.964141 0.530053 0.176333
0.987457 0.525231 0.177005
0.112428 0.540520 0.203708
0.118318 0.540703 0.203586
0.124269 0.546868 0.203189
0.138979 0.546868 0.203189
0.158816 0.546929 0.203128
0.182010 0.546990 0.202914
0.207187 0.547143 0.202792
0.233677 0.547417 0.202457
0.261387 0.547936 0.202335
0.289860 0.548669 0.201907
0.319127 0.549645 0.201419
0.348913 0.550622 0.201083
0.379095 0.551568 0.200473
0.409796 0.552575 0.199863
0.440772 0.553521 0.199100
0.471931 0.554376 0.198245
0.503471 0.555169 0.197421
0.535119 0.555962 0.196384
0.567193 0.556847 0.195193
0.603388 0.561028 0.192386
0.643488 0.567651 0.188296
0.683070 0.572930 0.184298
0.721035 0.576410 0.180911
0.757259 0.578271 0.178500
0.791592 0.578546 0.176455
0.824125 0.577569 0.174960
0.854948 0.575494 0.173861
0.884215 0.572656 0.173068
0.912016 0.569146 0.172671
0.938476 0.565026 0.172580
0.963317 0.560418 0.172885
0.986542 0.555261 0.173800
0.100404 0.580468 0.199741
0.106752 0.581353 0.199619
0.115572 0.582177 0.199466
0.131319 0.583032 0.199405
0.153048 0.583703 0.199161
0.177768 0.584100 0.199069
0.204501 0.584405 0.198734
0.232334 0.584649 0.198489
0.261051 0.585229 0.198062
0.290318 0.585840 0.197726
0.320409 0.586755 0.197086
0.350958 0.587671 0.196475
0.381933 0.588617 0.195895
0.413184 0.589563 0.194980
0.444678 0.590448 0.194125
0.476417 0.591241 0.193179
0.508385 0.591974 0.192050
0.540612 0.592767 0.190860
0.573266 0.593713 0.189487
0.606348 0.594781 0.187808
0.643091 0.598749 0.184695
0.682490 0.604334 0.180301
0.720455 0.607965 0.176455
0.756710 0.609888 0.173281
0.790951 0.610132 0.171420
0.823484 0.609064 0.169802
0.854276 0.606897 0.168765
0.883543 0.603845 0.168215
0.911315 0.600153 0.167971
0.937652 0.595789 0.168338
0.962463 0.590906 0.169009
0.985657 0.585443 0.169924
0.084840 0.619257 0.194675
0.092744 0.620081 0.194644
0.102846 0.620966 0.194461
0.121401 0.621729 0.194278
0.145754 0.622431 0.194095
0.172519 0.622797 0.193851
0.201022 0.623041 0.193484
0.230167 0.623407 0.193179
0.260044 0.623926 0.192599
0.290593 0.624537 0.192172
0.321538 0.625391 0.191470
0.352911 0.626368 0.190768
0.384680 0.627192 0.189883
0.416602 0.628107 0.188998
0.448768 0.628931 0.187900
0.481117 0.629603 0.186740
0.513573 0.630335 0.185245
0.546258 0.630945 0.183963
0.579309 0.631647 0.182376
0.612696 0.632532 0.180697
0.646296 0.633478 0.178805
0.682277 0.636194 0.175753
0.720089 0.639918 0.171664
0.756222 0.641810 0.168246
0.790463 0.642054 0.165438
0.822873 0.640742 0.163882
0.853544 0.638361 0.162966
0.882689 0.635096 0.162722
0.910399 0.631098 0.162722
0.936645 0.626490 0.163333
0.961425 0.621332 0.164279
0.984588 0.615564 0.165743
0.059480 0.659266 0.188357
0.071015 0.660060 0.188205
0.085115 0.660853 0.188022
0.108095 0.661616 0.187808
0.136416 0.662196 0.187594
0.166140 0.662531 0.187350
0.196262 0.662776 0.186954
0.227207 0.662989 0.186618
0.258518 0.663325 0.186069
0.290074 0.663813 0.185367
0.321935 0.664424 0.184665
0.354131 0.665095 0.183841
0.386419 0.665705 0.182925
0.418982 0.666377 0.181888
0.451667 0.666987 0.180758
0.484504 0.667597 0.179507
0.517540 0.668208 0.178225
0.550835 0.668971 0.176608
0.584375 0.669795 0.174777
0.618250 0.670680 0.173007
0.652430 0.671687 0.170962
0.686885 0.672694 0.168704
0.722286 0.674281 0.165866
0.758389 0.676051 0.162264
0.792569 0.676112 0.159518
0.824857 0.674647 0.157595
0.855344 0.671870 0.156619
0.884245 0.668208 0.156832
0.911711 0.663783 0.157290
0.937713 0.658717 0.158297
0.962188 0.653040 0.159976
0.985046 0.646784 0.161929
0.000000 0.700984 0.180819
0.015900 0.701381 0.180667
0.057893 0.701625 0.180667
0.091646 0.701900 0.180362
0.125277 0.702083 0.180301
0.158236 0.702174 0.180087
0.191043 0.702266 0.179721
0.223575 0.702419 0.179232
0.256352 0.702754 0.178714
0.288945 0.703182 0.177981
0.321843 0.703700 0.177188
0.354864 0.704250 0.176333
0.387945 0.704677 0.175357
0.420996 0.705043 0.174228
0.454047 0.705348 0.173098
0.487282 0.705623 0.171847
0.520531 0.705928 0.170321
0.553979 0.706233 0.168765
0.587579 0.706661 0.166995
0.621363 0.707027 0.165042
0.655329 0.707454 0.162997
0.689387 0.707851 0.160769
0.723629 0.708217 0.158297
0.757992 0.708553 0.155612
0.791928 0.708339 0.152743
0.824063 0.706600 0.150790
0.854520 0.703670 0.149630
0.883452 0.699733 0.149355
0.910826 0.695033 0.150301
0.936736 0.689631 0.151827
0.961120 0.683589 0.153811
0.983948 0.676997 0.156344
0.000000 0.737697 0.173373
0.000000 0.738003 0.173251
0.000000 0.738338 0.173220
0.071199 0.738521 0.173037
0.112642 0.738643 0.172854
0.149538 0.738674 0.172519
0.184573 0.738643 0.172183
0.218662 0.738643 0.171725
0.252720 0.738796 0.171115
0.286381 0.738949 0.170535
0.319921 0.739254 0.169680
0.353399 0.739559 0.168826
0.386816 0.739834 0.167758
0.420325 0.739986 0.166720
0.453742 0.740169 0.165438
0.487282 0.740322 0.164004
0.520714 0.740475 0.162448
0.554314 0.740627 0.160830
0.588037 0.740810 0.159060
0.621851 0.741054 0.157168
0.655848 0.741238 0.155093
0.689906 0.741451 0.152804
0.724025 0.741634 0.150454
0.758206 0.741726 0.147738
0.790646 0.740078 0.145052
0.822660 0.738186 0.143008
0.853086 0.735042 0.142000
0.881987 0.730892 0.141817
0.909392 0.725917 0.142184
0.935271 0.720211 0.144167
0.959716 0.713863 0.146731
0.982544 0.706996 0.149905
0.000000 0.774472 0.165621
0.000000 0.774807 0.165621
0.000000 0.774990 0.165499
0.023468 0.775051 0.165377
0.098238 0.774990 0.165133
0.139925 0.774807 0.164736
0.177829 0.774594 0.164431
0.213748 0.774319 0.163943
0.248814 0.774075 0.163363
0.283299 0.773892 0.162661
0.317388 0.773770 0.161929
0.351263 0.773678 0.160983
0.385046 0.773587 0.160006
0.418647 0.773404 0.158846
0.452125 0.773190 0.157565
0.485573 0.772854 0.156313
0.518975 0.772549 0.154788
0.552483 0.772305 0.153201
0.586053 0.772244 0.151308
0.619806 0.772244 0.149325
0.653651 0.772305 0.147250
0.687556 0.772335 0.144961
0.721401 0.772213 0.142550
0.755184 0.771878 0.140047
0.788815 0.771420 0.137240
0.822263 0.770626 0.134218
0.852415 0.767056 0.133242
0.881071 0.762509 0.133333
0.908324 0.757137 0.134188
0.934142 0.751064 0.135927
0.958495 0.744381 0.138796
0.981262 0.737087 0.142763
0.000000 0.806546 0.157961
0.000000 0.806821 0.157992
0.000000 0.807004 0.157839
0.000000 0.807004 0.157870
0.081056 0.806943 0.157504
0.129793 0.806760 0.157229
0.170230 0.806546 0.156924
0.207797 0.806302 0.156405
0.243900 0.806088 0.155764
0.279240 0.805936 0.155154
0.313787 0.805783 0.154269
0.348211 0.805661 0.153384
0.382300 0.805509 0.152407
0.416175 0.805295 0.151186
0.449897 0.804990 0.149874
0.483467 0.804623 0.148623
0.516960 0.804227 0.147066
0.550530 0.803830 0.145327
0.584039 0.803555 0.143648
0.617639 0.803372 0.141695
0.651331 0.803128 0.139712
0.685023 0.802853 0.137392
0.718654 0.802518 0.135012
0.752193 0.802029 0.132387
0.785611 0.801358 0.129763
0.818967 0.800565 0.126650
0.852232 0.799619 0.123720
0.880888 0.794797 0.123995
0.907988 0.789029 0.125460
0.933684 0.782559 0.127687
0.957916 0.775448 0.131014
0.980591 0.767666 0.135348
0.000000 0.837247 0.150668
0.000000 0.837430 0.150698
0.000000 0.837491 0.150637
0.000000 0.837430 0.150454
0.060243 0.837217 0.150118
0.119142 0.836973 0.149905
0.162478 0.836667 0.149508
0.201633 0.836332 0.148867
0.238621 0.836057 0.148226
0.274418 0.835813 0.147646
0.309636 0.835569 0.146944
0.344152 0.835416 0.146059
0.378515 0.835203 0.144930
0.412634 0.834897 0.143862
0.446357 0.834470 0.142611
0.479988 0.834012 0.141207
0.513451 0.833463 0.139712
0.546899 0.832914 0.138033
0.580316 0.832456 0.136263
0.613764 0.832059 0.134249
0.647211 0.831632 0.132204
0.680659 0.831205 0.130068
0.713985 0.830625 0.127687
0.747280 0.829984 0.125277
0.780453 0.829160 0.122560
0.813474 0.828214 0.119722
0.846433 0.827146 0.116670
0.879332 0.825986 0.113405
0.906889 0.820340 0.114992
0.932494 0.813504 0.118074
0.956603 0.805966 0.121950
0.979187 0.797787 0.126894
0.000000 0.865446 0.143557
0.000000 0.865537 0.143526
0.000000 0.865568 0.143648
0.000000 0.865507 0.143252
0.010590 0.865415 0.143160
0.107851 0.865293 0.142855
0.155001 0.865263 0.142397
0.195743 0.865263 0.142000
0.233799 0.865293 0.141604
0.270298 0.865385 0.140902
0.305913 0.865476 0.140261
0.340948 0.865507 0.139345
0.375555 0.865476 0.138369
0.409857 0.865293 0.137362
0.443885 0.864927 0.136294
0.477485 0.864408 0.134737
0.511070 0.863798 0.133394
0.544396 0.863127 0.131777
0.577783 0.862516 0.130251
0.611078 0.861906 0.128359
0.644312 0.861265 0.126436
0.677516 0.860594 0.124727
0.710628 0.859800 0.122286
0.743648 0.858915 0.120089
0.776486 0.857877 0.117800
0.809232 0.856748 0.114931
0.841886 0.855467 0.112093
0.874449 0.854124 0.109041
0.906920 0.852689 0.105989
0.933410 0.846281 0.108919
0.957153 0.838071 0.114626
0.979339 0.829191 0.120760
0.000000 0.894041 0.137697
0.000000 0.894102 0.137514
0.000000 0.894041 0.137697
0.000000 0.893919 0.137362
0.000000 0.893736 0.137148
0.097688 0.893492 0.136934
0.147982 0.893278 0.136294
0.190005 0.893065 0.135866
0.228763 0.892821 0.135348
0.265721 0.892607 0.134890
0.301457 0.892363 0.134157
0.336492 0.892088 0.133150
0.371038 0.891752 0.132418
