cubelut/Moody8.cube
# Created by Adobe Lightroom plugin Export LUT (1.18.0)
# www.johnrellis.com/lightroom/exportlut.htm
# Preset: CP - INTERIOR DESIGN 15
# Color profile: /Library/Application Support/Adobe/Color/Profiles/Recommended/AdobeRGB1998.icc
LUT_3D_SIZE 5
DOMAIN_MIN 0.000000 0.000000 0.000000
DOMAIN_MAX 0.903226 0.903226 0.903226
0.088319 0.108431 0.107027
0.149416 0.116396 0.107424
0.346899 0.125795 0.099336
0.616510 0.134676 0.037476
0.861509 0.229129 0.000000
0.084291 0.174746 0.116670
0.153841 0.184329 0.108949
0.353368 0.197543 0.094240
0.617426 0.224979 0.000000
0.863645 0.302800 0.000000
0.000000 0.403265 0.127535
0.093965 0.402808 0.089479
0.405310 0.454078 0.000000
0.667109 0.460334 0.000000
0.862058 0.471015 0.000000
0.000000 0.663203 0.161898
0.000000 0.665034 0.000000
0.324193 0.656489 0.000000
0.656458 0.700130 0.000000
0.912657 0.734524 0.000000
0.000000 0.886290 0.297063
0.000000 0.887327 0.257755
0.335393 0.883879 0.193820
0.610315 0.886229 0.205112
0.861082 0.915679 0.191318
0.074708 0.110353 0.158022
0.144808 0.110018 0.154421
0.360388 0.037781 0.146548
0.618189 0.000000 0.122835
0.859495 0.162753 0.023896
0.078492 0.168368 0.166415
0.157931 0.173526 0.169070
0.369696 0.174319 0.150820
0.620844 0.182345 0.116121
0.860014 0.259159 0.000000
0.000000 0.396033 0.200900
0.118990 0.406165 0.187228
0.402533 0.439521 0.148196
0.652522 0.429267 0.073518
0.862638 0.452735 0.000000
0.000000 0.660456 0.243626
0.000000 0.663844 0.230655
0.331701 0.657435 0.161105
0.658839 0.695644 0.128176
0.908934 0.722988 0.000000
0.000000 0.885527 0.343053
0.134310 0.884215 0.350439
0.350683 0.885405 0.277348
0.614130 0.884337 0.284489
0.863981 0.914916 0.288945
0.000000 0.109590 0.350317
0.149416 0.076814 0.357824
0.368414 0.000000 0.338170
0.635798 0.000000 0.331487
0.869047 0.000000 0.280735
0.000000 0.164340 0.362005
0.096437 0.142611 0.368353
0.387945 0.117800 0.356817
0.642542 0.045289 0.332586
0.868254 0.041016 0.290501
0.000000 0.380285 0.382940
0.000000 0.388922 0.388800
0.437171 0.418708 0.412299
0.656245 0.381170 0.337865
0.870176 0.392615 0.276127
0.000000 0.654322 0.424445
0.000000 0.656703 0.420233
0.406592 0.662074 0.425910
0.672969 0.684596 0.409705
0.893095 0.677821 0.321599
0.000000 0.881315 0.478767
0.000000 0.881773 0.477790
0.436042 0.878904 0.493751
0.623987 0.876677 0.451972
0.869657 0.908568 0.474708
0.000000 0.101442 0.609369
0.000000 0.029877 0.613825
0.417426 0.000000 0.626093
0.653254 0.000000 0.590600
0.867826 0.000000 0.582666
0.000000 0.109010 0.614954
0.000000 0.085695 0.617700
0.396521 0.000000 0.628290
0.658686 0.000000 0.597070
0.867491 0.201999 0.584039
0.000000 0.372930 0.605127
0.000000 0.364019 0.611048
0.339086 0.321843 0.631342
0.672175 0.359014 0.617548
0.870146 0.403479 0.586236
0.000000 0.628870 0.628595
0.000000 0.631250 0.629938
0.357305 0.640772 0.638025
0.705470 0.671534 0.666499
0.876219 0.610498 0.567346
0.000000 0.877989 0.660578
0.000000 0.878477 0.658778
0.356390 0.878050 0.656367
0.669825 0.875212 0.666194
0.882048 0.899931 0.666651
0.000000 0.112703 0.844999
0.000000 0.065644 0.845975
0.338689 0.000000 0.849912
0.680842 0.000000 0.856870
0.885405 0.000000 0.818601
0.000000 0.107332 0.847105
0.000000 0.050294 0.847990
0.342962 0.000000 0.851682
0.672663 0.000000 0.856931
0.885191 0.000000 0.819669
0.000000 0.299382 0.847807
0.000000 0.236728 0.850004
0.158572 0.155245 0.852903
0.635706 0.000000 0.857237
0.885100 0.241703 0.825895
0.000000 0.616052 0.841306
0.000000 0.610040 0.840574
0.063661 0.589929 0.839109
0.582330 0.543236 0.853788
0.886168 0.608545 0.842374
0.000000 0.856657 0.859648
0.000000 0.856931 0.859861
0.175601 0.857115 0.860655
0.608301 0.858122 0.861692
0.905760 0.889036 0.886839
