cubelut/Moody10.cube
# Created by Adobe Lightroom plugin Export LUT (1.18.0)
# www.johnrellis.com/lightroom/exportlut.htm
# Preset: SP-07
# Color profile: /Library/Application Support/Adobe/Color/Profiles/Recommended/AdobeRGB1998.icc
LUT_3D_SIZE 5
DOMAIN_MIN 0.000000 0.000000 0.000000
DOMAIN_MAX 0.903226 0.903226 0.903226
0.266270 0.266270 0.266270
0.278782 0.265599 0.271794
0.409125 0.258579 0.277775
0.694453 0.228122 0.296086
0.929229 0.357977 0.374517
0.265599 0.286229 0.274296
0.283604 0.290623 0.275242
0.419837 0.285161 0.279057
0.697505 0.297612 0.298863
0.927489 0.414252 0.379339
0.270512 0.425910 0.281773
0.306706 0.429419 0.286656
0.436255 0.448035 0.285679
0.700435 0.463478 0.303868
0.919341 0.582544 0.390814
0.315007 0.690181 0.315435
0.367254 0.692317 0.321996
0.521935 0.697444 0.347082
0.710658 0.711971 0.331060
0.905150 0.752621 0.411444
0.529717 0.893187 0.480293
0.574182 0.890959 0.492805
0.695735 0.883818 0.536431
0.815946 0.878599 0.582727
0.901335 0.881376 0.583368
0.263920 0.265995 0.286625
0.280339 0.265843 0.290257
0.417548 0.266758 0.309117
0.704494 0.275517 0.350469
0.926421 0.412207 0.444343
0.263554 0.289342 0.293309
0.286442 0.292576 0.296757
0.428565 0.300206 0.316777
0.706630 0.330999 0.351080
0.924315 0.463325 0.447578
0.266361 0.433722 0.310124
0.311467 0.438605 0.320806
0.443549 0.452369 0.323919
0.709468 0.473335 0.350958
0.916289 0.607904 0.455848
0.305608 0.696712 0.344366
0.373754 0.698421 0.361883
0.530144 0.702144 0.388403
0.714748 0.714168 0.376623
0.903441 0.757839 0.469276
0.536278 0.893370 0.521080
0.579889 0.891112 0.532433
0.698726 0.884031 0.571527
0.817227 0.878447 0.616846
0.899107 0.881529 0.613794
0.245975 0.265354 0.392370
0.273655 0.266087 0.400519
0.425635 0.259098 0.421546
0.704097 0.265141 0.470558
0.915648 0.480079 0.601740
0.248783 0.292058 0.404608
0.283299 0.294469 0.411322
0.437568 0.298589 0.430701
0.712581 0.346715 0.484657
0.911376 0.559075 0.621485
0.251072 0.446021 0.433295
0.299962 0.452369 0.437964
0.463447 0.466255 0.451972
0.727932 0.535698 0.521752
0.904570 0.672511 0.638148
0.290379 0.710628 0.475654
0.354437 0.713222 0.482399
0.541650 0.716487 0.517632
0.724117 0.721462 0.523644
0.897215 0.773770 0.624689
0.513725 0.897551 0.610925
0.562493 0.895048 0.620050
0.694942 0.886534 0.654383
0.819577 0.878813 0.698909
0.893431 0.882200 0.689387
0.165316 0.265110 0.633722
0.233646 0.264469 0.641047
0.439460 0.249454 0.663783
0.710109 0.255558 0.688319
0.905394 0.418860 0.739559
0.181888 0.294774 0.643458
0.251102 0.295476 0.649653
0.452186 0.303685 0.669886
0.715572 0.333989 0.692683
0.902556 0.493996 0.744045
0.205905 0.455268 0.662074
0.277684 0.459724 0.665400
0.478645 0.478614 0.681361
0.728359 0.528283 0.703273
0.895293 0.671534 0.762692
0.268925 0.723079 0.692805
0.341070 0.725643 0.694911
0.529046 0.730739 0.701595
0.740505 0.738033 0.714565
0.889128 0.815152 0.788968
0.502159 0.901610 0.750515
0.549767 0.899260 0.752865
0.671443 0.892515 0.759762
0.808804 0.883665 0.779416
0.886229 0.883787 0.784360
0.136385 0.259678 0.865232
0.256870 0.254948 0.866514
0.500023 0.245914 0.870085
0.757900 0.305943 0.873564
0.899931 0.460578 0.873777
0.172580 0.297948 0.866361
0.277653 0.300969 0.867369
0.512078 0.321111 0.869993
0.762722 0.375799 0.873045
0.897307 0.527855 0.872496
0.225254 0.475257 0.866087
0.308568 0.477058 0.866575
0.538689 0.501213 0.868132
0.769833 0.578607 0.869078
0.891203 0.669764 0.869810
0.358892 0.747799 0.862638
0.419501 0.747799 0.862547
0.574426 0.743740 0.862211
0.769711 0.755520 0.864073
0.885740 0.807828 0.868406
0.566430 0.902495 0.864591
0.598901 0.900725 0.864683
0.692470 0.895171 0.865141
0.804623 0.888701 0.866545
0.886473 0.889433 0.870787
