cubelut/Moody2.cube
# Created by Adobe Lightroom plugin Export LUT (1.18.0)
# www.johnrellis.com/lightroom/exportlut.htm
# Preset: CatchaFirecolor
# Color profile: /Library/Application Support/Adobe/Color/Profiles/Recommended/AdobeRGB1998.icc
LUT_3D_SIZE 8
DOMAIN_MIN 0.000000 0.000000 0.000000
DOMAIN_MAX 0.903226 0.903226 0.903226
0.142824 0.133608 0.164614
0.161257 0.138949 0.171267
0.219089 0.150973 0.187259
0.335912 0.173037 0.217044
0.503471 0.214206 0.267491
0.690455 0.293187 0.345983
0.826932 0.423072 0.451911
0.902708 0.575525 0.566735
0.151400 0.151369 0.174228
0.164584 0.153475 0.175998
0.226780 0.165072 0.186282
0.338689 0.189578 0.215457
0.501274 0.231724 0.264042
0.681392 0.303532 0.338415
0.819028 0.419989 0.440345
0.900542 0.570825 0.558465
0.175570 0.211124 0.201022
0.189883 0.212924 0.203128
0.238010 0.221561 0.208652
0.367864 0.260502 0.222446
0.540490 0.307805 0.265202
0.707820 0.371740 0.342016
0.838041 0.477272 0.453407
0.906889 0.605921 0.570214
0.226963 0.332128 0.255344
0.242863 0.332555 0.256748
0.294896 0.338720 0.264134
0.400275 0.375799 0.281163
0.583642 0.445472 0.307683
0.750118 0.487922 0.347814
0.851102 0.547417 0.453742
0.910063 0.639643 0.568048
0.313329 0.513024 0.336339
0.330114 0.513603 0.337774
0.385962 0.519799 0.345129
0.475380 0.536980 0.359533
0.582757 0.555962 0.372015
0.723934 0.597253 0.406226
0.847501 0.636927 0.466865
0.913420 0.687251 0.563561
0.441230 0.674434 0.437263
0.461189 0.681758 0.444709
0.501610 0.683314 0.450477
0.566400 0.687495 0.461982
0.643885 0.695033 0.473823
0.733455 0.708064 0.490028
0.835111 0.737209 0.538567
0.903716 0.767086 0.613184
0.603418 0.795773 0.558404
0.612055 0.796902 0.561151
0.632807 0.796017 0.563867
0.671321 0.796963 0.572442
0.719753 0.798123 0.584131
0.776425 0.804685 0.598688
0.836149 0.812497 0.618036
0.889921 0.824613 0.666896
0.746395 0.861997 0.681575
0.749233 0.861845 0.682246
0.760464 0.861753 0.686091
0.781521 0.862364 0.695369
0.798734 0.859617 0.695735
0.829831 0.861357 0.711452
0.860960 0.864561 0.729091
0.888396 0.867185 0.745388
0.146944 0.138216 0.183047
0.162142 0.139315 0.185794
0.219333 0.158968 0.208438
0.333501 0.189853 0.249821
0.495888 0.229709 0.299229
0.671687 0.302190 0.367773
0.810178 0.424537 0.461524
0.894804 0.572564 0.568933
0.152132 0.153079 0.187137
0.170596 0.159731 0.195132
0.229191 0.175540 0.214847
0.341253 0.202609 0.248356
0.500206 0.244816 0.296757
0.670649 0.314000 0.363714
0.805264 0.424353 0.453071
0.892332 0.567010 0.560235
0.178897 0.212070 0.216831
0.199039 0.220798 0.226017
0.245762 0.229129 0.231937
0.373541 0.264347 0.247593
0.533165 0.309300 0.294865
0.691218 0.370947 0.362737
0.818540 0.468391 0.457130
0.898528 0.597223 0.568017
0.230777 0.330632 0.272801
0.250065 0.336034 0.278172
0.301946 0.344610 0.286198
0.391699 0.367620 0.297490
0.559777 0.426490 0.318578
0.721920 0.469490 0.358404
0.831540 0.532799 0.453834
0.902617 0.630335 0.564996
0.320592 0.515221 0.355352
0.335973 0.514519 0.355901
0.388098 0.517571 0.361212
0.469276 0.527367 0.371435
0.569879 0.542931 0.380652
0.712520 0.587304 0.413581
0.839567 0.630121 0.471382
0.908751 0.683955 0.566644
0.444190 0.668696 0.447486
0.456367 0.669581 0.449226
0.496071 0.671839 0.454810
0.561395 0.678553 0.467292
0.640406 0.689204 0.481147
0.731441 0.705562 0.499153
0.832273 0.735103 0.545159
0.901457 0.764462 0.614343
0.597314 0.788113 0.557855
0.601770 0.787015 0.557336
0.624598 0.787442 0.561486
0.666468 0.790860 0.572747
0.717464 0.794278 0.586786
0.773129 0.800717 0.600153
0.831662 0.807736 0.616358
0.887022 0.820554 0.662806
0.743282 0.859831 0.680690
0.747189 0.860014 0.682338
0.758938 0.860136 0.686641
0.780575 0.861021 0.696345
0.805661 0.861418 0.706905
0.832700 0.862028 0.718349
0.860899 0.864103 0.731319
0.887602 0.866331 0.745327
0.156252 0.148318 0.241489
0.173556 0.149569 0.245914
0.230564 0.156497 0.258274
0.350835 0.188602 0.304051
0.513848 0.252659 0.368078
0.684291 0.377478 0.456886
0.812314 0.498054 0.535058
0.890166 0.627344 0.623560
0.166506 0.171420 0.253513
0.184939 0.174166 0.258885
0.240269 0.178866 0.268254
0.356481 0.214664 0.311192
0.518364 0.279484 0.375158
0.682643 0.382605 0.452583
0.809689 0.496559 0.528679
0.889586 0.625513 0.618982
0.183230 0.223423 0.265446
0.203891 0.231083 0.273960
0.271000 0.253483 0.298558
0.387915 0.288823 0.335546
0.554376 0.345251 0.388769
0.702052 0.421851 0.451575
0.818173 0.522026 0.526879
0.892515 0.638666 0.617212
0.236667 0.336797 0.319829
0.259617 0.346838 0.328710
0.333379 0.379156 0.355383
0.425605 0.400336 0.367987
0.594934 0.452735 0.393042
0.731014 0.499977 0.448249
0.833463 0.573480 0.525536
0.898039 0.667109 0.617090
0.326177 0.516381 0.398535
0.350378 0.524102 0.405798
0.422400 0.543053 0.426490
0.501762 0.553094 0.438697
0.597070 0.568963 0.447852
0.729885 0.608789 0.475898
0.845121 0.647089 0.522789
0.903716 0.706813 0.614221
0.459205 0.671412 0.482490
0.479438 0.675319 0.489723
0.528374 0.682216 0.503746
0.583948 0.686275 0.512016
0.653864 0.694453 0.523186
0.736660 0.709560 0.537896
0.833860 0.741451 0.580591
0.900755 0.772915 0.643885
0.617426 0.791470 0.587213
0.628107 0.791867 0.591699
0.651118 0.792020 0.597589
0.684749 0.793423 0.604364
0.729152 0.796231 0.615045
0.781033 0.803311 0.628321
0.836942 0.812619 0.645777
0.888914 0.827207 0.690944
0.753628 0.859678 0.697414
0.757748 0.859403 0.699367
0.767422 0.859281 0.702113
0.789303 0.860899 0.712947
0.811826 0.861295 0.721706
0.837552 0.862272 0.733242
0.863798 0.864866 0.745480
0.888731 0.867552 0.758694
0.174746 0.165621 0.351110
0.198245 0.167941 0.357153
0.267613 0.172519 0.370275
0.364599 0.182986 0.384100
0.534874 0.230076 0.440101
0.692073 0.353002 0.499001
0.808438 0.510491 0.575097
0.881315 0.659602 0.665492
0.189395 0.197147 0.368658
0.211551 0.198184 0.371984
0.278325 0.200626 0.381353
0.375525 0.209476 0.393347
0.544457 0.259953 0.446876
0.692683 0.379217 0.503777
0.806607 0.525170 0.578698
0.880156 0.667201 0.668391
0.209659 0.266789 0.381506
0.233219 0.272221 0.388861
0.304570 0.283238 0.406134
0.408118 0.292668 0.419593
0.570886 0.361975 0.470253
0.709895 0.473365 0.533288
0.817044 0.599329 0.612116
0.884672 0.691798 0.679042
0.246189 0.361578 0.399573
0.268772 0.369451 0.406378
0.343755 0.395727 0.429084
0.468299 0.439094 0.464576
0.603906 0.489540 0.503563
0.726864 0.548547 0.547875
0.825681 0.624628 0.606561
0.889769 0.707057 0.675563
0.341222 0.524041 0.462989
0.363439 0.529137 0.467689
0.439094 0.549584 0.487282
0.548516 0.584924 0.522057
0.630732 0.599786 0.531212
0.752071 0.635950 0.554101
0.844541 0.678889 0.604913
0.896635 0.736507 0.673945
0.478340 0.677699 0.532677
0.502434 0.685695 0.541863
0.555901 0.693996 0.557458
0.630640 0.708156 0.582940
0.688502 0.714382 0.593317
0.755062 0.726436 0.602960
0.841825 0.756619 0.635401
0.900084 0.783719 0.683436
0.625177 0.791135 0.616419
0.637385 0.792844 0.621637
0.673274 0.797574 0.637110
0.717006 0.803769 0.654932
0.753964 0.806516 0.663142
0.796475 0.811368 0.673030
0.843015 0.818357 0.684749
0.889494 0.832822 0.722347
0.760525 0.860319 0.715908
0.766140 0.860502 0.719112
0.782437 0.860807 0.728054
0.802701 0.861509 0.738186
0.821836 0.861997 0.744869
0.844205 0.863096 0.754238
0.867491 0.865873 0.764553
0.890013 0.869047 0.775814
0.223728 0.197635 0.492348
0.249607 0.199832 0.496162
0.323674 0.204288 0.504295
0.429145 0.208591 0.517937
0.554803 0.231662 0.533074
0.705715 0.335698 0.570153
0.818082 0.493874 0.618555
0.885771 0.651331 0.688899
0.237797 0.231876 0.503166
0.262699 0.233555 0.507103
0.333959 0.236149 0.513420
0.436316 0.238560 0.523583
0.561700 0.261753 0.538079
0.709346 0.364416 0.574182
0.818692 0.513268 0.622889
0.885191 0.660945 0.692164
0.264683 0.317693 0.520592
0.290135 0.321813 0.525628
0.358404 0.325139 0.530846
0.462654 0.333562 0.542809
0.580835 0.354498 0.551446
0.715419 0.443854 0.583917
0.817868 0.568688 0.635035
0.882414 0.688106 0.700862
0.300999 0.425055 0.530327
0.324956 0.430121 0.534478
0.404669 0.450019 0.549310
0.513909 0.477821 0.567956
0.615839 0.491585 0.576135
0.732601 0.559960 0.609033
0.822416 0.649928 0.661189
0.880858 0.736294 0.722225
0.359930 0.540948 0.542687
0.382879 0.546166 0.546685
0.454231 0.562005 0.558953
0.553521 0.588830 0.579675
0.655482 0.621515 0.605280
0.750393 0.659846 0.636194
0.833280 0.706966 0.676081
0.886503 0.762661 0.726833
0.481971 0.668147 0.580896
0.498573 0.671290 0.584588
0.548516 0.680201 0.595636
0.624567 0.697200 0.616938
0.702998 0.719142 0.643885
0.764675 0.734798 0.656703
0.848295 0.766140 0.684199
0.895567 0.795346 0.728725
0.629938 0.787747 0.651972
0.639307 0.788388 0.654627
0.670863 0.792081 0.664851
0.717739 0.800351 0.682460
0.767422 0.810117 0.702571
0.805753 0.814572 0.712337
0.846189 0.821286 0.721004
0.889464 0.836027 0.749538
0.756924 0.857450 0.730709
0.761563 0.857450 0.732601
0.777157 0.857877 0.739528
0.805722 0.860716 0.755428
0.829526 0.862486 0.767056
0.849088 0.863706 0.773922
0.869871 0.866239 0.782223
0.890379 0.869505 0.790707
0.308385 0.257908 0.631800
0.330053 0.260410 0.633326
0.393957 0.266056 0.635889
0.491249 0.279179 0.645594
0.604974 0.300145 0.656580
0.716854 0.349920 0.660792
0.825193 0.490639 0.684810
0.890898 0.644129 0.726101
0.318639 0.288487 0.632166
0.338170 0.289799 0.633082
0.400061 0.294621 0.636439
0.494850 0.306798 0.645838
0.605768 0.325872 0.655787
0.716640 0.373114 0.660456
0.824430 0.505669 0.685481
0.889921 0.652003 0.727260
0.365637 0.385809 0.648219
0.382940 0.387366 0.649012
0.439246 0.393469 0.652461
0.524743 0.405127 0.658534
0.624842 0.420356 0.665278
0.727077 0.455421 0.668818
0.827604 0.564294 0.694484
0.888487 0.684413 0.735317
0.414038 0.494118 0.656977
0.434119 0.498604 0.658259
0.499458 0.517876 0.665644
0.579095 0.537804 0.675898
0.661433 0.549523 0.683070
0.748074 0.570214 0.686610
0.835691 0.646967 0.712306
0.887144 0.734096 0.750759
0.458869 0.594202 0.657160
0.476997 0.598352 0.659480
0.532555 0.611841 0.666865
0.612909 0.634577 0.679377
0.691066 0.655299 0.692103
0.760678 0.664393 0.697475
0.838163 0.715908 0.725063
0.883848 0.779446 0.765499
0.515129 0.689021 0.661738
0.531762 0.692927 0.665187
0.578149 0.700984 0.672114
0.645441 0.713985 0.683406
0.713832 0.730648 0.698146
0.785458 0.755581 0.720882
0.847868 0.785214 0.749050
0.887663 0.816587 0.780423
0.643214 0.790311 0.701472
0.653956 0.792172 0.704494
0.683284 0.795651 0.711360
0.725338 0.802670 0.722988
0.773739 0.812222 0.738613
0.821836 0.823850 0.758541
0.853971 0.829587 0.765255
0.892302 0.843809 0.784329
0.761868 0.856779 0.757473
0.765927 0.856809 0.758663
0.780179 0.857237 0.763333
0.803983 0.859129 0.772671
0.830472 0.861814 0.784115
0.855680 0.865446 0.796597
0.874022 0.867918 0.803555
0.891814 0.871366 0.809506
0.414679 0.358770 0.745754
0.430823 0.362799 0.746914
0.480629 0.374365 0.748989
0.556023 0.393683 0.752682
0.643610 0.417578 0.756252
0.736141 0.450935 0.759457
0.823392 0.500999 0.760647
0.888701 0.639521 0.772702
0.430549 0.388647 0.746548
0.445350 0.391852 0.747372
0.491585 0.401251 0.749264
0.562432 0.417151 0.752071
0.647242 0.438758 0.755703
0.737423 0.468238 0.759060
0.822873 0.514702 0.760098
0.887877 0.646021 0.772610
0.483284 0.476448 0.752010
0.494545 0.478157 0.752346
0.531731 0.483986 0.753506
0.591577 0.494789 0.755825
0.665522 0.509331 0.758907
0.747311 0.530571 0.762631
0.826749 0.569757 0.764004
0.887755 0.678584 0.777401
0.538598 0.571954 0.756710
0.551232 0.575952 0.757107
0.589685 0.587884 0.759304
0.636378 0.595178 0.761532
0.696010 0.604974 0.764462
0.764218 0.617762 0.768826
0.833005 0.643030 0.770535
0.887388 0.723873 0.784421
0.572534 0.650416 0.756527
0.584039 0.653468 0.757259
0.621698 0.664576 0.760189
0.675685 0.681514 0.765621
0.726894 0.691951 0.770565
0.780819 0.698451 0.774777
0.839322 0.713008 0.777462
0.886961 0.772610 0.793393
0.618372 0.730037 0.758755
0.628016 0.732082 0.759670
0.658503 0.738796 0.762905
0.702327 0.749050 0.768521
0.753445 0.762234 0.776181
0.805539 0.776913 0.784939
0.849607 0.784848 0.789120
0.887694 0.819150 0.805844
0.668330 0.799802 0.764401
0.675807 0.800870 0.765499
0.699092 0.804013 0.768582
0.734737 0.809323 0.773800
0.778256 0.816464 0.781003
0.823239 0.826108 0.790768
0.861936 0.838529 0.803616
0.890715 0.852934 0.818997
0.762020 0.856291 0.787076
0.766629 0.856474 0.788022
0.782467 0.857450 0.791714
0.805325 0.858976 0.797269
0.831571 0.861570 0.804837
0.857328 0.865843 0.814359
0.879576 0.871244 0.825010
0.894255 0.874388 0.829221
0.573754 0.527520 0.829252
0.582300 0.530419 0.829343
0.609186 0.538415 0.829252
0.653498 0.552972 0.829404
0.708858 0.572564 0.829679
0.769223 0.595605 0.830137
0.830411 0.627344 0.829892
0.884672 0.664149 0.828855
0.585748 0.546380 0.828641
0.593530 0.548821 0.828763
0.618921 0.555932 0.828733
0.660700 0.568780 0.828885
0.713680 0.586633 0.829191
0.771786 0.607538 0.829740
0.831144 0.636164 0.829587
0.884428 0.670832 0.828672
0.623133 0.602869 0.827604
0.629389 0.604517 0.827634
0.649775 0.609125 0.827604
0.685725 0.619440 0.828122
0.730648 0.631739 0.828550
0.781277 0.646235 0.829252
0.834928 0.667262 0.829557
0.884489 0.696376 0.828916
0.671748 0.673823 0.826749
0.676448 0.674891 0.826902
0.691524 0.677424 0.827024
0.718288 0.682826 0.827543
0.753841 0.690211 0.828305
0.795590 0.699397 0.829282
0.841337 0.712886 0.830198
0.885008 0.735256 0.829923
0.695949 0.723934 0.825772
0.702235 0.726253 0.825986
0.721431 0.732998 0.826505
0.751156 0.743618 0.827573
0.778408 0.747921 0.828397
0.811765 0.753872 0.829587
0.849149 0.762142 0.831296
0.886046 0.779171 0.831662
0.724941 0.775601 0.825162
0.729641 0.776822 0.825284
0.745357 0.780911 0.825834
0.770321 0.787808 0.827054
0.802090 0.797879 0.829038
0.832120 0.806363 0.831418
0.860319 0.812100 0.833829
0.888640 0.821714 0.835355
0.759518 0.823636 0.826047
0.763210 0.824277 0.826200
0.775631 0.826474 0.826841
0.795895 0.830472 0.828275
0.821134 0.836118 0.830503
0.848051 0.843320 0.833890
0.872557 0.850797 0.838193
0.892393 0.854917 0.840543
0.795102 0.861418 0.828824
0.797787 0.861601 0.829007
0.807004 0.862333 0.829831
0.822263 0.863859 0.831418
0.841428 0.866117 0.833829
0.861967 0.869261 0.837247
0.881529 0.873625 0.842008
0.898314 0.879332 0.848386
