cubelut/Moody4.cube
# Created by Adobe Lightroom plugin Export LUT (1.18.0)
# www.johnrellis.com/lightroom/exportlut.htm
# Preset: SP-11
# Color profile: /Library/Application Support/Adobe/Color/Profiles/Recommended/AdobeRGB1998.icc
LUT_3D_SIZE 8
DOMAIN_MIN 0.000000 0.000000 0.000000
DOMAIN_MAX 0.903226 0.903226 0.903226
0.208743 0.208743 0.208743
0.211551 0.209018 0.209140
0.225254 0.209659 0.209934
0.279942 0.209293 0.210666
0.434943 0.203769 0.209812
0.687007 0.182803 0.203067
0.915068 0.177310 0.215610
1.000000 0.282475 0.310582
0.209476 0.211826 0.209384
0.212406 0.212314 0.209567
0.227054 0.213199 0.210086
0.284031 0.216342 0.210727
0.438544 0.219638 0.209293
0.689815 0.215183 0.201724
0.915068 0.220676 0.215976
1.000000 0.308232 0.313085
0.211307 0.227420 0.210788
0.215732 0.227604 0.211246
0.231937 0.231510 0.211215
0.296422 0.246494 0.210361
0.449348 0.271244 0.207279
0.698390 0.303410 0.196994
0.914611 0.327611 0.216678
1.000000 0.383307 0.321172
0.215061 0.292699 0.211765
0.224735 0.294011 0.212222
0.257816 0.298741 0.214176
0.321508 0.319585 0.209384
0.459358 0.360235 0.201236
0.709163 0.419471 0.187167
0.912840 0.454231 0.218509
1.000000 0.484688 0.334997
0.218784 0.445777 0.205142
0.238193 0.446937 0.205844
0.297490 0.451362 0.209232
0.383124 0.463905 0.211185
0.496193 0.491920 0.196780
0.706538 0.565698 0.170077
0.906401 0.595789 0.218692
0.994629 0.595270 0.351843
0.234470 0.689937 0.193179
0.266789 0.691341 0.195773
0.357458 0.696132 0.205417
0.479072 0.704463 0.224765
0.607691 0.722225 0.221958
0.748257 0.741238 0.195987
0.892149 0.745907 0.213260
0.983307 0.724056 0.371771
0.316320 0.880735 0.269261
0.344091 0.880430 0.273747
0.426703 0.879026 0.289586
0.539391 0.876616 0.319219
0.662928 0.872923 0.365087
0.767941 0.873869 0.356573
0.880217 0.872587 0.343877
0.969268 0.848936 0.389166
0.511070 0.955444 0.486152
0.527001 0.954467 0.492653
0.578546 0.951141 0.515892
0.656855 0.945312 0.557641
0.745296 0.937621 0.615961
0.818784 0.931640 0.662409
0.872892 0.929686 0.663478
0.931487 0.926696 0.666133
0.208804 0.208865 0.211429
0.211734 0.209110 0.211734
0.226200 0.209995 0.213626
0.285405 0.208194 0.216800
0.442573 0.195010 0.218692
0.696437 0.160311 0.218296
0.917449 0.168673 0.246098
1.000000 0.298772 0.344244
0.209232 0.212222 0.212222
0.212619 0.212619 0.212619
0.227909 0.214176 0.214420
0.289036 0.215579 0.216861
0.445716 0.212345 0.218143
0.698695 0.198306 0.217411
0.917327 0.215091 0.246281
1.000000 0.322606 0.346014
0.210758 0.228550 0.214420
0.215854 0.229099 0.215427
0.232578 0.232334 0.215946
0.301030 0.246098 0.216403
0.455329 0.267826 0.215885
0.706142 0.295872 0.213809
0.916564 0.325017 0.247471
1.000000 0.393683 0.353155
0.209171 0.296910 0.216007
0.220920 0.298650 0.217502
0.257542 0.303075 0.219821
0.323735 0.321904 0.215763
0.464820 0.360143 0.210391
0.715480 0.417823 0.205875
0.914366 0.453559 0.249149
0.999939 0.491951 0.365057
0.206821 0.450874 0.214328
0.228702 0.451972 0.215457
0.293584 0.456123 0.220188
0.383825 0.467231 0.225376
0.498848 0.494759 0.210941
0.712093 0.567132 0.191806
0.907836 0.594507 0.248631
0.993347 0.600305 0.380743
0.217044 0.694667 0.213809
0.252903 0.695918 0.216526
0.350958 0.700404 0.226352
0.477272 0.708186 0.246128
0.608362 0.724575 0.246891
0.749508 0.742672 0.222843
0.893217 0.745785 0.242649
0.982208 0.725887 0.399176
0.309331 0.882048 0.291997
0.338476 0.881621 0.295995
0.423163 0.880217 0.311711
0.538384 0.877501 0.340642
0.663478 0.873533 0.386969
0.768673 0.874113 0.380835
0.880156 0.872801 0.367559
0.968109 0.849149 0.415412
0.521202 0.954589 0.508080
0.536797 0.953613 0.514366
0.587396 0.950256 0.536767
0.664149 0.944427 0.577050
0.750484 0.936828 0.632837
0.822568 0.930907 0.678523
0.874418 0.929229 0.678859
0.931090 0.926513 0.680201
0.208927 0.208927 0.223758
0.212497 0.208957 0.224704
0.227665 0.209537 0.227756
0.290227 0.204593 0.244083
0.452979 0.172000 0.266361
0.721553 0.022339 0.289555
0.923156 0.162783 0.343236
1.000000 0.366522 0.450507
0.208743 0.212650 0.225895
0.212894 0.212894 0.226780
0.229465 0.213962 0.229435
0.296330 0.210178 0.244755
0.460365 0.187381 0.263218
0.723781 0.136904 0.289036
0.922820 0.211795 0.343481
1.000000 0.385260 0.452399
0.209506 0.230991 0.231022
0.214267 0.231785 0.231815
0.234531 0.234531 0.234531
0.313603 0.242710 0.243992
0.473243 0.255711 0.260807
0.728878 0.273136 0.287358
0.921447 0.325139 0.344213
0.998230 0.444312 0.458961
0.202487 0.304967 0.249668
0.209445 0.308019 0.248325
0.248569 0.316136 0.245853
0.330114 0.328557 0.247044
0.482765 0.358556 0.257603
0.734798 0.413794 0.282231
0.918273 0.455451 0.344091
0.993439 0.529931 0.469703
0.180636 0.460487 0.266789
0.197971 0.463569 0.262821
0.276310 0.470954 0.266117
0.386908 0.477668 0.282658
0.507347 0.503685 0.268742
0.730282 0.570977 0.270848
0.911986 0.590936 0.340826
0.986664 0.626917 0.482490
0.141360 0.706203 0.284764
0.181888 0.709194 0.278660
0.319860 0.714778 0.293431
0.466926 0.720760 0.312963
0.609796 0.732296 0.323980
0.753811 0.747341 0.302739
0.896452 0.745144 0.331029
0.976226 0.737514 0.496712
0.253971 0.887114 0.342504
0.297490 0.886534 0.351568
0.412909 0.883726 0.382910
0.537041 0.880156 0.412909
0.667659 0.875151 0.461067
0.772763 0.874510 0.465736
0.879973 0.873228 0.448402
0.962982 0.851133 0.505669
0.542412 0.952850 0.563775
0.571069 0.950439 0.582513
0.617884 0.947082 0.602136
0.688197 0.941436 0.636530
0.766201 0.934508 0.682063
0.833829 0.928740 0.724636
0.878935 0.927886 0.722438
0.929900 0.925994 0.720790
0.207919 0.207889 0.273686
0.214664 0.207492 0.276677
0.242985 0.205325 0.287083
0.302342 0.199619 0.302342
0.452125 0.160464 0.352544
0.716457 0.000000 0.424628
0.920500 0.148898 0.473823
0.984924 0.497322 0.605463
0.204227 0.212375 0.280766
0.212192 0.212009 0.283238
0.243229 0.210452 0.292576
0.306981 0.204990 0.307012
0.457923 0.173861 0.353521
0.723476 0.071656 0.424414
0.921416 0.215671 0.476905
0.980957 0.536431 0.624475
0.197024 0.242649 0.294255
0.202396 0.240879 0.297185
0.235233 0.235172 0.306767
0.320745 0.237308 0.320653
0.479164 0.243626 0.360845
0.746120 0.245335 0.424231
0.921386 0.382361 0.503777
0.975311 0.594568 0.645838
0.185092 0.319402 0.319463
0.193088 0.321569 0.321569
0.234897 0.328405 0.328588
0.339178 0.339178 0.339178
0.507347 0.371984 0.374517
0.763119 0.412665 0.420783
0.917510 0.498512 0.507988
0.971862 0.642756 0.649256
0.143801 0.476387 0.366247
0.167239 0.479194 0.365759
0.248112 0.488289 0.365087
0.379004 0.501457 0.373999
0.521904 0.519219 0.375250
0.758572 0.573053 0.403479
0.911681 0.612238 0.499184
0.967254 0.702449 0.651392
0.011200 0.720607 0.423957
0.126497 0.723262 0.421515
0.259068 0.731960 0.412604
0.434272 0.740841 0.418311
0.614038 0.744045 0.451728
0.760372 0.755032 0.428107
0.898009 0.748348 0.481483
0.961273 0.771969 0.649561
0.233555 0.890776 0.465949
0.271183 0.890623 0.467048
0.382605 0.889250 0.478584
0.551263 0.882414 0.534966
0.683803 0.876127 0.580987
0.785733 0.873869 0.603052
0.878904 0.873747 0.581201
0.951843 0.858274 0.641840
0.537469 0.953765 0.613062
0.561547 0.951904 0.624445
0.634089 0.945678 0.662684
0.719844 0.937530 0.710750
0.784970 0.931914 0.741299
0.845365 0.926818 0.774899
0.884764 0.926299 0.775509
0.928527 0.925414 0.770626
0.201907 0.202060 0.407996
0.216312 0.200259 0.411749
0.265690 0.193179 0.424659
0.352056 0.176028 0.446937
0.471504 0.140597 0.471534
0.715816 0.000000 0.567742
0.910033 0.000000 0.605982
0.982300 0.452949 0.662898
0.190524 0.208103 0.415656
0.206607 0.206638 0.419013
0.260533 0.200198 0.430518
0.352026 0.184451 0.452247
0.476204 0.157595 0.476112
0.720974 0.000000 0.569574
0.911162 0.147860 0.606928
0.979034 0.493568 0.674983
0.144778 0.245243 0.431708
0.155947 0.238041 0.435920
0.232944 0.233036 0.447028
0.349371 0.230747 0.467414
0.491463 0.232273 0.491554
0.736904 0.203464 0.574731
0.912902 0.330419 0.616266
0.967132 0.611872 0.718532
0.113558 0.348516 0.456367
0.134005 0.347265 0.459449
0.210361 0.342992 0.468696
0.345464 0.345495 0.488624
0.515221 0.362097 0.515343
0.762478 0.391424 0.584924
0.905669 0.561273 0.666346
0.951141 0.737575 0.777066
0.017243 0.497902 0.498054
0.104433 0.500389 0.500328
0.218875 0.508629 0.508629
0.356451 0.522911 0.523033
0.541924 0.541924 0.541924
0.777401 0.615595 0.618402
0.896483 0.705043 0.708461
0.946502 0.784146 0.786893
0.000000 0.740414 0.584344
0.000000 0.742611 0.583978
0.197635 0.749752 0.582361
0.391608 0.758938 0.579644
0.614557 0.761044 0.608606
0.767453 0.764523 0.611536
0.890593 0.773953 0.681422
0.944732 0.817502 0.777218
0.194034 0.895872 0.604456
0.241306 0.895598 0.604913
0.369116 0.893706 0.611475
0.544091 0.887053 0.642237
0.708736 0.876890 0.701839
0.806851 0.873045 0.734463
0.877806 0.874693 0.714626
0.940032 0.869535 0.761471
0.541772 0.953887 0.686397
0.565240 0.952087 0.694148
0.635798 0.946136 0.720363
0.722133 0.938018 0.756893
0.798703 0.930510 0.793576
0.852049 0.926299 0.816007
0.890593 0.925078 0.824491
0.927245 0.925048 0.817746
0.181674 0.181369 0.639338
0.210605 0.176761 0.643671
0.294804 0.157534 0.658503
0.416052 0.104616 0.682979
0.568505 0.000000 0.714321
0.738033 0.000000 0.737911
0.901091 0.000000 0.749111
0.977081 0.387762 0.741787
0.151095 0.191073 0.647089
0.187167 0.186862 0.650965
0.281956 0.169314 0.664759
0.410742 0.125582 0.688258
0.568994 0.000000 0.718593
0.740963 0.000000 0.740841
0.901701 0.101076 0.749355
0.974792 0.430213 0.747372
0.000000 0.231601 0.665888
0.000000 0.229129 0.669306
0.220981 0.220584 0.681453
0.390356 0.206699 0.702266
0.568719 0.195926 0.729885
0.750210 0.189731 0.750149
0.902556 0.294957 0.751431
0.965515 0.557092 0.770138
0.000000 0.380255 0.685237
0.000000 0.374975 0.688777
0.064271 0.355993 0.701381
0.348272 0.348211 0.720119
0.563287 0.360723 0.743832
0.762142 0.383917 0.762142
0.898253 0.507561 0.762692
0.950805 0.702388 0.808011
0.000000 0.560510 0.718868
0.000000 0.559716 0.720912
0.060334 0.555962 0.727108
0.322148 0.546715 0.737179
0.558892 0.558770 0.753262
0.770932 0.608423 0.771084
0.888792 0.708186 0.793729
0.938903 0.808011 0.844572
0.000000 0.751461 0.751461
0.000000 0.752590 0.752712
0.139437 0.756405 0.756374
0.381445 0.762264 0.762234
0.606287 0.769223 0.769284
0.779049 0.779019 0.779049
0.886564 0.822477 0.823484
0.933532 0.861143 0.862272
0.130953 0.900877 0.753079
0.199527 0.900603 0.753384
0.350866 0.898711 0.755703
0.535424 0.892058 0.765347
0.702693 0.882597 0.786496
0.816403 0.877348 0.814176
0.879026 0.877714 0.813565
0.932097 0.883665 0.847349
0.545403 0.954101 0.770565
0.567987 0.952422 0.774838
0.636225 0.946807 0.789029
0.719509 0.939330 0.809232
0.795590 0.932158 0.831418
0.858579 0.926360 0.856077
0.898070 0.924193 0.870268
0.926299 0.924987 0.862547
0.148714 0.147677 0.851438
0.193362 0.140505 0.852598
0.299840 0.110231 0.856809
0.430121 0.000000 0.863737
0.575494 0.000000 0.872770
0.731655 0.000000 0.881224
0.886473 0.046693 0.886259
0.966064 0.400153 0.849577
0.091035 0.163485 0.853300
0.157656 0.157290 0.854459
0.282506 0.132631 0.858396
0.421637 0.072969 0.865019
0.572778 0.000000 0.873625
0.731533 0.000000 0.881834
0.886625 0.157534 0.886564
0.964233 0.438056 0.851011
0.000000 0.221164 0.858213
0.000000 0.218692 0.859190
0.211826 0.211154 0.862608
0.395148 0.204593 0.868406
0.565087 0.213413 0.875853
0.731502 0.251926 0.883543
0.887053 0.323491 0.886992
0.957244 0.550774 0.856962
0.000000 0.366888 0.862394
0.000000 0.360815 0.863401
0.000000 0.348791 0.866728
0.359136 0.358648 0.871519
0.557122 0.383551 0.877775
0.737545 0.445533 0.884001
0.885435 0.528038 0.885435
0.946441 0.683162 0.867521
0.000000 0.549035 0.866239
0.000000 0.546777 0.866789
0.000000 0.539757 0.868345
0.355413 0.541131 0.871611
0.584924 0.584710 0.875090
0.762264 0.651667 0.879789
0.882780 0.708034 0.882750
0.937072 0.784909 0.879088
0.000000 0.721340 0.872618
0.000000 0.721187 0.872862
0.239414 0.722255 0.873564
0.448524 0.730800 0.873747
0.644923 0.755337 0.872648
0.791409 0.791379 0.875669
0.883055 0.818326 0.883024
0.930632 0.860166 0.892729
0.256504 0.877317 0.877348
0.300969 0.877440 0.877440
0.424384 0.877562 0.877562
0.576959 0.877745 0.877775
0.714900 0.878477 0.878508
0.814237 0.880674 0.880674
0.884825 0.884794 0.884794
0.928588 0.905699 0.906065
0.563684 0.952361 0.862028
0.583642 0.950927 0.863066
0.642573 0.946441 0.866667
0.717861 0.940307 0.872221
0.791562 0.933989 0.879301
0.855375 0.928466 0.888579
0.901732 0.925322 0.900908
0.926085 0.925536 0.900450
0.135348 0.133791 0.943511
0.180545 0.127565 0.943755
0.284184 0.104555 0.944549
0.407904 0.060304 0.945830
0.543297 0.072267 0.947021
0.684871 0.173434 0.947509
0.822354 0.294224 0.946136
0.941619 0.459815 0.941588
0.083253 0.152743 0.943877
0.149477 0.148318 0.944091
0.269810 0.133608 0.944854
0.401923 0.117647 0.945922
0.542016 0.141085 0.946929
0.685420 0.218173 0.947204
0.823453 0.332250 0.945556
0.940734 0.492836 0.940673
0.000000 0.224002 0.944640
0.000000 0.223941 0.944793
0.226200 0.225803 0.945251
0.388190 0.237339 0.945861
0.540734 0.269932 0.946288
0.689723 0.336492 0.945861
0.829648 0.454383 0.942870
0.937499 0.590845 0.937499
0.000000 0.353674 0.944152
0.000000 0.355932 0.944182
0.187289 0.364416 0.944335
0.384741 0.384436 0.944396
0.552941 0.426764 0.943786
0.712978 0.510979 0.941436
0.845457 0.620813 0.937133
0.933165 0.703883 0.933135
0.000000 0.523278 0.941222
0.000000 0.524010 0.941222
0.248447 0.531060 0.940917
0.451972 0.566949 0.938903
0.620996 0.620874 0.936675
0.762722 0.689754 0.933684
0.864652 0.754238 0.931273
0.929656 0.793881 0.929656
0.241642 0.686030 0.937285
0.281865 0.688289 0.937011
0.396155 0.698604 0.935851
0.544640 0.722896 0.933227
0.698054 0.766598 0.929229
0.805966 0.805936 0.927337
0.879362 0.837552 0.927459
0.927642 0.860288 0.927642
0.477058 0.831266 0.931609
0.500542 0.833158 0.931273
0.572107 0.839536 0.930144
0.667109 0.850187 0.928344
0.757046 0.862425 0.926452
0.830869 0.874662 0.924956
0.891112 0.891112 0.925109
0.927459 0.903593 0.927459
0.654566 0.927337 0.927337
0.666377 0.927214 0.927214
0.702907 0.926848 0.926879
0.754818 0.926421 0.926421
0.810086 0.926024 0.926055
0.861418 0.925994 0.925994
0.901122 0.926574 0.926574
0.928130 0.928130 0.928130
