cubelut/Moody7.cube
# Created by Adobe Lightroom plugin Export LUT (1.18.0)
# www.johnrellis.com/lightroom/exportlut.htm
# Preset: CP - INTERIOR DESIGN 29
# Color profile: /Library/Application Support/Adobe/Color/Profiles/Recommended/AdobeRGB1998.icc
LUT_3D_SIZE 32
DOMAIN_MIN 0.0 0.0 0.0
DOMAIN_MAX 1.0 1.0 1.0
0.047089 0.045197 0.056733
0.065003 0.045838 0.057710
0.078981 0.047059 0.057618
0.104524 0.049317 0.057862
0.132540 0.051514 0.057099
0.159762 0.052461 0.057343
0.186069 0.053590 0.056062
0.211246 0.054597 0.053407
0.235569 0.055543 0.052644
0.259342 0.056245 0.053742
0.283513 0.055177 0.055787
0.308507 0.055512 0.058289
0.334691 0.054871 0.060029
0.362829 0.053956 0.062013
0.393133 0.053346 0.063722
0.426184 0.051301 0.063722
0.462287 0.049409 0.062409
0.501915 0.047120 0.058991
0.544945 0.049073 0.048829
0.591821 0.055756 0.027649
0.640620 0.064240 0.000000
0.689570 0.075837 0.000000
0.737057 0.088930 0.000000
0.781796 0.102632 0.000000
0.823331 0.115724 0.000000
0.861936 0.128695 0.000000
0.897826 0.140719 0.000000
0.931151 0.152316 0.000000
0.962158 0.162478 0.000000
0.990906 0.172305 0.000000
1.000000 0.181155 0.000000
1.000000 0.189242 0.000000
0.046937 0.063386 0.059693
0.065492 0.063539 0.059785
0.080049 0.063478 0.058289
0.105348 0.064698 0.056886
0.133639 0.065187 0.055390
0.160708 0.065614 0.054810
0.187015 0.065217 0.054475
0.212009 0.065278 0.054322
0.236118 0.065370 0.054475
0.260044 0.065095 0.055604
0.284154 0.064576 0.057649
0.309148 0.064179 0.059052
0.335332 0.064210 0.061433
0.363531 0.064027 0.063355
0.393927 0.063539 0.064210
0.426978 0.062745 0.065003
0.463203 0.061860 0.063203
0.502831 0.061921 0.059663
0.545892 0.063172 0.049165
0.592767 0.067140 0.027863
0.641535 0.074708 0.000000
0.690333 0.085115 0.000000
0.737728 0.096559 0.000000
0.782345 0.109529 0.000000
0.823789 0.122194 0.000000
0.862303 0.134554 0.000000
0.898100 0.145968 0.000000
0.931365 0.157137 0.000000
0.962310 0.167330 0.000000
0.991028 0.176608 0.000000
1.000000 0.185122 0.000000
1.000000 0.192935 0.000000
0.046174 0.077028 0.062318
0.067659 0.076844 0.062348
0.081270 0.076844 0.061891
0.106172 0.077119 0.059937
0.134707 0.077363 0.058686
0.161959 0.076509 0.058320
0.187808 0.076295 0.057191
0.212833 0.075563 0.057191
0.236973 0.075166 0.057374
0.260716 0.074617 0.058595
0.284916 0.074006 0.059693
0.309941 0.073610 0.061067
0.336278 0.073030 0.063050
0.364446 0.073213 0.064912
0.394842 0.073426 0.065980
0.428138 0.072755 0.065858
0.464424 0.072908 0.063996
0.504021 0.073610 0.060365
0.547143 0.075044 0.050294
0.594079 0.079500 0.027832
0.642725 0.086366 0.000000
0.691402 0.095308 0.000000
0.738674 0.106996 0.000000
0.783108 0.118593 0.000000
0.824430 0.130556 0.000000
0.862821 0.142031 0.000000
0.898497 0.153201 0.000000
0.931670 0.163760 0.000000
0.962554 0.173129 0.000000
0.991211 0.182010 0.000000
1.000000 0.190066 0.000000
1.000000 0.197574 0.000000
0.043519 0.100954 0.068025
0.068208 0.100862 0.069978
0.084840 0.100771 0.068696
0.108003 0.100557 0.067018
0.135378 0.098817 0.064607
0.164157 0.098268 0.061219
0.190066 0.096071 0.060853
0.214847 0.094606 0.060975
0.238804 0.093172 0.060792
0.262547 0.092042 0.061952
0.286748 0.091157 0.063050
0.311803 0.090669 0.064820
0.338170 0.090364 0.066560
0.366491 0.090517 0.068177
0.397070 0.090364 0.068421
0.430457 0.091005 0.068086
0.466987 0.091493 0.066560
0.506889 0.092805 0.062409
0.550072 0.095674 0.053437
0.596826 0.100496 0.030274
0.645380 0.107057 0.000000
0.693721 0.115846 0.000000
0.740658 0.125887 0.000000
0.784726 0.136141 0.000000
0.825742 0.146883 0.000000
0.863890 0.157321 0.000000
0.899351 0.167056 0.000000
0.932372 0.176638 0.000000
0.963073 0.185306 0.000000
0.991577 0.193332 0.000000
1.000000 0.200717 0.000000
1.000000 0.207523 0.000000
0.038117 0.128054 0.076143
0.064515 0.128145 0.076814
0.083742 0.127840 0.078676
0.110536 0.127840 0.076143
0.136629 0.127077 0.073945
0.163394 0.123873 0.070649
0.192172 0.122499 0.066957
0.217777 0.119814 0.065644
0.241581 0.117128 0.066499
0.265263 0.115297 0.067659
0.289403 0.113619 0.068360
0.314611 0.112795 0.069947
0.341222 0.112490 0.071504
0.369787 0.112490 0.072206
0.400580 0.112886 0.072602
0.434272 0.113802 0.071382
0.470985 0.115023 0.069276
0.511101 0.117372 0.065003
0.554498 0.120912 0.056672
0.601312 0.126314 0.033295
0.649409 0.133150 0.000061
0.697383 0.141299 0.000000
0.743801 0.150759 0.000000
0.787381 0.160037 0.000000
0.827878 0.169406 0.000000
0.865599 0.178500 0.000000
0.900694 0.187259 0.000000
0.933440 0.195224 0.000000
0.963867 0.202853 0.000000
0.992157 0.209934 0.000000
1.000000 0.216312 0.000000
1.000000 0.222293 0.000000
0.031983 0.155154 0.084810
0.055604 0.155520 0.082094
0.080415 0.155215 0.088746
0.107362 0.155306 0.086244
0.137331 0.155032 0.083589
0.164828 0.154269 0.080995
0.190311 0.149538 0.078798
0.218204 0.147433 0.075563
0.245121 0.145449 0.073121
0.268772 0.142031 0.074128
0.293095 0.139986 0.075196
0.318456 0.138399 0.076326
0.345281 0.137728 0.077394
0.374151 0.137728 0.077577
0.405371 0.138277 0.077119
0.439399 0.139712 0.075715
0.476509 0.141848 0.072938
0.516960 0.144930 0.067994
0.560479 0.149111 0.060334
0.607202 0.155001 0.037629
0.654841 0.162448 0.001923
0.702266 0.170169 0.000000
0.747921 0.178866 0.000000
0.790829 0.187625 0.000000
0.830716 0.195743 0.000000
0.867887 0.203464 0.000000
0.902586 0.210971 0.000000
0.934844 0.217990 0.000000
0.964935 0.224460 0.000000
0.992981 0.230289 0.000000
1.000000 0.235660 0.000000
1.000000 0.240604 0.000000
0.021637 0.182345 0.094240
0.045655 0.182712 0.091646
0.071168 0.182956 0.092897
0.103243 0.182742 0.096590
0.134707 0.182895 0.093660
0.164004 0.182437 0.091310
0.191684 0.181643 0.089296
0.216037 0.175753 0.087831
0.243473 0.173129 0.085451
0.271153 0.171420 0.083284
0.297673 0.169436 0.082765
0.323278 0.167269 0.083284
0.350500 0.166232 0.083925
0.379828 0.165957 0.083680
0.411505 0.166659 0.082734
0.445991 0.168399 0.080781
0.483650 0.171115 0.077119
0.524590 0.174807 0.071565
0.568261 0.179965 0.062715
0.614649 0.186343 0.041932
0.661769 0.193851 0.004913
0.708339 0.201633 0.000000
0.753170 0.209873 0.000000
0.795102 0.217380 0.000000
0.834257 0.224674 0.000000
0.870726 0.231540 0.000000
0.904845 0.237705 0.000000
0.936614 0.243503 0.000000
0.966308 0.248692 0.000000
0.993957 0.253544 0.000000
1.000000 0.257786 0.000000
1.000000 0.261662 0.000000
0.011170 0.209415 0.104280
0.032685 0.209781 0.101747
0.059327 0.210208 0.098054
0.098512 0.210025 0.107485
0.129732 0.210178 0.105440
0.162081 0.210330 0.102754
0.189914 0.209781 0.101228
0.217563 0.209079 0.099672
0.241123 0.202213 0.098817
0.269047 0.199863 0.096498
0.297978 0.198947 0.094392
0.328679 0.199374 0.091646
0.356786 0.197848 0.091066
0.386755 0.197452 0.090181
0.419043 0.198215 0.088808
0.454108 0.200015 0.086091
0.492409 0.203281 0.081849
0.533806 0.207614 0.075685
0.577722 0.213291 0.065858
0.623682 0.220157 0.047028
0.669947 0.227604 0.007874
0.715633 0.235294 0.000000
0.759335 0.242771 0.000000
0.800259 0.249607 0.000000
0.838407 0.255863 0.000000
0.874174 0.261540 0.000000
0.907530 0.266758 0.000000
0.938750 0.271336 0.000000
0.967895 0.275547 0.000000
0.995117 0.279149 0.000000
1.000000 0.282353 0.000000
1.000000 0.285130 0.000000
0.001343 0.236393 0.115084
0.022644 0.236698 0.113039
0.051026 0.237095 0.110262
0.091920 0.237156 0.116945
0.125277 0.237400 0.118715
0.156588 0.237675 0.116457
0.188479 0.237949 0.113588
0.215427 0.237400 0.112062
0.243198 0.236667 0.110506
0.266392 0.229740 0.110018
0.295659 0.228367 0.107668
0.326757 0.228519 0.104707
0.360357 0.230564 0.100984
0.395026 0.232517 0.097505
0.428168 0.233310 0.095460
0.463996 0.235447 0.091737
0.503075 0.238865 0.086671
0.545129 0.243870 0.079133
0.588922 0.249821 0.069123
0.634211 0.256687 0.051026
0.679530 0.264042 0.009827
0.724056 0.271153 0.000000
0.766445 0.277836 0.000000
0.806180 0.283787 0.000000
0.843320 0.288945 0.000000
0.878080 0.293462 0.000000
0.910674 0.297459 0.000000
0.941192 0.300999 0.000000
0.969787 0.303960 0.000000
0.996521 0.306401 0.000000
1.000000 0.308507 0.000000
1.000000 0.310369 0.000000
0.000000 0.263737 0.125704
0.011078 0.264042 0.124453
0.039307 0.264500 0.121950
0.081605 0.264988 0.122957
0.121370 0.265080 0.132143
0.152346 0.265568 0.129976
0.184024 0.266178 0.127443
0.214359 0.266423 0.125124
0.241733 0.266026 0.123507
0.269657 0.265568 0.121675
0.293065 0.258549 0.121431
0.324407 0.258671 0.118257
0.358251 0.260685 0.114626
0.395483 0.264775 0.109743
0.436835 0.270817 0.102907
0.475715 0.274388 0.097627
0.515740 0.278202 0.091188
0.558099 0.283299 0.082826
0.601740 0.289433 0.071931
0.646021 0.295964 0.053956
0.690364 0.302770 0.011872
0.733486 0.309117 0.000000
0.774411 0.314672 0.000000
0.812772 0.319493 0.000000
0.848783 0.323430 0.000000
0.882536 0.326818 0.000000
0.914244 0.329656 0.000000
0.943969 0.331945 0.000000
0.971893 0.333776 0.000000
0.998047 0.335088 0.000000
1.000000 0.336278 0.000000
1.000000 0.337102 0.000000
0.000000 0.292424 0.136843
0.000000 0.292760 0.135714
0.023377 0.293156 0.133639
0.067994 0.294011 0.129702
0.118502 0.293858 0.145480
0.148714 0.294682 0.143648
0.180026 0.295537 0.141421
0.212406 0.296544 0.138460
0.241764 0.296788 0.136355
0.269566 0.296605 0.134676
0.297948 0.296330 0.132723
0.321691 0.289555 0.132113
0.355901 0.291752 0.128267
0.393408 0.296025 0.123110
0.435004 0.302678 0.116274
0.481147 0.311864 0.107637
0.530297 0.321752 0.095918
0.572992 0.326940 0.086488
0.615930 0.332372 0.074586
0.659297 0.338048 0.057252
0.702235 0.343786 0.013642
0.743801 0.348913 0.000000
0.783139 0.353368 0.000000
0.820035 0.356756 0.000000
0.854765 0.359503 0.000000
0.887388 0.361486 0.000000
0.918120 0.363012 0.000000
0.947051 0.364050 0.000000
0.974243 0.364721 0.000000
0.999756 0.364935 0.000000
1.000000 0.365026 0.000000
1.000000 0.364904 0.000000
0.000000 0.323033 0.147677
0.000000 0.323339 0.146487
0.000458 0.323796 0.145052
0.058900 0.324559 0.141970
0.107546 0.325170 0.151186
0.145235 0.325780 0.156802
0.176547 0.326970 0.154696
0.208988 0.328222 0.152010
0.242832 0.329717 0.148775
0.271305 0.329900 0.146670
0.299870 0.329992 0.144686
0.329076 0.330053 0.142397
0.353185 0.323339 0.141604
0.391089 0.328130 0.136477
0.432898 0.335302 0.129793
0.479225 0.344976 0.121096
0.530602 0.357275 0.108705
0.584833 0.370886 0.092195
0.631647 0.378607 0.076509
0.673732 0.383154 0.059327
0.715084 0.387304 0.015076
0.754879 0.390875 0.000000
0.792447 0.393408 0.000000
0.827878 0.395361 0.000000
0.861265 0.396521 0.000000
0.892699 0.397070 0.000000
0.922393 0.397284 0.000000
0.950378 0.397070 0.000000
0.976745 0.396643 0.000000
1.000000 0.395727 0.000000
1.000000 0.394781 0.000000
1.000000 0.393683 0.000000
0.000000 0.356329 0.158267
0.000000 0.356664 0.157290
0.000000 0.357092 0.155825
0.025147 0.358068 0.152773
0.091615 0.359106 0.155520
0.140566 0.359747 0.168826
0.172885 0.361181 0.166842
0.205905 0.362707 0.164309
0.240299 0.364538 0.160983
0.274449 0.366217 0.157626
0.303532 0.366644 0.155673
0.333349 0.366949 0.153292
0.363775 0.367468 0.150729
0.388525 0.360662 0.149783
0.430610 0.368261 0.142763
0.477180 0.378790 0.134066
0.528710 0.391699 0.122255
0.582940 0.405768 0.106874
0.636713 0.418891 0.087587
0.689174 0.430549 0.060060
0.728756 0.432746 0.017609
0.766567 0.434150 0.000000
0.802365 0.434882 0.000000
0.836179 0.434913 0.000000
0.868193 0.434455 0.000000
0.898344 0.433661 0.000000
0.926940 0.432441 0.000000
0.953948 0.430915 0.000000
0.979492 0.429175 0.000000
1.000000 0.427222 0.000000
1.000000 0.425177 0.000000
1.000000 0.423072 0.000000
0.000000 0.393042 0.168673
0.000000 0.393378 0.167605
0.000000 0.393805 0.166262
0.000000 0.394842 0.163149
0.063081 0.396368 0.158999
0.130220 0.397131 0.176486
0.168185 0.398657 0.178042
0.202853 0.400549 0.175448
0.238224 0.402716 0.172335
0.274846 0.405158 0.168551
0.309087 0.406836 0.165225
0.339849 0.407538 0.162692
0.371099 0.408240 0.159854
0.402960 0.409094 0.156649
0.427497 0.401373 0.155825
0.475105 0.412848 0.146822
0.526635 0.426398 0.135286
0.580896 0.441047 0.121004
0.634852 0.454292 0.103334
0.687434 0.465949 0.081422
0.737179 0.475288 0.041840
0.778744 0.478828 0.000000
0.812711 0.477363 0.000000
0.844938 0.475563 0.000000
0.875425 0.473365 0.000000
0.904295 0.470893 0.000000
0.931701 0.468177 0.000000
0.957702 0.465309 0.000000
0.982361 0.462379 0.000000
1.000000 0.459358 0.000000
1.000000 0.456306 0.000000
1.000000 0.453223 0.000000
0.000000 0.433509 0.178500
0.000000 0.433845 0.177523
0.000000 0.434272 0.175998
0.000000 0.435462 0.172641
0.000000 0.437171 0.167025
0.108675 0.438605 0.178012
0.160739 0.440162 0.187442
0.198123 0.442206 0.185000
0.235782 0.444739 0.181888
0.274327 0.447578 0.178134
0.313725 0.450629 0.173709
0.348058 0.452216 0.170321
0.380591 0.453162 0.167422
0.413825 0.454261 0.163821
0.447395 0.455360 0.160006
0.471717 0.446448 0.159426
0.524559 0.461372 0.147982
0.578882 0.476326 0.133913
0.632868 0.489754 0.117647
0.685603 0.501396 0.098573
0.735317 0.510307 0.074891
0.780819 0.516411 0.024842
0.822171 0.520043 0.000000
0.853880 0.517052 0.000000
0.882872 0.512963 0.000000
0.910460 0.508873 0.000000
0.936675 0.504662 0.000000
0.961608 0.500450 0.000000
0.985321 0.496223 0.000000
1.000000 0.492073 0.000000
1.000000 0.487892 0.000000
1.000000 0.483803 0.000000
0.000000 0.478279 0.188144
0.000000 0.478614 0.187076
0.000000 0.479194 0.185367
0.000000 0.480323 0.181491
0.000000 0.482124 0.175143
0.067750 0.484138 0.177890
0.148196 0.485817 0.195132
0.190768 0.488258 0.192721
0.232090 0.491005 0.189548
0.273320 0.494087 0.185733
0.315129 0.497475 0.181247
0.358007 0.501213 0.175967
0.392187 0.502220 0.172824
0.426947 0.503471 0.169100
0.462074 0.504723 0.164950
0.497566 0.506126 0.160159
0.520653 0.495277 0.160403
0.576715 0.511650 0.146456
0.630976 0.525261 0.131136
0.683711 0.536797 0.113985
0.733425 0.545525 0.093751
0.778927 0.551171 0.070375
0.820340 0.554253 0.021057
0.857969 0.555291 0.000000
0.890532 0.553368 0.000000
0.916747 0.547509 0.000000
0.941741 0.541680 0.000000
0.965606 0.536034 0.000000
0.988373 0.530541 0.000000
1.000000 0.525170 0.000000
1.000000 0.519921 0.000000
1.000000 0.514885 0.000000
0.000000 0.527184 0.197604
0.000000 0.527550 0.196292
0.000000 0.528161 0.194400
0.000000 0.529412 0.190005
0.000000 0.531365 0.182864
0.000000 0.533867 0.175692
0.118471 0.535729 0.193484
0.179446 0.538109 0.198611
0.226078 0.540887 0.195407
0.271183 0.543969 0.191531
0.316197 0.547509 0.187137
0.361547 0.551141 0.181704
0.405005 0.554314 0.176181
0.441230 0.555383 0.172335
0.477790 0.556420 0.167941
0.514366 0.557549 0.163058
0.551080 0.558831 0.157565
0.574884 0.547662 0.157809
0.629053 0.560815 0.143435
0.681880 0.572320 0.127565
0.731594 0.580804 0.110384
0.777035 0.585962 0.091737
0.818418 0.588495 0.070619
0.856077 0.588922 0.030243
0.890318 0.587793 0.000000
0.921508 0.585351 0.000000
0.946868 0.579248 0.000000
0.969635 0.572137 0.000000
0.991455 0.565179 0.000000
1.000000 0.558618 0.000000
1.000000 0.552300 0.000000
1.000000 0.546197 0.000000
0.000000 0.579004 0.207340
0.000000 0.579370 0.205570
0.000000 0.579980 0.203464
0.000000 0.581140 0.198428
0.000000 0.583093 0.189914
0.000000 0.585718 0.176791
0.052796 0.587823 0.189364
0.161807 0.589929 0.203159
0.216617 0.592615 0.199985
0.266819 0.595514 0.196231
0.315404 0.598596 0.191775
0.363561 0.601862 0.186374
0.411749 0.605310 0.180209
0.454719 0.607477 0.174685
0.492470 0.608179 0.170230
0.530114 0.609033 0.165225
0.567956 0.609949 0.159640
0.605615 0.610956 0.153140
0.630701 0.600153 0.153079
0.679957 0.607935 0.140322
0.729671 0.616114 0.124758
0.775082 0.620783 0.109255
0.816434 0.622797 0.092805
0.854124 0.622705 0.075654
0.888396 0.620874 0.051789
0.919615 0.617853 0.003693
0.948089 0.613764 0.000000
0.973693 0.608606 0.000000
0.994537 0.600336 0.000000
1.000000 0.592432 0.000000
1.000000 0.584955 0.000000
1.000000 0.577874 0.000000
0.000000 0.631678 0.217197
0.000000 0.632044 0.215305
0.000000 0.632532 0.212863
0.000000 0.633692 0.207370
0.000000 0.635431 0.197818
0.000000 0.637842 0.183352
0.000000 0.640131 0.184024
0.130831 0.641962 0.204044
0.202731 0.644251 0.204410
0.259220 0.646662 0.200717
0.312200 0.649287 0.196201
0.363409 0.651972 0.191104
0.413794 0.654871 0.185092
0.463844 0.657801 0.177951
0.505089 0.658717 0.172824
0.543664 0.659113 0.167727
0.582208 0.659602 0.162051
0.620508 0.660060 0.155642
0.658808 0.660548 0.148806
0.684749 0.649989 0.148257
0.727749 0.651606 0.138399
0.773068 0.655818 0.124727
0.814481 0.657191 0.111635
0.852140 0.656489 0.098756
0.886412 0.654047 0.085786
0.917662 0.650355 0.071412
0.946197 0.645655 0.052735
0.972229 0.640192 0.015747
0.996155 0.634272 0.000000
1.000000 0.626490 0.000000
1.000000 0.617853 0.000000
1.000000 0.609766 0.000000
0.000000 0.683131 0.227420
0.000000 0.683436 0.225559
0.000000 0.683925 0.222843
0.000000 0.684932 0.216892
0.000000 0.686458 0.206638
0.000000 0.688594 0.190921
0.000000 0.690852 0.178683
0.061616 0.692378 0.199130
0.183597 0.694026 0.209506
0.248600 0.695949 0.205936
0.306279 0.698024 0.201663
0.360601 0.700099 0.196750
0.413214 0.702205 0.190951
0.464607 0.704372 0.184512
0.514794 0.706355 0.176974
0.553918 0.706233 0.172244
0.592920 0.706203 0.166690
0.631586 0.706081 0.160739
0.670069 0.705898 0.153902
0.708309 0.705776 0.146395
0.734798 0.695369 0.145724
0.771023 0.691066 0.139376
0.812375 0.691798 0.128634
0.850004 0.690394 0.118532
0.884367 0.687282 0.109224
0.915648 0.682918 0.100008
0.944182 0.677577 0.091096
0.970306 0.671534 0.082094
0.994232 0.664973 0.072358
1.000000 0.658045 0.059388
1.000000 0.650935 0.025269
1.000000 0.641840 0.005585
0.000000 0.731533 0.238132
0.000000 0.731868 0.236149
0.000000 0.732235 0.233341
0.000000 0.733089 0.227024
0.000000 0.734401 0.216434
0.000000 0.736172 0.200504
0.000000 0.738399 0.176669
0.000000 0.739528 0.194980
0.158633 0.740444 0.216617
0.234562 0.741848 0.213260
0.297368 0.743252 0.209171
0.354955 0.744594 0.204623
0.409369 0.745998 0.199344
0.462104 0.747311 0.193393
0.513390 0.748562 0.186465
0.560479 0.749233 0.179568
0.599603 0.748592 0.174624
0.638392 0.748013 0.169039
0.676905 0.747341 0.162814
0.715023 0.746578 0.156100
0.752926 0.745846 0.148226
0.779843 0.735744 0.147189
0.810208 0.726589 0.144747
0.847929 0.724392 0.136629
0.882261 0.720577 0.129671
0.913512 0.715572 0.123445
0.942077 0.709560 0.117983
0.968231 0.702876 0.113161
0.992218 0.695705 0.107973
1.000000 0.688258 0.102632
1.000000 0.680629 0.096223
1.000000 0.672969 0.087587
0.000000 0.775570 0.249088
0.000000 0.775845 0.247166
0.000000 0.776120 0.244358
0.000000 0.776822 0.238163
0.000000 0.777920 0.227756
0.000000 0.779324 0.212039
0.000000 0.781094 0.189303
0.000000 0.782193 0.192691
0.112581 0.782712 0.216709
0.218235 0.783322 0.223301
0.286320 0.784207 0.219669
0.346960 0.784970 0.215457
0.403235 0.785733 0.210666
0.456794 0.786404 0.205234
0.508690 0.786984 0.199069
0.559350 0.787472 0.192020
0.602930 0.787076 0.186252
0.641718 0.786099 0.181033
0.680079 0.785061 0.175479
0.718135 0.783902 0.169345
0.755825 0.782742 0.162600
0.793149 0.781460 0.154971
0.820371 0.771817 0.153689
0.845640 0.758694 0.154421
0.880003 0.754055 0.149203
0.911315 0.748318 0.144930
0.939940 0.741634 0.141695
0.966094 0.734279 0.138796
0.990112 0.726528 0.136568
1.000000 0.718502 0.134218
1.000000 0.710384 0.131594
1.000000 0.702235 0.128054
0.000000 0.815091 0.260380
0.000000 0.815274 0.258488
0.000000 0.815549 0.255833
0.000000 0.816068 0.249790
0.000000 0.816892 0.239719
0.000000 0.818051 0.224979
0.000000 0.819486 0.203830
0.000000 0.820676 0.192782
0.000000 0.820768 0.217777
0.200168 0.820768 0.236545
0.274266 0.821134 0.233310
0.337346 0.821500 0.229557
0.395026 0.821775 0.225223
0.449836 0.821866 0.220432
0.502007 0.821958 0.214878
0.552728 0.821958 0.208652
0.602167 0.821775 0.201694
0.642359 0.820676 0.196689
0.680507 0.819303 0.191989
0.718288 0.817899 0.186557
0.755642 0.816403 0.180728
0.792660 0.814817 0.174258
0.829343 0.813199 0.167117
0.856779 0.803983 0.165255
0.877653 0.787808 0.168215
0.908995 0.781155 0.165591
0.937621 0.773739 0.164096
0.963836 0.765774 0.163027
0.987884 0.757382 0.162417
1.000000 0.748745 0.162112
1.000000 0.740108 0.161868
1.000000 0.731594 0.161440
0.000000 0.850645 0.271885
0.000000 0.850797 0.270268
0.000000 0.850980 0.267613
0.000000 0.851408 0.261875
0.000000 0.852079 0.252598
0.000000 0.852995 0.239048
0.000000 0.854124 0.220279
0.000000 0.855406 0.195499
0.000000 0.855131 0.221195
0.178470 0.854582 0.248936
0.262730 0.854520 0.250309
0.327703 0.854520 0.246921
0.386725 0.854398 0.243137
0.441810 0.854154 0.238865
0.494148 0.853819 0.233951
0.544732 0.853422 0.228489
0.594049 0.852811 0.222538
0.641138 0.852018 0.216220
0.678828 0.850492 0.211826
0.716213 0.848814 0.207218
0.753140 0.847135 0.202274
0.789731 0.845335 0.196658
0.825956 0.843503 0.190738
0.861845 0.841520 0.184298
0.889403 0.832914 0.181949
0.906554 0.814298 0.186252
0.935210 0.805875 0.186099
0.961456 0.797208 0.186496
0.985534 0.788235 0.187594
1.000000 0.779049 0.188907
1.000000 0.769924 0.190585
1.000000 0.760952 0.192508
0.000000 0.882689 0.283574
0.000000 0.882780 0.282048
0.000000 0.882963 0.279667
0.000000 0.883299 0.274479
0.000000 0.883787 0.266148
0.000000 0.884489 0.254154
0.000000 0.885344 0.237766
0.000000 0.886351 0.215671
0.000000 0.886229 0.227695
0.144869 0.885374 0.256229
0.253025 0.884672 0.271031
0.319829 0.884367 0.268070
0.379156 0.883940 0.264714
0.434089 0.883452 0.260777
0.486244 0.882811 0.256748
0.536431 0.882078 0.251896
0.585229 0.881163 0.246738
0.632776 0.880156 0.240909
0.675898 0.878782 0.235599
0.712642 0.877043 0.231601
0.748989 0.875181 0.227298
0.785031 0.873228 0.222629
0.820737 0.871183 0.217655
0.856077 0.869108 0.211978
0.891020 0.866941 0.206271
0.918700 0.858946 0.203708
0.932738 0.838529 0.208560
0.958892 0.828702 0.210391
0.983001 0.819059 0.212772
1.000000 0.809293 0.215610
1.000000 0.799680 0.218997
1.000000 0.790311 0.222995
0.000000 0.911650 0.295750
0.000000 0.911742 0.294224
0.000000 0.911864 0.292119
0.000000 0.912108 0.287572
0.000000 0.912474 0.280217
0.000000 0.912993 0.269902
0.000000 0.913634 0.256138
0.000000 0.914336 0.238102
0.000000 0.914427 0.237095
0.105501 0.913298 0.266270
0.248722 0.911833 0.295811
0.314824 0.911345 0.293187
0.373571 0.910735 0.290318
0.428016 0.909972 0.286931
0.479347 0.909148 0.283268
0.528740 0.908171 0.279118
0.576654 0.907042 0.274601
0.623377 0.905791 0.269535
0.669093 0.904387 0.264042
0.708339 0.902647 0.259464
0.743984 0.900725 0.255833
0.779324 0.898711 0.251865
0.814328 0.896605 0.247715
0.848936 0.894438 0.243229
0.883268 0.892149 0.238163
0.917296 0.889830 0.233005
0.944976 0.882475 0.230198
0.956725 0.861051 0.235050
0.980285 0.849851 0.238682
1.000000 0.839567 0.242924
1.000000 0.829435 0.248020
1.000000 0.819669 0.254063
0.000000 0.937896 0.308263
0.000000 0.937957 0.307012
0.000000 0.938018 0.305150
0.000000 0.938201 0.301305
0.000000 0.938476 0.294896
0.000000 0.938842 0.286351
0.000000 0.939239 0.275090
0.000000 0.939727 0.261082
0.000000 0.940002 0.249760
0.055634 0.938659 0.279942
0.238621 0.936797 0.312993
0.315801 0.935668 0.322911
0.372442 0.934874 0.320287
0.425025 0.934020 0.317418
0.475013 0.932982 0.314122
0.522942 0.931853 0.310521
0.569574 0.930571 0.306554
0.614984 0.929198 0.302159
0.659541 0.927642 0.297368
0.703334 0.925933 0.291997
0.738796 0.923980 0.288579
0.773190 0.921965 0.285344
0.807340 0.919829 0.281712
0.841154 0.917632 0.277867
0.874723 0.915312 0.273808
0.907927 0.912963 0.269413
0.940948 0.910491 0.264561
0.968536 0.903838 0.261753
0.978515 0.881926 0.266270
0.999664 0.869657 0.271336
1.000000 0.859037 0.278202
1.000000 0.848905 0.286351
0.000000 0.961669 0.321263
0.000000 0.961730 0.320256
0.000000 0.961791 0.318853
0.000000 0.961913 0.315587
0.000000 0.962066 0.310491
0.000000 0.962249 0.303746
0.000000 0.962493 0.295171
0.000000 0.962737 0.284916
0.000000 0.962921 0.273533
0.000000 0.961608 0.297093
0.232578 0.959503 0.331426
0.325261 0.957427 0.357916
0.377935 0.956573 0.355688
0.427619 0.955596 0.353155
