cubelut/Moody4.cube
# Created by Adobe Lightroom plugin Export LUT (1.18.0)
# www.johnrellis.com/lightroom/exportlut.htm
# Preset: SP-11
# Color profile: /Library/Application Support/Adobe/Color/Profiles/Recommended/AdobeRGB1998.icc
LUT_3D_SIZE 5
DOMAIN_MIN 0.000000 0.000000 0.000000
DOMAIN_MAX 0.903226 0.903226 0.903226
0.208743 0.208743 0.208743
0.220096 0.209506 0.209689
0.347875 0.207553 0.210422
0.760891 0.174838 0.200870
1.000000 0.282475 0.310582
0.210666 0.221622 0.210300
0.224460 0.224155 0.210605
0.361334 0.245579 0.209567
0.767117 0.283330 0.196567
1.000000 0.361151 0.318730
0.216678 0.362158 0.209140
0.263188 0.366552 0.211002
0.399359 0.396307 0.203983
0.775235 0.508019 0.179049
0.998138 0.539391 0.342901
0.245823 0.753964 0.197879
0.346899 0.756741 0.209140
0.565270 0.764828 0.253178
0.792599 0.785306 0.219303
0.979950 0.756283 0.376928
0.511070 0.955444 0.486152
0.562524 0.952239 0.508263
0.700832 0.941588 0.584985
0.831754 0.931273 0.662409
0.931487 0.926696 0.666133
0.208957 0.208865 0.219089
0.221592 0.209445 0.221653
0.361761 0.193820 0.242679
0.783841 0.066255 0.272129
1.000000 0.340917 0.416175
0.209628 0.223758 0.223697
0.225711 0.225711 0.225711
0.378180 0.234562 0.237461
0.787259 0.252262 0.270603
1.000000 0.405432 0.422461
0.196017 0.373175 0.243961
0.245975 0.381201 0.239536
0.406378 0.403632 0.240909
0.791440 0.501152 0.261662
0.992920 0.565087 0.442115
0.154757 0.765347 0.257420
0.314366 0.768002 0.281407
0.560510 0.773159 0.322301
0.795163 0.788357 0.301213
0.975128 0.763149 0.469459
0.545281 0.952483 0.555901
0.593378 0.949187 0.575921
0.721279 0.938842 0.642237
0.841642 0.929198 0.710903
0.930266 0.926146 0.708888
0.205783 0.205692 0.333013
0.241978 0.201785 0.345403
0.377874 0.179477 0.377966
0.781338 0.000000 0.511406
0.983856 0.477424 0.631525
0.180911 0.231876 0.352300
0.224369 0.224338 0.362890
0.392157 0.217594 0.392218
0.797665 0.186648 0.513024
0.971374 0.598962 0.683955
0.146120 0.398077 0.398016
0.209232 0.405097 0.405188
0.426093 0.426093 0.426093
0.819913 0.529778 0.535485
0.957031 0.726253 0.730404
0.000000 0.785122 0.512535
0.212314 0.790219 0.506523
0.542687 0.795163 0.531029
0.801450 0.796994 0.543786
0.950835 0.810941 0.717830
0.539635 0.953796 0.648035
0.613977 0.947753 0.679927
0.762356 0.933593 0.755520
0.861601 0.925536 0.802823
0.927855 0.925200 0.794522
0.172549 0.172061 0.708553
0.273411 0.151125 0.720302
0.500633 0.000000 0.754879
0.789364 0.000000 0.789425
0.974945 0.378088 0.766659
0.000000 0.212467 0.725124
0.200015 0.199771 0.734676
0.488228 0.158145 0.764706
0.795377 0.144503 0.795438
0.967559 0.501732 0.780789
0.000000 0.472145 0.754086
0.000000 0.459510 0.759762
0.443091 0.442908 0.782528
0.806332 0.522881 0.806271
0.944091 0.751247 0.834928
0.000000 0.794003 0.794064
0.110323 0.796323 0.796445
0.529656 0.802609 0.802609
0.813870 0.813840 0.813870
0.931548 0.875090 0.875944
0.545922 0.954162 0.792935
0.616083 0.948699 0.804074
0.758175 0.936004 0.833097
0.871153 0.925750 0.869139
0.926146 0.925017 0.872923
0.135348 0.133791 0.943511
0.255436 0.112398 0.944305
0.474342 0.037263 0.946471
0.720241 0.202884 0.947448
0.941619 0.459815 0.941588
0.000000 0.199985 0.944488
0.197696 0.196963 0.945037
0.466194 0.215824 0.946319
0.724056 0.326482 0.946075
0.938537 0.562249 0.938476
0.000000 0.440162 0.942870
0.126772 0.441474 0.942962
0.492714 0.492531 0.941833
0.770230 0.628717 0.936767
0.931243 0.752255 0.931212
0.304845 0.725277 0.935973
0.411658 0.734707 0.934813
0.646815 0.775296 0.930022
0.833127 0.833066 0.926238
0.927428 0.873350 0.927398
0.654566 0.927337 0.927337
0.691768 0.926970 0.926970
0.782498 0.926207 0.926207
0.872648 0.926055 0.926085
0.928130 0.928130 0.928130
