cubelut/Moody9.cube
# Created by Adobe Lightroom plugin Export LUT (1.18.0)
# www.johnrellis.com/lightroom/exportlut.htm
# Preset: Lovely Landscapes 07 - Free
# Color profile: /Library/Application Support/Adobe/Color/Profiles/Recommended/AdobeRGB1998.icc
LUT_3D_SIZE 5
DOMAIN_MIN 0.000000 0.000000 0.000000
DOMAIN_MAX 0.903226 0.903226 0.903226
0.140627 0.163729 0.198489
0.237888 0.165225 0.199313
0.411963 0.170382 0.202853
0.676326 0.172305 0.203128
0.916777 0.163821 0.196719
0.137667 0.256046 0.200931
0.233310 0.255253 0.202213
0.410193 0.257481 0.206577
0.675929 0.275486 0.202701
0.917876 0.273320 0.194461
0.131960 0.433326 0.209201
0.231357 0.434638 0.209354
0.423224 0.444678 0.208377
0.680476 0.477821 0.194766
0.913848 0.476570 0.182498
0.000000 0.700984 0.180819
0.223575 0.702419 0.179232
0.454047 0.705348 0.173098
0.689387 0.707851 0.160769
0.910826 0.695033 0.150301
0.000000 0.918700 0.131991
0.184207 0.917754 0.130159
0.432380 0.912963 0.123232
0.663233 0.908202 0.113405
0.887602 0.899107 0.097719
0.134096 0.163912 0.283452
0.231357 0.167910 0.283787
0.408667 0.172854 0.283848
0.672236 0.121584 0.276249
0.914519 0.086000 0.265324
0.138338 0.253849 0.283299
0.229313 0.253758 0.282597
0.408972 0.254307 0.281010
0.673030 0.250370 0.273686
0.914275 0.240818 0.262577
0.122957 0.432441 0.282078
0.218418 0.434913 0.275364
0.418067 0.440101 0.273136
0.677180 0.466743 0.263493
0.913542 0.463783 0.252140
0.000000 0.701503 0.260380
0.179477 0.703761 0.248173
0.443061 0.705837 0.243320
0.688869 0.707118 0.234226
0.911162 0.690364 0.228397
0.000000 0.919524 0.216526
0.132509 0.918517 0.215518
0.421607 0.915526 0.212741
0.660273 0.909422 0.207492
0.888457 0.899504 0.201389
0.142153 0.165713 0.428382
0.237278 0.168826 0.428931
0.417762 0.164034 0.430213
0.680415 0.000000 0.452186
0.916564 0.000000 0.434699
0.131807 0.252506 0.430243
0.228275 0.248478 0.430518
0.420081 0.241825 0.431647
0.682185 0.196536 0.444648
0.917357 0.140261 0.427436
0.105226 0.437659 0.430945
0.208042 0.438209 0.430976
0.418463 0.437263 0.428717
0.686793 0.436774 0.425422
0.915526 0.432166 0.418982
0.000000 0.699733 0.445411
0.124941 0.701198 0.437385
0.403876 0.707027 0.412146
0.690425 0.706233 0.408698
0.910857 0.679286 0.410224
0.000000 0.917540 0.419837
0.000000 0.917906 0.412238
0.396216 0.916045 0.399847
0.653498 0.908659 0.397986
0.888823 0.897612 0.397009
0.153109 0.158114 0.662837
0.259373 0.152377 0.663508
0.461097 0.117891 0.666041
0.689601 0.000000 0.667720
0.913207 0.000000 0.650629
0.076967 0.242344 0.664790
0.229709 0.237339 0.665248
0.451209 0.217319 0.666651
0.689479 0.168643 0.667475
0.912535 0.116457 0.646845
0.000000 0.455909 0.665949
0.131594 0.446479 0.666682
0.411383 0.422950 0.668025
0.689235 0.412146 0.666682
0.910155 0.424628 0.642634
0.000000 0.701106 0.667628
0.000000 0.700832 0.667231
0.393530 0.701472 0.667292
0.687831 0.698939 0.663966
0.899382 0.698116 0.663020
0.000000 0.916075 0.641779
0.000000 0.915831 0.639155
0.403601 0.912963 0.636744
0.683497 0.902708 0.658198
0.889586 0.894499 0.657557
0.131807 0.145357 0.875639
0.245274 0.137026 0.875639
0.445960 0.095857 0.875944
0.664088 0.000000 0.876097
0.895109 0.000000 0.875761
0.000000 0.229496 0.875608
0.212345 0.224521 0.875608
0.433234 0.205234 0.875822
0.659327 0.164126 0.875517
0.894530 0.079957 0.875181
0.000000 0.422370 0.875578
0.000000 0.413855 0.875761
0.394629 0.407630 0.875425
0.647639 0.402228 0.874418
0.892973 0.406592 0.873838
0.000000 0.661982 0.873198
0.000000 0.659602 0.873014
0.391547 0.659174 0.872526
0.669215 0.680690 0.870390
0.889281 0.693080 0.870481
0.000000 0.894560 0.870481
0.000000 0.894377 0.870268
0.415229 0.893950 0.869841
0.688441 0.892363 0.868528
0.885405 0.889982 0.866880
