cubelut/Moody4.cube
# Created by Adobe Lightroom plugin Export LUT (1.18.0)
# www.johnrellis.com/lightroom/exportlut.htm
# Preset: SP-11
# Color profile: /Library/Application Support/Adobe/Color/Profiles/Recommended/AdobeRGB1998.icc
LUT_3D_SIZE 32
DOMAIN_MIN 0.0 0.0 0.0
DOMAIN_MAX 1.0 1.0 1.0
0.208743 0.208743 0.208743
0.208957 0.208804 0.208835
0.209323 0.208865 0.208804
0.210269 0.208927 0.208988
0.211551 0.209018 0.209140
0.213535 0.209232 0.209293
0.216190 0.209415 0.209506
0.220096 0.209506 0.209689
0.225254 0.209659 0.209934
0.232120 0.209812 0.210117
0.242100 0.209842 0.210300
0.257328 0.209781 0.210513
0.279942 0.209293 0.210666
0.310674 0.208682 0.210605
0.347875 0.207553 0.210422
0.389624 0.206027 0.210208
0.434943 0.203769 0.209812
0.485237 0.201144 0.209049
0.542687 0.197086 0.207950
0.611566 0.191104 0.205692
0.687007 0.182803 0.203067
0.760891 0.174838 0.200870
0.824918 0.168978 0.201205
0.875425 0.169467 0.205783
0.915068 0.177310 0.215610
0.946563 0.193668 0.231418
0.972198 0.217533 0.252293
0.992798 0.247318 0.278752
1.000000 0.282475 0.310582
1.000000 0.322881 0.347082
1.000000 0.369818 0.390204
1.000000 0.427375 0.444190
0.208804 0.209049 0.208804
0.209018 0.209140 0.208896
0.209384 0.209079 0.208896
0.210330 0.209232 0.208957
0.211734 0.209323 0.209110
0.213596 0.209537 0.209354
0.216373 0.209720 0.209567
0.220279 0.209781 0.209751
0.225437 0.209964 0.209903
0.232425 0.210086 0.210086
0.242344 0.210208 0.210361
0.257633 0.210239 0.210575
0.280186 0.209995 0.210697
0.311070 0.209445 0.210636
0.348302 0.208743 0.210422
0.390082 0.207309 0.210178
0.435370 0.205509 0.209751
0.485634 0.202884 0.209079
0.543053 0.199680 0.207828
0.611841 0.193668 0.205692
0.687251 0.186130 0.203006
0.761013 0.178744 0.200809
0.825010 0.173556 0.201205
0.875517 0.174319 0.205753
0.915038 0.181888 0.215702
0.946471 0.198459 0.231174
0.972198 0.221012 0.252598
0.992706 0.250706 0.279179
1.000000 0.285374 0.310674
1.000000 0.325170 0.347387
1.000000 0.371588 0.390539
1.000000 0.428779 0.444312
0.208988 0.209476 0.208865
0.209201 0.209415 0.208988
0.209567 0.209567 0.208957
0.210391 0.209659 0.209018
0.211795 0.209751 0.209171
0.213748 0.209934 0.209415
0.216556 0.210117 0.209537
0.220462 0.210208 0.209720
0.225711 0.210452 0.209934
0.232547 0.210575 0.210147
0.242679 0.210819 0.210422
0.258122 0.211002 0.210605
0.280797 0.210941 0.210605
0.311772 0.210666 0.210605
0.348852 0.210086 0.210483
0.390723 0.208927 0.210117
0.435798 0.207767 0.209659
0.486000 0.205753 0.208927
0.543542 0.202487 0.207767
0.612360 0.197574 0.205539
0.687739 0.191440 0.202640
0.761318 0.184237 0.200656
0.825162 0.179812 0.201083
0.875578 0.180484 0.205722
0.915068 0.188693 0.215549
0.946502 0.203891 0.231418
0.972107 0.226413 0.252720
0.992676 0.254917 0.279362
1.000000 0.288914 0.311131
1.000000 0.328161 0.347936
1.000000 0.374304 0.391302
1.000000 0.430884 0.444984
0.209140 0.210391 0.209110
0.209506 0.210330 0.209201
0.209842 0.210391 0.209293
0.210697 0.210575 0.209232
0.212100 0.210666 0.209293
0.214237 0.210727 0.209445
0.217105 0.211002 0.209628
0.220981 0.211185 0.209812
0.226230 0.211429 0.209964
0.233249 0.211734 0.210208
0.243534 0.212131 0.210361
0.259159 0.212619 0.210636
0.282017 0.213016 0.210666
0.313024 0.213352 0.210605
0.350195 0.213352 0.210330
0.391791 0.213077 0.209995
0.436866 0.212436 0.209506
0.487068 0.211246 0.208804
0.544518 0.209201 0.207431
0.613306 0.205539 0.205112
0.688685 0.200717 0.202335
0.761959 0.195529 0.200351
0.825437 0.193149 0.200656
0.875639 0.194797 0.205509
0.915007 0.201724 0.215854
0.946380 0.216220 0.231693
0.971954 0.236942 0.253086
0.992493 0.264164 0.280186
1.000000 0.296666 0.311742
1.000000 0.334539 0.348577
1.000000 0.379431 0.391913
1.000000 0.435615 0.446418
0.209476 0.211826 0.209384
0.209720 0.211917 0.209476
0.210178 0.211826 0.209567
0.211002 0.212009 0.209628
0.212406 0.212314 0.209567
0.214633 0.212589 0.209567
0.217655 0.212711 0.209689
0.221744 0.212863 0.209873
0.227054 0.213199 0.210086
0.234165 0.213718 0.210239
0.244663 0.214359 0.210452
0.260716 0.215244 0.210666
0.284031 0.216342 0.210727
0.315038 0.217533 0.210575
0.352209 0.218418 0.210300
0.393652 0.219242 0.209873
0.438544 0.219638 0.209293
0.488502 0.219669 0.208499
0.546044 0.219028 0.207095
0.614771 0.217655 0.204654
0.689815 0.215183 0.201724
0.763027 0.212741 0.199741
0.826017 0.211551 0.200320
0.875944 0.214084 0.205234
0.915068 0.220676 0.215976
0.946258 0.233768 0.232303
0.971740 0.252934 0.253849
0.992218 0.277592 0.280858
1.000000 0.308232 0.313085
1.000000 0.344488 0.349920
1.000000 0.387915 0.393805
1.000000 0.442634 0.448249
0.209812 0.214023 0.209689
0.210147 0.214054 0.209781
0.210636 0.214084 0.209751
0.211460 0.214176 0.209934
0.212955 0.214450 0.209964
0.215152 0.215030 0.209873
0.218357 0.215549 0.209842
0.222599 0.215671 0.209903
0.228000 0.215885 0.210117
0.235477 0.216403 0.210361
0.246342 0.217502 0.210544
0.262852 0.219059 0.210666
0.286534 0.221012 0.210727
0.317693 0.223301 0.210483
0.354589 0.225620 0.210056
0.395880 0.227573 0.209628
0.440650 0.229343 0.209079
0.490517 0.230777 0.208042
0.548119 0.231846 0.206577
0.616938 0.232914 0.203891
0.691463 0.233280 0.200900
0.764065 0.233463 0.198825
0.826596 0.234287 0.199619
0.876127 0.237278 0.204929
0.914977 0.243992 0.215946
0.946044 0.255528 0.232822
0.971496 0.272404 0.254765
0.991852 0.294896 0.282414
1.000000 0.323217 0.314305
1.000000 0.357183 0.351629
1.000000 0.398718 0.395697
1.000000 0.452033 0.450874
0.210239 0.217197 0.209903
0.210575 0.217227 0.209995
0.211063 0.217258 0.210086
0.212131 0.217288 0.210147
0.213626 0.217350 0.210391
0.215915 0.218021 0.210269
0.219089 0.218845 0.210117
0.223453 0.219577 0.210056
0.229038 0.219944 0.210239
0.236759 0.220615 0.210452
0.248447 0.221897 0.210697
0.265446 0.224216 0.210727
0.289494 0.227359 0.210666
0.320897 0.230991 0.210330
0.357733 0.234562 0.209903
0.398657 0.238010 0.209293
0.443122 0.241245 0.208621
0.492988 0.244388 0.207462
0.550622 0.247410 0.205753
0.619287 0.250919 0.202976
0.693568 0.254429 0.199832
0.765560 0.257053 0.197848
0.827329 0.259983 0.198703
0.876341 0.263401 0.204746
0.914885 0.269780 0.216159
0.945769 0.280064 0.233494
0.971069 0.295201 0.256168
0.991394 0.315312 0.283787
1.000000 0.340978 0.316625
1.000000 0.372656 0.354192
1.000000 0.412055 0.398596
1.000000 0.463600 0.454383
0.210666 0.221622 0.210300
0.211032 0.221561 0.210300
0.211643 0.221561 0.210391
0.212772 0.221683 0.210544
0.214542 0.221805 0.210697
0.216922 0.222141 0.210910
0.220066 0.223056 0.210727
0.224460 0.224155 0.210605
0.230076 0.225315 0.210452
0.238224 0.226383 0.210605
0.250431 0.228397 0.210727
0.268193 0.231327 0.210788
0.293187 0.235325 0.210575
0.324529 0.240391 0.210208
0.361334 0.245579 0.209567
0.401740 0.250462 0.208896
0.446021 0.255283 0.208011
0.495796 0.260136 0.206760
0.553582 0.265354 0.204715
0.622187 0.271611 0.201846
0.695888 0.277867 0.198550
0.767117 0.283330 0.196567
0.828183 0.287510 0.197726
0.876585 0.291630 0.204471
0.914794 0.297765 0.216281
0.945434 0.307012 0.234318
0.970581 0.319982 0.257877
0.990814 0.337926 0.285679
1.000000 0.361151 0.318730
1.000000 0.390112 0.356634
1.000000 0.427619 0.402075
1.000000 0.477028 0.458259
0.211307 0.227420 0.210788
0.211795 0.227329 0.210880
0.212375 0.227451 0.210849
0.213687 0.227420 0.211002
0.215732 0.227604 0.211246
0.218357 0.227787 0.211551
0.221653 0.228611 0.211582
0.225986 0.229862 0.211460
0.231937 0.231510 0.211215
0.239933 0.233646 0.210880
0.252506 0.236728 0.210819
0.270909 0.241062 0.210758
0.296422 0.246494 0.210361
0.328588 0.252171 0.209842
0.365026 0.258549 0.209140
0.405188 0.264927 0.208286
0.449348 0.271244 0.207279
0.499092 0.278080 0.205814
0.556847 0.285405 0.203525
0.625177 0.294438 0.200320
0.698390 0.303410 0.196994
0.768795 0.310887 0.195102
0.828977 0.316838 0.196841
0.876768 0.321752 0.203738
0.914611 0.327611 0.216678
0.945037 0.335241 0.235569
0.970062 0.346685 0.259495
0.990112 0.362524 0.288090
1.000000 0.383307 0.321172
1.000000 0.409949 0.359808
1.000000 0.444831 0.405524
1.000000 0.492439 0.463233
0.212253 0.235447 0.211307
0.212711 0.235477 0.211398
0.213413 0.235538 0.211460
0.214908 0.235691 0.211612
0.217166 0.235935 0.211826
0.220310 0.236179 0.212222
0.224155 0.236515 0.212680
0.229007 0.238407 0.212467
0.235416 0.240513 0.212161
0.243717 0.243107 0.211765
0.255009 0.246525 0.211185
0.273808 0.252628 0.210605
0.299596 0.259892 0.210086
0.331456 0.267552 0.209384
0.368475 0.274723 0.208499
0.409094 0.281346 0.207523
0.452888 0.289220 0.206241
0.502495 0.297704 0.204593
0.560388 0.307469 0.202029
0.628504 0.319127 0.198489
0.701076 0.330694 0.194980
0.770657 0.340551 0.193088
0.829770 0.347601 0.195346
0.876921 0.352850 0.203220
0.914366 0.358099 0.217380
0.944488 0.365057 0.236851
0.969329 0.374975 0.261265
0.989319 0.388647 0.290379
1.000000 0.407050 0.324498
1.000000 0.431159 0.363165
1.000000 0.463966 0.410101
1.000000 0.509514 0.468879
0.213169 0.247837 0.211887
0.213748 0.247929 0.211856
0.214664 0.247959 0.212039
0.216373 0.248264 0.212161
0.219181 0.248569 0.212345
0.223056 0.249058 0.212680
0.227878 0.249760 0.213169
0.233585 0.250980 0.213474
0.240879 0.253880 0.213046
0.250309 0.257298 0.212528
0.262181 0.261265 0.211795
0.277470 0.266178 0.210849
0.302892 0.275395 0.209659
0.334600 0.284916 0.208682
0.371160 0.294011 0.207492
0.411292 0.302342 0.206424
0.455909 0.310002 0.204898
0.506004 0.319158 0.202976
0.564019 0.331090 0.200351
0.632013 0.345220 0.196506
0.703883 0.359289 0.192813
0.772305 0.370764 0.191135
0.830625 0.379217 0.193820
0.876982 0.384710 0.202762
0.913939 0.389715 0.217563
0.943877 0.395727 0.237980
0.968505 0.404120 0.263371
0.988373 0.415930 0.293248
1.000000 0.432044 0.327794
1.000000 0.453834 0.367315
1.000000 0.484382 0.415015
1.000000 0.527794 0.475013
0.214206 0.266514 0.212100
0.214908 0.266606 0.212161
0.216037 0.266789 0.212222
0.218296 0.267063 0.212314
0.221836 0.267643 0.212558
0.226474 0.268315 0.212955
0.232578 0.269230 0.213352
0.239902 0.270268 0.213931
0.248478 0.273167 0.213840
0.259342 0.277348 0.213016
0.272679 0.282048 0.212131
0.288640 0.287236 0.211032
0.307591 0.292851 0.209720
0.337591 0.303929 0.207706
0.373693 0.314885 0.206271
0.413458 0.324834 0.204868
0.457618 0.334600 0.203281
0.508232 0.345006 0.201083
0.567437 0.356756 0.198123
0.635492 0.372686 0.194217
0.706630 0.388830 0.190219
0.774136 0.402136 0.188815
0.831174 0.411261 0.192294
0.876982 0.417243 0.202060
0.913512 0.421637 0.218265
0.943114 0.426917 0.239597
0.967590 0.433906 0.265843
0.987304 0.443946 0.296483
1.000000 0.458015 0.331212
1.000000 0.477668 0.371710
1.000000 0.505882 0.420386
1.000000 0.547417 0.482063
0.215061 0.292699 0.211765
0.216098 0.292882 0.211826
0.217441 0.293004 0.211856
0.220249 0.293400 0.212039
0.224735 0.294011 0.212222
0.230808 0.294804 0.212558
0.238193 0.295933 0.212985
0.247379 0.297246 0.213443
0.257816 0.298741 0.214176
0.270024 0.303197 0.213321
0.284672 0.308324 0.212253
0.301762 0.313787 0.210880
0.321508 0.319585 0.209384
0.343420 0.325322 0.207675
0.376043 0.336736 0.204898
0.415351 0.348486 0.203189
0.459358 0.360235 0.201236
0.509514 0.372839 0.198825
0.568780 0.387549 0.195407
0.637751 0.404120 0.191104
0.709163 0.419471 0.187167
0.775631 0.434302 0.186069
0.831785 0.444190 0.190494
0.876799 0.450172 0.201328
0.912840 0.454231 0.218509
0.942199 0.458473 0.241062
0.966522 0.464302 0.267918
0.986145 0.472694 0.299321
1.000000 0.484688 0.334997
1.000000 0.502281 0.376593
1.000000 0.528405 0.426429
1.000000 0.567926 0.489815
0.215885 0.325200 0.210727
0.217258 0.325231 0.210788
0.218784 0.325597 0.210880
0.222232 0.325994 0.211032
0.227787 0.326574 0.211215
0.235111 0.327428 0.211551
0.244480 0.328496 0.211917
0.255192 0.329870 0.212375
0.267704 0.331304 0.213138
0.281712 0.334081 0.213230
0.297368 0.339086 0.212039
0.315557 0.344610 0.210575
0.335973 0.350286 0.208927
0.358831 0.356390 0.206882
0.383856 0.362524 0.204685
0.416846 0.372869 0.201205
0.460548 0.386389 0.198978
0.510613 0.401221 0.196323
0.569848 0.418708 0.192355
0.638239 0.438270 0.187503
0.709468 0.456001 0.183505
0.776364 0.469032 0.182803
0.832059 0.477333 0.188266
0.876463 0.483406 0.200320
0.912016 0.487007 0.218845
0.941192 0.490333 0.242618
0.965332 0.494850 0.270573
0.984802 0.501732 0.302373
0.999664 0.511894 0.338933
1.000000 0.527611 0.381628
1.000000 0.551751 0.433021
1.000000 0.589410 0.498512
0.216678 0.362158 0.209140
0.218143 0.362280 0.209171
0.219913 0.362463 0.209323
0.224460 0.362890 0.209415
0.231022 0.363439 0.209628
0.239750 0.364385 0.210025
0.250462 0.365393 0.210422
0.263188 0.366552 0.211002
0.277440 0.368017 0.211765
0.293553 0.369726 0.212680
0.310521 0.373449 0.212284
0.329473 0.378607 0.210636
0.350591 0.384222 0.208713
0.373877 0.390173 0.206607
0.399359 0.396307 0.203983
0.426917 0.402655 0.201205
0.461372 0.413031 0.196536
0.511162 0.429847 0.193423
0.570428 0.450111 0.189120
0.638514 0.472602 0.183749
0.708980 0.492958 0.179385
0.775235 0.508019 0.179049
0.830838 0.515618 0.185580
0.875669 0.517418 0.199283
0.911009 0.519860 0.219120
0.939971 0.522301 0.243687
0.963958 0.525780 0.272618
0.983368 0.531029 0.305699
0.998138 0.539391 0.342901
1.000000 0.553185 0.386664
1.000000 0.575555 0.440223
1.000000 0.611017 0.506981
0.217624 0.402167 0.207187
0.219303 0.402319 0.207218
0.221408 0.402564 0.207309
0.226719 0.402777 0.207523
0.234226 0.403326 0.207828
0.244358 0.404089 0.208286
0.256687 0.405158 0.208774
0.270939 0.406256 0.209598
0.287175 0.407721 0.210452
0.304936 0.409247 0.211643
0.324254 0.410986 0.213199
0.344091 0.416175 0.211460
0.365820 0.421607 0.209384
0.389990 0.427619 0.206912
0.416052 0.433997 0.204135
0.444434 0.440742 0.200809
0.474739 0.447791 0.197147
0.512261 0.459205 0.190768
0.570489 0.481483 0.185367
0.638117 0.506615 0.179538
0.708003 0.529595 0.174838
0.773678 0.546593 0.174716
0.828885 0.555383 0.182376
0.873320 0.557702 0.197757
0.909178 0.556237 0.219120
0.938567 0.554345 0.245365
0.962493 0.556542 0.274937
0.981750 0.560510 0.308995
0.996429 0.567346 0.347295
1.000000 0.579217 0.392523
1.000000 0.599573 0.447395
1.000000 0.633295 0.516777
0.218784 0.445777 0.205142
0.220859 0.445777 0.205173
0.223392 0.445930 0.205264
0.229343 0.446326 0.205539
0.238193 0.446937 0.205844
0.249577 0.447669 0.206455
0.263432 0.448707 0.207187
0.279637 0.449928 0.207980
0.297490 0.451362 0.209232
0.317113 0.452949 0.210788
0.338170 0.454963 0.212711
0.360235 0.458015 0.213779
0.383124 0.463905 0.211185
0.407965 0.470222 0.208377
0.435248 0.476967 0.204898
0.464607 0.484260 0.201205
0.496193 0.491920 0.196780
0.530083 0.500145 0.191775
0.572961 0.514427 0.182681
0.637140 0.540459 0.174899
0.706538 0.565698 0.170077
0.771603 0.584527 0.170138
0.826230 0.594354 0.179019
0.870573 0.597314 0.195590
0.906401 0.595789 0.218692
0.935912 0.592676 0.246220
0.960510 0.589502 0.277195
0.980072 0.589990 0.311986
0.994629 0.595270 0.351843
1.000000 0.605463 0.398596
1.000000 0.623957 0.455207
1.000000 0.655329 0.526207
0.220432 0.494697 0.202670
0.223117 0.494820 0.202670
0.226200 0.494942 0.202853
0.232792 0.495369 0.203098
0.242618 0.496071 0.203647
0.255924 0.496925 0.204257
0.271366 0.498024 0.205295
0.289220 0.499397 0.206424
0.309117 0.501091 0.207980
0.330907 0.502953 0.209812
0.354192 0.505272 0.212131
0.378698 0.507958 0.215091
0.403632 0.513054 0.214542
0.430335 0.520195 0.210880
0.458961 0.527825 0.206943
0.489937 0.536034 0.202213
0.523247 0.544701 0.196994
0.558465 0.553429 0.191012
0.595697 0.562524 0.184176
0.641108 0.576867 0.172885
0.704372 0.601190 0.164096
0.768978 0.621759 0.164920
0.823392 0.632715 0.174777
0.867491 0.636011 0.193210
0.903288 0.634485 0.218021
0.932891 0.630854 0.247318
0.957610 0.626978 0.279759
0.977539 0.624048 0.315557
0.992645 0.623682 0.356115
1.000000 0.631617 0.404395
1.000000 0.648432 0.463539
1.000000 0.677577 0.536400
0.223056 0.553033 0.199252
0.226078 0.553033 0.199252
0.229648 0.553368 0.199466
0.237217 0.553826 0.199863
0.248631 0.554681 0.200504
0.263523 0.555810 0.201480
0.281437 0.557153 0.202426
0.301335 0.558862 0.203952
0.323705 0.560906 0.205814
0.347845 0.563195 0.208133
0.373724 0.565881 0.210941
0.400855 0.568811 0.214603
0.429419 0.572351 0.218784
0.457435 0.579492 0.215183
0.487343 0.587304 0.210513
0.519249 0.595270 0.205631
0.553277 0.603723 0.199710
0.588922 0.612085 0.193149
0.626276 0.620539 0.185794
0.665126 0.628870 0.177554
0.709224 0.640253 0.165621
0.765682 0.658259 0.158846
0.819944 0.670253 0.170260
0.864012 0.673976 0.190249
0.899931 0.672297 0.217288
0.929656 0.668269 0.248020
0.954467 0.663691 0.281773
0.974517 0.659571 0.319249
0.989654 0.657771 0.361547
0.999878 0.660639 0.411109
1.000000 0.672724 0.471931
1.000000 0.699458 0.546380
0.227329 0.620417 0.195010
0.230320 0.620691 0.195254
0.234470 0.620935 0.195590
0.243229 0.621424 0.196109
0.256413 0.622217 0.196811
0.273350 0.623163 0.198123
0.293278 0.624537 0.199680
0.315709 0.626184 0.201541
0.340337 0.628229 0.203922
0.366644 0.630457 0.207248
0.395026 0.633082 0.210819
0.424628 0.635828 0.214786
0.455390 0.638911 0.220066
0.486305 0.643336 0.222843
0.516625 0.650202 0.218112
0.548699 0.657404 0.213046
0.582513 0.664668 0.206973
0.617762 0.671748 0.200809
0.654383 0.678920 0.193362
0.692103 0.685573 0.185428
0.730556 0.692012 0.176791
0.770443 0.698390 0.166476
0.815915 0.706996 0.164675
0.860075 0.711177 0.186740
0.896178 0.709560 0.215305
0.926146 0.705074 0.247990
0.951171 0.699550 0.283238
0.971344 0.694484 0.322606
0.986572 0.691279 0.366735
0.996765 0.692348 0.418708
1.000000 0.701686 0.482185
1.000000 0.722286 0.556786
0.234470 0.689937 0.193179
0.237339 0.690059 0.193606
0.242405 0.690211 0.193790
0.252018 0.690730 0.194705
0.266789 0.691341 0.195773
0.285069 0.692164 0.197452
0.306493 0.693385 0.199619
0.330694 0.694575 0.202304
0.357458 0.696132 0.205417
0.385931 0.697871 0.209293
0.415747 0.699855 0.213565
0.447059 0.702113 0.218662
0.479072 0.704463 0.224765
0.512139 0.706966 0.231632
0.543572 0.711299 0.232059
0.574914 0.716915 0.227085
0.607691 0.722225 0.221958
0.641657 0.727504 0.216281
0.676448 0.732418 0.209812
0.711971 0.737057 0.203403
0.748257 0.741238 0.195987
0.784848 0.744991 0.188388
0.819852 0.746487 0.181155
0.855863 0.747463 0.182193
0.892149 0.745907 0.213260
0.922332 0.741115 0.247501
0.947601 0.734920 0.284672
0.967956 0.728786 0.325383
0.983307 0.724056 0.371771
0.993469 0.723476 0.426398
0.998352 0.730648 0.493172
0.998260 0.748287 0.569299
0.245823 0.753964 0.197879
0.249668 0.754025 0.198032
0.254276 0.754177 0.198550
0.264347 0.754391 0.199619
0.279759 0.754818 0.200992
0.299046 0.755398 0.203311
0.321599 0.756008 0.205814
0.346899 0.756741 0.209140
0.374182 0.757717 0.213352
0.403510 0.758694 0.217838
0.434180 0.759792 0.223331
0.465827 0.760952 0.229618
0.498360 0.762264 0.236576
0.531609 0.763516 0.244541
0.565270 0.764828 0.253178
0.595666 0.768246 0.249943
0.626459 0.771572 0.245762
0.658350 0.774868 0.241367
0.691096 0.777890 0.236271
0.724514 0.780636 0.231022
0.758389 0.783169 0.225315
0.792599 0.785306 0.219303
0.827176 0.787106 0.213046
0.858915 0.785763 0.208103
0.887785 0.781521 0.209903
0.918334 0.776394 0.246311
0.943877 0.769558 0.285557
0.964477 0.762325 0.328038
0.979950 0.756283 0.376928
0.990112 0.753841 0.434302
0.994873 0.758755 0.503807
0.994751 0.773159 0.581353
0.263310 0.806577 0.212528
0.267033 0.806577 0.212894
0.271946 0.806607 0.213169
0.281590 0.806699 0.214572
0.296513 0.806882 0.216464
0.315740 0.807004 0.218997
0.338201 0.807248 0.221927
0.363134 0.807492 0.225711
0.390387 0.807736 0.230472
0.419226 0.808042 0.235966
0.449622 0.808408 0.242069
0.481117 0.808621 0.249088
0.513298 0.808957 0.256596
0.545983 0.809293 0.265415
0.579095 0.809537 0.274632
0.611170 0.810300 0.281315
0.640192 0.812192 0.277897
0.670008 0.814023 0.274388
0.700465 0.815763 0.270848
0.731685 0.817258 0.266636
0.763363 0.818479 0.262394
0.795377 0.819486 0.257694
0.827787 0.820249 0.252811
0.860349 0.820676 0.247379
0.889982 0.818051 0.243656
0.914305 0.811093 0.246403
0.939910 0.803555 0.285496
0.960815 0.795315 0.330419
0.976471 0.787778 0.381353
0.986664 0.783444 0.441993
0.991424 0.785794 0.513725
0.991302 0.797055 0.592950
0.287388 0.847990 0.237003
0.290776 0.847990 0.237247
0.295109 0.847929 0.237888
0.304204 0.847929 0.239200
0.318395 0.847898 0.241001
0.336156 0.847837 0.243809
0.357275 0.847715 0.247166
0.380926 0.847654 0.251560
0.407324 0.847440 0.256504
0.435279 0.847196 0.262272
0.464607 0.846983 0.268803
0.494911 0.846708 0.275975
0.526116 0.846342 0.284215
0.557794 0.845975 0.293339
0.589960 0.845548 0.303349
0.622187 0.845060 0.314488
0.651362 0.845426 0.317754
0.678950 0.846403 0.315221
0.707301 0.847166 0.311894
0.736263 0.847837 0.308843
0.765713 0.848325 0.305303
0.795529 0.848661 0.301549
0.825864 0.848783 0.298009
0.856352 0.848722 0.293828
0.887053 0.848478 0.289525
0.915343 0.845640 0.286168
0.936461 0.836973 0.292119
0.957000 0.827665 0.332067
0.972869 0.818662 0.385840
0.983185 0.812375 0.449042
0.987915 0.812039 0.523674
0.987854 0.819974 0.604547
0.316320 0.880735 0.269261
0.319249 0.880705 0.269627
0.323003 0.880674 0.270390
0.331701 0.880552 0.271550
0.344091 0.880430 0.273747
0.360510 0.880186 0.276493
0.380011 0.879850 0.280095
0.402075 0.879515 0.284459
0.426703 0.879026 0.289586
0.452918 0.878569 0.295659
0.480720 0.877989 0.302434
0.509514 0.877317 0.310491
0.539391 0.876616 0.319219
0.569787 0.875792 0.328893
0.600641 0.874907 0.339910
0.631769 0.873960 0.351812
0.662928 0.872923 0.365087
0.688502 0.873289 0.364019
0.714382 0.873594 0.361669
0.740932 0.873808 0.359014
0.767941 0.873869 0.356573
0.795468 0.873808 0.353613
0.823453 0.873564 0.350622
0.851682 0.873198 0.347295
0.880217 0.872587 0.343877
0.908873 0.871824 0.340459
0.936065 0.869352 0.337285
0.953674 0.859281 0.347051
0.969268 0.848936 0.389166
0.979614 0.840543 0.456336
0.984405 0.837491 0.533562
0.984527 0.841855 0.615259
0.350866 0.907317 0.308110
0.353491 0.907256 0.308629
0.357092 0.907164 0.309117
0.364416 0.907042 0.310491
0.375616 0.906767 0.312627
0.389960 0.906493 0.315801
0.407660 0.906065 0.319463
0.427985 0.905547 0.324254
0.450568 0.904936 0.329778
0.474861 0.904234 0.336187
0.500755 0.903410 0.343542
0.528008 0.902525 0.352087
0.556207 0.901549 0.361730
0.585077 0.900450 0.372686
0.614435 0.899260 0.384680
0.644160 0.897948 0.397986
0.673945 0.896574 0.412696
0.701808 0.895506 0.424475
0.724697 0.895537 0.422522
0.748226 0.895476 0.420722
0.772427 0.895262 0.418585
0.797055 0.894926 0.416358
0.822202 0.894469 0.414130
0.847623 0.893858 0.411994
0.873411 0.893065 0.409155
0.899413 0.892088 0.406592
0.925597 0.890959 0.403876
0.951934 0.889647 0.400977
0.965362 0.878233 0.415351
0.976104 0.868040 0.462318
0.981048 0.861906 0.542290
0.981353 0.862760 0.625208
0.392798 0.928801 0.355169
0.394965 0.928740 0.355718
0.397986 0.928649 0.356359
0.404303 0.928466 0.357946
0.414069 0.928130 0.360204
0.427070 0.927733 0.363592
0.442695 0.927184 0.367742
0.460914 0.926574 0.372717
0.481331 0.925811 0.379034
0.503777 0.924926 0.386297
0.527703 0.923888 0.394507
0.553002 0.922759 0.403906
0.579400 0.921508 0.414649
0.606531 0.920104 0.427131
0.634363 0.918578 0.440650
0.662440 0.916960 0.455726
0.690639 0.915251 0.472602
0.718502 0.913420 0.490822
0.741390 0.912566 0.498116
0.761257 0.912322 0.496468
0.781735 0.911986 0.495186
0.802853 0.911528 0.493904
0.824430 0.910948 0.492317
0.846342 0.910216 0.490852
0.868650 0.909361 0.489448
0.891142 0.908385 0.487678
0.913970 0.907225 0.486213
0.936950 0.905913 0.484382
0.960052 0.904479 0.482551
0.971008 0.894285 0.501244
0.977691 0.885649 0.550469
0.978271 0.882780 0.634668
0.444800 0.945006 0.413306
0.446632 0.944945 0.413672
0.449226 0.944823 0.414557
0.454749 0.944610 0.416480
0.463325 0.944213 0.418952
0.474647 0.943694 0.422797
0.488502 0.943053 0.427314
0.504723 0.942260 0.433265
0.523033 0.941344 0.440253
0.543450 0.940246 0.448554
0.565301 0.938994 0.458076
0.588556 0.937621 0.468879
0.612818 0.936126 0.481178
0.637842 0.934447 0.494545
