cubelut/Moody8.cube
# Created by Adobe Lightroom plugin Export LUT (1.18.0)
# www.johnrellis.com/lightroom/exportlut.htm
# Preset: CP - INTERIOR DESIGN 15
# Color profile: /Library/Application Support/Adobe/Color/Profiles/Recommended/AdobeRGB1998.icc
LUT_3D_SIZE 32
DOMAIN_MIN 0.0 0.0 0.0
DOMAIN_MAX 1.0 1.0 1.0
0.088319 0.108431 0.107027
0.090913 0.108797 0.107149
0.094148 0.109102 0.107057
0.100923 0.110231 0.107240
0.110140 0.111360 0.107576
0.120912 0.112734 0.107607
0.133791 0.114595 0.107485
0.149416 0.116396 0.107424
0.168093 0.118502 0.107332
0.190372 0.120394 0.106996
0.216342 0.122286 0.106233
0.245457 0.123781 0.105257
0.277165 0.125093 0.103822
0.311284 0.125734 0.101991
0.346899 0.125795 0.099336
0.383734 0.125246 0.096223
0.421149 0.124636 0.092287
0.458778 0.124056 0.087373
0.498970 0.124239 0.081025
0.538872 0.125612 0.072816
0.578454 0.128908 0.061860
0.616510 0.134676 0.037476
0.653132 0.142458 0.002899
0.688655 0.152346 0.000000
0.723415 0.164248 0.000000
0.757809 0.177737 0.000000
0.792172 0.193149 0.000000
0.826658 0.210300 0.000000
0.861509 0.229129 0.000000
0.896696 0.249485 0.000000
0.932189 0.271122 0.000000
0.968017 0.294072 0.000000
0.088380 0.111025 0.107454
0.090455 0.111208 0.107179
0.094270 0.111635 0.107271
0.101167 0.112276 0.107301
0.110140 0.113436 0.107393
0.120882 0.114778 0.107424
0.133974 0.116335 0.107546
0.149386 0.118135 0.107485
0.168093 0.120180 0.107393
0.190311 0.122286 0.107027
0.216068 0.124422 0.106264
0.245121 0.125948 0.105287
0.276768 0.127047 0.103883
0.310796 0.127962 0.101808
0.346319 0.128084 0.099397
0.382971 0.127901 0.096284
0.420294 0.127413 0.092103
0.458045 0.127047 0.087160
0.497688 0.127382 0.080873
0.537224 0.128878 0.072755
0.576623 0.132235 0.061891
0.614618 0.137667 0.037842
0.651270 0.145357 0.003326
0.686824 0.154818 0.000000
0.721645 0.166537 0.000000
0.756161 0.180056 0.000000
0.790616 0.195224 0.000000
0.825223 0.212284 0.000000
0.860166 0.230808 0.000000
0.895445 0.250889 0.000000
0.931029 0.272496 0.000000
0.966888 0.295323 0.000000
0.088258 0.114199 0.108064
0.090333 0.114412 0.107790
0.093599 0.114900 0.107454
0.101381 0.115846 0.107424
0.110140 0.116335 0.107607
0.121157 0.117586 0.107607
0.134005 0.118929 0.107759
0.149599 0.120851 0.107668
0.168124 0.122683 0.107607
0.190372 0.124941 0.106996
0.216068 0.127016 0.106447
0.245121 0.128695 0.105257
0.276677 0.130007 0.103792
0.310643 0.131136 0.101717
0.346075 0.131472 0.099306
0.382696 0.131319 0.096162
0.419898 0.131167 0.091951
0.457801 0.131106 0.086946
0.497169 0.131472 0.080720
0.536492 0.133181 0.072267
0.575738 0.136751 0.061738
0.613703 0.142092 0.037476
0.650294 0.149752 0.001801
0.685908 0.159213 0.000000
0.720821 0.170413 0.000000
0.755276 0.183566 0.000000
0.789761 0.198642 0.000000
0.824460 0.215244 0.000000
0.859464 0.233646 0.000000
0.894774 0.253635 0.000000
0.930388 0.274937 0.000000
0.966308 0.297612 0.000000
0.088472 0.121279 0.109407
0.089967 0.121340 0.108705
0.092958 0.121431 0.108644
0.099672 0.122469 0.108186
0.110994 0.123812 0.107546
0.121859 0.123781 0.107668
0.134463 0.124666 0.107851
0.149996 0.126284 0.107790
0.168643 0.128176 0.107729
0.190768 0.130526 0.107088
0.216556 0.132662 0.106294
0.245487 0.134646 0.105257
0.276982 0.136416 0.103548
0.310796 0.137697 0.101656
0.346166 0.138430 0.098939
0.382635 0.138918 0.095766
0.419776 0.138979 0.091493
0.457893 0.139498 0.086336
0.496590 0.140505 0.080110
0.535424 0.142336 0.071687
0.574365 0.145998 0.060639
0.612177 0.151339 0.034791
0.648890 0.158633 0.000122
0.684657 0.167697 0.000000
0.719875 0.178836 0.000000
0.754696 0.191653 0.000000
0.789456 0.206271 0.000000
0.824308 0.222690 0.000000
0.859312 0.240604 0.000000
0.894591 0.260075 0.000000
0.930083 0.280980 0.000000
0.965911 0.303044 0.000000
0.088991 0.130373 0.111116
0.089540 0.130739 0.110018
0.092226 0.130648 0.109957
0.098085 0.131136 0.110018
0.108278 0.132753 0.108919
0.123598 0.135470 0.107973
0.136477 0.134920 0.107851
0.151217 0.135042 0.107942
0.169436 0.136477 0.107698
0.191562 0.138979 0.107027
0.217227 0.141329 0.106203
0.246098 0.143832 0.105104
0.277592 0.145785 0.103304
0.311131 0.147555 0.101381
0.346563 0.148684 0.098573
0.382910 0.149813 0.095033
0.420142 0.150607 0.090852
0.458656 0.151614 0.085206
0.496986 0.153201 0.078798
0.535485 0.155703 0.070130
0.574121 0.159548 0.058747
0.611688 0.164981 0.029938
0.648249 0.172152 0.000000
0.684016 0.181003 0.000000
0.719203 0.191501 0.000000
0.754116 0.203799 0.000000
0.788815 0.217929 0.000000
0.823667 0.233494 0.000000
0.858671 0.250980 0.000000
0.893950 0.269810 0.000000
0.929503 0.289921 0.000000
0.965301 0.311467 0.000000
0.088258 0.142061 0.112917
0.089235 0.142336 0.111574
0.091066 0.142367 0.110903
0.096803 0.142458 0.110994
0.105989 0.143343 0.110689
0.119814 0.145937 0.109346
0.140383 0.150942 0.107637
0.155886 0.150210 0.107607
0.173373 0.150057 0.107515
0.193423 0.150576 0.106905
0.218662 0.153048 0.106050
0.247471 0.155612 0.104677
0.278874 0.158145 0.102998
0.312535 0.160220 0.100740
0.347692 0.162173 0.097536
0.384039 0.163729 0.094087
0.421515 0.165286 0.089418
0.459937 0.167178 0.083711
0.497993 0.169223 0.076722
0.536309 0.172213 0.067536
0.574762 0.176486 0.053040
0.612360 0.181918 0.021637
0.660212 0.193057 0.000000
0.695369 0.202090 0.000000
0.729854 0.212497 0.000000
0.763912 0.224399 0.000000
0.797879 0.237827 0.000000
0.831907 0.252628 0.000000
0.866178 0.269200 0.000000
0.900786 0.287175 0.000000
0.935607 0.306340 0.000000
0.970642 0.326909 0.000000
0.086915 0.157076 0.114565
0.087526 0.157229 0.113497
0.088319 0.157504 0.111543
0.094911 0.157382 0.111635
0.103853 0.157443 0.111635
0.117189 0.159670 0.110811
0.135103 0.163302 0.109346
0.159823 0.169253 0.107149
0.181979 0.170901 0.106355
0.203403 0.170718 0.105684
0.226627 0.170932 0.105135
0.251530 0.171054 0.104067
0.283055 0.173922 0.101961
0.316594 0.176608 0.099245
0.351629 0.178866 0.096132
0.387701 0.181094 0.092164
0.426123 0.183413 0.086946
0.464363 0.185946 0.080812
0.502220 0.188632 0.073182
0.540856 0.192355 0.062806
0.579828 0.197238 0.040803
0.618036 0.203525 0.005035
0.655360 0.211215 0.000000
0.691798 0.220066 0.000000
0.727352 0.230381 0.000000
0.762081 0.242008 0.000000
0.796384 0.254887 0.000000
0.830564 0.269078 0.000000
0.864927 0.284855 0.000000
0.899504 0.301946 0.000000
0.934325 0.320348 0.000000
0.969421 0.339971 0.000000
0.084291 0.174746 0.116670
0.085298 0.174990 0.115419
0.085817 0.175113 0.113313
0.091554 0.175265 0.112123
0.101472 0.175265 0.112123
0.113710 0.175357 0.112001
0.131563 0.179324 0.110719
0.153841 0.184329 0.108949
0.181521 0.190188 0.106325
0.213443 0.196780 0.103670
0.237644 0.196048 0.102632
0.263340 0.195560 0.101472
0.289921 0.194827 0.100008
0.318486 0.194736 0.097871
0.353368 0.197543 0.094240
0.390295 0.200534 0.089845
0.427985 0.203433 0.084321
0.465522 0.206363 0.077516
0.502861 0.209476 0.069368
0.540978 0.213504 0.057771
0.579553 0.218753 0.028687
0.617426 0.224979 0.000000
0.654444 0.232578 0.000000
0.690639 0.241154 0.000000
0.726070 0.250980 0.000000
0.760739 0.262089 0.000000
0.795010 0.274205 0.000000
0.829221 0.287755 0.000000
0.863645 0.302800 0.000000
0.898283 0.319097 0.000000
0.933165 0.336736 0.000000
0.968353 0.355535 0.000000
0.079744 0.196323 0.118715
0.081117 0.196628 0.117647
0.082063 0.196841 0.115358
0.085786 0.197024 0.112367
0.097322 0.197086 0.112337
0.111238 0.196841 0.112245
0.127657 0.198520 0.111727
0.150027 0.204044 0.109834
0.177462 0.210452 0.107057
0.208103 0.215915 0.104158
0.251408 0.229252 0.098299
0.277867 0.227268 0.096986
0.305272 0.225711 0.095125
0.332921 0.223880 0.093233
0.361852 0.222538 0.090333
0.393439 0.222751 0.086702
0.430426 0.225956 0.080507
0.467353 0.229160 0.073152
0.504295 0.232517 0.064210
0.542016 0.236881 0.046632
0.580072 0.242344 0.012421
0.617517 0.248569 0.000000
0.654261 0.256016 0.000000
0.690181 0.264408 0.000000
0.725399 0.273716 0.000000
0.759945 0.284062 0.000000
0.794217 0.295750 0.000000
0.828367 0.308629 0.000000
0.862730 0.322820 0.000000
0.897368 0.338354 0.000000
0.932250 0.355016 0.000000
0.967468 0.372992 0.000000
0.072786 0.222171 0.120577
0.074250 0.222446 0.119722
0.075044 0.222538 0.117311
0.076936 0.222934 0.112062
0.090578 0.222965 0.111788
0.106661 0.222782 0.111696
0.124208 0.222568 0.111666
0.145693 0.226566 0.110201
0.173190 0.233555 0.107454
0.205570 0.241581 0.103792
0.241917 0.248936 0.099336
0.294499 0.267247 0.089265
0.323186 0.264286 0.087373
0.352178 0.261723 0.084565
0.381048 0.259007 0.081544
0.409522 0.256352 0.077974
0.437781 0.253544 0.073823
0.470192 0.254063 0.067170
0.506798 0.257755 0.054688
0.543999 0.262150 0.027100
0.581415 0.267643 0.000000
0.618097 0.273869 0.000000
0.654078 0.280919 0.000000
0.689448 0.288853 0.000000
0.724239 0.297673 0.000000
0.758633 0.307530 0.000000
0.792905 0.318608 0.000000
0.827176 0.330907 0.000000
0.861753 0.344488 0.000000
0.896574 0.359289 0.000000
0.931640 0.375341 0.000000
0.967041 0.392554 0.000000
0.060060 0.251560 0.122499
0.062806 0.251926 0.121645
0.063783 0.252110 0.119081
0.065766 0.252476 0.113497
0.078950 0.252628 0.110262
0.098787 0.252567 0.110323
0.119478 0.252354 0.110262
0.140352 0.252201 0.110079
0.168032 0.259220 0.107149
0.200717 0.267857 0.103334
0.238529 0.277745 0.097902
0.281254 0.287724 0.090547
0.344549 0.312566 0.072541
0.373602 0.307408 0.069734
0.402289 0.302678 0.066377
0.430365 0.298192 0.062196
0.457771 0.293797 0.056245
0.484627 0.289799 0.046693
0.511284 0.286229 0.032197
0.545342 0.288670 0.004211
0.582361 0.294194 0.000000
0.618647 0.300267 0.000000
0.654383 0.307164 0.000000
0.689418 0.314824 0.000000
0.724086 0.323217 0.000000
0.758236 0.332647 0.000000
0.792294 0.342992 0.000000
0.826474 0.354681 0.000000
0.860960 0.367498 0.000000
0.895720 0.381628 0.000000
0.930785 0.396735 0.000000
0.966217 0.413184 0.000000
0.019318 0.284825 0.124147
0.025971 0.285222 0.123262
0.029786 0.285374 0.120729
0.036957 0.285679 0.114626
0.058656 0.285985 0.107973
0.085908 0.285893 0.107790
0.111055 0.285771 0.107668
0.135653 0.285496 0.107454
0.161532 0.287449 0.106355
0.195193 0.297093 0.101717
0.233494 0.307683 0.095888
0.276646 0.319127 0.087953
0.331792 0.337591 0.073365
0.402472 0.365759 0.017151
0.435706 0.361608 0.001587
0.463020 0.353826 0.000000
0.489540 0.346746 0.000000
0.515099 0.340276 0.000000
0.540246 0.334691 0.000000
0.566125 0.330602 0.000000
0.592462 0.327611 0.000000
0.626429 0.332158 0.000000
0.661006 0.338262 0.000000
0.695186 0.345251 0.000000
0.729030 0.352972 0.000000
0.762631 0.361669 0.000000
0.796109 0.371405 0.000000
0.829801 0.382086 0.000000
0.863767 0.394079 0.000000
0.898161 0.407141 0.000000
0.932830 0.421424 0.000000
0.967987 0.436927 0.000000
0.000000 0.322972 0.125612
0.000000 0.323308 0.124575
0.000000 0.323491 0.122042
0.000000 0.323613 0.115450
0.000000 0.323888 0.104463
0.062379 0.323735 0.103548
0.097597 0.323888 0.103304
0.127718 0.323888 0.102876
0.156344 0.324010 0.102449
0.188602 0.329595 0.099458
0.228092 0.340948 0.092683
0.272221 0.353338 0.083680
0.321050 0.366644 0.070375
0.374395 0.380407 0.040375
0.443122 0.405371 0.000000
0.486763 0.409400 0.000000
0.512322 0.399542 0.000000
0.536645 0.390509 0.000000
0.560449 0.382605 0.000000
0.584588 0.376257 0.000000
0.609277 0.371527 0.000000
0.634577 0.368139 0.000000
0.660609 0.366400 0.000000
0.694514 0.372808 0.000000
0.728084 0.380133 0.000000
0.761501 0.388251 0.000000
0.794949 0.397345 0.000000
0.828550 0.407416 0.000000
0.862547 0.418647 0.000000
0.896971 0.431098 0.000000
0.931762 0.444770 0.000000
0.967071 0.459693 0.000000
0.000000 0.362402 0.126711
0.000000 0.362737 0.125460
0.000000 0.363043 0.122896
0.000000 0.363195 0.116152
0.000000 0.363500 0.104311
0.000000 0.363409 0.097688
0.074434 0.363165 0.097505
0.114595 0.362982 0.097078
0.148318 0.362737 0.096651
0.179843 0.362676 0.095857
0.218906 0.371862 0.089662
0.263005 0.384222 0.079866
0.311162 0.397253 0.065705
0.362982 0.410712 0.028321
0.418036 0.424231 0.000000
0.483040 0.444984 0.000000
0.536004 0.457160 0.000000
0.558923 0.445014 0.000000
0.581018 0.434119 0.000000
0.603571 0.425391 0.000000
0.626764 0.418402 0.000000
0.650538 0.413184 0.000000
0.674983 0.409461 0.000000
0.700282 0.407294 0.000000
0.727749 0.408087 0.000000
0.761013 0.415625 0.000000
0.794369 0.424109 0.000000
0.827909 0.433600 0.000000
0.861875 0.444312 0.000000
0.896330 0.456153 0.000000
0.931151 0.469245 0.000000
0.966583 0.483680 0.000000
0.000000 0.403265 0.127535
0.000000 0.403632 0.126467
0.000000 0.403876 0.124117
0.000000 0.403876 0.116487
0.000000 0.403876 0.103853
0.000000 0.403876 0.089967
0.000031 0.403357 0.089845
0.093965 0.402808 0.089479
0.136172 0.402411 0.088746
0.172671 0.402075 0.087892
0.207919 0.403143 0.086122
0.252537 0.415167 0.075502
0.300328 0.427832 0.059785
0.351507 0.440925 0.014252
0.405310 0.454078 0.000000
0.460914 0.467018 0.000000
0.520806 0.482979 0.000000
0.581537 0.502525 0.000000
0.602106 0.488716 0.000000
0.623194 0.477150 0.000000
0.644800 0.467720 0.000000
0.667109 0.460334 0.000000
0.690028 0.454658 0.000000
0.713924 0.450629 0.000000
0.738705 0.448341 0.000000
0.764675 0.447883 0.000000
0.794125 0.451575 0.000000
0.827909 0.460700 0.000000
0.862058 0.471015 0.000000
0.896727 0.482612 0.000000
0.931823 0.495308 0.000000
0.967437 0.509270 0.000000
0.000000 0.444038 0.128847
0.000000 0.444404 0.127596
0.000000 0.444770 0.125368
0.000000 0.444831 0.117617
0.000000 0.444862 0.103975
0.000000 0.445075 0.081971
0.000000 0.444648 0.079652
0.055940 0.444251 0.079103
0.119020 0.443702 0.078218
0.162325 0.443122 0.077607
0.200626 0.442329 0.076356
0.241154 0.446693 0.070375
0.288762 0.458350 0.050629
0.339208 0.470527 0.001831
0.391760 0.482765 0.000000
0.446021 0.494881 0.000000
0.500755 0.506554 0.000000
0.554620 0.517632 0.000000
0.623255 0.544854 0.000000
0.643153 0.530755 0.000000
0.663600 0.519097 0.000000
0.684627 0.509453 0.000000
0.706355 0.501793 0.000000
0.728908 0.495949 0.000000
0.752407 0.492012 0.000000
0.777127 0.489845 0.000000
0.803189 0.489601 0.000000
0.830838 0.491585 0.000000
0.862608 0.498482 0.000000
0.897154 0.509422 0.000000
0.932097 0.521599 0.000000
0.967620 0.535058 0.000000
0.000000 0.483528 0.130495
0.000000 0.483803 0.129274
0.000000 0.484047 0.127291
0.000000 0.484077 0.119081
0.000000 0.484169 0.104952
0.000000 0.484291 0.082094
0.000000 0.484108 0.067597
0.000000 0.483467 0.067079
0.093202 0.482826 0.066133
0.147677 0.482063 0.065064
0.191226 0.481239 0.063386
0.230503 0.480171 0.061646
0.276005 0.487861 0.038666
0.326207 0.499306 0.000000
0.378088 0.510643 0.000000
0.430854 0.521538 0.000000
0.484108 0.532219 0.000000
0.537224 0.542657 0.000000
0.586908 0.550927 0.000000
0.660975 0.583978 0.000000
0.681849 0.571160 0.000000
0.701564 0.559258 0.000000
0.722011 0.549401 0.000000
0.743282 0.541680 0.000000
0.765560 0.535882 0.000000
0.788968 0.532128 0.000000
0.813809 0.530388 0.000000
0.840238 0.530785 0.000000
0.868376 0.533318 0.000000
0.898344 0.537987 0.000000
0.932250 0.548333 0.000000
0.967926 0.561425 0.000000
0.000000 0.522057 0.133272
0.000000 0.522454 0.131868
0.000000 0.529046 0.130770
0.000000 0.529137 0.122591
0.000000 0.529015 0.107576
0.000000 0.528954 0.083009
0.000000 0.528740 0.043549
0.000000 0.527764 0.041779
0.039002 0.526757 0.039734
0.130404 0.525719 0.037232
0.181369 0.524559 0.033478
0.225101 0.523095 0.028656
0.265080 0.521386 0.023865
0.315862 0.531609 0.000000
0.367437 0.541588 0.000000
0.419501 0.551476 0.000000
0.471901 0.561089 0.000000
0.523766 0.570489 0.000000
0.574701 0.579858 0.000000
0.623590 0.588220 0.000000
0.691676 0.616754 0.000000
0.720882 0.612268 0.000000
0.739925 0.600031 0.000000
0.759731 0.590021 0.000000
0.780331 0.581994 0.000000
0.802121 0.576135 0.000000
0.825254 0.572412 0.000000
0.850065 0.570977 0.000000
0.876738 0.571923 0.000000
0.905333 0.575158 0.000000
0.935851 0.580713 0.000000
0.968322 0.588617 0.000000
0.000000 0.560388 0.137728
0.000000 0.561364 0.136599
0.000000 0.562371 0.134890
0.000000 0.563256 0.127749
0.000000 0.563775 0.112764
0.000000 0.564050 0.088899
0.000000 0.564202 0.025208
0.000000 0.563378 0.011536
0.000000 0.562493 0.009247
0.104799 0.561456 0.006867
0.166690 0.560235 0.002045
0.215091 0.558801 0.000000
0.258091 0.557153 0.000000
0.301701 0.558526 0.000000
0.353094 0.567712 0.000000
0.404639 0.576745 0.000000
0.456367 0.585626 0.000000
0.507347 0.594415 0.000000
0.557610 0.603235 0.000000
0.606836 0.612116 0.000000
0.654810 0.620722 0.000000
0.717983 0.645655 0.000000
0.755398 0.649683 0.000000
0.774105 0.637659 0.000000
0.793637 0.627802 0.000000
0.814328 0.620142 0.000000
0.836271 0.614801 0.000000
0.859861 0.611780 0.000000
0.885283 0.611200 0.000000
0.912566 0.612970 0.000000
0.941863 0.617182 0.000000
0.973114 0.623774 0.000000
0.000000 0.594751 0.143557
0.000000 0.595605 0.142641
0.000000 0.596521 0.141054
0.000000 0.597345 0.134768
0.000000 0.597833 0.120272
0.000000 0.598169 0.097078
0.000000 0.598230 0.051698
0.000000 0.597894 0.000000
0.000000 0.597040 0.000000
0.066773 0.596033 0.000000
0.149599 0.594903 0.000000
0.203861 0.593591 0.000000
0.250217 0.591913 0.000000
0.292424 0.590051 0.000000
0.339422 0.594141 0.000000
0.390906 0.602472 0.000000
0.442054 0.610712 0.000000
0.492592 0.618860 0.000000
0.542138 0.627070 0.000000
0.590753 0.635370 0.000000
0.638178 0.643763 0.000000
0.684871 0.652522 0.000000
0.743648 0.674342 0.000000
0.788418 0.686275 0.000000
0.806882 0.674464 0.000000
0.826383 0.664973 0.000000
0.847166 0.657801 0.000000
0.869535 0.653132 0.000000
0.893645 0.650843 0.000000
0.919646 0.651148 0.000000
0.947662 0.653925 0.000000
0.977661 0.659205 0.000000
0.000000 0.628168 0.151339
0.000000 0.628901 0.150362
0.000000 0.629725 0.149203
0.000000 0.630549 0.143923
0.000000 0.630945 0.130129
0.000000 0.631250 0.108370
0.000000 0.631403 0.071687
0.000000 0.631373 0.000000
0.000000 0.630518 0.000000
0.000000 0.629572 0.000000
0.129183 0.628443 0.000000
0.191379 0.627131 0.000000
0.241337 0.625605 0.000000
0.286137 0.623743 0.000000
0.327611 0.621759 0.000000
0.377966 0.628412 0.000000
0.429145 0.636286 0.000000
0.479622 0.644190 0.000000
0.528985 0.652155 0.000000
0.577295 0.660212 0.000000
0.624445 0.668452 0.000000
0.670497 0.676661 0.000000
0.716030 0.685389 0.000000
0.770809 0.704585 0.000000
0.822141 0.724025 0.000000
0.840665 0.712764 0.000000
0.860380 0.703822 0.000000
0.881590 0.697414 0.000000
0.904509 0.693538 0.000000
0.929259 0.692256 0.000000
0.955962 0.693507 0.000000
0.984588 0.697322 0.000000
0.000000 0.663203 0.161898
0.000000 0.663569 0.161135
0.000000 0.663905 0.159823
0.000000 0.664302 0.155825
0.000000 0.664546 0.142397
0.000000 0.664607 0.122621
0.000000 0.664820 0.090822
0.000000 0.665034 0.000000
0.000000 0.664485 0.000000
0.000000 0.663661 0.000000
0.105623 0.662745 0.000000
0.179416 0.661585 0.000000
0.233707 0.660121 0.000000
0.280888 0.658442 0.000000
0.324193 0.656489 0.000000
0.366918 0.656062 0.000000
0.418158 0.663203 0.000000
0.468299 0.670466 0.000000
0.517205 0.677790 0.000000
0.564843 0.685145 0.000000
0.611261 0.692653 0.000000
0.656458 0.700130 0.000000
0.700496 0.707637 0.000000
0.744015 0.715724 0.000000
0.794980 0.732418 0.000000
0.851560 0.758297 0.000000
0.870787 0.748104 0.000000
0.890898 0.740017 0.000000
0.912657 0.734524 0.000000
0.936217 0.731624 0.000000
0.961639 0.731319 0.000000
0.989075 0.733669 0.000000
0.000000 0.695003 0.173648
0.000000 0.695338 0.172946
0.000000 0.695705 0.171817
0.000000 0.696040 0.169070
0.000000 0.696254 0.156832
0.000000 0.696376 0.138552
0.000000 0.696529 0.111086
0.000000 0.696773 0.061311
0.000000 0.696498 0.000000
0.000000 0.695705 0.000000
0.074220 0.694820 0.000000
0.165621 0.693721 0.000000
0.224643 0.692378 0.000000
0.274723 0.690822 0.000000
0.319707 0.689113 0.000000
0.361669 0.687221 0.000000
0.407080 0.689296 0.000000
0.457221 0.696101 0.000000
0.505974 0.702937 0.000000
0.553185 0.709926 0.000000
0.599207 0.716976 0.000000
0.643946 0.724086 0.000000
0.687465 0.731258 0.000000
0.729854 0.738369 0.000000
0.770199 0.744625 0.000000
0.817899 0.759335 0.000000
0.874113 0.785916 0.000000
0.899382 0.782498 0.000000
0.920043 0.775357 0.000000
0.942504 0.770840 0.000000
0.966735 0.769039 0.000000
0.993072 0.770077 0.000000
0.000000 0.728328 0.188418
0.000000 0.728664 0.187991
0.000000 0.728908 0.187137
0.000000 0.729122 0.185122
0.000000 0.729183 0.174075
0.000000 0.729244 0.157351
0.000000 0.729305 0.133272
0.000000 0.729366 0.095888
0.000000 0.729274 0.012146
0.000000 0.728328 0.008515
0.000000 0.727260 0.004334
0.152895 0.726070 0.000000
0.217044 0.724697 0.000000
0.269291 0.723110 0.000000
0.315801 0.721279 0.000000
0.358801 0.719265 0.000000
0.399237 0.717220 0.000000
0.446632 0.721431 0.000000
0.495094 0.727718 0.000000
0.542077 0.734279 0.000000
0.587640 0.740932 0.000000
0.631861 0.747646 0.000000
0.674830 0.754269 0.000000
0.716518 0.760861 0.000000
0.756924 0.767300 0.000000
0.796414 0.773953 0.000000
0.841245 0.787015 0.000000
0.895995 0.812985 0.000000
0.927642 0.816892 0.000000
0.948852 0.810666 0.000000
0.971954 0.807340 0.000000
0.997101 0.806912 0.000000
0.000000 0.759030 0.203983
0.000000 0.759335 0.203799
0.000000 0.759579 0.203128
0.000000 0.759731 0.201724
0.000000 0.759854 0.192416
0.000000 0.759945 0.177401
0.000000 0.760037 0.156161
0.000000 0.760250 0.125551
0.000000 0.760555 0.072450
0.000000 0.759915 0.060670
0.000000 0.759030 0.059144
0.142000 0.758022 0.057130
0.211276 0.756863 0.053681
0.265812 0.755489 0.049195
0.313817 0.753933 0.044007
0.357946 0.752224 0.036622
0.399359 0.750423 0.028748
0.439185 0.749142 0.020081
0.487495 0.754971 0.000000
0.534112 0.760983 0.000000
0.579187 0.767086 0.000000
0.622919 0.773281 0.000000
0.665309 0.779507 0.000000
0.706416 0.785641 0.000000
0.746273 0.791684 0.000000
0.784939 0.797635 0.000000
0.822507 0.803555 0.000000
0.865324 0.815793 0.000000
0.918364 0.840818 0.000000
0.955688 0.851530 0.000000
0.977691 0.846616 0.000000
1.000000 0.844694 0.000000
0.000000 0.790402 0.222568
0.000000 0.790616 0.222324
0.000000 0.790738 0.221836
0.000000 0.790738 0.220890
0.000000 0.790738 0.213474
0.000000 0.790829 0.199741
0.000000 0.790921 0.180819
0.000000 0.791104 0.154971
0.000000 0.791470 0.116640
0.000000 0.791287 0.090211
0.000000 0.790494 0.089693
0.134493 0.789670 0.088930
0.207675 0.788693 0.087739
0.264225 0.787503 0.086824
0.313359 0.786160 0.085542
0.358251 0.784634 0.083864
0.400275 0.783017 0.082338
0.439857 0.781460 0.080934
0.481331 0.782467 0.076783
0.527459 0.787961 0.065705
0.572076 0.793606 0.044953
0.615320 0.799313 0.008789
0.657069 0.805020 0.000000
0.697566 0.810727 0.000000
0.736812 0.816373 0.000000
0.774929 0.821897 0.000000
0.811948 0.827451 0.000000
0.847898 0.832822 0.000000
0.889464 0.844938 0.000000
0.939910 0.868101 0.000000
0.982269 0.885008 0.000000
1.000000 0.881621 0.000000
0.000000 0.821286 0.243076
0.000000 0.821378 0.242985
0.000000 0.821469 0.242802
0.000000 0.821469 0.242191
0.000000 0.821561 0.236790
0.000000 0.821836 0.224582
0.000000 0.822324 0.208194
0.000000 0.822965 0.186221
0.000000 0.823789 0.156710
0.000000 0.824582 0.123323
0.000000 0.824308 0.123598
0.139712 0.823941 0.123751
0.213169 0.823392 0.124269
0.269963 0.822629 0.124361
0.319646 0.821622 0.124117
0.364843 0.820432 0.123903
0.407019 0.819120 0.123629
0.446876 0.817807 0.123262
0.484688 0.816648 0.123476
0.526970 0.819516 0.120851
0.570764 0.824552 0.116579
0.613214 0.829709 0.111543
0.654231 0.834867 0.105043
0.693965 0.839994 0.097597
0.732418 0.845060 0.088136
0.769650 0.850065 0.074861
0.805875 0.855039 0.052979
0.841123 0.859983 0.000000
0.875517 0.864897 0.000000
0.915709 0.876738 0.000000
0.963653 0.898192 0.000000
1.000000 0.920500 0.000000
0.000000 0.854948 0.269444
0.000000 0.855009 0.269505
0.000000 0.854978 0.269596
0.000000 0.854887 0.269505
0.000000 0.854826 0.265904
0.000000 0.855039 0.254887
0.000000 0.855375 0.240421
0.000000 0.855833 0.221317
0.000000 0.856504 0.196567
0.000000 0.857298 0.163546
0.000000 0.856992 0.158236
0.152407 0.856474 0.158572
0.222416 0.855802 0.158968
0.277867 0.855009 0.159457
