cubelut/Moody5.cube
# Created by Adobe Lightroom plugin Export LUT (1.18.0)
# www.johnrellis.com/lightroom/exportlut.htm
# Preset: nightcolor
# Color profile: /Library/Application Support/Adobe/Color/Profiles/Recommended/AdobeRGB1998.icc
LUT_3D_SIZE 5
DOMAIN_MIN 0.000000 0.000000 0.000000
DOMAIN_MAX 0.903226 0.903226 0.903226
0.244755 0.222385 0.165805
0.268467 0.221500 0.164858
0.470436 0.209812 0.152316
0.808377 0.172732 0.098970
0.944579 0.155978 0.042359
0.243259 0.248814 0.162936
0.272740 0.250645 0.161624
0.481422 0.284123 0.141360
0.810025 0.297581 0.066865
0.941894 0.265599 0.000000
0.219883 0.474525 0.111208
0.308385 0.481788 0.101839
0.508110 0.486885 0.069093
0.804959 0.529351 0.000000
0.935851 0.467994 0.000000
0.133639 0.789487 0.000000
0.291234 0.787137 0.000000
0.538048 0.780148 0.000000
0.782803 0.767300 0.000000
0.923125 0.682155 0.000000
0.129671 0.900786 0.000000
0.256779 0.898283 0.000000
0.465888 0.890105 0.000000
0.672480 0.874357 0.000000
0.865507 0.852567 0.000000
0.246189 0.221439 0.193973
0.275608 0.217533 0.193240
0.495521 0.150790 0.206394
0.824308 0.000000 0.162570
0.947692 0.000000 0.144320
0.241337 0.252720 0.192874
0.276402 0.252049 0.192294
0.502434 0.242832 0.182406
0.822965 0.218448 0.148653
0.945403 0.213596 0.134615
0.192264 0.483619 0.198581
0.262425 0.491859 0.157900
0.521569 0.499275 0.138460
0.815915 0.514031 0.076631
0.937316 0.450996 0.093874
0.000000 0.792782 0.061769
0.216342 0.791409 0.000000
0.521386 0.783108 0.000000
0.784543 0.768338 0.000000
0.923217 0.677089 0.000000
0.066804 0.901427 0.000000
0.238773 0.898863 0.000000
0.460060 0.889616 0.000000
0.671778 0.873838 0.000000
0.865751 0.851987 0.000000
0.253117 0.206455 0.451698
0.332128 0.189731 0.448676
0.525872 0.109071 0.442756
0.823667 0.000000 0.459083
0.941283 0.000000 0.389502
0.183749 0.265904 0.447120
0.285283 0.243168 0.447608
0.528466 0.196475 0.445289
0.825467 0.000000 0.442756
0.936492 0.236973 0.403540
0.116854 0.503227 0.445930
0.222110 0.503563 0.446479
0.528252 0.499153 0.442603
0.815457 0.493599 0.436561
0.923033 0.494697 0.437079
0.000000 0.794888 0.443305
0.152712 0.795468 0.429511
0.524956 0.783749 0.435065
0.786648 0.767239 0.432837
0.907897 0.693751 0.450813
0.133700 0.899748 0.371160
0.290043 0.895628 0.384497
0.550744 0.879393 0.463996
0.710811 0.866209 0.473854
0.864958 0.849119 0.483986
0.233860 0.171939 0.764279
0.332769 0.146914 0.762905
0.548272 0.000000 0.759762
0.802304 0.000000 0.755673
0.922759 0.000000 0.638056
0.097505 0.236027 0.763760
0.274144 0.222416 0.763058
0.531609 0.169100 0.760220
0.802182 0.000000 0.755734
0.918181 0.268681 0.644007
0.000000 0.496712 0.758297
0.172580 0.487770 0.757809
0.530449 0.500847 0.753231
0.793301 0.513756 0.746334
0.895018 0.582605 0.685115
0.000000 0.772885 0.744106
0.172457 0.772519 0.743954
0.557763 0.769100 0.740780
0.783932 0.765652 0.737087
0.870695 0.765835 0.737148
0.230350 0.894041 0.634760
0.362097 0.888823 0.642573
0.616541 0.869505 0.683986
0.786069 0.850645 0.740475
0.859373 0.845060 0.742733
0.226291 0.165042 0.857145
0.299657 0.151339 0.856809
0.469978 0.093294 0.855589
0.671595 0.000000 0.852964
0.880308 0.074556 0.848112
0.175296 0.226352 0.856443
0.270207 0.220645 0.856046
0.460639 0.204593 0.854551
0.670893 0.202640 0.851286
0.877989 0.278508 0.845670
0.203616 0.442908 0.851072
0.334844 0.464546 0.849393
0.516899 0.488624 0.846372
0.701808 0.520653 0.841825
0.868589 0.577691 0.836057
0.263676 0.655268 0.841886
0.377508 0.665126 0.840330
0.617151 0.710872 0.834287
0.776730 0.759731 0.828183
0.859220 0.773709 0.826749
0.375128 0.849271 0.830625
0.464179 0.848356 0.829709
0.658381 0.845853 0.827146
0.795163 0.843870 0.824857
0.856382 0.843351 0.824216
