cubelut/Moody5.cube
# Created by Adobe Lightroom plugin Export LUT (1.18.0)
# www.johnrellis.com/lightroom/exportlut.htm
# Preset: nightcolor
# Color profile: /Library/Application Support/Adobe/Color/Profiles/Recommended/AdobeRGB1998.icc
LUT_3D_SIZE 32
DOMAIN_MIN 0.0 0.0 0.0
DOMAIN_MAX 1.0 1.0 1.0
0.244755 0.222385 0.165805
0.244755 0.222385 0.165805
0.244968 0.222324 0.165805
0.245792 0.222293 0.165774
0.248020 0.222263 0.165682
0.252293 0.222171 0.165499
0.259007 0.221775 0.165255
0.268467 0.221500 0.164858
0.281376 0.220981 0.164279
0.298405 0.220157 0.163638
0.320348 0.219120 0.162509
0.347845 0.217685 0.161105
0.381445 0.215824 0.159121
0.422339 0.213169 0.156283
0.470436 0.209812 0.152316
0.523705 0.205478 0.147280
0.579431 0.200259 0.141115
0.634546 0.194461 0.133608
0.685847 0.188693 0.125429
0.732296 0.182895 0.116701
0.772885 0.177584 0.107912
0.808377 0.172732 0.098970
0.839445 0.168399 0.090089
0.865812 0.164858 0.081361
0.887907 0.161898 0.073274
0.906310 0.159274 0.065797
0.921508 0.157656 0.059297
0.934081 0.156619 0.050141
0.944579 0.155978 0.042359
0.953399 0.155978 0.035767
0.960967 0.155978 0.032319
0.967468 0.156344 0.029267
0.244755 0.222477 0.165774
0.244846 0.222446 0.165774
0.244968 0.222446 0.165774
0.245853 0.222568 0.165743
0.248173 0.222538 0.165621
0.252445 0.222538 0.165438
0.259220 0.222446 0.165164
0.268833 0.222232 0.164736
0.281956 0.221744 0.164309
0.299260 0.221286 0.163455
0.321569 0.220340 0.162295
0.349462 0.219089 0.160830
0.383612 0.217441 0.158755
0.425177 0.215091 0.155795
0.473945 0.211948 0.151858
0.527703 0.208011 0.146639
0.583612 0.203281 0.140139
0.638636 0.198062 0.132448
0.689754 0.192538 0.124147
0.735683 0.187167 0.115480
0.775723 0.182223 0.106661
0.810758 0.177554 0.097627
0.841398 0.173312 0.088746
0.867369 0.169711 0.080018
0.889128 0.166751 0.071931
0.907225 0.164614 0.064363
0.922210 0.162844 0.057282
0.934630 0.161654 0.048707
0.944976 0.160891 0.040742
0.953735 0.160403 0.034577
0.961181 0.160403 0.030213
0.967651 0.160494 0.028504
0.244724 0.222690 0.165774
0.244816 0.222660 0.165774
0.245029 0.222721 0.165743
0.245914 0.222873 0.165682
0.248203 0.223148 0.165560
0.252659 0.223209 0.165377
0.259403 0.223331 0.165072
0.269169 0.223270 0.164614
0.282506 0.223056 0.164126
0.300023 0.222629 0.163272
0.322515 0.221927 0.162203
0.350622 0.221103 0.160525
0.385168 0.219730 0.158358
0.427039 0.217838 0.155459
0.475990 0.215244 0.151247
0.530114 0.211673 0.145876
0.586145 0.207736 0.139193
0.641016 0.203220 0.131502
0.692042 0.198032 0.123079
0.737514 0.193454 0.114107
0.777249 0.188754 0.105165
0.812009 0.184329 0.096040
0.842344 0.180179 0.087068
0.868101 0.176516 0.078553
0.889677 0.173617 0.070436
0.907683 0.170993 0.062776
0.922545 0.169192 0.054536
0.934874 0.167727 0.045960
0.945159 0.166476 0.037842
0.953826 0.166140 0.031739
0.961273 0.165713 0.027680
0.967712 0.165530 0.026154
0.244694 0.223697 0.165652
0.244907 0.223758 0.165621
0.245304 0.223789 0.165621
0.246098 0.223850 0.165560
0.248478 0.224216 0.165438
0.252873 0.224796 0.165164
0.259770 0.225254 0.164797
0.269535 0.225498 0.164462
0.282994 0.225742 0.163760
0.300755 0.225772 0.162844
0.323583 0.225681 0.161685
0.352056 0.225437 0.160037
0.386847 0.224857 0.157748
0.429206 0.223911 0.154513
0.478706 0.222446 0.150179
0.532952 0.220371 0.144533
0.589136 0.217502 0.137575
0.644099 0.214084 0.129580
0.694911 0.210361 0.120790
0.740200 0.206302 0.111757
0.779690 0.202152 0.102327
0.814054 0.198093 0.093263
0.843931 0.194308 0.084077
0.869139 0.190616 0.075135
0.890227 0.187350 0.066896
0.907897 0.184512 0.059541
0.922545 0.182223 0.048341
0.934752 0.180606 0.038087
0.945037 0.178866 0.030457
0.953735 0.177707 0.024933
0.961181 0.176791 0.022339
0.967651 0.176059 0.021180
0.244480 0.226352 0.165347
0.244999 0.226352 0.165316
0.245487 0.226444 0.165286
0.246799 0.226505 0.165225
0.248966 0.226719 0.165103
0.253208 0.227512 0.164981
0.260410 0.228397 0.164523
0.270390 0.229374 0.163943
0.284154 0.230228 0.163180
0.302281 0.230991 0.162264
0.325414 0.231785 0.160952
0.354376 0.232425 0.159152
0.389776 0.233036 0.156619
0.432563 0.233494 0.153079
0.482094 0.233677 0.148470
0.536034 0.233494 0.142458
0.591699 0.232334 0.135317
0.645991 0.230686 0.126802
0.696498 0.228153 0.117800
0.741512 0.225132 0.108186
0.780789 0.221775 0.098543
0.815061 0.218296 0.088991
0.844663 0.214359 0.079438
0.869627 0.210666 0.070069
0.890532 0.207156 0.061707
0.908019 0.203830 0.050172
0.922576 0.201175 0.036957
0.934752 0.198428 0.027436
0.944976 0.196078 0.020508
0.953643 0.194247 0.015686
0.961089 0.192569 0.013764
0.967529 0.191348 0.013123
0.244236 0.231266 0.164889
0.244846 0.231357 0.164858
0.245548 0.231418 0.164828
0.247257 0.231510 0.164736
0.250126 0.231785 0.164584
0.254124 0.231907 0.164401
0.260807 0.232975 0.163943
0.270939 0.234653 0.163394
0.284855 0.236301 0.162509
0.303136 0.237949 0.161471
0.326604 0.239811 0.159976
0.355840 0.241703 0.157931
0.391455 0.243839 0.155154
0.434577 0.246159 0.151400
0.484169 0.248325 0.146365
0.537987 0.250065 0.139925
0.593286 0.251194 0.132265
0.647211 0.251286 0.123232
0.697108 0.250278 0.113771
0.741726 0.248295 0.103639
0.780697 0.245518 0.093721
0.814725 0.242161 0.083345
0.832456 0.237675 0.077790
0.859770 0.233951 0.067231
0.882658 0.230320 0.056001
0.901823 0.226505 0.039582
0.917754 0.222965 0.024384
0.930968 0.219608 0.012970
0.941985 0.216526 0.005737
0.951293 0.213779 0.000885
0.959197 0.211124 0.000000
0.966064 0.209079 0.000000
0.243839 0.238193 0.164034
0.244572 0.238163 0.164004
0.245457 0.238285 0.163973
0.247440 0.238407 0.164004
0.250797 0.238651 0.163821
0.255375 0.238865 0.163577
0.261265 0.239200 0.163272
0.270146 0.240421 0.162844
0.283482 0.242985 0.161837
0.301213 0.245609 0.160678
0.323705 0.248539 0.159091
0.351934 0.251835 0.156954
0.386511 0.255528 0.154147
0.428717 0.259617 0.150210
0.478065 0.264164 0.144656
0.531945 0.268315 0.137911
0.587579 0.271702 0.129702
0.641749 0.273869 0.120211
0.691859 0.274479 0.109926
0.736446 0.273564 0.099428
0.775051 0.271580 0.088777
0.808621 0.268437 0.077943
0.837797 0.264775 0.067109
0.862882 0.260716 0.054047
0.884276 0.256535 0.034180
0.902586 0.252140 0.016144
0.918090 0.247929 0.002808
0.931121 0.243961 0.000000
0.942016 0.240085 0.000000
0.951232 0.236423 0.000000
0.959106 0.233188 0.000000
0.965911 0.230076 0.000000
0.243259 0.248814 0.162936
0.244083 0.248875 0.162905
0.245182 0.248936 0.162844
0.247715 0.249058 0.162722
0.251652 0.249393 0.162509
0.257145 0.249790 0.162203
0.264164 0.250156 0.161959
0.272740 0.250645 0.161624
0.284642 0.252445 0.160769
0.302556 0.256199 0.159396
0.325505 0.260563 0.157687
0.354040 0.265354 0.155184
0.389197 0.270970 0.151797
0.431830 0.277226 0.147280
0.481422 0.284123 0.141360
0.535424 0.290715 0.133608
0.590784 0.296300 0.124453
0.644770 0.300298 0.113893
0.694423 0.302220 0.102693
0.738491 0.302251 0.090974
0.776761 0.300450 0.079042
0.810025 0.297581 0.066865
0.838956 0.293950 0.049622
0.863737 0.289525 0.025269
0.884916 0.284825 0.004639
0.902953 0.279973 0.000000
0.918242 0.275181 0.000000
0.931121 0.270359 0.000000
0.941894 0.265599 0.000000
0.951049 0.261082 0.000000
0.958862 0.257023 0.000000
0.965637 0.253056 0.000000
0.242313 0.263493 0.161166
0.243351 0.263523 0.161135
0.244755 0.263706 0.161044
0.247654 0.263859 0.160891
0.252476 0.264256 0.160616
0.258793 0.264652 0.160403
0.266941 0.265293 0.159915
0.276799 0.265934 0.159487
0.288548 0.266545 0.158907
0.303746 0.268742 0.157870
0.326848 0.274388 0.155734
0.355627 0.280827 0.153017
0.391058 0.288365 0.149233
0.434058 0.296971 0.144045
0.483619 0.306340 0.137118
0.537530 0.315190 0.128542
0.592798 0.322881 0.118166
0.646479 0.328710 0.106203
0.695705 0.331884 0.093446
0.739437 0.332586 0.079866
0.777462 0.331365 0.065736
0.810605 0.328527 0.043946
0.839353 0.324620 0.013245
0.863981 0.320073 0.000000
0.884977 0.314763 0.000000
0.902892 0.309087 0.000000
0.918090 0.303563 0.000000
0.930846 0.298009 0.000000
0.941558 0.292546 0.000000
0.950683 0.287205 0.000000
0.958495 0.282078 0.000000
0.965240 0.277440 0.000000
0.241123 0.282994 0.158602
0.242344 0.283116 0.158541
0.243870 0.283299 0.158450
0.247562 0.283604 0.158236
0.253117 0.284092 0.158022
0.260624 0.284733 0.157565
0.270115 0.285496 0.157137
0.281498 0.286259 0.156405
0.294835 0.287175 0.155825
0.309880 0.288029 0.154940
0.328679 0.290532 0.153475
0.357824 0.298741 0.150240
0.393561 0.308171 0.145876
0.436622 0.318975 0.139895
0.485939 0.330480 0.132143
0.539086 0.341466 0.122408
0.593561 0.350896 0.110689
0.646387 0.357977 0.097108
0.695308 0.362493 0.082246
0.738949 0.363897 0.065461
0.777279 0.363195 0.035706
0.810697 0.360632 0.000000
0.839719 0.356664 0.000000
0.864378 0.351629 0.000000
0.885313 0.345830 0.000000
0.903044 0.339605 0.000000
0.917998 0.333257 0.000000
0.930571 0.326879 0.000000
0.941161 0.320439 0.000000
0.950164 0.314244 0.000000
0.957916 0.308415 0.000000
0.964660 0.302739 0.000000
0.239170 0.308965 0.154696
0.240604 0.309148 0.154604
0.242649 0.309300 0.154482
0.246983 0.309636 0.154238
0.253513 0.310094 0.153994
0.262425 0.310704 0.153445
0.273503 0.311528 0.152865
0.286534 0.312413 0.152132
0.301671 0.313329 0.151217
0.318700 0.314397 0.150240
0.337469 0.315557 0.148898
0.359777 0.318395 0.147005
0.395819 0.329778 0.141878
0.439155 0.342901 0.135012
0.488441 0.356664 0.125765
0.541375 0.369635 0.114656
0.595392 0.380865 0.100832
0.647791 0.389502 0.084596
0.696437 0.394842 0.065126
0.739773 0.396979 0.026581
0.777737 0.396368 0.000000
0.810910 0.393652 0.000000
0.839689 0.389502 0.000000
0.864134 0.383978 0.000000
0.884947 0.377600 0.000000
0.902586 0.370764 0.000000
0.917479 0.363622 0.000000
0.930022 0.356359 0.000000
0.940581 0.349157 0.000000
0.949584 0.342107 0.000000
0.957305 0.335424 0.000000
0.964050 0.328985 0.000000
0.236545 0.341131 0.149020
0.238224 0.341253 0.148898
0.240696 0.341436 0.148898
0.245670 0.341741 0.148623
0.253696 0.342260 0.148104
0.264042 0.342992 0.147555
0.276890 0.343877 0.146822
0.291936 0.344823 0.145876
0.309148 0.345830 0.144717
0.328161 0.346990 0.143465
0.349096 0.348333 0.141787
0.371710 0.349767 0.139925
0.386786 0.343389 0.140169
0.427710 0.357794 0.133059
0.475013 0.373236 0.123568
0.526574 0.388220 0.111482
0.580224 0.401892 0.096468
0.633112 0.412848 0.077394
0.682948 0.420508 0.049012
0.728237 0.424689 0.000000
0.768124 0.425544 0.000000
0.802914 0.423926 0.000000
0.833310 0.420203 0.000000
0.859098 0.415015 0.000000
0.880919 0.408453 0.000000
0.899290 0.401312 0.000000
0.914733 0.393652 0.000000
0.927733 0.385840 0.000000
0.938659 0.377905 0.000000
0.947936 0.370092 0.000000
0.955901 0.362615 0.000000
0.962829 0.355413 0.000000
0.233188 0.374670 0.142031
0.235172 0.374945 0.141878
0.237919 0.375372 0.141787
0.243748 0.376226 0.141268
0.252903 0.377356 0.140505
0.264866 0.378820 0.139620
0.279637 0.380224 0.138521
0.296727 0.381506 0.137270
0.315892 0.382696 0.135927
0.336736 0.383612 0.134279
0.359045 0.384283 0.132601
0.382605 0.384894 0.130617
0.407507 0.385687 0.128267
0.434058 0.386969 0.125307
0.480415 0.403357 0.114229
0.531151 0.419654 0.099641
0.584039 0.434546 0.080598
0.636286 0.446571 0.050141
0.685481 0.454932 0.000000
0.730282 0.459510 0.000000
0.769558 0.460426 0.000000
0.803952 0.458564 0.000000
0.833951 0.454536 0.000000
0.859403 0.448768 0.000000
0.880919 0.441627 0.000000
0.899077 0.433631 0.000000
0.914366 0.425177 0.000000
0.927214 0.416449 0.000000
0.938048 0.407691 0.000000
0.947265 0.399054 0.000000
0.955169 0.390723 0.000000
0.962066 0.382666 0.000000
0.227390 0.421973 0.129793
0.229984 0.422126 0.129610
0.233341 0.422614 0.129274
0.240482 0.423621 0.128542
0.251499 0.424872 0.127657
0.265873 0.426368 0.126436
0.283177 0.427863 0.124941
0.302983 0.429328 0.123140
0.324895 0.430426 0.121340
0.348699 0.431373 0.119051
0.373632 0.431891 0.116762
0.399786 0.432410 0.114046
0.427131 0.433051 0.110780
0.455940 0.434272 0.106874
0.486275 0.435981 0.101961
0.535302 0.452461 0.084108
0.587793 0.468574 0.054963
0.639338 0.481544 0.000000
0.687953 0.490394 0.000000
0.731899 0.495094 0.000000
0.770626 0.495918 0.000000
0.804593 0.493721 0.000000
0.834134 0.489265 0.000000
0.859251 0.482765 0.000000
0.880491 0.474983 0.000000
0.898436 0.466194 0.000000
0.913603 0.456947 0.000000
0.926360 0.447425 0.000000
0.937133 0.437812 0.000000
0.946319 0.428321 0.000000
0.954223 0.419135 0.000000
0.961120 0.410315 0.000000
0.219883 0.474525 0.111208
0.222965 0.474586 0.110994
0.226993 0.475074 0.110506
0.235691 0.476081 0.109712
0.248905 0.477363 0.108400
0.265782 0.479042 0.106569
0.285771 0.480507 0.104372
0.308385 0.481788 0.101839
0.333104 0.482826 0.099184
0.359564 0.483497 0.095888
0.386999 0.483894 0.092439
0.415564 0.484077 0.088411
0.445167 0.484474 0.083680
0.475959 0.485420 0.077089
0.508110 0.486885 0.069093
0.541833 0.489052 0.056886
0.590784 0.503319 0.000000
0.641749 0.517052 0.000000
0.689845 0.526482 0.000000
0.733181 0.531212 0.000000
0.771420 0.531823 0.000000
0.804959 0.529351 0.000000
0.834195 0.524346 0.000000
0.858946 0.517235 0.000000
0.879911 0.508598 0.000000
0.897642 0.499062 0.000000
0.912566 0.488869 0.000000
0.925170 0.478523 0.000000
0.935851 0.467994 0.000000
0.944976 0.457679 0.000000
0.952880 0.447669 0.000000
0.959808 0.438025 0.000000
0.210117 0.529717 0.082124
0.213840 0.529686 0.082124
0.218753 0.529839 0.081605
0.228977 0.530388 0.080293
0.244358 0.531212 0.078431
0.263859 0.532280 0.075807
0.286351 0.533196 0.072480
0.311345 0.534081 0.068299
0.338537 0.534722 0.063661
0.367163 0.535332 0.057099
0.397101 0.535821 0.043946
0.428138 0.536492 0.025605
0.459937 0.537194 0.003784
0.493050 0.538262 0.000000
0.527001 0.539574 0.000000
0.562158 0.541405 0.000000
0.597925 0.543267 0.000000
0.644251 0.553704 0.000000
0.691493 0.563195 0.000000
0.733852 0.567620 0.000000
0.771359 0.567895 0.000000
0.804440 0.564843 0.000000
0.833219 0.559350 0.000000
0.857725 0.551507 0.000000
0.878538 0.542168 0.000000
0.896117 0.531884 0.000000
0.911040 0.520836 0.000000
0.923644 0.509667 0.000000
0.934325 0.498390 0.000000
0.943542 0.487221 0.000000
0.951537 0.476448 0.000000
0.958556 0.465980 0.000000
0.198367 0.585321 0.000000
0.202579 0.585443 0.000000
0.208499 0.585657 0.000000
0.220676 0.586145 0.000000
0.238437 0.586786 0.000000
0.260349 0.587549 0.000000
0.285435 0.588128 0.000000
0.313115 0.588678 0.000000
0.342596 0.589044 0.000000
0.373510 0.589258 0.000000
0.405341 0.589380 0.000000
0.438056 0.589441 0.000000
0.471473 0.589593 0.000000
0.505608 0.590021 0.000000
0.540703 0.590784 0.000000
0.576501 0.591913 0.000000
0.613062 0.593225 0.000000
0.650202 0.594659 0.000000
0.693050 0.600763 0.000000
0.734859 0.605005 0.000000
0.771908 0.604883 0.000000
0.804532 0.601343 0.000000
0.832914 0.595026 0.000000
0.857053 0.586511 0.000000
0.877592 0.576287 0.000000
0.894957 0.565087 0.000000
0.909697 0.553246 0.000000
0.922240 0.541161 0.000000
0.932921 0.528954 0.000000
0.942107 0.516991 0.000000
0.950134 0.505364 0.000000
0.957183 0.494179 0.000000
0.185214 0.636988 0.000000
0.190585 0.636622 0.000000
0.199405 0.625788 0.000000
0.212741 0.626184 0.000000
0.231785 0.626795 0.000000
0.254826 0.627588 0.000000
0.281346 0.628412 0.000000
0.310155 0.629175 0.000000
0.340764 0.629847 0.000000
0.372686 0.630213 0.000000
0.405554 0.630579 0.000000
0.439277 0.630854 0.000000
0.473701 0.631312 0.000000
0.508873 0.631891 0.000000
0.544427 0.632715 0.000000
0.580682 0.633600 0.000000
0.617548 0.634760 0.000000
0.654688 0.635767 0.000000
0.692042 0.636591 0.000000
0.731502 0.639094 0.000000
0.768887 0.639399 0.000000
0.801724 0.635889 0.000000
0.830259 0.629328 0.000000
0.854612 0.620417 0.000000
0.875395 0.609766 0.000000
0.893034 0.598016 0.000000
0.907958 0.585473 0.000000
0.920623 0.572595 0.000000
0.931365 0.559686 0.000000
0.940612 0.546929 0.000000
0.948669 0.534508 0.000000
0.955749 0.522515 0.000000
0.172641 0.681483 0.000000
0.178164 0.680293 0.000000
0.186282 0.679042 0.000000
0.201541 0.678096 0.000000
0.222812 0.677455 0.000000
0.248600 0.677455 0.000000
0.277165 0.677729 0.000000
0.307988 0.678004 0.000000
0.340215 0.678248 0.000000
0.373449 0.678279 0.000000
0.407691 0.678096 0.000000
0.442329 0.677852 0.000000
0.477638 0.677821 0.000000
0.513329 0.677852 0.000000
0.549493 0.677974 0.000000
0.585962 0.678187 0.000000
0.622705 0.678401 0.000000
0.659571 0.678584 0.000000
0.696590 0.678553 0.000000
0.733364 0.678309 0.000000
0.769436 0.677272 0.000000
0.801694 0.672938 0.000000
0.829618 0.665553 0.000000
0.853605 0.655604 0.000000
0.874052 0.644038 0.000000
0.891508 0.631312 0.000000
0.906340 0.617945 0.000000
0.918914 0.604211 0.000000
0.929686 0.590448 0.000000
0.938964 0.576837 0.000000
0.947051 0.563622 0.000000
0.954223 0.550927 0.000000
0.158419 0.724117 0.000000
0.164767 0.723140 0.000000
0.173983 0.722164 0.000000
0.190677 0.721309 0.000000
0.213840 0.720699 0.000000
0.241398 0.720516 0.000000
0.271672 0.720424 0.000000
0.303563 0.720424 0.000000
0.337041 0.720272 0.000000
0.371405 0.719905 0.000000
0.406195 0.719417 0.000000
0.441444 0.718898 0.000000
0.477241 0.718379 0.000000
0.513146 0.717922 0.000000
0.549371 0.717464 0.000000
0.585779 0.717098 0.000000
0.622309 0.716732 0.000000
0.658869 0.716213 0.000000
0.695338 0.715541 0.000000
0.731624 0.714595 0.000000
0.767575 0.713405 0.000000
0.801144 0.710048 0.000000
0.828672 0.701717 0.000000
0.852293 0.690852 0.000000
0.872557 0.678370 0.000000
0.889830 0.664759 0.000000
0.904570 0.650538 0.000000
0.917174 0.635920 0.000000
0.927916 0.621271 0.000000
0.937224 0.606928 0.000000
0.945373 0.592920 0.000000
0.952605 0.579461 0.000000
0.144625 0.760800 0.000000
0.152285 0.760006 0.000000
0.161898 0.759182 0.000000
0.179904 0.758450 0.000000
0.205112 0.757778 0.000000
0.233829 0.757473 0.000000
0.265019 0.757259 0.000000
0.298039 0.757015 0.000000
0.332036 0.756619 0.000000
0.366949 0.756069 0.000000
0.402167 0.755428 0.000000
0.437842 0.754665 0.000000
0.473610 0.753841 0.000000
0.509606 0.752956 0.000000
0.545678 0.752010 0.000000
0.581720 0.751034 0.000000
0.617731 0.749844 0.000000
0.653529 0.748531 0.000000
0.689113 0.746944 0.000000
0.724331 0.745144 0.000000
0.759243 0.743130 0.000000
0.793881 0.740871 0.000000
0.825528 0.736080 0.000000
0.848997 0.724483 0.000000
0.869169 0.711299 0.000000
0.886564 0.696986 0.000000
0.901427 0.681971 0.000000
0.914183 0.666682 0.000000
0.925139 0.651331 0.000000
0.934630 0.636316 0.000000
0.942992 0.621576 0.000000
0.950439 0.607416 0.000000
0.133639 0.789487 0.000000
0.141115 0.789151 0.000000
0.151339 0.788785 0.000000
0.170626 0.788510 0.000000
0.196597 0.788205 0.000000
0.226169 0.787930 0.000000
0.257908 0.787594 0.000000
0.291234 0.787137 0.000000
0.325536 0.786496 0.000000
0.360510 0.785611 0.000000
0.395636 0.784695 0.000000
0.431220 0.783597 0.000000
0.466865 0.782498 0.000000
0.502403 0.781369 0.000000
0.538048 0.780148 0.000000
0.573724 0.778805 0.000000
0.609186 0.777340 0.000000
0.644495 0.775723 0.000000
0.679500 0.773922 0.000000
0.714260 0.771878 0.000000
0.748745 0.769711 0.000000
0.782803 0.767300 0.000000
0.816556 0.764797 0.000000
0.847318 0.759762 0.000000
0.867430 0.745663 0.000000
0.884672 0.730434 0.000000
0.899474 0.714504 0.000000
0.912169 0.698299 0.000000
0.923125 0.682155 0.000000
0.932677 0.666255 0.000000
0.941131 0.650782 0.000000
0.948547 0.635859 0.000000
0.123293 0.816068 0.000000
0.131533 0.815763 0.000000
0.141939 0.815457 0.000000
0.162661 0.815091 0.000000
0.189120 0.814725 0.000000
0.219089 0.814420 0.000000
0.251164 0.813993 0.000000
0.284550 0.813443 0.000000
0.318853 0.812741 0.000000
0.353674 0.811795 0.000000
0.388708 0.810727 0.000000
0.423865 0.809506 0.000000
0.458961 0.808194 0.000000
0.494270 0.806760 0.000000
0.529442 0.805264 0.000000
0.564446 0.803616 0.000000
0.599298 0.801816 0.000000
0.633875 0.799832 0.000000
0.668208 0.797696 0.000000
0.702266 0.795346 0.000000
0.735897 0.792813 0.000000
0.769223 0.790127 0.000000
0.802152 0.787320 0.000000
0.834653 0.784360 0.000000
0.865873 0.780362 0.000000
0.882933 0.764126 0.000000
0.897581 0.747250 0.000000
0.910216 0.730129 0.000000
0.921172 0.713100 0.000000
0.930785 0.696345 0.000000
0.939239 0.680140 0.000000
0.946593 0.664332 0.000000
0.116640 0.836454 0.000000
0.125154 0.836149 0.000000
0.135653 0.835904 0.000000
0.155795 0.835691 0.000000
0.182834 0.835386 0.000000
0.212619 0.835111 0.000000
0.244602 0.834714 0.000000
0.277714 0.834226 0.000000
0.311772 0.833555 0.000000
0.346105 0.832700 0.000000
0.380621 0.831754 0.000000
0.415290 0.830564 0.000000
0.450019 0.829282 0.000000
0.484718 0.827848 0.000000
0.519310 0.826322 0.000000
0.553826 0.824704 0.000000
0.588128 0.822873 0.000000
0.622156 0.820859 0.000000
0.655848 0.818540 0.000000
0.689113 0.816007 0.000000
0.722042 0.813321 0.000000
0.754574 0.810422 0.000000
0.786831 0.807462 0.000000
0.818784 0.804410 0.000000
0.850278 0.801328 0.000000
0.880552 0.797238 0.000000
0.895232 0.779507 0.000000
0.907927 0.761563 0.000000
0.918975 0.743740 0.000000
0.928618 0.726253 0.000000
0.937072 0.709224 0.000000
0.944488 0.692653 0.000000
0.112642 0.855009 0.000000
0.120974 0.854765 0.000000
0.131624 0.854551 0.000000
0.151736 0.854276 0.000000
0.178347 0.853971 0.000000
0.207858 0.853574 0.000000
0.239170 0.853086 0.000000
0.271733 0.852445 0.000000
0.304997 0.851652 0.000000
0.338781 0.850675 0.000000
0.372564 0.849546 0.000000
0.406653 0.848234 0.000000
0.440558 0.846769 0.000000
0.474495 0.845212 0.000000
0.508293 0.843534 0.000000
0.541894 0.841764 0.000000
0.575433 0.839811 0.000000
0.608667 0.837644 0.000000
0.641505 0.835294 0.000000
0.674098 0.832700 0.000000
0.706294 0.829923 0.000000
0.738155 0.827024 0.000000
0.769680 0.824033 0.000000
0.800809 0.820951 0.000000
0.831632 0.817777 0.000000
0.862089 0.814481 0.000000
0.892088 0.811093 0.000000
0.905211 0.792630 0.000000
0.916320 0.774075 0.000000
0.926085 0.755825 0.000000
0.934539 0.737911 0.000000
0.942046 0.720638 0.000000
0.112581 0.869871 0.000000
0.120577 0.869688 0.000000
0.130770 0.869535 0.000000
0.150210 0.869352 0.000000
0.175692 0.869047 0.000000
0.204288 0.868681 0.000000
0.234989 0.868162 0.000000
0.266514 0.867521 0.000000
0.299138 0.866667 0.000000
0.331792 0.865660 0.000000
0.364813 0.864469 0.000000
0.397955 0.863127 0.000000
0.431037 0.861631 0.000000
0.464179 0.859983 0.000000
0.497108 0.858274 0.000000
0.529931 0.856413 0.000000
0.562707 0.854398 0.000000
0.595056 0.852232 0.000000
0.627222 0.849851 0.000000
0.658991 0.847288 0.000000
0.690425 0.844541 0.000000
0.721584 0.841642 0.000000
0.752377 0.838651 0.000000
0.782803 0.835569 0.000000
0.812894 0.832364 0.000000
0.842618 0.829068 0.000000
0.871916 0.825711 0.000000
0.900877 0.822232 0.000000
0.913848 0.804471 0.000000
0.923552 0.785336 0.000000
0.932067 0.766690 0.000000
0.939696 0.748745 0.000000
0.116487 0.882444 0.000000
0.123873 0.882292 0.000000
0.133333 0.882170 0.000000
0.151156 0.881956 0.000000
0.175174 0.881590 0.000000
0.202670 0.881102 0.000000
0.231693 0.880430 0.000000
0.262150 0.879606 0.000000
0.293492 0.878569 0.000000
0.324987 0.877379 0.000000
0.356847 0.876036 0.000000
0.388952 0.874510 0.000000
0.420935 0.872923 0.000000
0.453071 0.871214 0.000000
0.485115 0.869383 0.000000
0.517021 0.867521 0.000000
0.548852 0.865507 0.000000
0.580377 0.863371 0.000000
0.611749 0.861021 0.000000
0.642725 0.858518 0.000000
0.673426 0.855863 0.000000
0.703822 0.853086 0.000000
0.733913 0.850187 0.000000
0.763699 0.847166 0.000000
0.793149 0.844083 0.000000
0.822202 0.840909 0.000000
0.850919 0.837613 0.000000
0.879240 0.834257 0.000000
0.907073 0.830655 0.000000
0.920165 0.813901 0.000000
0.928893 0.794644 0.000000
0.936767 0.776028 0.000000
0.121035 0.891875 0.000000
0.127382 0.891814 0.000000
0.136049 0.891691 0.000000
0.152773 0.891508 0.000000
0.175265 0.891203 0.000000
0.201419 0.890745 0.000000
0.229374 0.890166 0.000000
0.258457 0.889433 0.000000
0.288457 0.888548 0.000000
0.319066 0.887480 0.000000
0.350011 0.886290 0.000000
0.381170 0.884947 0.000000
0.412268 0.883452 0.000000
0.443458 0.881865 0.000000
