cubelut/Moody3.cube
# Created by Adobe Lightroom plugin Export LUT (1.18.0)
# www.johnrellis.com/lightroom/exportlut.htm
# Preset: Captain-America_Free-LR-Presets.co
# Color profile: /Library/Application Support/Adobe/Color/Profiles/Recommended/AdobeRGB1998.icc
LUT_3D_SIZE 5
DOMAIN_MIN 0.000000 0.000000 0.000000
DOMAIN_MAX 0.903226 0.903226 0.903226
0.000000 0.000000 0.000000
0.122194 0.068666 0.061616
0.338323 0.145968 0.130129
0.628565 0.304295 0.281498
0.898314 0.561425 0.551659
0.084382 0.129244 0.072999
0.143526 0.142367 0.080140
0.368780 0.219883 0.128450
0.647333 0.354498 0.282689
0.907561 0.590509 0.559228
0.212924 0.368475 0.189578
0.265690 0.376928 0.199222
0.416083 0.417487 0.229648
0.693385 0.522026 0.308232
0.925719 0.670314 0.562463
0.417151 0.669581 0.402411
0.453468 0.674922 0.411383
0.560967 0.690761 0.441077
0.713680 0.721645 0.482826
0.925261 0.816648 0.654017
0.712978 0.912963 0.724941
0.728542 0.914092 0.730556
0.775937 0.916472 0.746700
0.854643 0.928008 0.784939
0.939330 0.944823 0.828702
0.068116 0.063752 0.109712
0.139132 0.076661 0.124239
0.353368 0.186587 0.216434
0.625299 0.351598 0.366766
0.888212 0.590814 0.603082
0.098756 0.144594 0.131044
0.177432 0.174563 0.158907
0.380438 0.254520 0.234501
0.644343 0.387121 0.367132
0.895903 0.611658 0.605463
0.228580 0.377935 0.247074
0.295171 0.400305 0.272587
0.428534 0.429999 0.297124
0.698573 0.528161 0.370489
0.919463 0.686549 0.613825
0.431800 0.676265 0.448432
0.473976 0.685176 0.464546
0.575708 0.699306 0.492348
0.719631 0.727962 0.531151
0.926268 0.821256 0.681971
0.722286 0.914031 0.744839
0.737148 0.915160 0.749966
0.787381 0.920348 0.770199
0.860319 0.930297 0.802670
0.941314 0.946685 0.841215
0.138643 0.128237 0.323308
0.217411 0.140627 0.337804
0.388617 0.179660 0.370184
0.655177 0.356664 0.495521
0.888731 0.638025 0.703670
0.179263 0.234440 0.356085
0.249271 0.244724 0.369390
0.415839 0.274205 0.399115
0.666011 0.424689 0.516320
0.890440 0.673213 0.720089
0.252934 0.411017 0.393896
0.318395 0.429999 0.413489
0.486061 0.489754 0.476020
0.703243 0.587304 0.579400
0.908110 0.736995 0.738308
0.442939 0.679896 0.548486
0.489876 0.690059 0.565759
0.618769 0.724575 0.623102
0.741817 0.751247 0.653132
0.933043 0.833433 0.754726
0.725063 0.912902 0.781949
0.746365 0.915923 0.791806
0.802914 0.924407 0.816648
0.868620 0.933104 0.840696
0.943786 0.948913 0.868650
0.267216 0.268589 0.632044
0.330175 0.279271 0.639857
0.490150 0.309819 0.666163
0.683436 0.369177 0.690333
0.908934 0.630823 0.801297
0.306859 0.358099 0.651972
0.360540 0.364752 0.658625
0.506645 0.385321 0.678859
0.692226 0.431800 0.699916
0.909545 0.660822 0.806821
0.374456 0.529534 0.679957
0.426947 0.541711 0.690089
0.565423 0.574548 0.714961
0.724605 0.604120 0.735134
0.914427 0.756924 0.831754
0.482002 0.712886 0.713069
0.523033 0.719631 0.720089
0.634455 0.744686 0.746120
0.780850 0.791043 0.794125
0.930022 0.864256 0.868742
0.735531 0.914397 0.844968
0.754086 0.916960 0.850492
0.809293 0.926604 0.868284
0.883330 0.942901 0.894743
0.951659 0.955993 0.912840
0.558770 0.570520 0.922911
0.588128 0.578119 0.923980
0.675563 0.600275 0.927337
0.797391 0.632837 0.933227
0.926940 0.690974 0.936706
0.590326 0.621942 0.924834
0.615229 0.626978 0.925841
0.692714 0.643183 0.929107
0.805539 0.668574 0.935088
0.929168 0.717922 0.938720
0.652552 0.731319 0.929595
0.674281 0.736446 0.930968
0.734859 0.745815 0.934447
0.827665 0.760433 0.940276
0.935821 0.790768 0.944518
0.720363 0.845487 0.935302
0.737209 0.848692 0.936767
0.786893 0.857053 0.941344
0.860777 0.868620 0.949126
0.948608 0.882841 0.955627
0.800839 0.943145 0.945708
0.811704 0.944518 0.947021
0.845762 0.948669 0.951049
0.901732 0.957702 0.959838
0.973846 0.975982 0.977417
