cubelut/Moody10.cube
# Created by Adobe Lightroom plugin Export LUT (1.18.0)
# www.johnrellis.com/lightroom/exportlut.htm
# Preset: SP-07
# Color profile: /Library/Application Support/Adobe/Color/Profiles/Recommended/AdobeRGB1998.icc
LUT_3D_SIZE 8
DOMAIN_MIN 0.000000 0.000000 0.000000
DOMAIN_MAX 0.903226 0.903226 0.903226
0.266270 0.266270 0.266270
0.268711 0.265965 0.268559
0.286107 0.265476 0.272862
0.351904 0.263066 0.276341
0.478645 0.249607 0.279973
0.648615 0.227756 0.291234
0.817075 0.260929 0.318029
0.929229 0.357977 0.374517
0.266331 0.268803 0.270481
0.269108 0.269932 0.271275
0.288670 0.271122 0.273716
0.355505 0.270268 0.276799
0.481544 0.258213 0.280613
0.650050 0.246769 0.292088
0.817258 0.282261 0.319127
0.928771 0.374823 0.376074
0.265599 0.295048 0.275486
0.270359 0.295537 0.276249
0.294713 0.300023 0.276341
0.366033 0.298344 0.277562
0.489509 0.298558 0.282231
0.653925 0.312444 0.294530
0.817685 0.343236 0.322362
0.926787 0.432959 0.380652
0.268162 0.364233 0.278752
0.276341 0.365606 0.279667
0.309758 0.369848 0.283421
0.375799 0.387793 0.279759
0.493446 0.397742 0.282292
0.658534 0.402197 0.297063
0.817472 0.432471 0.326696
0.922362 0.529168 0.387243
0.277684 0.486824 0.289311
0.289830 0.487526 0.290867
0.334020 0.489693 0.296818
0.406836 0.495888 0.302190
0.506157 0.510399 0.295079
0.652888 0.527062 0.297032
0.811398 0.564935 0.326696
0.916197 0.632441 0.395483
0.303593 0.646357 0.308507
0.318944 0.647272 0.310307
0.370672 0.650416 0.316747
0.454688 0.655451 0.328710
0.552331 0.666773 0.329168
0.669795 0.678462 0.318303
0.798856 0.692866 0.325017
0.907561 0.729458 0.408087
0.377905 0.792203 0.356390
0.393500 0.792203 0.359014
0.446448 0.791958 0.368383
0.533043 0.791043 0.386236
0.638880 0.789334 0.414221
0.727596 0.794369 0.407752
0.817105 0.800504 0.398535
0.898131 0.816556 0.419623
0.529717 0.893187 0.480293
0.543328 0.892546 0.483986
0.588251 0.890166 0.497108
0.657160 0.886229 0.520684
0.734524 0.881437 0.554650
0.802121 0.878508 0.583001
0.856168 0.879149 0.582574
0.901335 0.881376 0.583368
0.264866 0.266239 0.275944
0.267857 0.265873 0.276921
0.287236 0.266819 0.279545
0.355901 0.268315 0.283787
0.483040 0.256443 0.292210
0.652399 0.243229 0.308415
0.818540 0.279881 0.337041
0.928466 0.375647 0.396185
0.265019 0.269322 0.277775
0.268559 0.270481 0.278477
0.289769 0.274083 0.280613
0.359136 0.274632 0.284154
0.485512 0.265324 0.293004
0.653559 0.261631 0.309117
0.818753 0.298344 0.337682
0.928008 0.391577 0.397253
0.265141 0.296544 0.279850
0.271366 0.297520 0.281468
0.296483 0.300816 0.282261
0.369177 0.300664 0.285466
0.492439 0.306371 0.294774
0.657008 0.322942 0.310613
0.819089 0.353979 0.340185
0.925933 0.447822 0.401312
0.267155 0.367712 0.284306
0.278264 0.369207 0.287938
0.312535 0.373297 0.293004
0.378088 0.389593 0.290196
0.496498 0.400366 0.294804
0.661280 0.407324 0.311955
0.818662 0.440406 0.343175
0.921477 0.539757 0.406928
0.279545 0.489479 0.300481
0.291966 0.490120 0.302220
0.336828 0.492195 0.308232
0.410559 0.497536 0.314794
0.508507 0.511986 0.307286
0.655726 0.529412 0.310155
0.812680 0.568627 0.342107
0.915465 0.637842 0.414649
0.305699 0.648829 0.320226
0.321141 0.649714 0.322057
0.373327 0.652705 0.328374
0.457527 0.657527 0.340581
0.555474 0.667994 0.342535
0.671412 0.679377 0.331518
0.800076 0.694087 0.339879
0.907134 0.731289 0.425788
0.380652 0.792996 0.369665
0.396277 0.792966 0.372137
0.449073 0.792752 0.381720
0.535668 0.791684 0.399512
0.640955 0.789975 0.427771
0.728939 0.794736 0.422736
0.817258 0.800900 0.413092
0.897704 0.817197 0.435737
0.532219 0.893217 0.493141
0.545739 0.892515 0.496651
0.590265 0.890166 0.509270
0.658595 0.886229 0.532189
0.735286 0.881468 0.565087
0.802762 0.878447 0.593835
0.855985 0.879149 0.592981
0.900633 0.881407 0.592981
0.263188 0.265843 0.293370
0.266667 0.265629 0.294957
0.289433 0.266117 0.299992
0.359503 0.267491 0.309606
0.488869 0.262577 0.330327
0.663203 0.280003 0.359594
0.823392 0.323491 0.396460
0.925170 0.429511 0.466896
0.263371 0.270115 0.296971
0.267460 0.271336 0.298436
0.291966 0.274510 0.302800
0.363714 0.276585 0.313329
0.493324 0.277379 0.334478
0.664332 0.297276 0.360327
0.823453 0.337835 0.396979
0.924559 0.444160 0.467811
0.262455 0.298894 0.305303
0.268772 0.300145 0.306523
0.299413 0.302953 0.310430
0.375494 0.310857 0.322789
0.501396 0.327062 0.339208
0.667079 0.348974 0.360510
0.823514 0.385016 0.398596
0.922210 0.494759 0.470710
0.263096 0.375097 0.315099
0.273228 0.377356 0.316869
0.315190 0.383612 0.324987
0.384466 0.394873 0.326543
0.507012 0.407019 0.337346
0.670527 0.422492 0.359960
0.822202 0.466560 0.399512
0.917784 0.573510 0.474830
0.271611 0.495521 0.329381
0.285832 0.497017 0.331792
0.341344 0.500267 0.343359
0.421363 0.502922 0.354681
0.516167 0.517144 0.346746
0.665461 0.537133 0.355352
0.816861 0.580804 0.396551
0.912413 0.655634 0.479896
0.294011 0.655848 0.348669
0.311803 0.657435 0.351507
0.378210 0.660609 0.367468
0.464363 0.664607 0.380560
0.565301 0.672175 0.388800
0.676722 0.682429 0.376745
0.804105 0.698207 0.391577
0.905119 0.737850 0.486183
0.367071 0.796872 0.398657
0.389776 0.796567 0.406409
0.455787 0.795346 0.426093
0.542962 0.794003 0.444434
0.646754 0.792111 0.472633
0.733150 0.795926 0.473915
0.817533 0.802090 0.461921
0.896056 0.819516 0.489326
0.528832 0.894377 0.525719
0.550622 0.892851 0.536645
0.594690 0.890440 0.547967
0.661738 0.886473 0.568383
0.737026 0.881773 0.597253
0.804837 0.878264 0.627680
0.855222 0.879210 0.625025
0.898436 0.881590 0.622950
0.253849 0.265446 0.350805
0.258946 0.265507 0.353094
0.288212 0.266331 0.360510
0.364508 0.265049 0.370367
0.489143 0.254582 0.385901
0.661585 0.263890 0.418036
0.823362 0.335088 0.472602
0.917815 0.492866 0.568383
0.254337 0.271733 0.355932
0.260227 0.272709 0.357733
0.291356 0.275090 0.364111
0.368566 0.273655 0.373205
0.492714 0.267430 0.388891
0.664729 0.290043 0.422065
0.824399 0.358618 0.478828
0.916411 0.517906 0.575891
0.255253 0.299596 0.365179
0.263279 0.300877 0.366949
0.300267 0.304662 0.372808
0.380346 0.309941 0.381415
0.505455 0.329931 0.400000
0.675288 0.368170 0.437324
0.827085 0.439551 0.502800
0.913512 0.567681 0.583581
0.255497 0.381292 0.380072
0.266575 0.384039 0.381262
0.309789 0.392493 0.385321
0.394079 0.403723 0.391669
0.521996 0.427832 0.415900
0.684352 0.453040 0.450172
0.825132 0.518578 0.503899
0.910216 0.622583 0.583429
0.261723 0.505669 0.395209
0.277195 0.506950 0.396612
0.332525 0.511070 0.401434
0.427405 0.516747 0.415991
0.528222 0.526421 0.417487
0.680934 0.552026 0.440070
0.820401 0.610468 0.496223
0.906310 0.682948 0.582330
0.286259 0.665461 0.416876
0.305119 0.666804 0.419013
0.366155 0.671321 0.427253
0.469154 0.675959 0.449500
0.581476 0.678706 0.470924
0.684230 0.687739 0.456275
0.809689 0.706050 0.484474
0.901244 0.748653 0.578485
0.362524 0.800870 0.468910
0.381170 0.800931 0.472419
0.442969 0.800809 0.485237
0.548913 0.798306 0.516381
0.652216 0.796139 0.542046
0.738735 0.798367 0.553613
0.817197 0.804349 0.538964
0.893126 0.823453 0.570733
0.516045 0.896666 0.575158
0.531243 0.895933 0.578698
0.579614 0.893370 0.590478
0.660883 0.887724 0.618708
0.736721 0.882841 0.641901
0.805875 0.878721 0.670985
0.853941 0.879454 0.670893
0.895232 0.881926 0.665736
0.234134 0.265385 0.444526
0.242649 0.265629 0.447120
0.281743 0.266270 0.456001
0.370245 0.262943 0.470863
0.496895 0.250004 0.486580
0.660395 0.248020 0.514488
0.816739 0.310765 0.562371
0.913085 0.464607 0.638636
0.235843 0.273503 0.449592
0.244999 0.274174 0.451911
0.285618 0.275303 0.459785
0.374701 0.271733 0.474281
0.500389 0.263981 0.489326
0.662745 0.272770 0.517266
0.817807 0.334386 0.566735
0.911925 0.489845 0.643275
0.240696 0.302159 0.460304
0.252323 0.303593 0.462867
0.297032 0.306676 0.470253
0.386969 0.313115 0.483497
0.510521 0.325628 0.498177
0.670130 0.347784 0.526513
0.820890 0.411139 0.582818
0.907958 0.567590 0.658503
0.243107 0.383429 0.476234
0.256535 0.386389 0.478004
0.306950 0.395026 0.483284
0.400031 0.409949 0.495216
0.525505 0.424445 0.511254
0.683864 0.451911 0.546441
0.823117 0.546166 0.610529
0.902983 0.660609 0.683070
0.249363 0.509941 0.501122
0.266880 0.511833 0.502464
0.325139 0.517723 0.507256
0.419318 0.527489 0.515435
0.542443 0.540795 0.526085
0.695674 0.591852 0.569970
0.823392 0.652644 0.624231
0.899901 0.715358 0.685939
0.261784 0.678798 0.528771
0.283085 0.679896 0.529839
0.350500 0.683497 0.534142
0.454536 0.688350 0.542809
0.585382 0.691249 0.563226
0.692195 0.695308 0.564263
0.816403 0.717830 0.604089
0.896574 0.765927 0.674983
0.349004 0.806699 0.571862
0.368872 0.806729 0.573846
0.433753 0.806485 0.581415
0.533135 0.805447 0.594629
0.648524 0.803037 0.617609
0.745449 0.802457 0.640803
0.816800 0.807889 0.624475
0.890166 0.828855 0.658747
0.510979 0.898528 0.649195
0.526116 0.897795 0.651270
0.574151 0.895293 0.658106
0.643427 0.891417 0.668299
0.728786 0.885435 0.689998
0.802213 0.880613 0.713466
0.852262 0.880034 0.722774
0.891478 0.882536 0.714687
0.184817 0.265263 0.591638
0.201328 0.265446 0.594171
0.261997 0.264622 0.602747
0.369909 0.257664 0.616999
0.512139 0.244694 0.635676
0.668299 0.246250 0.649805
0.812741 0.299290 0.677821
0.906981 0.424781 0.717769
0.188907 0.274449 0.595941
0.205844 0.274571 0.598199
0.267430 0.273564 0.606195
0.374517 0.267552 0.619928
0.516106 0.262516 0.638087
0.670405 0.271977 0.651484
0.813474 0.321599 0.679530
0.906157 0.449866 0.720058
0.200473 0.305486 0.606195
0.218723 0.306157 0.608148
0.281834 0.308965 0.615259
0.387396 0.316258 0.627497
0.526635 0.332525 0.644221
0.677241 0.347417 0.657069
0.815518 0.391974 0.685420
0.902953 0.530083 0.727443
0.207767 0.392462 0.616968
0.227726 0.395117 0.618799
0.294377 0.403876 0.625574
0.401404 0.416815 0.636622
0.541619 0.431220 0.652125
0.687434 0.447547 0.665309
0.816770 0.511498 0.693721
0.898466 0.632136 0.739742
0.226566 0.516442 0.637171
0.247990 0.518151 0.638331
0.316106 0.523705 0.641779
0.418341 0.532799 0.647425
0.554467 0.552270 0.658350
0.695796 0.585016 0.672847
0.819303 0.645380 0.706020
0.894621 0.725887 0.759426
0.253391 0.683986 0.657527
0.276036 0.685328 0.658381
0.346197 0.689662 0.660914
0.452583 0.695399 0.665400
0.577996 0.700801 0.671748
0.704738 0.707332 0.680659
0.825223 0.746609 0.724697
0.890959 0.797116 0.770596
0.333562 0.813077 0.685481
0.354284 0.813199 0.686366
0.421057 0.813565 0.689448
0.521660 0.812924 0.693690
0.633967 0.811856 0.699306
0.743801 0.811337 0.714046
0.818204 0.813718 0.712886
0.887358 0.837369 0.750362
0.504234 0.900938 0.729824
0.518944 0.900206 0.730892
0.566583 0.897795 0.733974
0.635126 0.894041 0.738613
0.713436 0.889372 0.745632
0.793942 0.883818 0.761990
0.851408 0.881132 0.780789
0.887236 0.883452 0.770138
0.106325 0.263920 0.747799
0.147982 0.263462 0.749020
0.248905 0.260136 0.753475
0.379492 0.250553 0.760983
0.534295 0.242069 0.770993
0.693172 0.261997 0.780911
0.816770 0.307073 0.788266
0.901244 0.430091 0.807553
0.120394 0.273198 0.749569
0.158724 0.272587 0.750790
0.256168 0.269322 0.755001
0.384466 0.263371 0.762173
0.537957 0.264439 0.771817
0.695247 0.288273 0.781643
0.817319 0.328954 0.788907
0.900450 0.452796 0.808011
0.151247 0.308598 0.754116
0.184146 0.309422 0.755184
0.274144 0.313176 0.758907
0.397864 0.322911 0.765377
0.548821 0.339818 0.774075
0.702235 0.362005 0.784054
0.819120 0.400488 0.790738
0.897612 0.524498 0.809354
0.175448 0.405524 0.758572
0.204837 0.407355 0.759457
0.290654 0.413611 0.762722
0.414282 0.424659 0.768673
0.564630 0.438636 0.777005
0.712520 0.470558 0.786984
0.819821 0.520409 0.792538
0.893553 0.616663 0.811398
0.214969 0.528099 0.765255
0.240452 0.529320 0.765743
0.316136 0.533471 0.767056
0.430243 0.543999 0.770962
0.575860 0.566979 0.777798
0.717067 0.606928 0.787320
0.820157 0.643275 0.794675
0.890074 0.701808 0.815152
0.268772 0.696864 0.774258
0.291936 0.697780 0.774563
0.364263 0.700801 0.775631
0.470161 0.704128 0.777279
0.590661 0.705745 0.779599
0.719234 0.716579 0.787350
0.822721 0.740078 0.798703
0.886870 0.789731 0.822293
0.366339 0.816831 0.786221
0.385931 0.816892 0.786496
0.448157 0.816892 0.787472
0.537194 0.816709 0.789181
0.638575 0.816861 0.791806
0.738460 0.818784 0.795743
0.824430 0.824674 0.801816
0.886534 0.856352 0.833524
0.508507 0.901976 0.807736
0.521965 0.901396 0.808103
0.564721 0.899565 0.809232
0.628534 0.896574 0.811093
0.705226 0.892454 0.813535
0.783047 0.887694 0.816922
0.847227 0.884520 0.825589
0.884123 0.885100 0.824887
0.136385 0.259678 0.865232
0.180423 0.258305 0.865629
0.286900 0.253300 0.866941
0.423133 0.246067 0.868986
0.579400 0.252659 0.871122
0.725917 0.292088 0.873075
0.836362 0.354101 0.874205
0.899931 0.460578 0.873777
0.150515 0.269352 0.865660
0.190982 0.268376 0.866026
0.293523 0.265446 0.867277
0.427802 0.264500 0.869139
0.582605 0.278141 0.871061
0.727749 0.315251 0.872953
0.836881 0.376226 0.873991
0.899168 0.481819 0.873381
0.180087 0.315312 0.866545
0.214664 0.316808 0.866819
0.310002 0.322820 0.867735
0.440589 0.335363 0.869108
0.592615 0.353429 0.870726
0.733730 0.384222 0.872435
0.838010 0.453162 0.872984
0.896452 0.547417 0.872068
0.200168 0.416297 0.866300
0.233402 0.418280 0.866514
0.326574 0.424598 0.867277
0.457404 0.434760 0.868467
0.606897 0.452430 0.869749
0.740871 0.497658 0.870573
0.837766 0.567956 0.870665
0.892882 0.629786 0.870451
0.251957 0.545830 0.865324
0.277043 0.546990 0.865415
0.352972 0.551080 0.865690
0.465126 0.557061 0.866056
0.613092 0.586053 0.866606
0.742611 0.626612 0.867185
0.837613 0.671778 0.868589
0.889616 0.709194 0.869322
0.330541 0.715297 0.862882
0.350652 0.715633 0.862821
0.414191 0.715938 0.862669
0.505913 0.714046 0.862486
0.618738 0.713558 0.862730
0.742367 0.727199 0.864225
0.837156 0.757900 0.866697
0.886381 0.789273 0.868498
0.448707 0.831022 0.862516
0.463630 0.830900 0.862455
0.511009 0.830076 0.862394
0.582422 0.828428 0.862272
0.666896 0.826322 0.862211
0.752377 0.824643 0.862303
0.834073 0.833646 0.864561
0.885222 0.852201 0.869139
0.566430 0.902495 0.864591
0.576440 0.901946 0.864622
0.609216 0.900145 0.864714
0.661555 0.897063 0.864958
0.725002 0.893156 0.865415
0.789609 0.889403 0.866239
0.844358 0.887694 0.867826
0.886473 0.889433 0.870787
