cubelut/Moody9.cube
# Created by Adobe Lightroom plugin Export LUT (1.18.0)
# www.johnrellis.com/lightroom/exportlut.htm
# Preset: Lovely Landscapes 07 - Free
# Color profile: /Library/Application Support/Adobe/Color/Profiles/Recommended/AdobeRGB1998.icc
LUT_3D_SIZE 8
DOMAIN_MIN 0.000000 0.000000 0.000000
DOMAIN_MAX 0.903226 0.903226 0.903226
0.140627 0.163729 0.198489
0.179904 0.164248 0.198642
0.258518 0.165866 0.199619
0.353918 0.168765 0.201633
0.477302 0.172000 0.203891
0.633387 0.172976 0.204013
0.791958 0.168917 0.200107
0.916777 0.163821 0.196719
0.138918 0.200626 0.198795
0.178561 0.200687 0.198978
0.256596 0.196902 0.200412
0.351629 0.198184 0.202731
0.474586 0.203189 0.204990
0.628779 0.207828 0.204227
0.787472 0.207492 0.199466
0.914366 0.202762 0.195804
0.137514 0.276158 0.202304
0.171481 0.275914 0.202640
0.253666 0.275456 0.204044
0.351751 0.276249 0.206760
0.476875 0.285557 0.207584
0.632685 0.298436 0.204044
0.792752 0.305058 0.197421
0.916930 0.300053 0.193423
0.136721 0.372839 0.208652
0.170230 0.372778 0.208835
0.252842 0.373632 0.209415
0.357946 0.379706 0.210300
0.487434 0.394965 0.207736
0.640864 0.413947 0.201297
0.793515 0.422889 0.192233
0.915373 0.416083 0.187381
0.121157 0.503136 0.206577
0.163058 0.503380 0.206332
0.258671 0.505486 0.205814
0.372564 0.510674 0.204379
0.494179 0.515343 0.201968
0.640436 0.534081 0.191714
0.790677 0.546136 0.180880
0.912810 0.538201 0.176516
0.059480 0.659266 0.188357
0.136416 0.662196 0.187594
0.258518 0.663325 0.186069
0.386419 0.665705 0.182925
0.517540 0.668208 0.178225
0.652430 0.671687 0.170962
0.792569 0.676112 0.159518
0.911711 0.663783 0.157290
0.000000 0.806546 0.157961
0.081056 0.806943 0.157504
0.243900 0.806088 0.155764
0.382300 0.805509 0.152407
0.516960 0.804227 0.147066
0.651331 0.803128 0.139712
0.785611 0.801358 0.129763
0.907988 0.789029 0.125460
0.000000 0.918700 0.131991
0.000000 0.918364 0.131472
0.223575 0.917510 0.129824
0.366339 0.916472 0.127077
0.499031 0.911772 0.120790
0.630549 0.908995 0.114870
0.760372 0.905150 0.107668
0.887602 0.899107 0.097719
0.137026 0.163577 0.234745
0.176547 0.163363 0.235080
0.254124 0.170291 0.233127
0.349828 0.175235 0.235508
0.473732 0.173220 0.235019
0.627039 0.166049 0.232120
0.786007 0.154513 0.226230
0.913115 0.147189 0.220890
0.134798 0.199741 0.235050
0.175479 0.200168 0.235080
0.252628 0.201480 0.235538
0.349187 0.202731 0.235721
0.472786 0.203525 0.235019
0.625299 0.201724 0.231662
0.782895 0.196201 0.225162
0.910674 0.189883 0.219638
0.138430 0.274784 0.233402
0.173434 0.274784 0.235569
0.251926 0.275029 0.235813
0.349279 0.276585 0.236667
0.474189 0.283970 0.234867
0.627375 0.292729 0.230076
0.785336 0.296361 0.222354
0.912444 0.291386 0.216800
0.136110 0.371008 0.235447
0.169070 0.371374 0.235233
0.251438 0.372961 0.235233
0.353918 0.376165 0.235050
0.479286 0.388403 0.232151
0.630793 0.405676 0.225956
0.785611 0.415045 0.216464
0.911070 0.409644 0.210361
0.108766 0.502251 0.229740
0.154543 0.502190 0.229404
0.253758 0.503441 0.228672
0.367803 0.506493 0.227146
0.488899 0.510185 0.224460
0.635645 0.528985 0.214817
0.787076 0.541375 0.205173
0.910338 0.533898 0.200137
0.000000 0.656703 0.211368
0.115572 0.657130 0.211032
0.248753 0.658564 0.209415
0.380194 0.661799 0.206455
0.513573 0.665492 0.201846
0.650813 0.670039 0.195224
0.791318 0.673915 0.185061
0.910155 0.660975 0.182834
0.000000 0.803433 0.183749
0.000000 0.802853 0.183322
0.231662 0.802579 0.181643
0.375555 0.802976 0.178592
0.513054 0.802518 0.174075
0.648585 0.801297 0.167636
0.783169 0.798947 0.159457
0.905730 0.786313 0.155306
0.000000 0.917449 0.160952
0.000000 0.917357 0.160647
0.212070 0.916655 0.159518
0.360632 0.915709 0.157565
0.497292 0.913329 0.153994
0.629572 0.909606 0.149203
0.759487 0.904814 0.143160
0.886900 0.898314 0.135622
0.133852 0.164157 0.300786
0.168490 0.165072 0.300938
0.252232 0.170718 0.300908
0.350652 0.175357 0.301305
0.476875 0.162783 0.303014
0.634638 0.106569 0.296239
0.792233 0.014160 0.290043
0.916899 0.000000 0.283940
0.138674 0.198001 0.300725
0.172305 0.199405 0.300633
0.251621 0.201419 0.300420
0.349706 0.202396 0.300664
0.476539 0.190585 0.300328
0.632715 0.160494 0.294652
0.790005 0.135286 0.288701
0.915587 0.129305 0.282719
0.139528 0.274174 0.300145
0.172366 0.274388 0.300114
0.249943 0.274083 0.299199
0.349981 0.274632 0.298680
0.479957 0.274784 0.296971
0.634730 0.272221 0.292393
0.790219 0.267033 0.285679
0.914824 0.261814 0.279698
0.133181 0.371801 0.299870
0.164828 0.372564 0.299382
0.245060 0.375067 0.295476
0.355200 0.377661 0.294835
0.484291 0.386450 0.293553
0.638025 0.397192 0.287968
0.791287 0.400610 0.280217
0.914183 0.393744 0.274510
0.096986 0.502312 0.299962
0.138308 0.503563 0.297185
0.234562 0.506767 0.287480
0.362280 0.510094 0.285985
0.492256 0.513420 0.283299
0.642054 0.527703 0.275853
0.790646 0.534295 0.270848
0.912383 0.524804 0.266209
0.000000 0.657588 0.289464
0.012665 0.658808 0.283696
0.213352 0.661006 0.271000
0.364538 0.663020 0.268650
0.507225 0.665583 0.264958
0.650111 0.669093 0.260105
0.792721 0.670436 0.253239
0.911681 0.656184 0.253727
0.000000 0.805417 0.266392
0.000000 0.805509 0.258854
0.187045 0.805020 0.250370
0.356146 0.804318 0.248142
0.503410 0.803159 0.244907
0.645197 0.801907 0.240879
0.784787 0.800076 0.236118
0.908415 0.785733 0.234775
0.000000 0.918395 0.242496
0.000000 0.918151 0.236912
0.170809 0.917113 0.236027
0.343786 0.916503 0.235569
0.488228 0.913817 0.233463
0.625208 0.910124 0.230808
0.758206 0.905272 0.227878
0.887816 0.898711 0.224247
0.137484 0.165377 0.378851
0.171450 0.166506 0.379461
0.254582 0.170687 0.379767
0.354131 0.172122 0.380072
0.481239 0.157107 0.389197
0.636439 0.094240 0.396643
0.791928 0.000000 0.390936
0.916991 0.000000 0.375189
0.141604 0.198459 0.380163
0.173922 0.198795 0.380255
0.254826 0.199313 0.380255
0.354650 0.198093 0.380407
0.482216 0.185245 0.388434
0.636408 0.140169 0.393774
0.791470 0.000000 0.386847
0.916716 0.000000 0.371832
0.137606 0.275059 0.379828
0.168093 0.274113 0.380011
0.248203 0.270451 0.380224
0.355047 0.269017 0.380285
0.485481 0.262943 0.384833
0.642176 0.240360 0.385260
0.797421 0.207919 0.376257
0.918364 0.207492 0.368902
0.129641 0.374640 0.380072
0.161532 0.375006 0.380163
0.242679 0.375616 0.380255
0.354284 0.375036 0.378790
0.487404 0.375525 0.377691
0.643580 0.374182 0.374487
0.795163 0.371160 0.369757
0.916594 0.367346 0.365148
0.082765 0.504204 0.387304
0.129366 0.504723 0.386175
0.225834 0.507683 0.381628
0.348089 0.512383 0.372229
0.494789 0.514519 0.370428
0.648859 0.521630 0.368261
0.795529 0.521599 0.364752
0.914702 0.511284 0.360540
0.000000 0.660456 0.390600
0.000000 0.663233 0.388586
0.189151 0.665400 0.377508
0.336004 0.668971 0.359777
0.499611 0.670222 0.357366
0.653468 0.671107 0.354223
0.797086 0.665827 0.349767
0.912993 0.649348 0.354009
0.000000 0.805600 0.379217
0.000000 0.806271 0.375586
0.143679 0.807828 0.362341
0.324102 0.808804 0.346502
0.490455 0.807004 0.344518
0.641749 0.804349 0.342016
0.786709 0.800748 0.339330
0.909697 0.782498 0.338750
0.000000 0.919036 0.360906
0.000000 0.919158 0.357855
0.127962 0.919005 0.347356
0.320714 0.917754 0.339605
0.477058 0.914702 0.338384
0.620172 0.910613 0.337072
0.756985 0.905425 0.336156
0.889036 0.898741 0.335058
0.147341 0.165560 0.486366
0.182284 0.166079 0.486793
0.268650 0.165774 0.487312
0.374182 0.160311 0.488319
0.491585 0.144778 0.490730
0.642786 0.066011 0.507134
0.793454 0.000000 0.509300
0.916075 0.000000 0.494972
0.143923 0.196841 0.487526
0.179324 0.196506 0.488197
0.266361 0.194125 0.488533
0.373022 0.187839 0.488838
0.492012 0.174533 0.491005
0.643732 0.123751 0.506279
0.794003 0.000000 0.507408
0.916167 0.000000 0.493050
0.112398 0.274296 0.489174
0.149081 0.270237 0.489693
0.249943 0.266453 0.489662
0.367407 0.261784 0.490700
0.492592 0.253513 0.491249
0.644526 0.230076 0.501640
0.794400 0.196872 0.500084
0.915526 0.182193 0.486519
0.089296 0.386389 0.490089
0.133791 0.384833 0.490272
0.229099 0.378698 0.491279
0.352392 0.369024 0.492103
0.494270 0.365881 0.491859
0.648768 0.357916 0.495155
0.796384 0.348150 0.490242
0.915251 0.350500 0.481819
0.000000 0.508904 0.491005
0.103426 0.509300 0.491218
0.216953 0.509789 0.491341
0.344030 0.510185 0.491005
0.491218 0.507836 0.487922
0.649561 0.507561 0.486366
0.795224 0.506340 0.484016
0.912718 0.503716 0.480842
0.000000 0.657313 0.500877
0.000000 0.658137 0.500023
0.174868 0.660121 0.496071
0.323796 0.663691 0.488533
0.481086 0.665980 0.477028
0.652155 0.667353 0.476905
0.796017 0.659358 0.479866
0.910521 0.646418 0.481147
0.000000 0.804501 0.499062
0.000000 0.804623 0.497017
0.122744 0.805509 0.489967
0.310277 0.806760 0.478859
0.476539 0.806210 0.470375
0.637385 0.803189 0.469459
0.786954 0.798856 0.468208
0.907439 0.777859 0.466682
0.000000 0.916991 0.480812
0.000000 0.916930 0.478889
0.112001 0.916625 0.472816
0.314580 0.916716 0.467475
0.477333 0.913451 0.468513
0.621454 0.909148 0.468086
0.758297 0.903807 0.468177
0.889433 0.897093 0.468299
0.153536 0.160159 0.628412
0.191531 0.159121 0.628626
0.284062 0.153567 0.628473
0.397498 0.138613 0.630060
0.521080 0.104585 0.631800
0.652491 0.000000 0.632929
0.795193 0.000000 0.635767
0.914763 0.000000 0.619409
0.141238 0.190799 0.627558
0.181704 0.189456 0.627558
0.277836 0.183597 0.627893
0.393561 0.170718 0.629389
0.518761 0.145235 0.630854
0.651728 0.091737 0.632166
0.794919 0.000000 0.634485
0.914427 0.000000 0.618006
0.000000 0.265782 0.631189
0.122652 0.264683 0.631189
0.250706 0.260288 0.631556
0.380591 0.251713 0.632349
0.514244 0.237278 0.632898
0.653437 0.215213 0.633570
0.796353 0.185489 0.632013
0.914611 0.177676 0.614710
0.000000 0.391547 0.633265
0.000000 0.387610 0.633173
0.196719 0.373999 0.634302
0.352331 0.363867 0.636500
0.506035 0.357580 0.637140
0.657496 0.348119 0.636957
0.799008 0.342687 0.629023
0.914366 0.348821 0.612268
0.000000 0.525811 0.632197
0.000000 0.524529 0.632502
0.175570 0.519707 0.633326
0.327886 0.510765 0.634607
0.487739 0.500603 0.634760
0.654841 0.497810 0.633875
0.795560 0.502159 0.623774
0.908812 0.513420 0.615808
0.000000 0.663691 0.631495
0.000000 0.664393 0.632166
0.141543 0.665034 0.632502
0.316411 0.665522 0.632654
0.480812 0.665064 0.631647
0.651179 0.663355 0.629358
0.790616 0.664240 0.629816
0.903014 0.663569 0.629023
0.000000 0.805417 0.630243
0.000000 0.806027 0.629816
0.088991 0.806668 0.627222
0.307317 0.807034 0.622827
0.479957 0.805264 0.619379
0.647120 0.800595 0.624292
0.788174 0.797452 0.623804
0.900572 0.783444 0.626551
0.000000 0.916442 0.608637
0.000000 0.916258 0.607538
0.095888 0.915740 0.604242
0.314336 0.914611 0.601312
0.486702 0.910796 0.605310
0.644709 0.904662 0.620905
0.769192 0.900481 0.621515
0.889830 0.895140 0.621820
0.148440 0.151553 0.763912
0.188540 0.149660 0.764401
0.284977 0.140993 0.764645
0.400549 0.120241 0.765255
0.524285 0.071046 0.765621
0.654261 0.000000 0.765927
0.790249 0.000000 0.766140
0.909422 0.000000 0.747738
0.130800 0.182193 0.762936
0.175692 0.180179 0.763363
0.277104 0.172580 0.763668
0.395300 0.156344 0.764004
0.520745 0.124941 0.764309
0.651820 0.030823 0.764401
0.788510 0.000000 0.764401
0.907927 0.000000 0.745785
0.000000 0.258824 0.765316
0.103212 0.257359 0.765347
0.244938 0.252262 0.765225
0.378088 0.242405 0.765408
0.511803 0.226444 0.765255
0.648585 0.202670 0.765316
0.789853 0.168551 0.765743
0.909087 0.161624 0.745205
0.000000 0.375280 0.767117
0.000000 0.370764 0.767025
0.167056 0.359442 0.767178
0.345281 0.354986 0.767330
0.496468 0.348028 0.767086
0.643641 0.339208 0.767178
0.791470 0.328985 0.767269
0.908904 0.337591 0.743679
0.000000 0.516045 0.765133
0.000000 0.513756 0.765011
0.127443 0.506249 0.765225
0.311223 0.494820 0.766049
0.477821 0.489235 0.766049
0.636500 0.488258 0.765499
0.789242 0.488655 0.764920
0.904692 0.505089 0.743374
0.000000 0.655360 0.763760
0.000000 0.654566 0.763851
0.084321 0.652003 0.764248
0.304387 0.648432 0.764858
0.477119 0.647456 0.764797
0.643671 0.654658 0.763912
0.787839 0.657374 0.763302
0.897795 0.666529 0.750546
0.000000 0.795438 0.763027
0.000000 0.795743 0.763272
0.000000 0.795987 0.763455
0.300206 0.796323 0.763638
0.480781 0.795865 0.762936
0.647395 0.794766 0.761715
0.784726 0.792844 0.759884
0.891600 0.792721 0.760067
0.000000 0.914397 0.744045
0.000000 0.914305 0.743587
0.054475 0.914366 0.742794
0.316136 0.912718 0.741360
0.494697 0.908263 0.742428
0.652461 0.901946 0.748226
0.782589 0.896300 0.757443
0.888853 0.893034 0.757290
0.131807 0.145357 0.875639
0.174380 0.143008 0.875822
0.272099 0.133822 0.875608
0.386267 0.113802 0.875853
0.506920 0.067079 0.875975
0.632074 0.000000 0.876005
0.761685 0.000000 0.876158
0.895109 0.000000 0.875761
0.111788 0.175082 0.875242
0.160555 0.173220 0.875425
0.264347 0.165713 0.875364
0.381384 0.150240 0.875425
0.503807 0.121767 0.875547
0.630182 0.058686 0.875578
0.760494 0.000000 0.875547
0.894499 0.000000 0.875120
0.000000 0.251011 0.875486
0.084108 0.249851 0.875547
0.232792 0.244907 0.875242
0.364111 0.236637 0.875853
0.493843 0.222995 0.875731
0.624659 0.203708 0.875395
0.758114 0.178408 0.875242
0.894133 0.145968 0.874846
0.000000 0.352911 0.876188
0.000000 0.352544 0.876280
0.165072 0.350225 0.876066
0.333928 0.346593 0.876127
0.477943 0.341344 0.876005
0.616938 0.334722 0.875608
0.755215 0.328130 0.875242
0.893828 0.323644 0.874632
0.000000 0.491859 0.874784
0.000000 0.490211 0.875029
0.097017 0.484321 0.875151
0.304204 0.478065 0.875395
0.464881 0.478035 0.874846
0.611841 0.479164 0.874174
0.753841 0.483162 0.873533
0.892058 0.492103 0.872953
0.000000 0.627802 0.873075
0.000000 0.626795 0.872953
0.049287 0.623804 0.872831
0.300511 0.621576 0.872709
0.475135 0.628260 0.872007
0.629206 0.641321 0.871336
0.762783 0.648768 0.871305
0.890043 0.657374 0.871183
0.000000 0.761959 0.871672
0.000000 0.761624 0.871580
0.000000 0.760647 0.871427
0.306706 0.760739 0.871244
0.485573 0.765072 0.870512
0.645228 0.774868 0.869383
0.776913 0.785733 0.868864
0.887053 0.788052 0.868345
0.000000 0.894560 0.870481
0.000000 0.894469 0.870390
0.064637 0.894316 0.870237
0.323522 0.894163 0.870054
0.501640 0.893584 0.869505
0.654170 0.892638 0.868681
0.782040 0.891508 0.867948
0.885405 0.889982 0.866880
