cubelut/NW-10.cube
# Created by Adobe Lightroom plugin Export LUT (1.18.0)
# www.johnrellis.com/lightroom/exportlut.htm
# Preset: NW1
# Color profile: /Library/Application Support/Adobe/Color/Profiles/Recommended/AdobeRGB1998.icc
LUT_3D_SIZE 32
DOMAIN_MIN 0.0 0.0 0.0
DOMAIN_MAX 1.0 1.0 1.0
0.000000 0.000000 0.000000
0.041779 0.038605 0.039033
0.069551 0.063600 0.063539
0.108186 0.081849 0.081819
0.160098 0.091737 0.091707
0.213230 0.093568 0.093416
0.268498 0.094545 0.094362
0.326940 0.102937 0.102998
0.389899 0.113893 0.115816
0.456672 0.125460 0.129641
0.526238 0.136843 0.144656
0.596521 0.149660 0.160983
0.662074 0.164858 0.179507
0.720729 0.183230 0.200565
0.772244 0.204837 0.223484
0.823758 0.231205 0.251530
0.872313 0.264256 0.287266
0.907622 0.296849 0.321569
0.934478 0.328405 0.355077
0.956207 0.361028 0.390143
0.973846 0.393622 0.426032
0.988067 0.426307 0.461860
0.999054 0.458473 0.497383
1.000000 0.489296 0.531395
1.000000 0.518639 0.563561
1.000000 0.547692 0.595239
1.000000 0.576867 0.626551
1.000000 0.606867 0.658412
1.000000 0.637018 0.689754
1.000000 0.666896 0.720211
1.000000 0.696101 0.749172
1.000000 0.723964 0.776120
0.039704 0.042451 0.039857
0.048096 0.047608 0.044587
0.069947 0.066590 0.064149
0.106447 0.087068 0.082368
0.156893 0.100679 0.092164
0.208591 0.105257 0.093996
0.262882 0.107881 0.094972
0.319768 0.115785 0.103334
0.381842 0.126467 0.116030
0.448402 0.137911 0.129397
0.517235 0.148867 0.143832
0.586511 0.160678 0.160403
0.652338 0.174868 0.178378
0.711452 0.191897 0.199222
0.763912 0.211398 0.221439
0.816556 0.236271 0.249851
0.864500 0.266514 0.282750
0.900145 0.296147 0.315404
0.927581 0.325933 0.348089
0.950439 0.356756 0.381994
0.969146 0.388342 0.417121
0.984222 0.420111 0.452644
0.996033 0.451667 0.487892
1.000000 0.482307 0.522087
1.000000 0.511742 0.554650
1.000000 0.540948 0.586786
1.000000 0.570642 0.619013
1.000000 0.600916 0.651331
1.000000 0.631586 0.683589
1.000000 0.662013 0.714717
1.000000 0.691737 0.744442
1.000000 0.720058 0.772000
0.064302 0.069215 0.064057
0.068086 0.071015 0.065461
0.073335 0.072816 0.067109
0.105440 0.092683 0.082490
0.152804 0.109438 0.093141
0.203250 0.117281 0.095247
0.255833 0.121859 0.096223
0.312200 0.129976 0.103578
0.373846 0.140719 0.116335
0.439033 0.151919 0.129854
0.507744 0.162997 0.144198
0.577630 0.174868 0.160128
0.643610 0.187839 0.178378
0.703792 0.203586 0.198642
0.756863 0.221378 0.220798
0.811948 0.244724 0.248875
0.859007 0.272587 0.280797
0.894743 0.299962 0.312535
0.922911 0.327855 0.344213
0.946502 0.357366 0.377691
0.966033 0.387915 0.412421
0.981750 0.419074 0.448035
0.994110 0.449958 0.482979
1.000000 0.480171 0.517296
1.000000 0.509667 0.550408
1.000000 0.538567 0.582605
1.000000 0.568292 0.615137
1.000000 0.598657 0.647852
1.000000 0.629328 0.680262
1.000000 0.660060 0.712032
1.000000 0.689815 0.741939
1.000000 0.718318 0.769833
0.082643 0.104067 0.081758
0.088075 0.105348 0.082063
0.095613 0.106477 0.082948
0.110536 0.108705 0.084016
0.149905 0.124727 0.092164
0.195010 0.136202 0.097444
0.245640 0.143954 0.098695
0.300816 0.153384 0.105806
0.362005 0.165133 0.117830
0.426612 0.176455 0.131228
0.494301 0.188052 0.145663
0.563867 0.199619 0.161135
0.630274 0.212436 0.179232
0.691218 0.226291 0.199283
0.746090 0.241123 0.220768
0.804379 0.263401 0.249668
0.850706 0.286748 0.279759
0.886625 0.310826 0.309789
0.915373 0.335363 0.340093
0.939666 0.361730 0.371954
0.960113 0.389624 0.405585
0.976867 0.418982 0.440436
0.990326 0.448981 0.475685
1.000000 0.479438 0.511284
1.000000 0.509422 0.545800
1.000000 0.539605 0.580102
1.000000 0.569848 0.613825
1.000000 0.600488 0.647303
1.000000 0.631312 0.680323
1.000000 0.661280 0.711513
1.000000 0.690364 0.741146
1.000000 0.718013 0.768429
0.093080 0.144350 0.090608
0.100374 0.144778 0.090608
0.109346 0.144778 0.090608
0.126741 0.145235 0.090730
0.149111 0.145296 0.090852
0.189334 0.156283 0.093751
0.233219 0.165499 0.099580
0.283421 0.176638 0.108827
0.342779 0.190036 0.120333
0.405707 0.203098 0.133516
0.472908 0.215763 0.147585
0.541405 0.228367 0.163394
0.609400 0.240909 0.180850
0.672724 0.253880 0.200381
0.733242 0.268681 0.222721
0.793545 0.288426 0.251011
0.840879 0.308537 0.280034
0.878386 0.329473 0.309392
0.908446 0.351202 0.339483
0.933898 0.374517 0.370733
0.955108 0.399817 0.403540
0.972564 0.426642 0.437568
0.986816 0.454658 0.472297
0.998352 0.483803 0.508049
1.000000 0.512993 0.543053
1.000000 0.542260 0.577264
1.000000 0.572107 0.611536
1.000000 0.602045 0.645045
1.000000 0.632074 0.677790
1.000000 0.661830 0.709407
1.000000 0.690455 0.738979
1.000000 0.718074 0.766659
0.098177 0.183230 0.093019
0.106569 0.183169 0.093050
0.116701 0.183139 0.092988
0.135561 0.182162 0.092988
0.159640 0.180850 0.092927
0.186404 0.179904 0.092409
0.226993 0.188632 0.095399
0.273259 0.199863 0.106630
0.325383 0.213718 0.123659
0.385992 0.228702 0.137789
0.451972 0.243442 0.151766
0.520317 0.257542 0.167300
0.589105 0.271183 0.184298
0.654749 0.284215 0.203342
0.723720 0.301091 0.227207
0.782803 0.318120 0.254368
0.831022 0.335363 0.282261
0.869963 0.353307 0.311101
0.901610 0.372473 0.341070
0.928496 0.393469 0.372320
0.950866 0.416785 0.405493
0.969268 0.441810 0.440253
0.999237 0.517082 0.532952
1.000000 0.543359 0.566186
1.000000 0.568902 0.597620
1.000000 0.594293 0.628077
1.000000 0.619593 0.657343
1.000000 0.645014 0.686000
1.000000 0.670039 0.713283
1.000000 0.695003 0.739742
1.000000 0.719081 0.764523
1.000000 0.741878 0.787259
0.105684 0.228428 0.095613
0.114870 0.227695 0.096040
0.125948 0.227115 0.096040
0.146731 0.225956 0.096254
0.172824 0.224277 0.096132
0.200626 0.221683 0.096651
0.229282 0.219120 0.097261
0.274388 0.229770 0.104677
0.326757 0.244297 0.122835
0.383948 0.259892 0.142123
0.445930 0.276493 0.161837
0.516320 0.293217 0.177401
0.586694 0.308598 0.194278
0.662898 0.326909 0.216983
0.732631 0.344457 0.242618
0.789273 0.359869 0.269261
0.835294 0.374823 0.296971
0.873167 0.390143 0.325689
0.904875 0.407324 0.355993
0.932067 0.427649 0.389715
0.955261 0.451484 0.426551
0.974334 0.478767 0.466499
0.989410 0.508507 0.508141
1.000000 0.538384 0.548272
1.000000 0.567376 0.585840
1.000000 0.594476 0.619837
1.000000 0.620417 0.651209
1.000000 0.645624 0.680781
1.000000 0.670527 0.708980
1.000000 0.694759 0.735439
1.000000 0.718471 0.760464
1.000000 0.741146 0.783719
0.120577 0.266026 0.106386
0.128542 0.265415 0.106508
0.138582 0.264866 0.106508
0.157870 0.263523 0.106538
0.182650 0.261418 0.107057
0.209720 0.258549 0.108034
0.237583 0.255131 0.109071
0.266056 0.252445 0.110292
0.312047 0.263676 0.119265
0.368383 0.280827 0.137728
0.429114 0.298466 0.157473
0.492744 0.315862 0.178592
0.569482 0.338201 0.201938
0.646632 0.358434 0.223697
0.713558 0.374762 0.247074
0.770474 0.388586 0.271519
0.818265 0.401617 0.297520
0.858244 0.414801 0.325017
0.891966 0.429603 0.354528
0.921263 0.446998 0.387274
0.946105 0.468086 0.423499
0.966827 0.492042 0.462226
0.983246 0.518639 0.502800
0.995941 0.546075 0.542718
1.000000 0.572900 0.579980
1.000000 0.598657 0.614282
1.000000 0.623255 0.645716
1.000000 0.647608 0.675685
1.000000 0.671962 0.704372
1.000000 0.695827 0.731472
1.000000 0.719173 0.756924
1.000000 0.741726 0.780758
0.140719 0.305333 0.121859
0.147250 0.304601 0.122194
0.156283 0.303960 0.122225
0.173495 0.302464 0.122530
0.196445 0.300328 0.122805
0.222232 0.297642 0.123323
0.249699 0.294438 0.124208
0.278172 0.291752 0.124849
0.307012 0.288823 0.126009
0.354803 0.300999 0.133913
0.418677 0.322820 0.154391
0.489662 0.346258 0.177157
0.561303 0.368017 0.202304
0.630152 0.387427 0.229099
0.694331 0.403723 0.252964
0.752255 0.417426 0.275883
0.802121 0.429755 0.300725
0.844175 0.441810 0.327245
0.879850 0.454780 0.355993
0.911040 0.470130 0.388037
0.937713 0.488533 0.423102
0.959625 0.509789 0.461585
0.977111 0.533593 0.501579
0.990814 0.558282 0.540551
1.000000 0.582910 0.577356
1.000000 0.606622 0.611414
1.000000 0.629816 0.643000
1.000000 0.652918 0.672908
1.000000 0.676081 0.701625
1.000000 0.699062 0.728847
1.000000 0.721584 0.754360
1.000000 0.743435 0.778195
0.161654 0.346319 0.138094
0.167727 0.345617 0.138399
0.175418 0.345129 0.138094
0.191135 0.343908 0.138155
0.212375 0.341497 0.138521
0.237339 0.339117 0.138582
0.264103 0.335790 0.139101
0.291966 0.332433 0.140169
0.322484 0.331029 0.141207
0.357641 0.332952 0.143557
0.411749 0.348455 0.151949
0.479103 0.371405 0.173495
0.548516 0.393347 0.197269
0.616144 0.412848 0.223484
0.678462 0.429816 0.251408
0.734218 0.444984 0.281224
0.787686 0.458656 0.305974
0.832395 0.470802 0.332860
0.870115 0.483009 0.361486
0.902434 0.496590 0.392859
0.929747 0.512200 0.426642
0.952148 0.529900 0.462654
0.970336 0.549523 0.499611
0.984680 0.570489 0.536584
0.996063 0.592035 0.572137
1.000000 0.613642 0.605646
1.000000 0.635523 0.637690
1.000000 0.658045 0.668727
1.000000 0.680842 0.698451
1.000000 0.703578 0.726680
1.000000 0.726040 0.753109
1.000000 0.747677 0.777584
0.182254 0.387549 0.153994
0.187625 0.387182 0.154055
0.194766 0.386694 0.154055
0.209140 0.385748 0.153933
0.229679 0.383856 0.154147
0.253666 0.381781 0.154574
0.281559 0.380835 0.155581
0.313207 0.381964 0.157229
0.346288 0.382177 0.158877
0.379980 0.381872 0.161013
0.414282 0.381262 0.162753
0.466987 0.394263 0.169924
0.534691 0.416785 0.192020
0.602197 0.437385 0.216800
0.664759 0.454749 0.244022
0.721004 0.469642 0.273716
0.771695 0.483375 0.304814
0.815854 0.495918 0.335546
0.855772 0.507591 0.363622
0.890410 0.520073 0.394049
0.919585 0.534234 0.427466
0.943755 0.550042 0.462806
0.963165 0.567803 0.499855
0.978698 0.586603 0.536339
0.990967 0.605982 0.571618
1.000000 0.625452 0.604669
1.000000 0.645350 0.636133
1.000000 0.666133 0.666896
1.000000 0.687343 0.696345
1.000000 0.708858 0.724392
1.000000 0.730251 0.750912
1.000000 0.751247 0.775601
0.205631 0.435218 0.172000
0.210727 0.435370 0.172061
0.217716 0.435370 0.172183
0.231907 0.435401 0.172702
0.252628 0.435798 0.173281
0.277897 0.436042 0.174014
0.306249 0.435676 0.175204
0.336950 0.435035 0.176455
0.369696 0.434424 0.177584
0.403693 0.433631 0.179019
0.438392 0.432532 0.180636
0.473365 0.431037 0.182254
0.577844 0.483162 0.206424
0.646204 0.503929 0.233097
0.706355 0.519402 0.263981
0.759213 0.531823 0.296513
0.803922 0.541924 0.330388
0.841611 0.551141 0.364782
0.873289 0.560754 0.400488
0.902617 0.571283 0.433356
0.927947 0.582513 0.465766
0.948730 0.595361 0.499519
0.965606 0.609003 0.532860
0.979339 0.623896 0.565606
0.990509 0.639673 0.597375
0.999573 0.656001 0.627619
1.000000 0.672999 0.656580
1.000000 0.690486 0.684321
1.000000 0.708522 0.710842
1.000000 0.727077 0.736324
1.000000 0.745785 0.760494
1.000000 0.764401 0.783291
0.243229 0.512902 0.200656
0.248234 0.512779 0.200626
0.254643 0.511376 0.200534
0.267887 0.509483 0.200320
0.287236 0.507225 0.199832
0.310826 0.504051 0.199496
0.338323 0.501366 0.199741
0.368627 0.499184 0.200504
0.402258 0.498299 0.201450
0.438453 0.498634 0.203464
0.477699 0.500389 0.205905
0.518791 0.502403 0.209140
0.560296 0.503990 0.212711
0.614710 0.515282 0.221653
0.682643 0.537346 0.250065
0.739651 0.552422 0.282933
0.787747 0.563470 0.316869
0.827665 0.572045 0.351171
0.861418 0.580407 0.387030
0.890471 0.589929 0.424414
0.915160 0.601373 0.463233
0.938109 0.612665 0.496010
0.956542 0.624598 0.528832
0.971649 0.637659 0.561364
0.983917 0.651484 0.592859
0.993957 0.666041 0.622858
1.000000 0.681331 0.651667
1.000000 0.697566 0.679652
1.000000 0.714473 0.706538
1.000000 0.732204 0.732540
1.000000 0.750271 0.757321
1.000000 0.768490 0.780819
0.270390 0.564019 0.222965
0.275181 0.563500 0.223117
0.280735 0.562280 0.222660
0.292912 0.560143 0.221927
0.310521 0.556939 0.221103
0.332555 0.553094 0.220493
0.358556 0.549737 0.220249
0.387732 0.547112 0.220401
0.419989 0.545525 0.221408
0.455421 0.545495 0.222690
0.492988 0.546075 0.225406
0.532891 0.547723 0.228428
0.573053 0.548699 0.231815
0.612848 0.548821 0.234592
0.659693 0.554528 0.242313
0.721370 0.573022 0.270268
0.771054 0.584497 0.303624
0.812985 0.592950 0.337865
0.849058 0.600610 0.373266
0.879973 0.608820 0.410651
0.906462 0.618494 0.449805
0.928466 0.629786 0.490150
0.947265 0.641596 0.526909
0.963836 0.653193 0.559228
0.977325 0.665522 0.590539
0.988373 0.678553 0.620600
0.997375 0.692409 0.649500
1.000000 0.707271 0.677577
1.000000 0.723079 0.704677
1.000000 0.739742 0.730922
1.000000 0.756954 0.755978
1.000000 0.774472 0.779843
0.298039 0.611536 0.246555
0.302373 0.611292 0.246708
0.307195 0.609949 0.246311
0.318029 0.607660 0.245335
0.334234 0.604120 0.243931
0.354620 0.599939 0.242863
0.378943 0.596338 0.242283
0.406897 0.593347 0.242283
0.437873 0.591547 0.242802
0.471748 0.590692 0.244572
0.508202 0.591241 0.246983
0.546532 0.592187 0.250004
0.585595 0.592920 0.253239
0.624018 0.592523 0.255894
0.660792 0.590356 0.258183
0.700893 0.591363 0.263890
0.756405 0.606714 0.291508
0.799924 0.615198 0.325353
0.837186 0.622156 0.360845
0.869932 0.629175 0.397711
0.897887 0.637110 0.436378
0.921233 0.646204 0.476600
0.940307 0.656611 0.516472
0.955993 0.668452 0.555566
0.970275 0.679988 0.588495
0.982391 0.692042 0.619135
0.992401 0.705226 0.649012
1.000000 0.719570 0.678248
1.000000 0.735012 0.706538
1.000000 0.751308 0.733730
1.000000 0.768246 0.759640
1.000000 0.785245 0.783871
0.325658 0.655787 0.271641
0.329992 0.655787 0.271885
0.334569 0.655177 0.271794
0.344854 0.653651 0.271458
0.360327 0.651209 0.270726
0.380224 0.648585 0.269993
0.403845 0.646296 0.269780
0.430884 0.643946 0.270085
0.460853 0.642145 0.270909
0.493141 0.640681 0.272160
0.527245 0.639368 0.273655
0.562341 0.637995 0.275700
0.597711 0.636164 0.277592
0.633143 0.633753 0.278874
0.667384 0.630091 0.280247
0.700404 0.625666 0.281010
0.735622 0.623621 0.284489
0.786007 0.636774 0.312535
0.825895 0.644251 0.348455
0.860594 0.651270 0.386389
0.890532 0.658412 0.425788
0.915373 0.666255 0.466804
0.935668 0.674983 0.507744
0.952331 0.684993 0.547570
0.965820 0.696315 0.586236
0.977081 0.708980 0.622583
0.987823 0.721004 0.652613
0.996704 0.734188 0.681758
1.000000 0.748348 0.709926
1.000000 0.763088 0.736507
1.000000 0.778378 0.761654
1.000000 0.793942 0.785245
0.352209 0.694026 0.297063
0.355383 0.693751 0.297032
0.359686 0.692958 0.296666
0.369055 0.691615 0.296178
0.383062 0.689723 0.295323
0.401129 0.687282 0.295079
0.423224 0.685237 0.294560
0.448493 0.682887 0.294896
0.476539 0.681086 0.295354
0.506859 0.679377 0.296330
0.539208 0.677943 0.298070
0.572778 0.676631 0.299931
0.606867 0.674800 0.302037
0.640650 0.672267 0.303746
0.673793 0.668635 0.304631
0.705470 0.663935 0.304936
0.736233 0.658595 0.305119
0.767788 0.654627 0.306645
0.813993 0.666133 0.335424
0.850004 0.672450 0.372961
0.881315 0.678614 0.412146
0.907652 0.684962 0.452827
0.929351 0.691829 0.494148
0.947051 0.700008 0.535058
0.961669 0.709438 0.574395
0.973449 0.720607 0.612970
0.983154 0.733455 0.649805
0.992004 0.746700 0.682185
1.000000 0.759823 0.710536
1.000000 0.773770 0.737606
1.000000 0.788266 0.763119
1.000000 0.803098 0.786954
0.380835 0.730800 0.325719
0.384527 0.731228 0.326177
0.413428 0.757290 0.351995
0.421454 0.755947 0.351385
0.433600 0.753719 0.350286
0.449165 0.751034 0.348852
0.468238 0.747829 0.347387
0.490364 0.744686 0.346197
0.515465 0.741421 0.345892
0.543084 0.738582 0.346136
0.572442 0.735958 0.346532
0.602930 0.732906 0.347326
0.633814 0.729397 0.347723
0.664820 0.725399 0.347784
0.695247 0.720607 0.347723
0.725246 0.715297 0.346899
0.754452 0.709407 0.345769
0.782803 0.703212 0.344854
0.811032 0.697383 0.343664
0.850248 0.705043 0.373449
0.880461 0.708705 0.411841
0.906157 0.712551 0.452583
0.927581 0.717067 0.493599
0.945098 0.722438 0.533532
0.959472 0.728878 0.571527
0.971191 0.736843 0.608453
0.981018 0.746487 0.643671
0.989136 0.758206 0.678187
0.996002 0.771664 0.711360
1.000000 0.784451 0.738399
1.000000 0.797971 0.763973
1.000000 0.811856 0.787869
0.416510 0.769986 0.362646
0.422400 0.772854 0.366247
0.429236 0.775692 0.369665
0.439521 0.777401 0.372625
0.452583 0.777890 0.374365
0.467842 0.776791 0.374273
0.485481 0.774533 0.373846
0.505699 0.771847 0.372778
0.528679 0.769223 0.372412
0.553857 0.766567 0.372351
0.580957 0.763973 0.372992
0.609339 0.761318 0.373388
0.638148 0.757900 0.373754
0.667231 0.754147 0.373571
0.696040 0.749660 0.373175
0.724575 0.744656 0.372045
0.752560 0.739101 0.371038
0.780362 0.733608 0.369512
0.807767 0.728115 0.368811
0.835264 0.723293 0.368536
0.870237 0.729030 0.397803
0.897917 0.732418 0.438025
0.920958 0.735836 0.479561
0.939727 0.739803 0.520745
0.955169 0.744594 0.559960
0.967803 0.750851 0.597894
0.978271 0.758877 0.634607
0.986938 0.769009 0.670253
0.994263 0.780941 0.704433
1.000000 0.794400 0.736812
1.000000 0.808133 0.765286
1.000000 0.821164 0.789273
0.442969 0.796658 0.391180
0.448463 0.798947 0.394659
0.454658 0.801266 0.397986
0.463722 0.802670 0.400763
0.475563 0.802976 0.402686
0.489113 0.801999 0.402930
0.504814 0.800137 0.402258
0.522942 0.797879 0.401526
0.543755 0.795621 0.401038
0.566705 0.793332 0.400916
0.591577 0.790982 0.401434
0.617762 0.788327 0.402228
0.644526 0.785306 0.402319
0.671626 0.781796 0.402136
0.698878 0.777737 0.401312
0.725856 0.773098 0.400214
0.752499 0.768154 0.399023
0.779141 0.763027 0.397589
0.805692 0.758083 0.396704
0.832425 0.753719 0.396460
0.858824 0.749599 0.397101
0.889616 0.753353 0.426429
0.914519 0.756130 0.466804
0.934447 0.758633 0.508690
0.950805 0.761746 0.548882
0.964263 0.766140 0.587304
0.975341 0.772213 0.624720
0.984619 0.780331 0.661006
0.992309 0.790616 0.696345
0.998871 0.802487 0.729458
1.000000 0.815702 0.760586
1.000000 0.829801 0.789364
0.470558 0.821225 0.421820
0.475654 0.823148 0.425177
0.481361 0.825162 0.428443
0.489570 0.826322 0.430976
0.500114 0.826505 0.432929
0.512078 0.825650 0.433295
0.525933 0.824002 0.432776
0.541833 0.822019 0.431891
0.560327 0.819821 0.431281
0.580835 0.817563 0.430945
0.603235 0.815335 0.431067
0.626947 0.812833 0.431495
0.651514 0.810086 0.431189
0.676692 0.806790 0.431312
0.702266 0.803372 0.431037
0.728115 0.799710 0.430518
0.754330 0.796078 0.430457
0.780575 0.792538 0.431006
0.807126 0.789303 0.431861
0.833677 0.786404 0.433753
0.860105 0.783902 0.436316
0.886137 0.781613 0.439551
0.912474 0.783536 0.469459
0.933684 0.785245 0.510948
0.950286 0.787076 0.552972
0.963897 0.790005 0.592859
0.975067 0.794491 0.631128
0.984314 0.801053 0.667933
0.992035 0.809537 0.703120
0.998535 0.819669 0.736019
1.000000 0.831266 0.766873
1.000000 0.843839 0.794980
0.512230 0.851102 0.468269
0.515251 0.851743 0.469856
0.518761 0.852110 0.471229
0.524315 0.852110 0.471839
0.532067 0.851591 0.472084
0.541894 0.850309 0.471809
0.553674 0.848875 0.471107
0.567773 0.847166 0.470680
0.584192 0.845609 0.470375
0.602869 0.843900 0.470771
0.623163 0.842161 0.471443
0.644739 0.840116 0.471962
0.666926 0.837644 0.472114
0.689662 0.834806 0.471870
0.712795 0.831540 0.471534
0.736477 0.828183 0.470863
0.760342 0.824704 0.470253
0.784665 0.821225 0.470253
0.809049 0.817899 0.470619
0.833494 0.814755 0.471443
0.857877 0.811795 0.472755
0.881895 0.808896 0.474586
0.905608 0.806271 0.476356
0.927550 0.805417 0.502800
0.945769 0.805844 0.541588
0.960174 0.806973 0.581994
0.972015 0.809720 0.621515
0.981903 0.814450 0.659358
0.990112 0.821256 0.695583
0.996979 0.829831 0.729610
1.000000 0.840024 0.761227
1.000000 0.851560 0.790463
0.541405 0.870146 0.501518
0.544274 0.870787 0.502983
0.547539 0.871183 0.504570
0.552575 0.871122 0.505486
0.559289 0.870573 0.505699
0.567437 0.869535 0.504997
0.577295 0.868193 0.503838
0.589197 0.866545 0.503105
0.603449 0.864897 0.502586
0.619715 0.863218 0.502770
0.637537 0.861570 0.502983
0.656764 0.859648 0.503655
0.676661 0.857481 0.503655
0.697536 0.855009 0.503471
0.718837 0.852323 0.503532
0.740719 0.849516 0.502892
0.763058 0.846586 0.503105
0.785763 0.843778 0.503288
0.808713 0.840848 0.504265
0.831785 0.838254 0.505730
0.854948 0.835813 0.507561
0.877806 0.833494 0.510063
0.900511 0.831418 0.512596
0.922606 0.829313 0.515801
0.939086 0.823453 0.530358
0.955444 0.823392 0.567620
0.968200 0.824369 0.608087
0.978851 0.827298 0.646967
0.987640 0.832334 0.684657
0.995026 0.839445 0.719997
1.000000 0.848478 0.753231
1.000000 0.859159 0.783932
0.581323 0.891600 0.546746
0.584131 0.892119 0.548638
0.586633 0.892363 0.549523
0.590295 0.892119 0.549615
0.595148 0.891356 0.549096
0.601251 0.890257 0.547692
0.608972 0.888701 0.546166
0.618128 0.887022 0.544030
0.629328 0.885069 0.542443
0.642206 0.883116 0.540948
0.656641 0.880980 0.539513
0.672663 0.878813 0.538842
0.689784 0.876493 0.537926
0.707607 0.873930 0.536736
0.725978 0.870939 0.534997
0.744991 0.867765 0.533227
0.764736 0.864591 0.531701
0.785183 0.861570 0.530846
0.806424 0.859007 0.531090
0.828214 0.856748 0.532921
0.850095 0.854734 0.535302
0.871824 0.852750 0.538140
0.893217 0.850736 0.540429
0.913939 0.848447 0.542626
0.934203 0.846006 0.544121
0.950866 0.842771 0.563958
0.965240 0.842313 0.599542
0.976318 0.843076 0.638483
0.985534 0.846067 0.676570
0.993286 0.851408 0.712795
0.999847 0.858946 0.747005
1.000000 0.868528 0.778927
0.607813 0.905760 0.576989
0.610468 0.906188 0.578943
0.612879 0.906340 0.580072
0.615900 0.906157 0.580072
0.620172 0.905516 0.579614
0.625483 0.904570 0.578546
0.632197 0.903380 0.577234
0.640314 0.902007 0.575860
0.650141 0.900481 0.574517
0.661738 0.898955 0.573785
0.674617 0.897307 0.573053
0.689082 0.895567 0.572900
0.704463 0.893797 0.572442
0.720577 0.891722 0.571679
0.737240 0.889311 0.570977
0.754452 0.886778 0.569665
0.772335 0.884154 0.568536
0.790951 0.881590 0.568200
0.810300 0.879362 0.568719
0.830137 0.877256 0.570520
0.850278 0.875486 0.572534
0.870298 0.873655 0.575250
0.890105 0.871885 0.577600
0.909514 0.869963 0.579828
0.928496 0.867918 0.581994
0.947082 0.865843 0.583520
0.961852 0.862272 0.601038
0.974517 0.861936 0.635950
0.984039 0.863249 0.674861
0.992096 0.867033 0.711910
0.998871 0.873198 0.746914
1.000000 0.881590 0.779721
0.638148 0.919707 0.611688
0.640070 0.919951 0.612696
0.641657 0.919921 0.613245
0.643824 0.919585 0.612879
0.646815 0.918914 0.611780
0.650874 0.917998 0.610376
0.656123 0.916899 0.608667
0.662867 0.915618 0.607141
0.671260 0.914275 0.605951
0.681147 0.912963 0.605219
0.692470 0.911620 0.604547
0.705287 0.910185 0.604761
0.718959 0.908690 0.604669
0.733333 0.906950 0.604242
0.748135 0.904906 0.603662
0.763424 0.902708 0.602472
0.779385 0.900450 0.601251
0.796139 0.898131 0.600885
0.813626 0.896086 0.601404
0.831662 0.894285 0.602716
0.850095 0.892668 0.604700
0.868589 0.891020 0.607416
0.886900 0.889464 0.609796
0.904997 0.887846 0.612360
0.922759 0.886137 0.614527
0.940215 0.884367 0.616571
0.957397 0.882719 0.619013
0.970825 0.879271 0.634333
0.981964 0.879057 0.667720
0.990417 0.881102 0.705837
0.997528 0.885679 0.741939
1.000000 0.892760 0.775845
0.664515 0.931365 0.641718
0.665858 0.931456 0.642390
0.667170 0.931456 0.642695
0.669245 0.931212 0.642664
0.672175 0.930785 0.642145
0.676661 0.930266 0.642145
0.682582 0.929839 0.642420
0.690211 0.929381 0.643488
0.699367 0.928893 0.645106
0.709804 0.928496 0.647059
0.721340 0.927977 0.649378
0.733669 0.927428 0.651698
0.746517 0.926635 0.653864
0.759518 0.925628 0.655146
0.772702 0.924315 0.655879
0.785885 0.922667 0.655573
0.799527 0.920897 0.655146
0.813748 0.919097 0.654994
0.828763 0.917388 0.655818
0.844266 0.915862 0.657069
0.860136 0.914488 0.658869
0.876219 0.913146 0.661463
0.892210 0.911803 0.663722
0.908110 0.910460 0.666102
0.923827 0.909087 0.668666
0.939391 0.907713 0.671015
0.954803 0.906493 0.673732
0.969970 0.905394 0.676600
0.981537 0.902556 0.690181
0.990631 0.902678 0.720485
0.997620 0.905699 0.755856
1.000000 0.911254 0.788785
0.704677 0.945556 0.686641
0.705623 0.945617 0.687007
0.706325 0.945495 0.686885
0.707607 0.945220 0.686427
0.709560 0.944732 0.685603
0.712398 0.944182 0.684688
0.716518 0.943572 0.684169
0.721736 0.942931 0.683772
0.728267 0.942260 0.683772
0.736049 0.941527 0.684321
0.744625 0.940734 0.684871
0.754147 0.939879 0.685512
0.764248 0.938933 0.686000
0.774899 0.937804 0.686427
