cubelut/NW-1.cube
# Created by Adobe Lightroom plugin Export LUT (1.18.0)
# www.johnrellis.com/lightroom/exportlut.htm
# Preset: NW10
# Color profile: /Library/Application Support/Adobe/Color/Profiles/Recommended/AdobeRGB1998.icc
LUT_3D_SIZE 5
DOMAIN_MIN 0.000000 0.000000 0.000000
DOMAIN_MAX 0.903226 0.903226 0.903226
0.000000 0.000000 0.000000
0.204379 0.000000 0.010010
0.522271 0.077974 0.000000
0.818082 0.159426 0.000000
1.000000 0.257939 0.124514
0.000000 0.214511 0.000000
0.206485 0.206455 0.000000
0.526970 0.278599 0.000000
0.819669 0.309606 0.000000
1.000000 0.353155 0.047272
0.000000 0.525139 0.000000
0.254459 0.518853 0.000000
0.525017 0.523369 0.000000
0.827970 0.574609 0.000000
1.000000 0.564416 0.000000
0.000000 0.815244 0.000000
0.247807 0.813199 0.000000
0.563836 0.801877 0.000000
0.794339 0.791897 0.036530
1.000000 0.801083 0.000000
0.000000 1.000000 0.000000
0.248051 1.000000 0.000000
0.535607 1.000000 0.000000
0.788754 1.000000 0.177005
0.990295 0.987274 0.284916
0.000000 0.000000 0.213138
0.208377 0.000000 0.209354
0.507073 0.000000 0.230930
0.787350 0.162539 0.268833
1.000000 0.283879 0.316258
0.000000 0.208682 0.218265
0.215000 0.215000 0.215000
0.513268 0.242435 0.223056
0.793790 0.291600 0.245365
1.000000 0.359747 0.293797
0.000000 0.523888 0.236271
0.208316 0.520958 0.208255
0.510155 0.508873 0.231113
0.810208 0.555596 0.148989
1.000000 0.556420 0.181827
0.000000 0.813321 0.227665
0.217746 0.812436 0.218021
0.555291 0.800229 0.240757
0.791226 0.788968 0.276097
1.000000 0.799039 0.205112
0.000000 1.000000 0.239445
0.242252 1.000000 0.243198
0.539910 1.000000 0.272679
0.793271 1.000000 0.320562
0.990936 0.988098 0.385046
0.013153 0.000000 0.520256
0.248112 0.000000 0.519188
0.509850 0.000000 0.511894
0.782986 0.150881 0.527642
1.000000 0.320714 0.557183
0.000000 0.194736 0.525536
0.231937 0.214145 0.522332
0.514580 0.230472 0.516381
0.781186 0.300755 0.528893
1.000000 0.405951 0.564324
0.000000 0.505058 0.526452
0.188540 0.507652 0.524468
0.519432 0.519432 0.519432
0.791623 0.541680 0.528771
1.000000 0.578637 0.551995
0.000000 0.808713 0.546288
0.141268 0.803342 0.536584
0.516838 0.799283 0.516808
0.790280 0.788785 0.535332
1.000000 0.791684 0.478950
0.000000 1.000000 0.518273
0.200381 1.000000 0.518944
0.522118 1.000000 0.522118
0.793271 0.997070 0.544640
0.985962 0.983673 0.581018
0.107088 0.000000 0.794217
0.270420 0.000000 0.794125
0.520562 0.000000 0.794400
0.782223 0.056367 0.785397
1.000000 0.327916 0.779355
0.065126 0.218112 0.794919
0.264683 0.220859 0.794186
0.520592 0.235447 0.791684
0.778775 0.267033 0.781582
1.000000 0.402258 0.777798
0.000000 0.480415 0.794308
0.208225 0.484718 0.792905
0.519371 0.507408 0.787991
0.774289 0.512749 0.776089
0.997589 0.593530 0.783536
0.000000 0.767147 0.797910
0.142885 0.766995 0.795010
0.490181 0.774014 0.792477
0.787320 0.787259 0.787289
0.996368 0.806424 0.797696
0.000000 1.000000 0.794125
0.000000 1.000000 0.789303
0.479500 1.000000 0.778439
0.790249 0.995911 0.790219
0.981720 0.980529 0.805814
0.196139 0.000000 0.996643
0.302190 0.000000 0.996033
0.513970 0.100526 0.994690
0.742306 0.181491 0.991363
0.981476 0.266423 0.985107
0.204990 0.241764 0.994507
0.308080 0.246586 0.993896
0.517113 0.265873 0.992462
0.741939 0.296635 0.988434
0.979522 0.346715 0.982971
0.090303 0.457374 0.992767
0.300206 0.480720 0.991058
0.521508 0.496925 0.988281
0.742641 0.507469 0.984161
0.977813 0.548760 0.980560
0.000000 0.698116 0.990234
0.198428 0.699428 0.989044
0.490791 0.712581 0.986725
0.770657 0.762387 0.982055
0.979309 0.796323 0.980682
0.000000 0.950469 0.987854
0.000000 0.951537 0.987121
0.476967 0.957641 0.985748
0.773465 0.967956 0.982147
0.977874 0.977874 0.977874
