cubelut/NW-10.cube
# Created by Adobe Lightroom plugin Export LUT (1.18.0)
# www.johnrellis.com/lightroom/exportlut.htm
# Preset: NW1
# Color profile: /Library/Application Support/Adobe/Color/Profiles/Recommended/AdobeRGB1998.icc
LUT_3D_SIZE 5
DOMAIN_MIN 0.000000 0.000000 0.000000
DOMAIN_MAX 0.903226 0.903226 0.903226
0.000000 0.000000 0.000000
0.326940 0.102937 0.102998
0.772244 0.204837 0.223484
0.988067 0.426307 0.461860
1.000000 0.637018 0.689754
0.120577 0.266026 0.106386
0.266056 0.252445 0.110292
0.713558 0.374762 0.247074
0.966827 0.492042 0.462226
1.000000 0.671962 0.704372
0.298039 0.611536 0.246555
0.406897 0.593347 0.242283
0.660792 0.590356 0.258183
0.921233 0.646204 0.476600
1.000000 0.735012 0.706538
0.512230 0.851102 0.468269
0.567773 0.847166 0.470680
0.712795 0.831540 0.471534
0.881895 0.808896 0.474586
0.990112 0.821256 0.695583
0.729122 0.955261 0.714107
0.744533 0.953246 0.712795
0.788663 0.944121 0.698360
0.877867 0.937835 0.712703
0.972930 0.933745 0.738033
0.099489 0.097749 0.208682
0.209415 0.128420 0.183536
0.569818 0.269322 0.331792
0.915801 0.467475 0.538415
1.000000 0.670497 0.736202
0.136568 0.179782 0.165988
0.201816 0.196445 0.192538
0.535302 0.341497 0.332799
0.901030 0.510399 0.534691
1.000000 0.689784 0.737972
0.298680 0.492348 0.319371
0.365850 0.471992 0.320775
0.522515 0.472663 0.323919
0.862058 0.621485 0.529870
0.992004 0.749752 0.745785
0.542138 0.810880 0.536522
0.588769 0.806516 0.541222
0.705196 0.795804 0.539422
0.853727 0.780270 0.537560
0.977478 0.824002 0.736416
0.753262 0.944244 0.751217
0.765591 0.942596 0.749508
0.812467 0.938598 0.750912
0.884459 0.933196 0.755917
0.969024 0.931640 0.775448
0.195560 0.188632 0.492561
0.311437 0.206455 0.434150
0.535027 0.277440 0.459998
0.854459 0.505821 0.649073
0.973388 0.748135 0.830655
0.232151 0.261997 0.337530
0.290837 0.276707 0.333013
0.476356 0.351934 0.427558
0.814694 0.549889 0.647150
0.972015 0.755825 0.828977
0.303380 0.425208 0.401556
0.372229 0.413092 0.405554
0.493385 0.452949 0.466804
0.780087 0.612879 0.638911
0.963958 0.781338 0.821073
0.544335 0.751980 0.614374
0.590173 0.721767 0.618250
0.677394 0.711879 0.632166
0.787869 0.716457 0.639033
0.950408 0.826932 0.809079
0.775143 0.920104 0.799924
0.801389 0.913390 0.814054
0.831205 0.915496 0.814298
0.884123 0.913573 0.814450
0.954803 0.916991 0.826200
0.357580 0.324865 0.790860
0.457984 0.338537 0.773068
0.640620 0.372168 0.728634
0.833585 0.496010 0.746914
0.967376 0.739742 0.862699
0.396765 0.411841 0.683986
0.456214 0.415320 0.676173
0.595453 0.432898 0.659327
0.798825 0.536522 0.724300
0.957946 0.754849 0.862425
0.394537 0.492012 0.599145
0.445747 0.481666 0.573663
0.603479 0.548943 0.622492
0.751369 0.627527 0.712734
0.938140 0.801419 0.870695
0.533837 0.702571 0.689021
0.575891 0.683467 0.680842
0.691585 0.679835 0.709773
0.768551 0.704311 0.746700
0.930480 0.834714 0.869169
0.768368 0.906157 0.835752
0.790036 0.899901 0.841398
0.843931 0.887755 0.860227
0.884459 0.891356 0.869810
0.938323 0.900175 0.878233
0.593194 0.525658 0.949310
0.640314 0.536461 0.945159
0.761685 0.571832 0.933715
0.878019 0.600793 0.913878
0.961425 0.723354 0.907561
0.634150 0.594141 0.928222
0.668360 0.598962 0.925078
0.765164 0.618738 0.916503
0.866209 0.632410 0.899718
0.954498 0.743252 0.905669
0.618555 0.657801 0.889891
0.662593 0.666255 0.882567
0.754696 0.687648 0.870665
0.840177 0.702876 0.868894
0.938231 0.794003 0.903593
0.627527 0.767849 0.872099
0.655940 0.759792 0.863249
0.730434 0.743008 0.842252
0.841306 0.783902 0.858518
0.922789 0.848661 0.906737
0.750057 0.900053 0.887419
0.769192 0.894011 0.886625
0.825925 0.880125 0.888731
0.887846 0.874113 0.900969
0.934020 0.900542 0.929839
