cubelut/NW-1.cube
# Created by Adobe Lightroom plugin Export LUT (1.18.0)
# www.johnrellis.com/lightroom/exportlut.htm
# Preset: NW10
# Color profile: /Library/Application Support/Adobe/Color/Profiles/Recommended/AdobeRGB1998.icc
LUT_3D_SIZE 8
DOMAIN_MIN 0.000000 0.000000 0.000000
DOMAIN_MAX 0.903226 0.903226 0.903226
0.000000 0.000000 0.000000
0.081605 0.000000 0.005982
0.251072 0.000000 0.001740
0.437324 0.000000 0.000000
0.599817 0.098360 0.000000
0.774044 0.146029 0.000000
0.930114 0.199374 0.000000
1.000000 0.257939 0.124514
0.000000 0.084596 0.000000
0.082124 0.084657 0.000000
0.253849 0.118502 0.000000
0.432471 0.151431 0.000000
0.592645 0.174075 0.000000
0.761318 0.202396 0.000000
0.917693 0.238132 0.000000
1.000000 0.283116 0.094087
0.000000 0.258335 0.000000
0.119112 0.254978 0.000000
0.250523 0.249851 0.000000
0.442695 0.305303 0.000000
0.608606 0.322759 0.000000
0.776455 0.339178 0.000000
0.936522 0.359747 0.000000
1.000000 0.377478 0.000000
0.000000 0.441108 0.000000
0.109621 0.437385 0.000000
0.295598 0.429725 0.000000
0.442756 0.441444 0.000000
0.624659 0.479286 0.000000
0.800076 0.508629 0.000000
0.943603 0.505516 0.000000
1.000000 0.497383 0.000000
0.000000 0.608453 0.000000
0.070130 0.606195 0.000000
0.298955 0.601984 0.000000
0.464393 0.601007 0.000000
0.598657 0.596826 0.000000
0.762173 0.621790 0.000000
0.930236 0.646296 0.000000
1.000000 0.637446 0.000000
0.000000 0.770291 0.000000
0.000000 0.776577 0.000000
0.298375 0.771908 0.000000
0.478340 0.765286 0.000000
0.623346 0.757931 0.000000
0.756802 0.754513 0.000000
0.907042 0.770504 0.004822
1.000000 0.770565 0.000000
0.000000 0.919951 0.000000
0.000000 0.920348 0.000000
0.291386 0.914702 0.000000
0.470436 0.907958 0.000000
0.634821 0.897704 0.000000
0.764157 0.892973 0.058289
0.891691 0.888945 0.153536
1.000000 0.886534 0.221103
0.000000 1.000000 0.000000
0.078706 1.000000 0.000000
0.293309 1.000000 0.000000
0.463020 1.000000 0.000000
0.614557 1.000000 0.063294
0.758572 1.000000 0.158846
0.877958 0.995758 0.227359
0.990295 0.987274 0.284916
0.000000 0.001678 0.085451
0.082887 0.000000 0.083925
0.241886 0.000000 0.097688
0.423957 0.000000 0.100923
0.585748 0.044892 0.103120
0.750546 0.128298 0.116396
0.908080 0.191775 0.144564
1.000000 0.256962 0.195560
0.000000 0.081971 0.087160
0.086336 0.086336 0.086336
0.248569 0.099947 0.088106
0.426307 0.122469 0.084932
0.585077 0.151156 0.085695
0.746395 0.187594 0.098421
0.899626 0.229404 0.124971
1.000000 0.279423 0.176059
0.000000 0.254490 0.107149
0.074434 0.256291 0.074647
0.251560 0.250889 0.082429
0.439002 0.294072 0.000000
0.596918 0.304112 0.000000
0.756527 0.321324 0.000000
0.910582 0.343847 0.058473
1.000000 0.369665 0.138705
0.000000 0.433936 0.070222
0.000000 0.433326 0.000000
0.284154 0.428138 0.017578
0.428199 0.427070 0.071015
0.597620 0.455726 0.000000
0.768215 0.480781 0.000000
0.916960 0.484962 0.000000
1.000000 0.486885 0.000000
0.000000 0.605097 0.000000
0.000000 0.601709 0.000000
0.284794 0.594720 0.000000
0.452094 0.586908 0.017548
0.581567 0.579767 0.091341
0.746487 0.608087 0.000000
0.918303 0.635309 0.000000
1.000000 0.628107 0.000000
0.000000 0.761288 0.000000
0.000000 0.760433 0.000000
0.281468 0.756527 0.000000
0.465766 0.752468 0.000000
0.615198 0.748562 0.086122
0.751339 0.749050 0.141817
0.901457 0.765774 0.147005
1.000000 0.765621 0.000000
0.000000 0.908782 0.000000
0.000000 0.906065 0.000000
0.276188 0.902220 0.000000
0.460945 0.898680 0.000000
0.628138 0.891356 0.099702
0.758145 0.886137 0.152255
0.883268 0.880583 0.199496
1.000000 0.879332 0.245212
0.000000 1.000000 0.000000
0.013397 1.000000 0.023468
0.286473 1.000000 0.083253
0.459144 1.000000 0.133669
0.618311 1.000000 0.176761
0.760647 1.000000 0.219547
0.877043 0.994476 0.264103
0.988067 0.985107 0.309361
0.000000 0.000000 0.263157
0.116945 0.000000 0.262242
0.255619 0.000000 0.256870
0.427405 0.000000 0.272557
0.585962 0.000000 0.278050
0.751705 0.165621 0.314672
0.909056 0.234348 0.336645
1.000000 0.305577 0.365423
0.000000 0.080690 0.264286
0.095216 0.083253 0.262974
0.256199 0.073915 0.257176
0.425513 0.087068 0.268345
0.583459 0.131197 0.277104
0.746883 0.211002 0.308202
0.903746 0.259648 0.325658
1.000000 0.321721 0.354864
0.000000 0.253605 0.265080
0.000000 0.255253 0.265110
0.261204 0.261204 0.261204
0.434791 0.275029 0.266484
0.597620 0.297948 0.277562
0.757992 0.322881 0.288548
0.908904 0.352544 0.304631
1.000000 0.389441 0.332067
0.000000 0.442023 0.287907
0.000000 0.442847 0.279576
0.260533 0.442969 0.260685
0.438941 0.438025 0.273289
0.614740 0.463691 0.248386
0.774990 0.473671 0.244144
0.919585 0.483925 0.260410
1.000000 0.494331 0.286870
0.000000 0.606134 0.280308
0.000000 0.606195 0.273808
0.261509 0.603937 0.261631
0.458137 0.597040 0.273106
0.592950 0.591455 0.286961
0.757809 0.616907 0.262638
0.920806 0.634791 0.195224
1.000000 0.622553 0.185275
0.000000 0.762600 0.272129
0.000000 0.762631 0.268376
0.258335 0.759335 0.258396
0.455146 0.752529 0.267887
0.613581 0.746090 0.282475
0.747768 0.745754 0.303410
0.899840 0.765042 0.299626
1.000000 0.765652 0.205783
0.000000 0.912047 0.271885
0.000000 0.910369 0.269749
0.260105 0.905425 0.260258
0.452369 0.898955 0.269932
0.621912 0.890501 0.284916
0.758877 0.885985 0.306615
0.886564 0.884062 0.334874
1.000000 0.884977 0.359258
0.000000 1.000000 0.283452
0.031708 1.000000 0.280705
0.277226 1.000000 0.277653
0.456489 1.000000 0.298131
0.615717 1.000000 0.316655
0.763088 1.000000 0.341466
0.878691 0.994507 0.370642
0.988800 0.986023 0.403265
0.000000 0.000000 0.438849
0.136721 0.000000 0.440620
0.279484 0.000000 0.438849
0.431342 0.000000 0.433234
0.583703 0.000000 0.435279
0.744747 0.125643 0.449042
0.895720 0.216983 0.466865
1.000000 0.318669 0.496010
0.000000 0.076326 0.444953
0.110231 0.069947 0.444709
0.276158 0.039429 0.441413
0.433295 0.021485 0.435004
0.584833 0.135744 0.436713
0.742336 0.191989 0.448585
0.892515 0.255406 0.465736
1.000000 0.349615 0.499733
0.000000 0.251072 0.444556
0.000000 0.248722 0.444251
0.267460 0.259007 0.441047
0.435279 0.266758 0.436500
0.590204 0.302098 0.443458
0.751583 0.332860 0.459846
0.904265 0.382147 0.486275
1.000000 0.438361 0.512016
0.000000 0.428168 0.446876
0.000000 0.429419 0.446784
0.250889 0.434424 0.446021
0.443641 0.443641 0.443641
0.598016 0.455512 0.448798
0.755917 0.470680 0.454597
0.905364 0.490700 0.464576
1.000000 0.515892 0.481636
0.000000 0.614008 0.468788
0.000000 0.612360 0.464332
0.237827 0.609216 0.453590
0.445350 0.607507 0.445502
0.601801 0.600855 0.454261
0.770871 0.625605 0.434241
0.920287 0.630152 0.423346
1.000000 0.626795 0.434119
0.000000 0.771420 0.460761
0.000000 0.776181 0.462196
0.244022 0.771054 0.453071
0.442603 0.766476 0.442634
0.623651 0.757443 0.450660
0.755184 0.753597 0.461067
0.905882 0.770321 0.448585
1.000000 0.764858 0.395178
0.000000 0.913115 0.450752
0.000000 0.913207 0.449897
0.248814 0.911742 0.446754
0.439979 0.908385 0.440009
0.617700 0.899718 0.448127
0.764981 0.891722 0.459663
0.889006 0.886839 0.475563
1.000000 0.886625 0.481819
0.000000 1.000000 0.445716
0.000000 1.000000 0.446632
0.280827 1.000000 0.448371
0.447852 1.000000 0.447944
0.610010 1.000000 0.458778
0.762142 1.000000 0.475288
0.880705 0.993957 0.497566
0.988617 0.986175 0.525170
0.053101 0.000000 0.598322
0.148959 0.000000 0.599176
0.288426 0.000000 0.597284
0.433326 0.000000 0.595026
0.591058 0.000000 0.593500
0.744442 0.110445 0.598199
0.891356 0.220249 0.608179
1.000000 0.323461 0.620294
0.000000 0.059724 0.600885
0.131411 0.053925 0.602564
0.285466 0.025208 0.600244
0.433173 0.026093 0.595453
0.591241 0.090669 0.593561
0.744594 0.186160 0.598993
0.891539 0.261173 0.609003
1.000000 0.349126 0.621118
0.000000 0.235904 0.603815
0.046906 0.251133 0.603388
0.280095 0.261418 0.599695
0.437079 0.269200 0.598138
0.589837 0.283207 0.591730
0.739193 0.321416 0.596460
0.888182 0.360723 0.607813
1.000000 0.422522 0.621576
0.000000 0.413031 0.605463
0.000000 0.413916 0.604761
0.259556 0.420233 0.604273
0.445624 0.439185 0.601678
0.594385 0.445502 0.595392
0.744350 0.464363 0.601434
0.890593 0.489906 0.612390
1.000000 0.538659 0.634333
0.000000 0.582208 0.606378
0.000000 0.583368 0.606439
0.243259 0.585870 0.604639
0.431464 0.591363 0.602502
0.596887 0.596887 0.596887
0.750942 0.606989 0.600244
0.895720 0.621820 0.607691
1.000000 0.640986 0.620447
0.000000 0.760281 0.628809
0.000000 0.759884 0.626795
0.181704 0.756497 0.617731
0.404395 0.753750 0.603662
0.586236 0.749020 0.586236
0.748592 0.747677 0.601434
0.906615 0.767422 0.588525
1.000000 0.757656 0.572686
0.000000 0.910643 0.618647
0.000000 0.909209 0.616236
0.189303 0.906218 0.609522
0.407691 0.903502 0.598474
0.591150 0.898436 0.591241
0.762112 0.888548 0.601465
0.884764 0.883146 0.613184
1.000000 0.883177 0.603113
0.000000 1.000000 0.595666
0.000000 1.000000 0.594598
0.220371 1.000000 0.591119
0.427924 1.000000 0.593652
0.599847 1.000000 0.599878
0.754177 0.999695 0.611536
0.881285 0.990600 0.627802
0.985229 0.983215 0.646967
0.098543 0.000000 0.763272
0.171054 0.000000 0.763149
0.303044 0.000000 0.759945
0.447639 0.000000 0.760159
0.595941 0.000000 0.758694
0.749111 0.000000 0.752010
0.892332 0.205142 0.750881
1.000000 0.334874 0.750515
0.072145 0.042084 0.758419
0.158938 0.037201 0.757870
0.298405 0.029023 0.756222
0.444892 0.059419 0.756222
0.592187 0.096132 0.754177
0.745632 0.145449 0.748470
0.889891 0.246067 0.748928
1.000000 0.356817 0.749538
0.008820 0.265171 0.763790
0.150698 0.265660 0.763119
0.300267 0.268589 0.761990
0.449989 0.275547 0.760403
0.595972 0.285985 0.756313
0.747219 0.302922 0.749691
0.890105 0.355840 0.750149
1.000000 0.434943 0.751949
0.000000 0.408484 0.768612
0.000000 0.410040 0.767025
0.273350 0.419501 0.765774
0.459724 0.445045 0.767178
0.607446 0.450782 0.765255
0.756405 0.457130 0.758328
0.894194 0.494606 0.756802
1.000000 0.549767 0.760189
0.000000 0.569726 0.762783
0.000000 0.570947 0.762661
0.252140 0.574945 0.762142
0.429908 0.580713 0.761776
0.600824 0.594720 0.757992
0.750301 0.599817 0.751492
0.887114 0.626429 0.753567
0.999390 0.662959 0.763851
0.000000 0.728878 0.758236
0.000000 0.731258 0.759792
0.219883 0.733761 0.759182
0.409583 0.737697 0.757748
0.581567 0.742550 0.754238
0.752224 0.752163 0.752193
0.892271 0.765347 0.759701
1.000000 0.779446 0.768887
0.000000 0.911498 0.787350
0.000000 0.912169 0.787411
0.115663 0.910460 0.783597
0.376410 0.908171 0.773434
0.573205 0.902770 0.759121
0.751949 0.893492 0.751888
0.886503 0.885649 0.760220
1.000000 0.887785 0.744686
0.000000 1.000000 0.754086
0.000000 1.000000 0.752438
0.118624 1.000000 0.747066
0.382696 1.000000 0.740352
0.580804 1.000000 0.739712
0.751400 0.998047 0.751431
0.886961 0.987823 0.763699
0.982757 0.981384 0.776211
0.143923 0.000000 0.896696
0.197879 0.000000 0.897917
0.315892 0.000000 0.897246
0.451606 0.000000 0.896666
0.591485 0.000000 0.894163
0.734768 0.087007 0.890105
0.880888 0.158633 0.884337
1.000000 0.300938 0.870573
0.136172 0.069398 0.892302
0.192844 0.072786 0.893309
0.312810 0.079652 0.892882
0.448493 0.096437 0.891447
0.587823 0.123842 0.888731
0.729519 0.158755 0.884184
0.874449 0.199313 0.877836
0.996246 0.314305 0.865324
0.142031 0.269017 0.896147
0.197238 0.269780 0.895750
0.317021 0.272465 0.894102
0.452735 0.279301 0.892271
0.590784 0.288426 0.888640
0.730861 0.302373 0.884794
0.877501 0.323644 0.880613
0.998383 0.406622 0.869169
0.000000 0.400580 0.899870
0.106203 0.402625 0.898558
0.327001 0.433112 0.895354
0.460273 0.436835 0.894224
0.596796 0.440711 0.891173
0.734981 0.447669 0.888762
0.882322 0.462379 0.884977
0.997772 0.527733 0.872587
0.000000 0.548699 0.894652
0.000000 0.549035 0.893492
0.259495 0.551873 0.891691
0.424414 0.559442 0.890745
0.593744 0.580865 0.887663
0.734279 0.586999 0.884337
0.877928 0.599115 0.879881
0.992279 0.651942 0.873503
0.000000 0.701198 0.891600
0.000000 0.701961 0.891478
0.230228 0.704311 0.891020
0.408698 0.708919 0.891051
0.580713 0.719448 0.889891
0.748775 0.743557 0.887846
0.882872 0.752621 0.883909
0.987854 0.783230 0.881743
0.000000 0.857877 0.891936
0.000000 0.859098 0.892515
0.183230 0.861143 0.892241
0.389380 0.865141 0.891936
0.570275 0.869718 0.889494
0.738247 0.876188 0.886534
0.883818 0.883818 0.883848
0.986481 0.893065 0.889067
0.000000 1.000000 0.902953
0.000000 1.000000 0.902098
0.000000 1.000000 0.901030
0.347509 1.000000 0.896452
0.553674 1.000000 0.889036
0.736080 0.998169 0.881407
0.885466 0.986816 0.885435
0.980407 0.979797 0.892515
0.196139 0.000000 0.996643
0.233799 0.000000 0.996948
0.329534 0.000000 0.995758
0.450080 0.075319 0.995178
0.578759 0.124056 0.993835
0.709499 0.169467 0.991791
0.845914 0.218570 0.989349
0.981476 0.266423 0.985107
0.196628 0.126589 0.994903
0.234257 0.129946 0.995209
0.329870 0.137881 0.994385
0.449989 0.154910 0.993408
0.578332 0.180972 0.992096
0.708553 0.211643 0.990051
0.843961 0.248142 0.987274
0.979461 0.287510 0.983062
0.207919 0.277897 0.993439
0.243381 0.279515 0.993439
0.335149 0.281987 0.992004
0.455634 0.293858 0.992615
0.581598 0.305730 0.990845
0.709560 0.319890 0.988190
0.843015 0.340856 0.985626
0.978454 0.368048 0.981872
0.230381 0.423957 0.992493
0.263035 0.425360 0.992645
0.348394 0.426642 0.991638
0.462623 0.431708 0.991028
0.586267 0.438331 0.989746
0.712642 0.445960 0.987640
0.843656 0.460334 0.985260
0.978607 0.485573 0.981628
0.000000 0.522972 0.991730
0.141482 0.525597 0.991943
0.286259 0.531273 0.990997
0.463966 0.564111 0.988861
0.587884 0.568872 0.986999
0.715541 0.576867 0.984680
0.844053 0.591547 0.982727
0.977813 0.617884 0.980255
0.000000 0.660700 0.989258
0.000000 0.661006 0.988708
0.243259 0.662379 0.987488
0.404822 0.667933 0.986358
0.572351 0.688441 0.984680
0.733486 0.723384 0.982940
0.858518 0.740993 0.982696
0.979675 0.764065 0.981292
0.000000 0.803830 0.988190
0.000000 0.804105 0.987823
0.200259 0.805142 0.986969
0.391089 0.810178 0.986175
0.567498 0.822049 0.984741
0.733974 0.843198 0.982940
0.879118 0.875425 0.981415
0.977447 0.884276 0.978210
0.000000 0.950469 0.987854
0.000000 0.950713 0.987549
0.141115 0.952026 0.986969
0.380804 0.955322 0.986328
0.567651 0.960235 0.984894
0.735195 0.966308 0.982757
0.876616 0.972808 0.980346
0.977874 0.977874 0.977874
