cubelut/NW-1.cube
# Created by Adobe Lightroom plugin Export LUT (1.18.0)
# www.johnrellis.com/lightroom/exportlut.htm
# Preset: NW10
# Color profile: /Library/Application Support/Adobe/Color/Profiles/Recommended/AdobeRGB1998.icc
LUT_3D_SIZE 32
DOMAIN_MIN 0.0 0.0 0.0
DOMAIN_MAX 1.0 1.0 1.0
0.000000 0.000000 0.000000
0.000000 0.000000 0.000000
0.000000 0.000000 0.000000
0.035492 0.000000 0.002502
0.081605 0.000000 0.005982
0.118654 0.000000 0.010620
0.159579 0.000000 0.013611
0.204379 0.000000 0.010010
0.251072 0.000000 0.001740
0.298131 0.000000 0.000000
0.345403 0.000000 0.000000
0.392065 0.000000 0.000000
0.437324 0.000000 0.000000
0.480873 0.047333 0.000000
0.522271 0.077974 0.000000
0.561669 0.088563 0.000000
0.599817 0.098360 0.000000
0.638758 0.108492 0.000000
0.678218 0.119203 0.000000
0.726955 0.132387 0.000000
0.774044 0.146029 0.000000
0.818082 0.159426 0.000000
0.858549 0.172976 0.000000
0.895811 0.186465 0.000000
0.930114 0.199374 0.000000
0.962219 0.212894 0.000000
0.992584 0.226902 0.062867
1.000000 0.241886 0.095338
1.000000 0.257939 0.124514
1.000000 0.275792 0.153445
1.000000 0.295384 0.183505
1.000000 0.317449 0.216098
0.000000 0.000000 0.000000
0.000000 0.000000 0.000000
0.000000 0.000000 0.000000
0.038209 0.000000 0.002472
0.082002 0.000000 0.005951
0.118410 0.000000 0.010620
0.159670 0.000000 0.010010
0.204074 0.000000 0.004486
0.250156 0.000000 0.000000
0.296941 0.000000 0.000000
0.343786 0.000000 0.000000
0.389960 0.000000 0.000000
0.434943 0.038819 0.000000
0.478187 0.071504 0.000000
0.519432 0.091493 0.000000
0.558740 0.100313 0.000000
0.596582 0.109071 0.000000
0.635248 0.117891 0.000000
0.674586 0.126894 0.000000
0.722621 0.139345 0.000000
0.768795 0.151797 0.000000
0.812406 0.164523 0.000000
0.852781 0.176852 0.000000
0.890257 0.189395 0.000000
0.924956 0.201816 0.000000
0.957519 0.215030 0.000000
0.988464 0.228397 0.041291
1.000000 0.242985 0.087526
1.000000 0.258579 0.117464
1.000000 0.275853 0.147555
1.000000 0.294957 0.177768
1.000000 0.316442 0.210117
0.000000 0.000000 0.000000
0.000000 0.000000 0.000000
0.000000 0.000000 0.000000
0.040589 0.000000 0.002258
0.082887 0.000000 0.004181
0.119936 0.000000 0.004273
0.160403 0.000000 0.002899
0.204349 0.000000 0.000000
0.249912 0.000000 0.000000
0.296178 0.008728 0.000000
0.342779 0.028656 0.000000
0.388830 0.057832 0.000000
0.433722 0.075013 0.000000
0.476905 0.091798 0.000000
0.517937 0.107149 0.000000
0.557183 0.113832 0.000000
0.594903 0.121309 0.000000
0.633417 0.129305 0.000000
0.672786 0.137545 0.000000
0.720607 0.148531 0.000000
0.766323 0.160159 0.000000
0.809628 0.171817 0.000000
0.849973 0.183536 0.000000
0.887480 0.195315 0.000000
0.922332 0.207309 0.000000
0.955077 0.219455 0.000000
0.986297 0.232364 0.022919
1.000000 0.246311 0.080964
1.000000 0.261509 0.112459
1.000000 0.278141 0.143160
1.000000 0.296635 0.173556
1.000000 0.317662 0.206271
0.000000 0.043061 0.000000
0.000000 0.046693 0.000000
0.000000 0.050355 0.000000
0.041413 0.048829 0.000000
0.086427 0.057099 0.000000
0.124147 0.061036 0.000000
0.164004 0.064515 0.000000
0.207279 0.069276 0.000000
0.251743 0.075044 0.000000
0.297459 0.081819 0.000000
0.343450 0.090944 0.000000
0.388983 0.101259 0.000000
0.433234 0.112398 0.000000
0.475959 0.124514 0.000000
0.516838 0.133211 0.000000
0.555840 0.138552 0.000000
0.593378 0.144625 0.000000
0.631617 0.150881 0.000000
0.672023 0.158328 0.000000
0.717891 0.167758 0.000000
0.762295 0.177523 0.000000
0.804929 0.187442 0.000000
0.845426 0.198093 0.000000
0.883635 0.208560 0.000000
0.919646 0.219516 0.000000
0.953491 0.230869 0.000000
0.985504 0.242954 0.000000
1.000000 0.256260 0.072389
1.000000 0.270451 0.106935
1.000000 0.285863 0.137911
1.000000 0.303258 0.169009
1.000000 0.322576 0.201022
0.000000 0.084596 0.000000
0.000000 0.085573 0.000000
0.000000 0.087190 0.000000
0.043702 0.086030 0.000000
0.082124 0.084657 0.000000
0.119570 0.093019 0.000000
0.166384 0.105898 0.000000
0.210208 0.112459 0.000000
0.253849 0.118502 0.000000
0.298436 0.125948 0.000000
0.343664 0.133425 0.000000
0.388617 0.142428 0.000000
0.432471 0.151431 0.000000
0.474922 0.160220 0.000000
0.515618 0.165194 0.000000
0.554833 0.169558 0.000000
0.592645 0.174075 0.000000
0.631098 0.179263 0.000000
0.673365 0.185855 0.000000
0.718013 0.194156 0.000000
0.761318 0.202396 0.000000
0.803220 0.210727 0.000000
0.843320 0.219547 0.000000
0.881559 0.228855 0.000000
0.917693 0.238132 0.000000
0.951843 0.248234 0.000000
0.984039 0.259007 0.000000
1.000000 0.270451 0.048310
1.000000 0.283116 0.094087
1.000000 0.297032 0.127596
1.000000 0.312627 0.160006
1.000000 0.330327 0.192782
0.000000 0.122560 0.000000
0.000000 0.123812 0.000000
0.000000 0.124636 0.000000
0.041505 0.123537 0.000000
0.091279 0.121798 0.000000
0.119020 0.120638 0.000000
0.156313 0.129488 0.000000
0.207980 0.147280 0.000000
0.256321 0.160555 0.000000
0.302647 0.168551 0.000000
0.346960 0.176059 0.000000
0.391119 0.183658 0.000000
0.434150 0.191226 0.000000
0.476112 0.196078 0.000000
0.516503 0.200229 0.000000
0.555535 0.203677 0.000000
0.593378 0.207034 0.000000
0.631830 0.211673 0.000000
0.676112 0.217960 0.000000
0.720027 0.224918 0.000000
0.763027 0.232090 0.000000
0.804898 0.239261 0.000000
0.880217 0.260929 0.000000
0.916136 0.268956 0.000000
0.949157 0.276799 0.000000
0.979736 0.284947 0.000000
1.000000 0.293736 0.010224
1.000000 0.303349 0.080934
1.000000 0.313939 0.114931
1.000000 0.325994 0.145998
1.000000 0.339635 0.176699
1.000000 0.355230 0.208072
0.000000 0.170199 0.000000
0.000000 0.170901 0.000000
0.000000 0.170901 0.000000
0.051514 0.169802 0.000000
0.102419 0.168154 0.000000
0.135714 0.166506 0.000000
0.164370 0.165164 0.000000
0.201297 0.172824 0.000000
0.255650 0.192966 0.000000
0.309361 0.210636 0.000000
0.357000 0.223301 0.000000
0.403784 0.230167 0.000000
0.445899 0.234440 0.000000
0.486763 0.237949 0.000000
0.526116 0.240452 0.000000
0.563684 0.242710 0.000000
0.600977 0.245060 0.000000
0.642908 0.249821 0.000000
0.687892 0.256046 0.000000
0.732692 0.262577 0.000000
0.777584 0.269535 0.000000
0.822263 0.277195 0.000000
0.865202 0.285161 0.000000
0.905394 0.292882 0.000000
0.942138 0.300633 0.000000
0.974914 0.307866 0.000000
1.000000 0.315373 0.000000
1.000000 0.323217 0.029541
1.000000 0.332006 0.091676
1.000000 0.341985 0.127840
1.000000 0.353277 0.159640
1.000000 0.366522 0.192630
0.000000 0.214511 0.000000
0.000000 0.214298 0.000000
0.000000 0.213718 0.000000
0.058839 0.212589 0.000000
0.109438 0.210910 0.000000
0.148226 0.208835 0.000000
0.177890 0.207492 0.000000
0.206485 0.206455 0.000000
0.241398 0.211765 0.000000
0.296391 0.233249 0.000000
0.350408 0.251255 0.000000
0.400763 0.265202 0.000000
0.445472 0.272984 0.000000
0.488258 0.276738 0.000000
0.526970 0.278599 0.000000
0.564141 0.279789 0.000000
0.602899 0.282322 0.000000
0.645808 0.286900 0.000000
0.688930 0.291936 0.000000
0.732204 0.297307 0.000000
0.775967 0.303258 0.000000
0.819669 0.309606 0.000000
0.861967 0.316197 0.000000
0.901823 0.322576 0.000000
0.938415 0.328618 0.000000
0.971374 0.334447 0.000000
1.000000 0.340185 0.000000
1.000000 0.346227 0.000000
1.000000 0.353155 0.047272
1.000000 0.360998 0.101167
1.000000 0.370275 0.138766
1.000000 0.381140 0.174350
0.000000 0.258335 0.000000
0.000000 0.258091 0.000000
0.000000 0.257633 0.000000
0.071656 0.256596 0.000000
0.119112 0.254978 0.000000
0.158602 0.253269 0.000000
0.191379 0.251682 0.000000
0.220920 0.250706 0.000000
0.250523 0.249851 0.000000
0.285405 0.254246 0.000000
0.339086 0.274296 0.000000
0.392218 0.291356 0.000000
0.442695 0.305303 0.000000
0.486580 0.314519 0.000000
0.527703 0.317784 0.000000
0.567559 0.319799 0.000000
0.608606 0.322759 0.000000
0.649897 0.326207 0.000000
0.691524 0.330022 0.000000
0.733730 0.334264 0.000000
0.776455 0.339178 0.000000
0.819303 0.344488 0.000000
0.860929 0.349889 0.000000
0.900206 0.355016 0.000000
0.936522 0.359747 0.000000
0.969390 0.363836 0.000000
0.999390 0.368078 0.000000
1.000000 0.372412 0.000000
1.000000 0.377478 0.000000
1.000000 0.383215 0.058930
1.000000 0.390204 0.111910
1.000000 0.398474 0.151522
0.000000 0.303502 0.000000
0.000000 0.303227 0.000000
0.000000 0.302617 0.000000
0.069032 0.301823 0.000000
0.120180 0.300359 0.000000
0.162692 0.298558 0.000000
0.202060 0.296513 0.000000
0.233158 0.295171 0.000000
0.263676 0.294377 0.000000
0.294347 0.293675 0.000000
0.329046 0.296849 0.000000
0.380102 0.314092 0.000000
0.431830 0.329992 0.000000
0.480659 0.342657 0.000000
0.527947 0.353918 0.000000
0.570703 0.361334 0.000000
0.613642 0.364752 0.000000
0.656092 0.367864 0.000000
0.696925 0.370825 0.000000
0.737911 0.373877 0.000000
0.779141 0.377386 0.000000
0.819974 0.381201 0.000000
0.859770 0.384924 0.000000
0.897612 0.388342 0.000000
0.933074 0.391547 0.000000
0.965881 0.394293 0.000000
0.996277 0.397162 0.000000
1.000000 0.400153 0.000000
1.000000 0.403632 0.000000
1.000000 0.407752 0.000000
1.000000 0.412848 0.068208
1.000000 0.419013 0.122591
0.000000 0.346990 0.000000
0.000000 0.346899 0.000000
0.000000 0.346532 0.000000
0.058808 0.345739 0.000000
0.118135 0.344671 0.000000
0.164431 0.343175 0.000000
0.206271 0.341497 0.000000
0.243778 0.339910 0.000000
0.275120 0.338994 0.000000
0.306889 0.338170 0.000000
0.338354 0.337469 0.000000
0.372778 0.339422 0.000000
0.421515 0.354437 0.000000
0.474006 0.370886 0.000000
0.523552 0.383917 0.000000
0.570092 0.394293 0.000000
0.613306 0.402411 0.000000
0.655787 0.407813 0.000000
0.698299 0.410651 0.000000
0.739590 0.413245 0.000000
0.780056 0.415808 0.000000
0.820340 0.418708 0.000000
0.859648 0.421515 0.000000
0.897154 0.423987 0.000000
0.932311 0.426032 0.000000
0.964813 0.427497 0.000000
0.994965 0.428717 0.000000
1.000000 0.430274 0.000000
1.000000 0.431983 0.000000
1.000000 0.434211 0.000000
1.000000 0.437110 0.000000
1.000000 0.440925 0.072450
0.000000 0.390936 0.000000
0.000000 0.390784 0.000000
0.000000 0.390448 0.000000
0.028779 0.389715 0.000000
0.114412 0.388830 0.000000
0.163546 0.387640 0.000000
0.207858 0.386114 0.000000
0.249760 0.384344 0.000000
0.285191 0.383185 0.000000
0.317449 0.382544 0.000000
0.349981 0.381811 0.000000
0.384863 0.383856 0.000000
0.440711 0.404639 0.000000
0.488746 0.417304 0.000000
0.539818 0.431220 0.000000
0.588159 0.442023 0.000000
0.636469 0.452338 0.000000
0.683253 0.461494 0.000000
0.724086 0.467475 0.000000
0.765133 0.469398 0.000000
0.805722 0.470344 0.000000
0.843839 0.470710 0.000000
0.879820 0.470649 0.000000
0.914244 0.470436 0.000000
0.946654 0.469825 0.000000
0.976959 0.469184 0.000000
1.000000 0.468269 0.000000
1.000000 0.467506 0.000000
1.000000 0.466926 0.000000
1.000000 0.466804 0.000000
1.000000 0.467292 0.000000
1.000000 0.468452 0.000000
0.000000 0.441108 0.000000
0.000000 0.440833 0.000000
0.000000 0.440162 0.000000
0.000000 0.439033 0.000000
0.109621 0.437385 0.000000
0.163424 0.435309 0.000000
0.210025 0.433478 0.000000
0.253391 0.431403 0.000000
0.295598 0.429725 0.000000
0.331487 0.432197 0.000000
0.368048 0.435248 0.000000
0.405249 0.438331 0.000000
0.442756 0.441444 0.000000
0.480018 0.443824 0.000000
0.526787 0.455451 0.000000
0.575982 0.468147 0.000000
0.624659 0.479286 0.000000
0.672328 0.489265 0.000000
0.718166 0.497688 0.000000
0.760128 0.503960 0.000000
0.800076 0.508629 0.000000
0.839414 0.508843 0.000000
0.876951 0.508385 0.000000
0.911406 0.507103 0.000000
0.943603 0.505516 0.000000
0.973785 0.503624 0.000000
1.000000 0.501518 0.000000
1.000000 0.499397 0.000000
1.000000 0.497383 0.000000
1.000000 0.495674 0.000000
1.000000 0.494362 0.000000
1.000000 0.493507 0.000000
0.000000 0.481117 0.000000
0.000000 0.480873 0.000000
0.000000 0.480262 0.000000
0.000000 0.479194 0.000000
0.100313 0.477577 0.000000
0.159457 0.476539 0.000000
0.208774 0.476204 0.000000
0.254551 0.475837 0.000000
0.298863 0.475593 0.000000
0.340398 0.476204 0.000000
0.376074 0.478187 0.000000
0.412512 0.480476 0.000000
0.449226 0.482612 0.000000
0.485634 0.484169 0.000000
0.521019 0.484749 0.000000
0.562615 0.491829 0.000000
0.611170 0.504051 0.000000
0.659174 0.515160 0.000000
0.705806 0.524498 0.000000
0.751278 0.532708 0.000000
0.795254 0.539971 0.000000
0.834287 0.544945 0.000000
0.871855 0.546471 0.000000
0.907927 0.545159 0.000000
0.941772 0.542748 0.000000
0.972015 0.539727 0.000000
1.000000 0.536461 0.000000
1.000000 0.533135 0.000000
1.000000 0.529839 0.000000
1.000000 0.526665 0.000000
1.000000 0.523583 0.000000
1.000000 0.520684 0.000000
0.000000 0.525139 0.000000
0.000000 0.525078 0.000000
0.000000 0.524681 0.000000
0.000000 0.523888 0.000000
0.093019 0.522759 0.000000
0.156191 0.521386 0.000000
0.207584 0.520043 0.000000
0.254459 0.518853 0.000000
0.299290 0.518151 0.000000
0.343694 0.517815 0.000000
0.382208 0.518639 0.000000
0.417914 0.520287 0.000000
0.454047 0.521965 0.000000
0.489937 0.523156 0.000000
0.525017 0.523369 0.000000
0.558587 0.522362 0.000000
0.597589 0.527398 0.000000
0.646021 0.539849 0.000000
0.693385 0.550622 0.000000
0.739620 0.559808 0.000000
0.784604 0.567834 0.000000
0.827970 0.574609 0.000000
0.867063 0.579187 0.000000
0.902892 0.582391 0.000000
0.937102 0.580255 0.000000
0.969268 0.576989 0.000000
0.999298 0.572900 0.000000
1.000000 0.568780 0.000000
1.000000 0.564416 0.000000
1.000000 0.560143 0.000000
1.000000 0.555596 0.000000
1.000000 0.550835 0.000000
0.000000 0.567864 0.000000
0.000000 0.567895 0.000000
0.000000 0.567681 0.000000
0.000000 0.567041 0.000000
0.083009 0.566003 0.000000
0.152682 0.564874 0.000000
0.206424 0.563806 0.000000
0.254520 0.562982 0.000000
0.300542 0.562188 0.000000
0.345220 0.561669 0.000000
0.389105 0.560998 0.000000
0.424598 0.561578 0.000000
0.459480 0.561944 0.000000
0.494209 0.561913 0.000000
0.528405 0.561273 0.000000
0.561730 0.559991 0.000000
0.594232 0.558251 0.000000
0.632441 0.562676 0.000000
0.680385 0.575158 0.000000
0.728237 0.586542 0.000000
0.774746 0.596277 0.000000
0.819516 0.604211 0.000000
0.861814 0.610163 0.000000
0.901427 0.614374 0.000000
0.935576 0.616297 0.000000
0.967773 0.616236 0.000000
0.998199 0.611810 0.000000
1.000000 0.606500 0.000000
1.000000 0.600549 0.000000
1.000000 0.594568 0.000000
1.000000 0.588220 0.000000
1.000000 0.581506 0.000000
0.000000 0.608453 0.000000
0.000000 0.608301 0.000000
0.000000 0.607813 0.000000
0.000000 0.607172 0.000000
0.070130 0.606195 0.000000
0.147402 0.605035 0.000000
0.203098 0.603876 0.000000
0.252232 0.602869 0.000000
0.298955 0.601984 0.000000
0.344060 0.601312 0.000000
0.388220 0.600763 0.000000
0.429694 0.600549 0.000000
0.464393 0.601007 0.000000
0.499031 0.600977 0.000000
0.533013 0.600244 0.000000
0.566125 0.598718 0.000000
0.598657 0.596826 0.000000
0.630701 0.594873 0.000000
0.668727 0.599176 0.000000
0.714839 0.610529 0.000000
0.762173 0.621790 0.000000
0.807889 0.631006 0.000000
0.851255 0.638056 0.000000
0.892149 0.643153 0.000000
0.930236 0.646296 0.000000
0.964324 0.647517 0.000000
0.994873 0.647547 0.000000
1.000000 0.643946 0.000000
1.000000 0.637446 0.000000
1.000000 0.630030 0.000000
1.000000 0.621790 0.000000
1.000000 0.613428 0.000000
0.000000 0.650172 0.000000
0.000000 0.650507 0.000000
0.000000 0.670466 0.000000
0.000000 0.669612 0.000000
0.067475 0.668391 0.000000
0.150118 0.666712 0.000000
0.208743 0.664759 0.000000
0.259586 0.662806 0.000000
0.307561 0.661128 0.000000
0.354040 0.659693 0.000000
0.399023 0.658350 0.000000
0.443214 0.656764 0.000000
0.481361 0.655390 0.000000
0.515465 0.654200 0.000000
0.549187 0.652491 0.000000
0.582300 0.650263 0.000000
0.614862 0.647608 0.000000
0.646693 0.644739 0.000000
0.678248 0.641932 0.000000
0.715419 0.645167 0.000000
0.758694 0.654078 0.000000
0.804471 0.664027 0.000000
0.848051 0.671534 0.000000
0.888792 0.676631 0.000000
0.926452 0.679225 0.000000
0.961334 0.679988 0.000000
0.993622 0.679011 0.000000
1.000000 0.677058 0.000000
1.000000 0.674495 0.000000
1.000000 0.666682 0.000000
1.000000 0.657527 0.000000
1.000000 0.646876 0.000000
0.000000 0.696101 0.000000
0.000000 0.698573 0.000000
0.000000 0.700984 0.000000
0.000000 0.702785 0.000000
0.040406 0.703578 0.000000
0.143923 0.702998 0.000000
0.203861 0.701686 0.000000
0.255833 0.699916 0.000000
0.304509 0.698390 0.000000
0.350774 0.696834 0.000000
0.396216 0.695369 0.000000
0.440345 0.693904 0.000000
0.483558 0.691768 0.000000
0.517967 0.690364 0.000000
0.551293 0.688594 0.000000
0.584161 0.686275 0.000000
0.616632 0.683650 0.000000
0.648646 0.680873 0.000000
0.680476 0.678370 0.000000
0.712337 0.676265 0.000000
0.749447 0.679622 0.000000
0.791379 0.687770 0.000000
0.836332 0.697383 0.000000
0.878508 0.704158 0.000000
0.917510 0.708125 0.000000
0.953674 0.709804 0.000000
0.987060 0.709529 0.000000
1.000000 0.707576 0.000000
1.000000 0.704372 0.000000
1.000000 0.700252 0.000000
1.000000 0.693721 0.000000
1.000000 0.682490 0.000000
0.000000 0.733394 0.000000
0.000000 0.735653 0.000000
0.000000 0.737881 0.000000
0.000000 0.739467 0.000000
0.003540 0.740230 0.000000
0.137575 0.739742 0.000000
0.199893 0.738460 0.000000
0.252567 0.736934 0.000000
0.301396 0.735439 0.000000
0.348211 0.733944 0.000000
0.393561 0.732631 0.000000
0.438025 0.731167 0.000000
0.481209 0.729152 0.000000
0.521416 0.726986 0.000000
0.554437 0.725216 0.000000
0.587121 0.722927 0.000000
0.619471 0.720485 0.000000
0.651575 0.717861 0.000000
0.683558 0.715450 0.000000
0.715694 0.713497 0.000000
0.747799 0.711849 0.000000
0.784939 0.715480 0.013214
0.824857 0.722194 0.040986
0.868193 0.730861 0.000000
0.908385 0.736294 0.000000
0.945495 0.739010 0.000000
0.979767 0.739498 0.000000
1.000000 0.738033 0.000000
1.000000 0.734798 0.000000
1.000000 0.729732 0.000000
1.000000 0.723690 0.000000
1.000000 0.716274 0.000000
0.000000 0.770291 0.000000
0.000000 0.772396 0.000000
0.000000 0.774441 0.000000
0.000000 0.775967 0.000000
0.000000 0.776577 0.000000
0.132113 0.776181 0.000000
0.195468 0.774990 0.000000
0.249088 0.773465 0.000000
0.298375 0.771908 0.000000
0.345220 0.770413 0.000000
0.390570 0.768917 0.000000
0.434974 0.767269 0.000000
0.478340 0.765286 0.000000
0.520623 0.763027 0.000000
0.557458 0.761074 0.000000
0.590387 0.759457 0.000000
0.623346 0.757931 0.000000
0.656458 0.756619 0.000000
0.689723 0.755550 0.000000
0.723171 0.754818 0.000000
0.756802 0.754513 0.000000
0.790463 0.754360 0.020966
0.828000 0.758297 0.083192
0.865660 0.763333 0.111635
0.907042 0.770504 0.004822
0.944976 0.774350 0.000000
0.979767 0.775357 0.000000
1.000000 0.774014 0.000000
1.000000 0.770565 0.000000
1.000000 0.764858 0.000000
1.000000 0.756893 0.000000
1.000000 0.747097 0.000000
0.000000 0.815244 0.000000
0.000000 0.816098 0.000000
0.000000 0.816709 0.000000
0.000000 0.816922 0.000000
0.000000 0.816587 0.000000
0.129244 0.815671 0.000000
0.193820 0.814481 0.000000
0.247807 0.813199 0.000000
0.297642 0.812100 0.000000
0.345098 0.810941 0.000000
0.390875 0.809873 0.000000
0.435828 0.808530 0.000000
0.479347 0.806699 0.000000
0.521935 0.804501 0.000000
0.563836 0.801877 0.000000
0.597345 0.800076 0.000000
0.630091 0.798337 0.000000
0.662867 0.796719 0.000000
0.695705 0.795285 0.000000
0.728634 0.794003 0.000000
0.761501 0.792905 0.000000
0.794339 0.791897 0.036530
0.826902 0.790951 0.082185
0.862821 0.793515 0.109499
0.896971 0.795865 0.146670
0.935882 0.801419 0.100221
0.971679 0.803891 0.000000
1.000000 0.803738 0.000000
1.000000 0.801083 0.000000
1.000000 0.795895 0.000000
1.000000 0.788205 0.000000
1.000000 0.777737 0.000000
0.000000 0.849943 0.000000
0.000000 0.850797 0.000000
0.000000 0.851530 0.000000
0.000000 0.851682 0.000000
0.000000 0.851347 0.000000
0.124544 0.850462 0.000000
0.190127 0.849180 0.000000
0.244450 0.847745 0.000000
0.294652 0.846403 0.000000
0.341833 0.845182 0.000000
0.387762 0.843961 0.000000
0.432380 0.842557 0.000000
0.475807 0.840848 0.000000
0.518578 0.838804 0.000000
0.560510 0.836545 0.000000
0.599817 0.834348 0.000000
0.632380 0.832914 0.000000
0.665126 0.831601 0.000000
0.698024 0.830411 0.000000
0.730983 0.829404 0.000000
0.764034 0.828611 0.000000
0.797024 0.827970 0.062806
0.829923 0.827390 0.093965
0.862547 0.826780 0.116670
0.893095 0.824491 0.130098
0.924926 0.825315 0.171298
0.961517 0.829374 0.139956
0.995331 0.830747 0.086122
1.000000 0.829374 0.000000
1.000000 0.825254 0.000000
1.000000 0.818479 0.000000
1.000000 0.808621 0.000000
0.000000 0.889769 0.000000
0.000000 0.890654 0.000000
0.000000 0.891081 0.000000
0.000000 0.890898 0.000000
0.000000 0.890166 0.000000
0.126314 0.888884 0.000000
0.190799 0.887266 0.000000
0.244724 0.885405 0.000000
0.294041 0.883360 0.000000
0.340856 0.881407 0.000000
0.385992 0.879332 0.000000
0.429877 0.877317 0.000000
0.473030 0.875120 0.000000
0.515312 0.872587 0.000000
0.556512 0.869627 0.000000
0.597131 0.866423 0.000000
0.632502 0.863828 0.000000
0.664302 0.861967 0.000000
0.696651 0.860655 0.000000
0.729397 0.859831 0.000000
0.762325 0.859251 0.000000
0.795102 0.858762 0.069245
0.827604 0.858000 0.097993
0.859525 0.856870 0.120638
0.890776 0.855467 0.139101
0.922972 0.855192 0.156100
0.954711 0.856321 0.195193
0.987640 0.857969 0.179232
1.000000 0.857603 0.143252
1.000000 0.854429 0.085023
1.000000 0.848447 0.000000
1.000000 0.839353 0.000000
0.000000 0.919951 0.000000
0.000000 0.920775 0.000000
0.000000 0.921172 0.000000
0.000000 0.921019 0.000000
0.000000 0.920348 0.000000
0.123445 0.919249 0.000000
0.188571 0.917906 0.000000
0.242130 0.916320 0.000000
0.291386 0.914702 0.000000
0.338231 0.913085 0.000000
0.383154 0.911467 0.000000
0.427375 0.909789 0.000000
0.470436 0.907958 0.000000
0.512596 0.905821 0.000000
0.554040 0.903319 0.000000
0.594720 0.900572 0.000000
0.634821 0.897704 0.000000
0.667384 0.895964 0.000000
0.699336 0.894652 0.000000
0.731685 0.893706 0.000000
0.764157 0.892973 0.058289
0.796597 0.892271 0.090639
0.828763 0.891356 0.114992
0.860472 0.890288 0.135897
0.891691 0.888945 0.153536
0.922362 0.887388 0.169772
0.952636 0.885832 0.185580
0.984009 0.887053 0.222965
1.000000 0.886534 0.221103
1.000000 0.884367 0.195438
1.000000 0.879057 0.161318
1.000000 0.870573 0.106416
0.000000 0.950591 0.000000
0.000000 0.951080 0.000000
0.000000 0.951171 0.000000
0.000000 0.950774 0.000000
0.000000 0.949859 0.000000
0.123323 0.948669 0.000000
0.187015 0.947234 0.000000
0.239872 0.945647 0.000000
0.289006 0.944060 0.000000
0.335027 0.942565 0.000000
0.380011 0.941009 0.000000
0.423682 0.939605 0.000000
0.466621 0.937926 0.000000
0.508751 0.936004 0.000000
0.549859 0.933654 0.000000
0.590295 0.931060 0.000000
0.630304 0.928313 0.000000
0.667964 0.925841 0.000000
0.699367 0.924468 0.000000
0.731167 0.923369 0.026917
0.763119 0.922484 0.079805
0.795041 0.921630 0.107393
0.826719 0.920653 0.128847
0.858061 0.919524 0.148287
0.888975 0.918181 0.165286
0.919402 0.916625 0.181552
0.949462 0.915038 0.197543
0.979095 0.913359 0.212222
1.000000 0.913512 0.248631
1.000000 0.910948 0.258793
1.000000 0.906737 0.238682
1.000000 0.899229 0.213535
0.000000 0.977478 0.000000
0.000000 0.977722 0.000000
0.000000 0.977752 0.000000
0.000000 0.977478 0.000000
0.000000 0.976928 0.000000
0.125368 0.976318 0.000000
0.188144 0.975860 0.000000
0.241306 0.975433 0.000000
0.290227 0.975128 0.000000
0.336767 0.974884 0.000000
0.381903 0.974548 0.000000
0.425879 0.974060 0.000000
0.469001 0.973266 0.000000
0.511162 0.972015 0.000000
0.552514 0.970245 0.000000
0.592920 0.967987 0.000000
0.632776 0.965454 0.000000
0.672084 0.962890 0.060822
0.706783 0.960937 0.090425
0.737972 0.959625 0.112184
0.769192 0.958404 0.132296
0.800443 0.957214 0.151217
0.831479 0.955810 0.168093
0.862211 0.954345 0.184329
0.892485 0.952667 0.199924
0.922393 0.950896 0.214817
0.951904 0.949035 0.229191
0.981018 0.947143 0.243565
1.000000 0.945342 0.258152
1.000000 0.943511 0.293339
1.000000 0.937774 0.315007
1.000000 0.930114 0.300877
0.000000 1.000000 0.000000
0.000000 1.000000 0.000000
0.000000 1.000000 0.000000
0.000000 1.000000 0.000000
0.058717 1.000000 0.000000
0.141024 1.000000 0.000000
0.196933 1.000000 0.000000
0.246311 1.000000 0.000000
0.292943 1.000000 0.000000
0.337713 1.000000 0.000000
0.381262 1.000000 0.000000
0.423957 1.000000 0.000000
0.465797 0.999023 0.000000
0.506889 0.997314 0.000000
