cubelut/NW-10.cube
# Created by Adobe Lightroom plugin Export LUT (1.18.0)
# www.johnrellis.com/lightroom/exportlut.htm
# Preset: NW1
# Color profile: /Library/Application Support/Adobe/Color/Profiles/Recommended/AdobeRGB1998.icc
LUT_3D_SIZE 8
DOMAIN_MIN 0.000000 0.000000 0.000000
DOMAIN_MAX 0.903226 0.903226 0.903226
0.000000 0.000000 0.000000
0.160098 0.091737 0.091707
0.389899 0.113893 0.115816
0.662074 0.164858 0.179507
0.872313 0.264256 0.287266
0.973846 0.393622 0.426032
1.000000 0.518639 0.563561
1.000000 0.637018 0.689754
0.093080 0.144350 0.090608
0.149111 0.145296 0.090852
0.342779 0.190036 0.120333
0.609400 0.240909 0.180850
0.840879 0.308537 0.280034
0.955108 0.399817 0.403540
1.000000 0.512993 0.543053
1.000000 0.632074 0.677790
0.140719 0.305333 0.121859
0.196445 0.300328 0.122805
0.307012 0.288823 0.126009
0.561303 0.368017 0.202304
0.802121 0.429755 0.300725
0.937713 0.488533 0.423102
1.000000 0.582910 0.577356
1.000000 0.676081 0.701625
0.243229 0.512902 0.200656
0.287236 0.507225 0.199832
0.402258 0.498299 0.201450
0.560296 0.503990 0.212711
0.787747 0.563470 0.316869
0.915160 0.601373 0.463233
0.983917 0.651484 0.592859
1.000000 0.714473 0.706538
0.352209 0.694026 0.297063
0.383062 0.689723 0.295323
0.476539 0.681086 0.295354
0.606867 0.674800 0.302037
0.736233 0.658595 0.305119
0.881315 0.678614 0.412146
0.961669 0.709438 0.574395
1.000000 0.759823 0.710536
0.470558 0.821225 0.421820
0.500114 0.826505 0.432929
0.560327 0.819821 0.431281
0.651514 0.810086 0.431189
0.754330 0.796078 0.430457
0.860105 0.783902 0.436316
0.950286 0.787076 0.552972
0.992035 0.809537 0.703120
0.607813 0.905760 0.576989
0.620172 0.905516 0.579614
0.650141 0.900481 0.574517
0.704463 0.893797 0.572442
0.772335 0.884154 0.568536
0.850278 0.875486 0.572534
0.928496 0.867918 0.581994
0.984039 0.863249 0.674861
0.729122 0.955261 0.714107
0.733394 0.954559 0.713466
0.750484 0.952697 0.713405
0.782925 0.950408 0.717586
0.811704 0.942046 0.700313
0.863890 0.938476 0.708858
0.919677 0.936126 0.724056
0.972930 0.933745 0.738033
0.086915 0.086152 0.117647
0.131136 0.092470 0.119631
0.254948 0.141421 0.159762
0.508598 0.211032 0.236393
0.786404 0.291203 0.330877
0.929992 0.395544 0.440467
0.996063 0.516716 0.569207
1.000000 0.634699 0.691890
0.093935 0.118227 0.111299
0.123720 0.122225 0.120424
0.236912 0.170901 0.161410
0.488533 0.245426 0.234653
0.766476 0.322179 0.325628
0.917540 0.408789 0.430671
0.989532 0.514672 0.553857
1.000000 0.628138 0.678584
0.147982 0.234867 0.156771
0.177737 0.225589 0.160922
0.239963 0.229526 0.164065
0.462898 0.325383 0.240177
0.727108 0.407965 0.327276
0.899351 0.479042 0.437049
0.981933 0.567285 0.569451
1.000000 0.665553 0.695277
0.238437 0.431800 0.230381
0.271489 0.427131 0.233402
0.355383 0.427466 0.235142
0.467048 0.425696 0.237400
0.698878 0.504753 0.321447
0.869322 0.567041 0.447669
0.964538 0.629114 0.575586
1.000000 0.702113 0.697536
0.356329 0.650416 0.327245
0.380133 0.644770 0.324254
0.456886 0.634974 0.320714
0.565881 0.624292 0.319738
0.682216 0.609583 0.318181
0.848814 0.652522 0.419013
0.947295 0.698299 0.576135
0.993774 0.753506 0.709163
0.469947 0.795163 0.435981
0.488075 0.793942 0.436103
0.545342 0.788754 0.435309
0.635035 0.782864 0.438727
0.737636 0.774350 0.442573
0.844877 0.768093 0.453346
0.940459 0.779446 0.565270
0.986542 0.805234 0.706203
0.600183 0.890990 0.576257
0.606806 0.888792 0.572595
0.639216 0.885039 0.570520
0.697108 0.880827 0.574060
0.766812 0.873716 0.575525
0.842893 0.865385 0.577325
0.919493 0.856962 0.581353
0.978027 0.854856 0.669978
0.726986 0.949340 0.715602
0.732784 0.949096 0.716609
0.750301 0.947570 0.717433
0.782803 0.945739 0.722377
0.822080 0.942077 0.724269
0.867521 0.937346 0.725551
0.918334 0.933349 0.731502
0.970123 0.930022 0.739681
0.106996 0.104860 0.246647
0.160311 0.112520 0.221012
0.244877 0.149111 0.213993
0.435920 0.227176 0.296483
0.697414 0.333959 0.417029
0.878477 0.461799 0.542351
0.968322 0.588067 0.663752
1.000000 0.693050 0.760952
0.129213 0.142519 0.170718
0.152193 0.149264 0.167453
0.218082 0.179019 0.199710
0.393713 0.253941 0.287541
0.669642 0.349004 0.405097
0.865934 0.464118 0.529015
0.963378 0.584100 0.651362
1.000000 0.690791 0.754452
0.156832 0.207370 0.191684
0.186221 0.206607 0.197421
0.236362 0.228397 0.224735
0.384222 0.304692 0.296361
0.647395 0.409461 0.407599
0.852079 0.509941 0.528710
0.955352 0.611841 0.650385
1.000000 0.705928 0.752956
0.247684 0.387213 0.287022
0.276616 0.369360 0.289799
0.327245 0.362463 0.294865
0.398260 0.368658 0.299840
0.626368 0.475532 0.401770
0.829129 0.573938 0.529808
0.942596 0.659236 0.653254
0.992859 0.735500 0.754788
0.360815 0.584283 0.385840
0.385046 0.573602 0.388525
0.445319 0.565606 0.391943
0.529442 0.565606 0.394842
0.626703 0.561730 0.395483
0.808011 0.635065 0.500511
0.924498 0.706905 0.642939
0.981598 0.770748 0.754238
0.492378 0.752865 0.499336
0.509697 0.750332 0.501549
0.556329 0.743038 0.502556
0.625208 0.737972 0.501579
0.711086 0.732692 0.502434
0.807675 0.731319 0.510643
0.917540 0.768399 0.620356
0.974884 0.813535 0.750820
0.636225 0.871305 0.636530
0.642786 0.869383 0.634821
0.665614 0.864714 0.629938
0.709255 0.860075 0.627253
0.767544 0.854215 0.625483
0.836515 0.849638 0.629206
0.908904 0.847318 0.639368
0.969482 0.859098 0.727047
0.752285 0.938567 0.753536
0.753445 0.938109 0.750729
0.766567 0.936492 0.749325
0.797848 0.936370 0.757259
0.831052 0.933471 0.757351
0.872160 0.930571 0.759915
0.918486 0.928649 0.766415
0.966247 0.927886 0.776028
0.161471 0.156832 0.402502
0.214908 0.165866 0.380011
0.286442 0.182193 0.324834
0.421607 0.229068 0.363043
0.657954 0.329931 0.477455
0.828489 0.469215 0.593042
0.929778 0.617517 0.716487
0.984985 0.726955 0.806638
0.191470 0.203983 0.304662
0.213718 0.205570 0.299504
0.263035 0.210910 0.285924
0.399420 0.260960 0.350225
0.629999 0.356359 0.468971
0.809689 0.483131 0.589319
0.925536 0.617548 0.710475
0.984039 0.726375 0.803220
0.198795 0.238041 0.267002
0.220554 0.238437 0.261540
0.310338 0.296025 0.315831
0.390845 0.333379 0.363958
0.582910 0.418616 0.469703
0.795743 0.532067 0.599939
0.925444 0.657649 0.727779
0.982544 0.747341 0.810330
0.253941 0.352819 0.329656
0.277104 0.344366 0.326574
0.360388 0.365515 0.366705
0.408392 0.380346 0.386053
0.558434 0.457008 0.463813
0.768338 0.566705 0.586664
0.910185 0.675105 0.711391
0.975830 0.762814 0.804746
0.366918 0.556390 0.448341
0.388037 0.538689 0.443977
0.451637 0.512139 0.456275
0.508751 0.516258 0.464393
0.574914 0.519371 0.467689
0.759487 0.618250 0.580285
0.896849 0.716548 0.710658
0.967102 0.789212 0.802213
0.509636 0.729854 0.563165
0.538231 0.725582 0.575219
0.581079 0.701045 0.580346
0.630671 0.696803 0.580896
0.694575 0.696132 0.581994
0.769894 0.696620 0.584833
0.891295 0.760586 0.690822
0.960143 0.822385 0.799344
0.656336 0.849271 0.684474
0.671107 0.844266 0.691279
0.699489 0.838071 0.698512
0.732723 0.837644 0.698299
0.777371 0.834684 0.696986
0.831540 0.831937 0.696895
0.891844 0.830838 0.700404
0.956481 0.858183 0.779232
0.784482 0.925689 0.799374
0.792874 0.923491 0.804349
0.800900 0.923247 0.802731
0.815946 0.924010 0.799313
0.842435 0.922179 0.798611
0.876799 0.920897 0.800198
0.917296 0.921141 0.806149
0.960296 0.923430 0.816312
0.233188 0.222141 0.583551
0.280919 0.228122 0.568811
0.374334 0.241672 0.524010
0.449104 0.256382 0.472206
0.639734 0.330266 0.553063
0.815702 0.464454 0.649592
0.919280 0.617731 0.750668
0.971832 0.746609 0.838804
0.257450 0.267948 0.498543
0.287724 0.271061 0.494362
0.357427 0.275669 0.472511
0.425757 0.283055 0.443214
0.615106 0.354986 0.536156
0.802121 0.482979 0.646113
0.913085 0.629419 0.752529
0.968902 0.752926 0.840665
0.273136 0.309606 0.409216
0.298314 0.314458 0.402869
0.350317 0.328801 0.404852
0.404700 0.342473 0.411536
0.565362 0.412329 0.508629
0.756863 0.522820 0.631495
0.891173 0.655482 0.752560
0.958862 0.767300 0.842832
0.286259 0.361486 0.397955
0.305211 0.356970 0.390448
0.376593 0.377111 0.408026
0.550896 0.505303 0.551385
0.593622 0.514855 0.566430
0.732509 0.579522 0.643000
0.877806 0.685634 0.754452
0.958618 0.778073 0.839353
0.361547 0.504509 0.482185
0.382696 0.497169 0.479225
0.446632 0.489754 0.487312
0.561730 0.534997 0.561822
0.580102 0.527672 0.551629
0.715511 0.604639 0.632044
0.867399 0.709102 0.744839
0.952789 0.795224 0.833280
0.489113 0.686122 0.594507
0.506432 0.676875 0.593652
0.553338 0.650752 0.594018
0.616938 0.639857 0.615473
0.657374 0.642420 0.615076
0.722957 0.654139 0.627375
0.862638 0.747372 0.738918
0.945373 0.825467 0.834897
0.647211 0.831632 0.712123
0.658137 0.825681 0.713710
0.692561 0.809476 0.721920
0.735073 0.797391 0.735592
0.767605 0.802304 0.734218
0.813870 0.803067 0.735653
0.866697 0.804532 0.738094
0.941344 0.850736 0.815091
0.772244 0.916167 0.807889
0.779110 0.913603 0.810575
0.800748 0.906096 0.819669
0.832425 0.903624 0.835782
0.846738 0.907652 0.829984
0.875731 0.907500 0.830686
0.911437 0.909209 0.834989
0.950896 0.913329 0.843259
0.336370 0.307836 0.763546
0.373480 0.312322 0.756008
0.466468 0.323125 0.731197
0.578241 0.346166 0.706783
0.644678 0.348730 0.649989
0.806332 0.465614 0.717250
0.913512 0.617182 0.791745
0.969207 0.745968 0.860349
0.348486 0.343511 0.708278
0.376349 0.344793 0.702388
0.456214 0.352270 0.688014
0.553155 0.365576 0.667445
0.616876 0.365087 0.620722
0.789731 0.477333 0.704677
0.906371 0.624079 0.788479
0.966125 0.750057 0.860014
0.383734 0.409369 0.618463
0.401984 0.410132 0.611444
0.451728 0.413062 0.605524
0.524956 0.423774 0.602502
0.579553 0.422889 0.579767
0.758297 0.527092 0.688258
0.889464 0.657404 0.788449
0.958068 0.770260 0.864103
0.379217 0.453773 0.579309
0.395331 0.448341 0.565576
0.449012 0.449226 0.544915
0.547906 0.499336 0.585077
0.605737 0.522118 0.604456
0.744625 0.601709 0.698695
0.872435 0.706111 0.797757
0.948089 0.800168 0.872374
0.387762 0.507225 0.555627
0.405188 0.501976 0.549218
0.461280 0.497627 0.543420
0.570825 0.541863 0.593378
0.728450 0.667445 0.728389
0.749172 0.663722 0.726711
0.852750 0.731472 0.795987
0.938354 0.813809 0.869627
0.491646 0.659571 0.643946
0.511528 0.656245 0.644617
0.560662 0.642023 0.642573
0.632898 0.641413 0.662043
0.717220 0.674403 0.716426
0.737362 0.672786 0.713130
0.845731 0.750973 0.790066
0.936187 0.831479 0.866178
0.649653 0.816495 0.752804
0.662806 0.813199 0.755001
0.695033 0.799893 0.757595
0.739406 0.785916 0.766995
0.785367 0.781857 0.786160
0.809751 0.785031 0.783261
0.848814 0.787961 0.784939
0.931121 0.853758 0.858885
0.770260 0.908659 0.830533
0.776272 0.906279 0.831846
0.796170 0.899321 0.837125
0.827176 0.891875 0.848569
0.858793 0.885405 0.862364
0.875212 0.892576 0.859617
0.906310 0.896788 0.864591
0.941375 0.903532 0.872496
0.457038 0.406592 0.880278
0.484810 0.413123 0.878752
0.558343 0.426429 0.869169
0.655787 0.448341 0.855619
0.746853 0.468940 0.835721
0.808286 0.464485 0.798154
0.903899 0.602075 0.830625
0.963622 0.731655 0.878599
0.467475 0.434485 0.857237
0.491432 0.439033 0.856260
0.556878 0.447913 0.848264
0.645106 0.462226 0.835233
0.731899 0.477821 0.817197
0.789456 0.468849 0.779538
0.893828 0.600275 0.821164
0.959289 0.728695 0.873960
0.507897 0.507256 0.808927
0.522484 0.507988 0.807309
0.568200 0.510369 0.800992
0.637476 0.517754 0.792966
0.712428 0.528466 0.782956
0.763149 0.518120 0.754208
0.880308 0.638911 0.817411
0.953307 0.756771 0.879149
0.497230 0.547906 0.765347
0.513634 0.547723 0.757839
0.568780 0.556023 0.741451
0.630396 0.569207 0.741207
0.694697 0.583764 0.745480
0.743069 0.584802 0.736843
0.864012 0.687648 0.815854
0.944121 0.787869 0.883543
0.490364 0.601221 0.738430
0.502251 0.595880 0.729702
0.541863 0.584375 0.707362
0.602075 0.584222 0.691707
0.692348 0.629328 0.723415
0.739925 0.647791 0.737972
0.844846 0.724300 0.812100
0.932525 0.815488 0.886290
0.502586 0.667109 0.723110
0.516014 0.661921 0.718166
0.557275 0.647913 0.704982
0.620630 0.641444 0.700832
0.710201 0.670710 0.733272
0.827298 0.770077 0.827451
0.857359 0.787320 0.844175
0.924743 0.845579 0.894591
0.632166 0.798703 0.787778
0.644434 0.795926 0.787808
0.678553 0.785763 0.786587
0.724300 0.773861 0.788052
0.776913 0.770321 0.800504
0.838499 0.795499 0.839078
0.850431 0.794125 0.836576
0.922179 0.857542 0.890623
0.759518 0.897276 0.851316
0.766110 0.895476 0.852232
0.789914 0.891325 0.857603
0.820096 0.884428 0.864164
0.852964 0.877928 0.873594
0.886473 0.877867 0.889403
0.904082 0.885405 0.892027
0.932280 0.894652 0.899718
0.593194 0.525658 0.949310
0.609461 0.530449 0.948455
0.654444 0.539849 0.943755
0.723964 0.559625 0.937530
0.798947 0.584588 0.929442
0.863828 0.599847 0.917693
0.919219 0.613306 0.902953
0.961425 0.723354 0.907561
0.605829 0.548089 0.941619
0.620478 0.552087 0.940917
0.661738 0.559594 0.936919
0.725185 0.574456 0.930816
0.796567 0.595666 0.923400
0.859495 0.608301 0.912291
0.913603 0.617945 0.897856
0.958648 0.726741 0.905821
0.640131 0.607538 0.921386
0.650477 0.609247 0.920684
0.679988 0.610773 0.916838
0.736080 0.624475 0.914092
0.795285 0.636316 0.908141
0.850523 0.642695 0.898955
0.900572 0.646967 0.887144
0.952239 0.748409 0.904814
0.642451 0.648768 0.900237
0.660212 0.655177 0.897368
0.697078 0.664546 0.890166
0.738705 0.670619 0.888182
0.789425 0.679866 0.885924
0.840696 0.689570 0.882872
0.883818 0.688960 0.874418
0.943969 0.780575 0.905089
0.610254 0.681147 0.881712
0.623133 0.681971 0.879301
0.654871 0.679622 0.868650
0.716060 0.692012 0.861509
0.774533 0.708919 0.858274
0.826017 0.724910 0.863279
0.864805 0.728817 0.860594
0.932647 0.808835 0.902861
0.616388 0.746365 0.871244
0.625086 0.743679 0.868009
0.653559 0.736049 0.858244
0.696193 0.726619 0.844846
0.746822 0.722744 0.832303
0.823575 0.763363 0.851377
0.863767 0.784482 0.864073
0.924498 0.841611 0.905699
0.650202 0.824918 0.870787
0.658106 0.821805 0.868589
0.683711 0.811765 0.861570
0.723140 0.797543 0.851835
0.770199 0.784573 0.843229
0.824613 0.790097 0.848997
0.891295 0.845060 0.892241
0.924620 0.875334 0.916930
0.750057 0.900053 0.887419
0.755612 0.898070 0.887022
0.775601 0.892241 0.886625
0.807736 0.884245 0.887572
0.844083 0.876310 0.890532
0.878996 0.872923 0.897581
0.915312 0.886412 0.917327
0.934020 0.900542 0.929839
