cubelut/NW-2.cube
# Created by Adobe Lightroom plugin Export LUT (1.18.0)
# www.johnrellis.com/lightroom/exportlut.htm
# Preset: NW2
# Color profile: /Library/Application Support/Adobe/Color/Profiles/Recommended/AdobeRGB1998.icc
LUT_3D_SIZE 32
DOMAIN_MIN 0.0 0.0 0.0
DOMAIN_MAX 1.0 1.0 1.0
0.073213 0.124788 0.178378
0.082246 0.125368 0.178531
0.093141 0.126192 0.178592
0.114015 0.127840 0.178958
0.138949 0.129641 0.179141
0.165438 0.131624 0.179660
0.194461 0.133120 0.180392
0.226352 0.134249 0.181003
0.261509 0.134737 0.181796
0.300084 0.134463 0.182376
0.342687 0.133089 0.182742
0.388220 0.130983 0.182956
0.435462 0.129366 0.182498
0.483711 0.128145 0.182284
0.531121 0.129641 0.181735
0.577417 0.134005 0.181064
0.621302 0.142367 0.180026
0.662531 0.155001 0.179049
0.699825 0.170718 0.178286
0.737331 0.189700 0.177798
0.771572 0.210483 0.177127
0.803220 0.231693 0.177005
0.832425 0.253239 0.176883
0.859617 0.274968 0.177615
0.884916 0.296300 0.178470
0.908843 0.317540 0.179812
0.931609 0.338415 0.181918
0.953368 0.359136 0.184573
0.974273 0.379553 0.188602
0.994507 0.399664 0.193606
1.000000 0.419654 0.199985
1.000000 0.439460 0.207492
0.073671 0.129061 0.179110
0.080598 0.130037 0.178653
0.093172 0.130678 0.178470
0.113863 0.131716 0.178866
0.138582 0.133486 0.179171
0.164858 0.135103 0.179721
0.194003 0.136355 0.180453
0.225498 0.137606 0.181186
0.260410 0.138186 0.181888
0.299168 0.137758 0.182345
0.341405 0.136843 0.182712
0.386755 0.135042 0.182956
0.433845 0.133883 0.182712
0.481910 0.133181 0.182376
0.529564 0.134432 0.181765
0.575677 0.138735 0.181094
0.619562 0.147219 0.180301
0.660792 0.159365 0.179202
0.698451 0.174655 0.178378
0.735653 0.192935 0.177768
0.769802 0.212924 0.177157
0.801480 0.233738 0.176822
0.830747 0.255009 0.176699
0.858000 0.276341 0.177066
0.883482 0.297398 0.177981
0.907530 0.318517 0.179385
0.930419 0.339269 0.181277
0.952300 0.360113 0.184115
0.973388 0.380285 0.187961
0.993713 0.400366 0.192844
1.000000 0.420233 0.199252
1.000000 0.439948 0.207004
0.074739 0.134981 0.180117
0.079896 0.135653 0.179904
0.090333 0.137270 0.178958
0.113405 0.138216 0.178836
0.138033 0.138308 0.179263
0.164431 0.139681 0.179843
0.193149 0.140688 0.180453
0.224643 0.141909 0.181308
0.259556 0.142550 0.181765
0.297978 0.142458 0.182467
0.340185 0.141878 0.182834
0.385443 0.140810 0.182803
0.432502 0.139651 0.182712
0.480537 0.139498 0.182498
0.528008 0.140902 0.181979
0.574334 0.145418 0.181064
0.618158 0.153506 0.180270
0.659510 0.165255 0.179080
0.697505 0.179965 0.178439
0.734432 0.197787 0.177493
0.768582 0.217319 0.177005
0.800320 0.237278 0.176699
0.829679 0.258274 0.176455
0.856992 0.279149 0.177096
0.882536 0.300023 0.177737
0.906706 0.320714 0.179080
0.929656 0.341466 0.181033
0.951629 0.361913 0.184146
0.972808 0.381903 0.187503
0.993225 0.401923 0.192416
1.000000 0.421607 0.198642
1.000000 0.441169 0.206302
0.076143 0.147494 0.182193
0.081025 0.147799 0.181765
0.088380 0.148470 0.181888
0.108186 0.151644 0.179660
0.137087 0.152132 0.179019
0.163485 0.149508 0.179843
0.191958 0.150027 0.180636
0.223484 0.150912 0.181399
0.257847 0.151705 0.182101
0.296361 0.151858 0.182803
0.338384 0.151827 0.182895
0.383307 0.151614 0.183200
0.430243 0.151431 0.182956
0.478065 0.152071 0.182620
0.525719 0.154055 0.182071
0.571893 0.158724 0.181369
0.615900 0.166629 0.180209
0.657343 0.177646 0.179232
0.695705 0.191592 0.178195
0.732326 0.208225 0.177401
0.766415 0.226200 0.176730
0.798123 0.245609 0.176577
0.827665 0.265415 0.176486
0.855283 0.285832 0.176822
0.881224 0.306188 0.177249
0.905699 0.326635 0.178744
0.928923 0.346777 0.180606
0.951080 0.367071 0.183536
0.972320 0.386633 0.187167
0.992798 0.406073 0.191989
1.000000 0.425452 0.198245
1.000000 0.444556 0.205600
0.079408 0.162112 0.185183
0.082704 0.162325 0.184543
0.089174 0.162722 0.184939
0.102144 0.164401 0.184176
0.127932 0.168765 0.181247
0.161318 0.170169 0.179385
0.189822 0.166567 0.180606
0.220920 0.164187 0.181735
0.255619 0.164950 0.182467
0.293431 0.165866 0.183139
0.335149 0.166537 0.183352
0.379889 0.167361 0.183383
0.426795 0.168276 0.183230
0.474678 0.169619 0.182986
0.522271 0.172457 0.182254
0.568750 0.177096 0.181399
0.612970 0.184878 0.180179
0.654719 0.195346 0.178988
0.693935 0.208286 0.177951
0.730373 0.223850 0.177157
0.764370 0.240574 0.176394
0.796139 0.258671 0.175875
0.825772 0.277287 0.175784
0.853544 0.296818 0.176089
0.879667 0.316075 0.176913
0.904356 0.335637 0.178073
0.927764 0.355108 0.180148
0.950011 0.374487 0.182895
0.971374 0.393591 0.186526
0.991913 0.412482 0.191409
1.000000 0.431128 0.197543
1.000000 0.449897 0.205234
0.082643 0.178042 0.188693
0.084260 0.178378 0.187503
0.090120 0.178500 0.187564
0.101076 0.178958 0.187961
0.119173 0.182528 0.186404
0.148989 0.187991 0.182864
0.187106 0.191562 0.180209
0.218662 0.187839 0.181491
0.252873 0.184054 0.182620
0.290684 0.183047 0.183352
0.332097 0.184512 0.183658
0.376532 0.186282 0.183780
0.423194 0.188144 0.183688
0.470863 0.190494 0.183017
0.518578 0.193942 0.182376
0.565179 0.199435 0.181399
0.609674 0.206912 0.180117
0.651789 0.216861 0.178836
0.691615 0.229282 0.177768
0.728237 0.243442 0.176577
0.762387 0.258915 0.175906
0.794430 0.275517 0.175326
0.832883 0.300023 0.175662
0.860258 0.318120 0.176211
0.885679 0.336522 0.177157
0.909697 0.354437 0.178683
0.932464 0.372534 0.181003
0.954101 0.390417 0.184024
0.974945 0.408179 0.187930
0.995026 0.425849 0.193057
1.000000 0.443519 0.199344
1.000000 0.461158 0.207553
0.085054 0.196750 0.192111
0.085634 0.197238 0.190616
0.090425 0.197421 0.190555
0.101381 0.197818 0.190829
0.116304 0.198459 0.191257
0.139284 0.204318 0.188449
0.173037 0.210880 0.184604
0.216617 0.217166 0.180972
0.251560 0.213687 0.182101
0.289738 0.210452 0.183200
0.330999 0.207004 0.183963
0.375463 0.208560 0.184085
0.422034 0.211368 0.183780
0.469764 0.214603 0.183230
0.517327 0.218784 0.182162
0.563592 0.224277 0.181155
0.607874 0.232059 0.179873
0.651392 0.241947 0.178195
0.691310 0.254002 0.176944
0.728420 0.267399 0.176089
0.763272 0.282231 0.175174
0.796139 0.298405 0.174533
0.826810 0.315404 0.174350
0.855558 0.332738 0.174777
0.882231 0.350378 0.175753
0.906981 0.367834 0.177462
0.930114 0.385107 0.179660
0.952117 0.402014 0.182620
0.973205 0.418921 0.186557
0.993439 0.435859 0.191958
1.000000 0.452674 0.198154
1.000000 0.469581 0.205631
0.086946 0.217350 0.195651
0.087556 0.217655 0.194217
0.091035 0.217990 0.193698
0.101137 0.218204 0.193912
0.115816 0.218906 0.194308
0.134524 0.221439 0.193668
0.161624 0.228305 0.190463
0.198398 0.235843 0.186496
0.247410 0.245029 0.181491
0.285801 0.242496 0.182467
0.326879 0.240116 0.183200
0.370855 0.237491 0.183597
0.416815 0.235111 0.183902
0.464149 0.239231 0.183108
0.511772 0.244114 0.182162
0.558099 0.249851 0.180850
0.603326 0.257786 0.179141
0.647333 0.267796 0.177523
0.687160 0.278782 0.176272
0.724239 0.291051 0.174929
0.759213 0.304631 0.174380
0.792233 0.319585 0.173495
0.823209 0.335180 0.173037
0.852110 0.351263 0.173342
0.879088 0.367468 0.174380
0.904112 0.383825 0.175875
0.927642 0.399725 0.178012
0.949920 0.415625 0.181033
0.971252 0.431617 0.184939
0.991730 0.447578 0.190005
1.000000 0.463661 0.196414
1.000000 0.479805 0.204196
0.089357 0.240696 0.199924
0.090181 0.240970 0.198703
0.091737 0.241306 0.197269
0.101778 0.241459 0.197452
0.116152 0.242008 0.197757
0.133059 0.242649 0.198276
0.155673 0.247654 0.196292
0.186557 0.255528 0.192508
0.226749 0.263920 0.188113
0.280278 0.275639 0.181888
0.322698 0.275029 0.181704
0.366522 0.273686 0.182162
0.412268 0.271672 0.182284
0.458961 0.269383 0.182193
0.506065 0.270359 0.181796
0.552850 0.276829 0.180179
0.599145 0.285130 0.178470
0.642786 0.294835 0.176669
0.682704 0.305058 0.175296
0.719966 0.316350 0.174014
0.755215 0.329076 0.172885
0.788449 0.342565 0.171878
0.819669 0.356939 0.171572
0.848814 0.371679 0.171664
0.876005 0.386816 0.172824
0.901366 0.401587 0.174197
0.925139 0.416571 0.176333
0.947723 0.431281 0.179355
0.969268 0.446204 0.183108
0.990021 0.461158 0.188174
1.000000 0.476387 0.194491
1.000000 0.491615 0.202335
0.091646 0.266392 0.204257
0.092348 0.266697 0.203159
0.093172 0.266880 0.201358
0.102205 0.267247 0.201236
0.116579 0.267552 0.201541
0.133486 0.268132 0.201846
0.153140 0.268925 0.202365
0.179965 0.276829 0.198734
0.214786 0.285466 0.194247
0.257847 0.294835 0.188998
0.315190 0.308873 0.181369
0.361181 0.310185 0.179934
0.407111 0.309728 0.179904
0.453742 0.308751 0.179843
0.501061 0.307774 0.179355
0.548486 0.306920 0.178866
0.594476 0.313176 0.177279
0.638178 0.322667 0.175235
0.678248 0.332616 0.173617
0.715785 0.343145 0.172274
0.751095 0.354742 0.171145
0.784360 0.367071 0.170443
0.815549 0.379919 0.169863
0.844816 0.393194 0.169802
0.872190 0.406867 0.170809
0.897917 0.420478 0.171847
0.922118 0.434241 0.173983
0.945068 0.448127 0.177005
0.967071 0.462074 0.181216
0.988159 0.476234 0.185977
1.000000 0.490669 0.192477
1.000000 0.505089 0.200351
0.092958 0.294285 0.208896
0.093935 0.294652 0.207828
0.094881 0.294926 0.206271
0.101869 0.295293 0.205112
0.116365 0.295567 0.205325
0.133547 0.295995 0.205631
0.153719 0.296574 0.206119
0.176577 0.299870 0.204959
0.207401 0.308751 0.200717
0.245640 0.318578 0.195590
0.291722 0.328466 0.189273
0.350011 0.342382 0.180514
0.401465 0.347784 0.176852
0.448981 0.348608 0.176333
0.496925 0.349218 0.175692
0.543999 0.349279 0.175143
0.589044 0.349340 0.174655
0.631861 0.350256 0.173953
0.672389 0.359594 0.172091
0.710292 0.369665 0.170535
0.745968 0.380438 0.169100
0.779690 0.391791 0.168215
0.811337 0.403845 0.167544
0.840909 0.416052 0.167880
0.868711 0.428504 0.168185
0.894682 0.441016 0.169558
0.919188 0.453529 0.171572
0.942473 0.466346 0.174807
0.964721 0.479316 0.178653
0.986053 0.492470 0.183566
1.000000 0.505882 0.190005
1.000000 0.519554 0.197726
0.094148 0.324804 0.213962
0.094881 0.325048 0.212833
0.095796 0.325292 0.211307
0.100649 0.325750 0.208896
0.115816 0.325963 0.209110
0.133730 0.326238 0.209506
0.153933 0.326757 0.209812
0.175967 0.327123 0.210330
0.203067 0.333684 0.207340
0.237613 0.343511 0.202121
0.279240 0.353826 0.195987
0.328099 0.364782 0.188449
0.391852 0.382666 0.178195
0.451423 0.394171 0.171023
0.499611 0.395880 0.170169
0.546868 0.397070 0.169528
0.592004 0.397894 0.168795
0.634791 0.398444 0.168215
0.674159 0.398260 0.168368
0.711543 0.401740 0.167819
0.747005 0.411505 0.166659
0.780301 0.421759 0.165591
0.811612 0.432319 0.165225
0.840970 0.443183 0.165347
0.868589 0.454108 0.166110
0.894469 0.465339 0.167788
0.918914 0.476631 0.169955
0.942138 0.488045 0.173190
0.964294 0.499825 0.176852
0.985657 0.511864 0.182223
1.000000 0.524102 0.188663
1.000000 0.536706 0.196872
0.093935 0.358892 0.219150
0.094759 0.359075 0.217990
0.095705 0.359136 0.216129
0.097993 0.359503 0.212955
0.114046 0.359686 0.213230
0.133120 0.359655 0.213352
0.154147 0.359686 0.213596
0.176791 0.359930 0.214115
0.201053 0.360571 0.214145
0.232822 0.370428 0.209079
0.271824 0.382086 0.203159
0.317967 0.394354 0.195804
0.370428 0.406867 0.186740
0.428840 0.419135 0.175692
0.492683 0.434577 0.164858
0.539788 0.436774 0.163821
0.585046 0.438239 0.162966
0.627741 0.439246 0.162020
0.667536 0.439368 0.162112
0.705043 0.439460 0.162387
0.740383 0.439857 0.163149
0.774136 0.446357 0.162722
0.805875 0.456062 0.162509
0.835721 0.465980 0.162387
0.863767 0.476143 0.162905
0.890166 0.486427 0.164523
0.915068 0.496834 0.166506
0.938720 0.507439 0.169711
0.961303 0.518273 0.173404
0.983032 0.529534 0.178775
1.000000 0.541009 0.185306
1.000000 0.552911 0.193362
0.093202 0.392401 0.224216
0.093782 0.392523 0.222995
0.095003 0.392767 0.221530
0.097017 0.393011 0.217990
0.111360 0.393011 0.216953
0.131624 0.392798 0.217105
0.153414 0.392920 0.217319
0.177035 0.393194 0.217807
0.201968 0.393774 0.218112
0.230076 0.398352 0.216403
0.265995 0.409613 0.210361
0.308110 0.421576 0.203311
0.356451 0.433753 0.194888
0.410285 0.445899 0.184237
0.467933 0.457588 0.172000
0.532250 0.474525 0.157351
0.577478 0.476326 0.156374
0.620294 0.477760 0.155734
0.660548 0.478431 0.155215
0.698390 0.478645 0.155367
0.734279 0.478981 0.156130
0.768093 0.479438 0.157137
0.799954 0.480018 0.158846
0.830472 0.489052 0.159030
0.859037 0.498512 0.159426
0.885924 0.507958 0.160678
0.911284 0.517693 0.162692
0.935363 0.527581 0.166018
0.958404 0.537682 0.170047
0.980560 0.548119 0.175235
1.000000 0.558862 0.181674
1.000000 0.569940 0.189883
0.092012 0.427070 0.229587
0.092927 0.427253 0.228275
0.093965 0.427375 0.226780
0.096132 0.427832 0.223301
0.108125 0.428046 0.220981
0.129641 0.428229 0.221042
0.152743 0.428412 0.221408
0.177279 0.428595 0.221775
0.202945 0.428840 0.222019
0.229740 0.429358 0.222263
0.261845 0.437293 0.218265
0.300969 0.448768 0.211398
0.345495 0.460548 0.203098
0.395270 0.472328 0.193362
0.449409 0.483833 0.181460
0.505974 0.494820 0.167819
0.569574 0.512657 0.149020
0.612726 0.514214 0.147982
0.653315 0.515251 0.147646
0.691676 0.515831 0.147494
0.727901 0.516228 0.148287
0.762203 0.516625 0.149355
0.794430 0.517113 0.150881
0.825071 0.517571 0.153140
0.853971 0.520714 0.155673
0.881498 0.529686 0.156741
0.907500 0.538903 0.158755
0.932219 0.548272 0.162051
0.955810 0.557885 0.165866
0.978485 0.567803 0.171267
1.000000 0.577996 0.178073
1.000000 0.588434 0.186557
0.090608 0.464027 0.235477
0.091524 0.464210 0.234195
0.092927 0.464393 0.232670
0.095033 0.464698 0.229007
0.103517 0.465126 0.225315
0.127077 0.464973 0.225437
0.151705 0.465003 0.225528
0.177371 0.465064 0.225772
0.204044 0.465187 0.226108
0.231327 0.465126 0.226444
0.260014 0.465675 0.226322
0.296086 0.476326 0.219608
0.337316 0.487221 0.211795
0.383581 0.498390 0.202609
0.433692 0.509178 0.191562
0.487007 0.519646 0.178561
0.541527 0.529870 0.163241
0.603815 0.547845 0.141543
0.645991 0.550042 0.139010
0.684962 0.551141 0.139101
0.721889 0.551904 0.139406
0.756710 0.552483 0.140566
0.789517 0.553124 0.142092
0.820493 0.553582 0.144778
0.849790 0.554253 0.147433
0.877592 0.555016 0.151553
0.904021 0.560662 0.154452
0.929229 0.569482 0.157412
0.953246 0.578515 0.161776
0.976226 0.587793 0.167483
0.998291 0.597253 0.174289
1.000000 0.606928 0.182834
0.090272 0.499855 0.241367
0.091218 0.499886 0.240330
0.092470 0.499977 0.238682
0.094881 0.500237 0.235233
0.098970 0.500481 0.229648
0.124453 0.500389 0.229740
0.150698 0.500084 0.229984
0.177066 0.499825 0.230045
0.204440 0.499672 0.230289
0.232334 0.499458 0.230655
0.261112 0.499184 0.230869
0.292515 0.503014 0.228305
0.331365 0.513359 0.220890
0.374304 0.523827 0.212284
0.421241 0.534051 0.201938
0.471260 0.544060 0.189944
0.523217 0.553826 0.175967
0.575982 0.563500 0.158999
0.636774 0.581537 0.134463
0.677760 0.584344 0.129580
0.715023 0.585382 0.129763
0.750301 0.586114 0.130587
0.783627 0.586725 0.132357
0.815122 0.587366 0.135134
0.844938 0.587976 0.138094
0.873167 0.588708 0.142153
0.900023 0.589654 0.146334
0.925628 0.590875 0.152285
0.950164 0.598840 0.156863
0.973632 0.607568 0.162081
0.996155 0.616571 0.169619
1.000000 0.625757 0.178500
0.091646 0.534874 0.248051
0.092409 0.535027 0.246616
0.094667 0.540429 0.246525
0.097200 0.540520 0.242771
0.100862 0.540795 0.236881
0.123629 0.540398 0.235416
0.151064 0.540002 0.235569
0.179080 0.539330 0.235660
0.207431 0.538811 0.235874
0.236362 0.538293 0.236088
0.265507 0.537621 0.236362
0.295048 0.536828 0.236454
0.330297 0.543450 0.230930
0.371069 0.553124 0.222782
0.415412 0.562646 0.212955
0.462684 0.572045 0.201328
0.512047 0.581353 0.188327
0.562249 0.590295 0.173068
0.612421 0.599054 0.154635
0.671077 0.616358 0.127199
0.710628 0.619257 0.118685
0.746090 0.620111 0.119326
0.779690 0.620722 0.121065
0.811307 0.621118 0.124269
0.841184 0.621515 0.127504
0.869474 0.621881 0.131746
0.896391 0.622461 0.136873
0.922179 0.623285 0.142306
0.946960 0.624414 0.149386
0.970886 0.627375 0.156588
0.993835 0.635859 0.164126
1.000000 0.644556 0.173251
0.095216 0.570764 0.255436
0.096834 0.571527 0.254765
0.097871 0.572259 0.253117
0.100343 0.573175 0.249668
0.104463 0.573785 0.244053
0.121920 0.573877 0.240635
0.151186 0.573297 0.240635
0.179843 0.572778 0.240787
0.208682 0.572229 0.241184
0.237949 0.571588 0.241245
0.267613 0.570733 0.241367
0.297429 0.569909 0.241459
0.328130 0.569512 0.241215
0.366491 0.578485 0.232944
0.408545 0.587549 0.223972
0.453254 0.596399 0.213230
0.499977 0.605066 0.200992
0.547723 0.613428 0.186679
0.595789 0.621668 0.170382
0.643763 0.629755 0.151034
0.700649 0.646876 0.120516
0.739406 0.650294 0.106691
0.773556 0.651240 0.108797
0.805722 0.652003 0.111025
0.836118 0.652522 0.114717
0.864927 0.653010 0.119387
0.892332 0.653590 0.125338
0.918547 0.654322 0.131289
0.943725 0.655329 0.139162
0.967987 0.656672 0.147005
0.991455 0.658350 0.156985
1.000000 0.663600 0.167391
0.101015 0.604547 0.263615
0.102235 0.605280 0.262425
0.103334 0.606043 0.260960
0.106325 0.606683 0.257847
0.110018 0.607324 0.252201
0.121981 0.607568 0.246555
0.151705 0.607080 0.246616
0.181094 0.606500 0.246708
0.210666 0.605890 0.246921
0.240696 0.605066 0.246891
0.270848 0.604334 0.247166
0.301030 0.603418 0.247349
0.331487 0.602197 0.247471
0.364782 0.604852 0.244358
0.404547 0.613123 0.235508
0.446815 0.621241 0.225406
0.491127 0.629206 0.213901
0.536553 0.636957 0.201083
0.582391 0.644678 0.186099
0.628504 0.652247 0.168643
0.674434 0.659785 0.147738
0.728511 0.675593 0.114961
0.767483 0.680598 0.093599
0.800229 0.681514 0.096803
0.831083 0.682277 0.100832
0.860349 0.682856 0.105806
0.888182 0.683497 0.111666
0.914794 0.684169 0.118990
0.940307 0.685145 0.126955
0.964935 0.686244 0.136202
0.988739 0.687709 0.146120
1.000000 0.689448 0.158145
0.109285 0.637842 0.272251
0.110658 0.638514 0.271214
0.112764 0.639185 0.270146
0.115175 0.639796 0.266728
0.118685 0.640406 0.261082
0.124117 0.640742 0.253483
0.154208 0.640162 0.253422
0.184298 0.639582 0.253483
0.214572 0.638788 0.253544
0.244816 0.637995 0.253696
0.274968 0.637110 0.253635
0.305547 0.636103 0.254002
0.336095 0.634821 0.254124
0.366613 0.633387 0.254337
0.402686 0.638666 0.247990
0.442908 0.646235 0.238407
0.485206 0.653742 0.227878
0.528649 0.661280 0.215640
0.572961 0.668696 0.202060
0.617487 0.676051 0.186496
0.661982 0.683436 0.168002
0.706081 0.690639 0.145754
0.756191 0.704128 0.111818
0.796719 0.711666 0.078096
0.828183 0.712673 0.083375
0.857877 0.713558 0.089693
0.886076 0.714229 0.097047
0.912993 0.714992 0.105440
0.938842 0.715816 0.115145
0.963714 0.716793 0.125612
0.987701 0.717983 0.137209
1.000000 0.719387 0.149874
0.124392 0.672297 0.283391
0.125277 0.672633 0.282261
0.126894 0.672877 0.281193
0.128786 0.673213 0.277623
0.131930 0.673457 0.271885
0.136324 0.673610 0.264103
0.160525 0.673274 0.262119
0.190585 0.672663 0.262181
0.220615 0.671931 0.262303
0.251255 0.671138 0.262272
0.281590 0.670375 0.262486
0.312444 0.669398 0.262577
0.343145 0.668177 0.262730
0.373693 0.666712 0.262852
0.404608 0.665766 0.262333
0.442695 0.672633 0.253300
0.482765 0.679408 0.243290
0.524071 0.686305 0.231907
0.566033 0.693080 0.219394
0.608606 0.699794 0.204837
0.651209 0.706416 0.187991
0.693660 0.712947 0.168429
0.735531 0.719387 0.145235
0.781369 0.730251 0.110231
0.822965 0.739925 0.058534
0.853147 0.740963 0.067659
0.881834 0.741878 0.077180
0.909239 0.742733 0.087282
0.935485 0.743618 0.098787
0.960723 0.744564 0.110567
0.985046 0.745602 0.123476
1.000000 0.746883 0.137453
0.141726 0.703243 0.295323
0.142367 0.703487 0.294194
0.143832 0.703792 0.292882
0.145571 0.704036 0.289372
0.148531 0.704250 0.283848
0.152316 0.704433 0.276188
0.169528 0.704250 0.271855
0.198703 0.703517 0.271946
0.228458 0.702815 0.272099
0.258640 0.701961 0.272068
0.288701 0.701106 0.272251
0.319341 0.700069 0.272465
0.349828 0.698878 0.272496
0.380468 0.697475 0.272648
0.410681 0.695949 0.272587
0.443580 0.697688 0.269047
0.481575 0.703975 0.259709
0.520775 0.710353 0.249027
0.560967 0.716670 0.237369
0.601709 0.723018 0.223880
0.642664 0.729244 0.208743
0.683650 0.735439 0.191348
0.724239 0.741543 0.170871
0.764248 0.747555 0.145876
0.804990 0.754940 0.109926
0.847593 0.766567 0.029450
0.877134 0.767910 0.035554
0.904997 0.769039 0.060975
0.931670 0.770047 0.076356
0.957366 0.771054 0.091737
0.982147 0.772122 0.106752
1.000000 0.773434 0.122286
0.164431 0.734981 0.309972
0.165347 0.735256 0.309056
0.165988 0.735500 0.307439
0.167758 0.735622 0.303990
0.169986 0.735744 0.298497
0.173159 0.735805 0.290867
0.183291 0.735653 0.284306
0.211307 0.734768 0.284123
0.239902 0.733822 0.283940
0.268986 0.732815 0.284031
0.298833 0.731716 0.284215
0.328588 0.730495 0.284062
0.358648 0.729183 0.284092
0.388769 0.727718 0.284428
0.418616 0.726009 0.284367
0.448066 0.724208 0.284245
0.482277 0.728023 0.277470
0.519280 0.733669 0.267369
0.557305 0.739528 0.256138
0.596155 0.745418 0.243961
0.635584 0.751308 0.229923
0.674983 0.757107 0.214084
0.714199 0.762753 0.196017
0.752865 0.768215 0.174502
0.790677 0.773526 0.148074
0.829038 0.779934 0.111910
0.872313 0.793118 0.014374
0.901305 0.794827 0.000000
0.928313 0.795926 0.025910
0.954314 0.796994 0.065400
0.979492 0.798154 0.085573
1.000000 0.799496 0.104494
0.187442 0.763607 0.324895
0.187900 0.763912 0.323766
0.189242 0.764126 0.322698
0.190433 0.764279 0.319219
0.192660 0.764370 0.313970
0.195193 0.764462 0.306462
0.199832 0.764584 0.297642
0.225895 0.763760 0.297459
0.253361 0.762936 0.297368
0.281743 0.762081 0.297642
0.310521 0.761166 0.297795
0.339971 0.760037 0.297948
0.369543 0.758877 0.298131
0.399176 0.757534 0.298131
0.428504 0.756039 0.298314
0.457771 0.754452 0.298375
0.486915 0.753475 0.298009
0.521813 0.758724 0.288518
0.557885 0.764065 0.277928
0.594842 0.769497 0.266392
0.632349 0.774868 0.253666
0.670100 0.780270 0.239017
0.707759 0.785519 0.222354
0.745174 0.790646 0.203067
0.782010 0.795621 0.180789
0.818051 0.800443 0.152804
0.853391 0.805234 0.116182
0.897154 0.819669 0.005219
0.925689 0.821714 0.000000
0.952056 0.822904 0.000000
0.977661 0.824155 0.054871
1.000000 0.825528 0.083101
0.214237 0.792142 0.342290
0.214939 0.792325 0.341497
0.215976 0.792477 0.340276
0.217258 0.792538 0.337041
0.218784 0.792538 0.331762
0.221012 0.792630 0.324620
0.224277 0.792721 0.315862
0.244053 0.792111 0.313207
0.270024 0.791348 0.313298
0.296971 0.790463 0.313451
0.324926 0.789548 0.313573
0.353491 0.788632 0.313970
0.382147 0.787564 0.314183
0.411261 0.786343 0.314519
0.439979 0.785000 0.314672
0.468482 0.783536 0.314946
0.496620 0.782071 0.315221
0.526665 0.783322 0.311589
0.560693 0.788174 0.301610
0.595605 0.793210 0.290654
0.631220 0.798184 0.278721
0.667201 0.803159 0.265110
0.703334 0.808011 0.250187
0.739254 0.812802 0.232761
0.774838 0.817411 0.212619
0.809812 0.821897 0.188907
0.844297 0.826322 0.160311
0.877989 0.830625 0.121248
0.920958 0.845090 0.009949
0.949248 0.847471 0.000000
0.975250 0.848875 0.000000
1.000000 0.850370 0.033783
0.243748 0.819425 0.361944
0.244144 0.819608 0.360937
0.244938 0.819699 0.359808
0.246128 0.819821 0.356786
0.247807 0.819944 0.352026
0.250370 0.820188 0.345464
0.253147 0.820554 0.336645
0.267460 0.820615 0.332586
0.292210 0.820218 0.332982
0.318181 0.819852 0.333593
0.345220 0.819364 0.334264
0.372961 0.818784 0.335058
0.401099 0.818112 0.335637
0.429236 0.817258 0.336278
0.457343 0.816190 0.336858
0.484932 0.815000 0.337530
0.512291 0.813748 0.338048
0.539361 0.812528 0.338659
0.570092 0.815671 0.331579
0.602716 0.820157 0.321447
0.636225 0.824704 0.310124
0.670222 0.829221 0.297551
0.704463 0.833616 0.282994
0.738674 0.837949 0.267094
0.772763 0.842161 0.248875
0.806394 0.846220 0.228031
0.839658 0.850248 0.203555
0.872465 0.854215 0.173465
0.904723 0.858061 0.133700
0.946899 0.872435 0.046937
0.974945 0.875029 0.000000
1.000000 0.876463 0.000000
0.280583 0.848417 0.386877
0.280888 0.848508 0.385901
0.281590 0.848569 0.384863
0.282383 0.848631 0.381903
0.283665 0.848692 0.376959
0.285588 0.848844 0.370642
0.288487 0.849119 0.362829
0.296605 0.849210 0.355871
0.318975 0.848661 0.356207
0.342962 0.848051 0.356725
0.367895 0.847410 0.357244
0.393805 0.846677 0.357824
0.420264 0.845853 0.358526
0.446845 0.844938 0.359350
