cubelut/NW-2.cube
# Created by Adobe Lightroom plugin Export LUT (1.18.0)
# www.johnrellis.com/lightroom/exportlut.htm
# Preset: NW2
# Color profile: /Library/Application Support/Adobe/Color/Profiles/Recommended/AdobeRGB1998.icc
LUT_3D_SIZE 5
DOMAIN_MIN 0.000000 0.000000 0.000000
DOMAIN_MAX 0.903226 0.903226 0.903226
0.073213 0.124788 0.178378
0.226352 0.134249 0.181003
0.531121 0.129641 0.181735
0.803220 0.231693 0.177005
0.974273 0.379553 0.188602
0.086946 0.217350 0.195651
0.198398 0.235843 0.186496
0.511772 0.244114 0.182162
0.792233 0.319585 0.173495
0.971252 0.431617 0.184939
0.092012 0.427070 0.229587
0.177279 0.428595 0.221775
0.449409 0.483833 0.181460
0.762203 0.516625 0.149355
0.955810 0.557885 0.165866
0.124392 0.672297 0.283391
0.190585 0.672663 0.262181
0.404608 0.665766 0.262333
0.693660 0.712947 0.168429
0.935485 0.743618 0.098787
0.317082 0.874510 0.412573
0.328191 0.875761 0.381537
0.489174 0.868742 0.383337
0.677638 0.875242 0.365545
0.892027 0.900725 0.236454
0.083925 0.141390 0.276555
0.233036 0.147005 0.277195
0.543542 0.097963 0.264378
0.799710 0.276249 0.291051
0.969696 0.411505 0.307134
0.102724 0.236118 0.270115
0.225162 0.249760 0.277653
0.524041 0.276219 0.280705
0.790707 0.347784 0.284428
0.966003 0.454627 0.302281
0.147372 0.442512 0.301671
0.238224 0.454810 0.303319
0.464363 0.489387 0.269993
0.761593 0.513573 0.261082
0.953979 0.570459 0.283909
0.224308 0.679561 0.368536
0.275883 0.682460 0.353735
0.433845 0.675135 0.333776
0.699245 0.715328 0.268193
0.935119 0.742794 0.242832
0.398199 0.873014 0.493538
0.405402 0.874205 0.467567
0.512993 0.872343 0.443946
0.684932 0.875578 0.430732
0.893126 0.901701 0.323095
0.105074 0.174441 0.525139
0.298589 0.181918 0.527581
0.566339 0.176761 0.533043
0.814145 0.232364 0.529076
0.970184 0.424598 0.523613
0.095277 0.286870 0.517205
0.278264 0.288609 0.520806
0.557427 0.303716 0.529168
0.804562 0.354528 0.525811
0.959014 0.533257 0.563256
0.147097 0.492134 0.489693
0.275975 0.500237 0.494453
0.521263 0.523003 0.510460
0.771023 0.570245 0.529564
0.946502 0.631647 0.555596
0.278599 0.696559 0.523857
0.362310 0.698360 0.529381
0.532616 0.705013 0.537743
0.716854 0.725460 0.498512
0.930968 0.744350 0.503624
0.441047 0.875486 0.614862
0.490700 0.875151 0.620081
0.585809 0.875761 0.608545
0.701534 0.871611 0.586877
0.891966 0.901549 0.517357
0.258061 0.243168 0.773281
0.387274 0.255436 0.774746
0.631891 0.320439 0.779934
0.805661 0.377508 0.779416
0.957153 0.501396 0.784024
0.253117 0.345861 0.767941
0.380468 0.356390 0.769436
0.623896 0.409735 0.774777
0.798886 0.456825 0.775875
0.953155 0.551904 0.784939
0.203067 0.555993 0.747402
0.320592 0.558770 0.748531
0.585351 0.577813 0.758022
0.780636 0.615076 0.766903
0.944030 0.668238 0.782742
0.322332 0.729549 0.726680
0.401038 0.730373 0.727840
0.574853 0.735622 0.733822
0.748653 0.749508 0.746487
0.926879 0.788693 0.770748
0.510826 0.883268 0.769223
0.548058 0.883177 0.771176
0.643915 0.884306 0.775448
0.751858 0.886503 0.767300
0.893126 0.904295 0.731930
0.480415 0.416052 0.941039
0.542504 0.434424 0.940368
0.695338 0.500145 0.938506
0.848234 0.603418 0.936614
0.946258 0.627771 0.934447
0.486091 0.487587 0.938293
0.546044 0.501549 0.937774
0.695460 0.553429 0.936400
0.845731 0.636683 0.935332
0.944213 0.657557 0.934020
0.468879 0.632746 0.931151
0.531243 0.639429 0.931334
0.678065 0.661585 0.931731
0.834806 0.713985 0.932952
0.939727 0.735073 0.934081
0.465278 0.781003 0.920867
0.508354 0.781338 0.921080
0.620264 0.781430 0.922850
0.798734 0.797391 0.929229
0.934600 0.831327 0.935637
0.553124 0.905058 0.911833
0.582361 0.904997 0.912139
0.669459 0.905943 0.913756
0.786191 0.909850 0.917296
0.915190 0.921172 0.925566
