cubelut/NW-2.cube
# Created by Adobe Lightroom plugin Export LUT (1.18.0)
# www.johnrellis.com/lightroom/exportlut.htm
# Preset: NW2
# Color profile: /Library/Application Support/Adobe/Color/Profiles/Recommended/AdobeRGB1998.icc
LUT_3D_SIZE 8
DOMAIN_MIN 0.000000 0.000000 0.000000
DOMAIN_MAX 0.903226 0.903226 0.903226
0.073213 0.124788 0.178378
0.138949 0.129641 0.179141
0.261509 0.134737 0.181796
0.435462 0.129366 0.182498
0.621302 0.142367 0.180026
0.771572 0.210483 0.177127
0.884916 0.296300 0.178470
0.974273 0.379553 0.188602
0.079408 0.162112 0.185183
0.127932 0.168765 0.181247
0.255619 0.164950 0.182467
0.426795 0.168276 0.183230
0.612970 0.184878 0.180179
0.764370 0.240574 0.176394
0.879667 0.316075 0.176913
0.971374 0.393591 0.186526
0.089357 0.240696 0.199924
0.116152 0.242008 0.197757
0.226749 0.263920 0.188113
0.412268 0.271672 0.182284
0.599145 0.285130 0.178470
0.755215 0.329076 0.172885
0.876005 0.386816 0.172824
0.969268 0.446204 0.183108
0.093935 0.358892 0.219150
0.114046 0.359686 0.213230
0.201053 0.360571 0.214145
0.370428 0.406867 0.186740
0.585046 0.438239 0.162966
0.740383 0.439857 0.163149
0.863767 0.476143 0.162905
0.961303 0.518273 0.173404
0.090272 0.499855 0.241367
0.098970 0.500481 0.229648
0.204440 0.499672 0.230289
0.331365 0.513359 0.220890
0.523217 0.553826 0.175967
0.715023 0.585382 0.129763
0.844938 0.587976 0.138094
0.950164 0.598840 0.156863
0.109285 0.637842 0.272251
0.118685 0.640406 0.261082
0.214572 0.638788 0.253544
0.336095 0.634821 0.254124
0.485206 0.653742 0.227878
0.661982 0.683436 0.168002
0.828183 0.712673 0.083375
0.938842 0.715816 0.115145
0.187442 0.763607 0.324895
0.192660 0.764370 0.313970
0.253361 0.762936 0.297368
0.369543 0.758877 0.298131
0.486915 0.753475 0.298009
0.632349 0.774868 0.253666
0.782010 0.795621 0.180789
0.925689 0.821714 0.000000
0.317082 0.874510 0.412573
0.320195 0.874846 0.403601
0.348577 0.875334 0.382238
0.443183 0.873136 0.385748
0.540612 0.867185 0.385870
0.647639 0.871244 0.376471
0.769711 0.886809 0.324437
0.892027 0.900725 0.236454
0.079408 0.131472 0.215152
0.138338 0.134310 0.214817
0.263554 0.136477 0.209873
0.433753 0.156130 0.219760
0.618494 0.168368 0.217655
0.766415 0.226139 0.215854
0.880217 0.305943 0.217868
0.970825 0.386847 0.227146
0.082856 0.167575 0.213199
0.136172 0.173342 0.216495
0.257450 0.181765 0.218235
0.428412 0.187716 0.218814
0.613001 0.203403 0.216464
0.761654 0.254307 0.214176
0.876005 0.324956 0.215518
0.967926 0.399847 0.224613
0.108217 0.245518 0.224887
0.143618 0.252201 0.228367
0.236240 0.268498 0.218753
0.414496 0.274022 0.214572
0.598901 0.294194 0.211765
0.751614 0.335241 0.209293
0.870512 0.389960 0.210544
0.965332 0.449470 0.220951
0.127657 0.363897 0.247990
0.148562 0.367529 0.244114
0.217990 0.368841 0.238987
0.374060 0.406714 0.215305
0.579156 0.431983 0.197665
0.733577 0.435920 0.198703
0.858061 0.475441 0.199985
0.957549 0.519280 0.210819
0.146975 0.505547 0.276066
0.151522 0.505882 0.264195
0.219852 0.504997 0.253513
0.337713 0.512749 0.246006
0.523125 0.551568 0.205356
0.712337 0.581781 0.170932
0.842344 0.585107 0.179263
0.947906 0.599481 0.195651
0.164248 0.638941 0.304479
0.169497 0.639490 0.293523
0.227604 0.638941 0.275212
0.344427 0.635370 0.275120
0.487739 0.652796 0.253056
0.662898 0.683253 0.200351
0.827359 0.711360 0.142458
0.937377 0.714015 0.164248
0.224674 0.761471 0.352972
0.227970 0.761349 0.342504
0.263615 0.761227 0.316808
0.376196 0.757931 0.317235
0.490883 0.752621 0.317754
0.632441 0.773404 0.277165
0.780453 0.793729 0.211337
0.923461 0.819272 0.107759
0.340002 0.872435 0.435798
0.342992 0.873045 0.427436
0.357153 0.874479 0.398840
0.448859 0.872435 0.402167
0.547997 0.869200 0.405829
0.650752 0.871580 0.396796
0.769863 0.886320 0.345342
0.891234 0.899901 0.262394
0.083833 0.144930 0.304265
0.149172 0.148226 0.304234
0.273320 0.151369 0.304967
0.455634 0.120333 0.307103
0.637140 0.084413 0.288548
0.772824 0.274052 0.323430
0.882383 0.350866 0.330663
0.970062 0.425696 0.343206
0.091432 0.184237 0.303563
0.150454 0.186557 0.303593
0.269780 0.190249 0.304234
0.449378 0.174136 0.304509
0.628992 0.209384 0.304845
0.768215 0.296483 0.320806
0.879026 0.366064 0.327611
0.968170 0.436652 0.340398
0.109163 0.265141 0.294163
0.154513 0.270024 0.296880
0.261692 0.282292 0.303777
0.432502 0.298528 0.306828
0.614740 0.324407 0.309850
0.758877 0.366094 0.313634
0.872557 0.419684 0.321050
0.964141 0.477028 0.334264
0.141573 0.378180 0.307988
0.178988 0.383642 0.311742
0.270054 0.398718 0.317754
0.399451 0.421363 0.300359
0.592798 0.436683 0.294926
0.741970 0.457801 0.300450
0.861631 0.496498 0.309270
0.957641 0.539422 0.324010
0.165682 0.516594 0.334844
0.202182 0.520226 0.338293
0.280583 0.528923 0.336645
0.370642 0.525353 0.326207
0.541985 0.562799 0.294469
0.719417 0.584863 0.278050
0.845029 0.587030 0.290074
0.947997 0.612146 0.306981
0.210575 0.647272 0.371588
0.243442 0.648981 0.374517
0.299870 0.652155 0.363470
0.380774 0.648554 0.347204
0.504173 0.656703 0.333349
0.669947 0.686305 0.293584
0.828611 0.711025 0.263523
0.937621 0.714717 0.283970
0.290013 0.765957 0.426673
0.314977 0.765927 0.428717
0.342992 0.766354 0.407263
0.408576 0.764065 0.385565
0.512078 0.758083 0.383001
0.639948 0.774685 0.354894
0.784634 0.796262 0.304601
0.925353 0.820584 0.249729
0.405005 0.871855 0.507866
0.420142 0.871458 0.508476
0.426825 0.872801 0.482185
0.474250 0.873930 0.460487
0.564324 0.870573 0.461616
0.658839 0.870726 0.458076
0.772580 0.886503 0.414221
0.892271 0.900908 0.345464
0.087678 0.162417 0.443854
0.166873 0.165835 0.445075
0.321965 0.173892 0.446815
0.467201 0.161929 0.449134
0.652003 0.115175 0.463081
0.784543 0.185122 0.441199
0.889372 0.292424 0.429603
0.962158 0.495644 0.505455
0.099092 0.203311 0.442847
0.170199 0.205936 0.443702
0.318700 0.213260 0.445686
0.464515 0.205966 0.448219
0.648829 0.182620 0.460914
0.780850 0.235294 0.439734
0.884184 0.349798 0.442786
0.960967 0.504479 0.503288
0.079652 0.301854 0.433845
0.142977 0.303777 0.435584
0.292332 0.304662 0.439857
0.454292 0.313451 0.444068
0.636255 0.318761 0.450965
0.772274 0.358556 0.438361
0.872740 0.482582 0.484230
0.959442 0.533745 0.496284
0.129000 0.411353 0.418280
0.175601 0.414862 0.420294
0.290654 0.425818 0.426764
0.436072 0.441962 0.436988
0.608545 0.466835 0.444373
0.747890 0.498756 0.453468
0.861357 0.537591 0.465949
0.953582 0.579522 0.481514
0.193118 0.537041 0.431983
0.228122 0.539605 0.434455
0.325231 0.548363 0.442786
0.443153 0.561303 0.451545
0.568292 0.578851 0.430335
0.727413 0.590417 0.428992
0.847440 0.606500 0.442786
0.945678 0.638697 0.460700
0.241825 0.661158 0.462165
0.273899 0.663905 0.465827
0.360601 0.667079 0.472969
0.455756 0.671626 0.472358
0.537377 0.666194 0.455512
0.683955 0.695064 0.426734
0.830961 0.713344 0.415229
0.936217 0.717189 0.433875
0.318547 0.772335 0.506554
0.342473 0.772732 0.508782
0.413397 0.773495 0.515587
0.481941 0.774685 0.506126
0.551080 0.770199 0.486763
0.654475 0.778042 0.469184
0.789944 0.799771 0.430915
0.924712 0.820706 0.400946
0.429267 0.875212 0.576623
0.445533 0.875090 0.578424
0.495308 0.874205 0.583337
0.536187 0.875059 0.566155
0.591913 0.873838 0.546593
0.673671 0.870695 0.545068
0.776547 0.886320 0.513237
0.892912 0.902037 0.458930
0.137423 0.188571 0.604639
0.208530 0.191012 0.605493
0.360479 0.198001 0.607568
0.529534 0.219120 0.612024
0.652583 0.213962 0.614374
0.782803 0.246098 0.614740
0.886717 0.335454 0.605921
0.966827 0.443885 0.604395
0.143435 0.228824 0.602106
0.209354 0.231113 0.603540
0.357885 0.237613 0.605982
0.526207 0.258061 0.610864
0.649775 0.256565 0.613031
0.780911 0.286168 0.614832
0.884703 0.366308 0.606317
0.965240 0.464424 0.606287
0.111482 0.329839 0.593561
0.182834 0.329686 0.594812
0.334386 0.333867 0.598505
0.510613 0.356603 0.604761
0.639216 0.363958 0.606989
0.773068 0.389410 0.613336
0.876951 0.450782 0.606348
0.959869 0.522637 0.609705
0.104982 0.456458 0.578912
0.168124 0.458259 0.580041
0.297978 0.463050 0.583764
0.473304 0.470588 0.592218
0.622431 0.489204 0.598047
0.758938 0.513176 0.606470
0.865995 0.553185 0.605829
0.946349 0.635126 0.643397
0.181613 0.568841 0.560937
0.223880 0.570733 0.562341
0.333074 0.576226 0.566461
0.467262 0.584955 0.573510
0.597040 0.596765 0.582849
0.733669 0.620203 0.594415
0.846891 0.648402 0.607630
0.939971 0.678584 0.621576
0.283177 0.674830 0.570916
0.312108 0.675807 0.572625
0.392279 0.678401 0.577569
0.497719 0.683040 0.586358
0.595361 0.688685 0.590723
0.697902 0.703487 0.571344
0.830869 0.716732 0.574640
0.932158 0.730373 0.591638
0.358831 0.780179 0.604273
0.379767 0.780117 0.605493
0.443519 0.780362 0.610101
0.530663 0.781247 0.617731
0.605859 0.782712 0.611963
0.671931 0.778531 0.592035
0.794430 0.802823 0.565942
0.920989 0.819699 0.555352
0.457893 0.877073 0.657801
0.472145 0.876799 0.658839
0.516777 0.876097 0.662165
0.581628 0.876829 0.667231
0.633997 0.877531 0.652216
0.692561 0.875425 0.634516
0.779599 0.884794 0.617639
0.892058 0.902220 0.579248
0.232059 0.229923 0.744320
0.281437 0.232944 0.744686
0.407202 0.244236 0.745449
0.556329 0.275456 0.749386
0.692683 0.335943 0.753811
0.780423 0.341650 0.750668
0.876951 0.405066 0.749111
0.959655 0.490059 0.752773
0.234409 0.267002 0.740810
0.281346 0.269566 0.741176
0.405280 0.280156 0.742977
0.552728 0.308415 0.746548
0.690303 0.366247 0.751278
0.777615 0.369909 0.748806
0.875120 0.428321 0.749111
0.958160 0.506981 0.753017
0.214786 0.361212 0.736385
0.265202 0.364080 0.736812
0.393744 0.375036 0.738582
0.543572 0.400458 0.742061
0.682216 0.448798 0.747158
0.771054 0.454139 0.745785
0.870695 0.499916 0.751308
0.954192 0.560021 0.754665
0.169039 0.491249 0.723995
0.226596 0.491249 0.724514
0.362890 0.494392 0.727413
0.520165 0.509758 0.733730
0.667323 0.547509 0.740993
0.761715 0.558740 0.742702
0.865507 0.589136 0.754971
0.949157 0.629389 0.755337
0.217197 0.604944 0.709590
0.256077 0.606012 0.710109
0.358892 0.609186 0.712001
0.484077 0.614557 0.715633
0.629328 0.625971 0.724941
0.745480 0.645289 0.732815
0.855497 0.668421 0.746914
0.942077 0.697566 0.748257
0.289220 0.699611 0.694484
0.318914 0.700618 0.695583
0.402686 0.702663 0.697902
0.511528 0.706203 0.701686
0.618585 0.711788 0.706996
0.721828 0.721920 0.716091
0.835996 0.745327 0.731106
0.929747 0.768795 0.744533
0.400153 0.792782 0.708980
0.421149 0.793118 0.710353
0.484169 0.793210 0.714076
0.565209 0.794217 0.719661
0.644617 0.796597 0.724025
0.719142 0.799374 0.722683
0.804135 0.810849 0.703273
0.918822 0.823209 0.707759
0.499702 0.881956 0.747402
0.511498 0.881773 0.747951
0.549432 0.881407 0.749783
0.605066 0.881804 0.752346
0.669459 0.882444 0.753689
0.728054 0.883665 0.743282
0.786984 0.883177 0.725734
0.892760 0.903838 0.702083
0.347906 0.299016 0.855985
0.380194 0.303807 0.856229
0.472145 0.321569 0.856504
0.590936 0.358465 0.857359
0.709407 0.419165 0.858335
0.806485 0.480476 0.860533
0.872984 0.490913 0.856596
0.946410 0.553338 0.855192
0.349950 0.331151 0.853971
0.381384 0.335210 0.854276
0.471778 0.350927 0.854704
0.589380 0.384436 0.855406
0.707454 0.440772 0.856626
0.804898 0.499275 0.858946
0.870939 0.506950 0.855314
0.945068 0.564660 0.854765
0.347295 0.417395 0.850584
0.378363 0.420935 0.850736
0.468269 0.434089 0.851133
0.585595 0.461830 0.852171
0.703365 0.507042 0.853788
0.802670 0.559686 0.856809
0.867399 0.561547 0.854551
0.943297 0.607172 0.857053
0.330938 0.528923 0.843320
0.363561 0.530694 0.843412
0.448798 0.534173 0.844785
0.573053 0.555535 0.846494
0.693843 0.588617 0.849302
0.798062 0.633326 0.854124
0.862211 0.631952 0.853605
0.940978 0.663935 0.859617
0.300755 0.634424 0.832120
0.328252 0.634943 0.832120
0.408026 0.637079 0.832700
0.536492 0.642756 0.835966
0.665431 0.658503 0.841581
0.781613 0.692622 0.848600
0.854643 0.700435 0.850919
0.938262 0.725734 0.861509
0.354986 0.729427 0.822385
0.377295 0.729885 0.822629
0.445167 0.731533 0.823484
0.535210 0.734157 0.825437
0.629633 0.736629 0.828702
0.748836 0.748531 0.838560
0.845060 0.768765 0.847074
0.934417 0.789670 0.859342
0.420020 0.809171 0.813169
0.437903 0.809415 0.813565
0.492103 0.809934 0.814603
0.566918 0.811215 0.816587
0.650965 0.813687 0.819425
0.737789 0.818448 0.823941
0.823239 0.826963 0.831083
0.921508 0.848631 0.845396
0.520134 0.889403 0.828611
0.532128 0.889311 0.829099
0.571344 0.889647 0.831235
0.628992 0.890013 0.834165
0.696742 0.891173 0.838315
0.760311 0.893767 0.840635
0.820310 0.896178 0.836088
0.897215 0.907744 0.819577
0.480415 0.416052 0.941039
0.500206 0.421637 0.940887
0.560998 0.440742 0.940124
0.648249 0.476265 0.939117
0.741970 0.527459 0.937804
0.828458 0.587640 0.936736
0.894926 0.623102 0.937926
0.946258 0.627771 0.934447
0.482887 0.439918 0.939971
0.502159 0.444953 0.939849
0.562310 0.462287 0.939208
0.648585 0.494911 0.938231
0.741634 0.542473 0.937041
0.827604 0.598718 0.936156
0.894194 0.633082 0.937346
0.945464 0.636439 0.934081
0.486213 0.506462 0.937438
0.504967 0.510338 0.937316
0.563714 0.523857 0.936675
0.649165 0.550713 0.936217
0.740291 0.587945 0.935424
0.825193 0.633845 0.934936
0.892699 0.666285 0.936339
0.943542 0.666407 0.933837
0.480934 0.590204 0.933898
0.496712 0.590906 0.934020
0.556390 0.600458 0.933684
0.641871 0.618921 0.933410
0.733852 0.646296 0.933318
0.819883 0.681697 0.933654
0.890715 0.713588 0.935363
0.941161 0.710231 0.933959
0.442420 0.673671 0.928283
0.463844 0.674861 0.928466
0.527520 0.678523 0.928771
0.615351 0.685451 0.929992
0.712825 0.701472 0.930755
0.807248 0.729641 0.931914
0.887755 0.765255 0.934325
0.938354 0.761654 0.934417
0.452918 0.760067 0.922087
0.467292 0.760250 0.922087
0.511955 0.760647 0.922332
0.576776 0.760525 0.923278
0.672206 0.762478 0.925597
0.781582 0.778592 0.929381
0.876799 0.810452 0.933684
0.935576 0.817624 0.935576
0.500664 0.838132 0.916442
0.511925 0.838193 0.916503
0.548486 0.838315 0.916838
0.604883 0.838773 0.917723
0.673976 0.839689 0.919371
0.749416 0.841123 0.922179
0.850095 0.852903 0.929320
0.930846 0.872282 0.935271
0.553124 0.905058 0.911833
0.562005 0.904997 0.911925
0.591882 0.905058 0.912291
0.640314 0.905486 0.913146
0.700954 0.906615 0.914519
0.768612 0.908965 0.916594
0.840208 0.913359 0.919890
0.915190 0.921172 0.925566
