cubelut/NW-3.cube
# Created by Adobe Lightroom plugin Export LUT (1.18.0)
# www.johnrellis.com/lightroom/exportlut.htm
# Preset: NW3
# Color profile: /Library/Application Support/Adobe/Color/Profiles/Recommended/AdobeRGB1998.icc
LUT_3D_SIZE 32
DOMAIN_MIN 0.0 0.0 0.0
DOMAIN_MAX 1.0 1.0 1.0
0.000000 0.000000 0.000000
0.000000 0.000000 0.000000
0.000000 0.000000 0.000000
0.000000 0.000000 0.000000
0.001892 0.000732 0.003143
0.024170 0.000061 0.017762
0.063325 0.000000 0.033997
0.094789 0.000000 0.053773
0.137697 0.000000 0.062043
0.190433 0.000000 0.069062
0.249638 0.000000 0.073548
0.309483 0.000000 0.076905
0.369238 0.000000 0.079683
0.429023 0.000000 0.080507
0.489021 0.000000 0.078187
0.549523 0.000000 0.074495
0.608301 0.000000 0.071077
0.661921 0.000000 0.068208
0.710292 0.000000 0.068788
0.755581 0.000000 0.070924
0.798672 0.000000 0.077760
0.839200 0.000000 0.086275
0.875700 0.000000 0.099519
0.908629 0.000000 0.112734
0.938415 0.000000 0.128847
0.965728 0.000000 0.146212
0.990295 0.000000 0.165774
1.000000 0.095979 0.187778
1.000000 0.142458 0.212161
1.000000 0.185763 0.240543
1.000000 0.228061 0.272007
1.000000 0.271824 0.307073
0.000000 0.000000 0.000000
0.000000 0.000000 0.000000
0.000000 0.000000 0.000000
0.000000 0.000000 0.000000
0.001678 0.000732 0.004211
0.025330 0.000000 0.018830
0.063783 0.000000 0.035065
0.095125 0.000000 0.053773
0.138216 0.000000 0.062837
0.191196 0.000000 0.068879
0.250340 0.000000 0.073976
0.310338 0.000000 0.078492
0.370367 0.000000 0.080598
0.430121 0.000000 0.080354
0.490059 0.000000 0.078035
0.550286 0.000000 0.074708
0.608698 0.000000 0.071138
0.661921 0.000000 0.068544
0.710109 0.000000 0.068696
0.755215 0.000000 0.071748
0.798123 0.000000 0.078279
0.838499 0.000000 0.087190
0.875029 0.000000 0.099123
0.908080 0.000000 0.113191
0.937835 0.000000 0.129000
0.965209 0.000000 0.146334
0.989807 0.043091 0.165835
1.000000 0.106935 0.187778
1.000000 0.149142 0.212161
1.000000 0.190738 0.240543
1.000000 0.231876 0.271794
1.000000 0.274418 0.306554
0.000000 0.000000 0.000000
0.000000 0.000000 0.000000
0.000000 0.000000 0.000000
0.000000 0.000000 0.000000
0.002838 0.000519 0.005280
0.025360 0.001038 0.017639
0.064149 0.000000 0.037232
0.095796 0.000000 0.052857
0.139284 0.000000 0.063996
0.192142 0.000000 0.069368
0.251713 0.000000 0.074495
0.311986 0.000000 0.079316
0.371801 0.000000 0.081086
0.431800 0.000000 0.080598
0.491493 0.000000 0.078065
0.551232 0.000000 0.073854
0.609339 0.000000 0.070985
0.662074 0.000000 0.068330
0.709926 0.000000 0.068635
0.754726 0.000000 0.071046
0.797452 0.000000 0.077272
0.837766 0.000000 0.087343
0.874327 0.000000 0.099611
0.907317 0.000000 0.113466
0.937163 0.000000 0.129244
0.964569 0.000000 0.146944
0.989258 0.074647 0.166506
1.000000 0.119936 0.188663
1.000000 0.158480 0.212711
1.000000 0.197543 0.241001
1.000000 0.236790 0.272221
1.000000 0.278599 0.307164
0.000000 0.001190 0.002075
0.000000 0.001190 0.000000
0.000000 0.001190 0.000000
0.000000 0.002411 0.001984
0.002655 0.005097 0.009247
0.028138 0.005188 0.020478
0.065583 0.002960 0.039857
0.097536 0.000000 0.059083
0.141543 0.000000 0.065858
0.195743 0.000000 0.072419
0.255100 0.000000 0.077852
0.315496 0.000000 0.080812
0.375402 0.000000 0.081483
0.435309 0.000000 0.080476
0.494759 0.000000 0.077455
0.553857 0.000000 0.072938
0.611353 0.000000 0.070283
0.663752 0.000000 0.067506
0.711025 0.000000 0.067720
0.755825 0.000000 0.072023
0.798611 0.000000 0.079225
0.838834 0.000000 0.088380
0.875151 0.000000 0.101259
0.908141 0.000000 0.116060
0.937896 0.032410 0.131044
0.965362 0.084199 0.149233
0.990082 0.116701 0.169009
1.000000 0.147890 0.191409
1.000000 0.179660 0.216251
1.000000 0.215122 0.245182
1.000000 0.252079 0.276646
1.000000 0.291905 0.312200
0.000000 0.021393 0.014618
0.000000 0.022583 0.016693
0.000000 0.023774 0.017670
0.000000 0.028595 0.017304
0.000000 0.036835 0.028412
0.027588 0.036011 0.046113
0.067628 0.032929 0.057527
0.102052 0.028992 0.066224
0.147311 0.018891 0.073487
0.202335 0.000000 0.078889
0.261967 0.000000 0.082124
0.321965 0.000000 0.084047
0.381476 0.000000 0.082734
0.440467 0.000000 0.079805
0.498726 0.000000 0.076356
0.556695 0.000000 0.072145
0.613092 0.000000 0.069734
0.664576 0.009827 0.067292
0.711421 0.028840 0.069490
0.755825 0.055512 0.073365
0.798337 0.068299 0.079896
0.838224 0.078553 0.091096
0.874479 0.090791 0.103059
0.907378 0.103639 0.117372
0.937072 0.118929 0.133394
0.964599 0.135958 0.151278
0.989319 0.156374 0.171054
1.000000 0.179232 0.193881
1.000000 0.205356 0.218509
1.000000 0.235721 0.247715
1.000000 0.269261 0.279576
1.000000 0.306126 0.314885
0.000000 0.066346 0.050874
0.000000 0.067201 0.051545
0.000000 0.067994 0.051392
0.000000 0.070130 0.054322
0.000000 0.073121 0.060731
0.019745 0.077089 0.069795
0.072358 0.078920 0.076081
0.110414 0.082033 0.081117
0.158175 0.086824 0.085451
0.213291 0.091707 0.087495
0.272465 0.096956 0.087495
0.331487 0.101167 0.086549
0.389685 0.106844 0.083558
0.447272 0.113344 0.079530
0.504356 0.117983 0.075349
0.561517 0.123262 0.072175
0.616632 0.129732 0.069398
0.667567 0.135042 0.068452
0.714199 0.139773 0.069917
0.758877 0.144045 0.075349
0.801663 0.148745 0.083497
0.842924 0.154055 0.094820
0.882170 0.161532 0.109468
0.914672 0.168795 0.125124
0.944030 0.177707 0.141878
0.970520 0.189364 0.160983
0.994263 0.203891 0.182162
1.000000 0.222568 0.205386
1.000000 0.244327 0.231296
1.000000 0.269780 0.259953
1.000000 0.299138 0.291539
1.000000 0.333043 0.327123
0.000000 0.097719 0.072145
0.000000 0.097993 0.073182
0.000000 0.098817 0.072023
0.000000 0.100954 0.074281
0.000000 0.104341 0.077180
0.014008 0.109346 0.082338
0.080446 0.115663 0.089326
0.123018 0.122988 0.091859
0.170748 0.131746 0.092927
0.224002 0.140932 0.093080
0.279179 0.148989 0.090852
0.334020 0.156222 0.087922
0.387823 0.162142 0.084596
0.441413 0.167575 0.081239
0.494636 0.172183 0.077241
0.550256 0.178408 0.072938
0.604089 0.184360 0.070253
0.653651 0.188907 0.068482
0.699306 0.191775 0.070893
0.746670 0.195407 0.076417
0.791806 0.199405 0.084901
0.834134 0.203555 0.095766
0.872190 0.208377 0.108492
0.907408 0.212680 0.125124
0.938903 0.220401 0.142733
0.967071 0.229679 0.162448
0.992187 0.241489 0.185153
1.000000 0.256443 0.209201
1.000000 0.274754 0.235569
1.000000 0.297124 0.264347
1.000000 0.323156 0.296117
1.000000 0.353887 0.332006
0.000000 0.140871 0.083619
0.000000 0.141238 0.083253
0.000000 0.142275 0.083406
0.000000 0.144594 0.084230
0.000000 0.148806 0.085786
0.017792 0.154604 0.088716
0.093935 0.161929 0.092531
0.140688 0.170260 0.095583
0.188724 0.179721 0.094911
0.240635 0.190188 0.091951
0.292668 0.199130 0.091432
0.345098 0.207034 0.090120
0.397772 0.213748 0.085908
0.450080 0.220218 0.081910
0.502556 0.225711 0.077577
0.557031 0.232303 0.073060
0.609491 0.237675 0.071382
0.658045 0.241489 0.070863
0.702846 0.243565 0.074372
0.749416 0.246891 0.080934
0.793973 0.250553 0.089967
0.835508 0.253178 0.101259
0.873198 0.256168 0.114565
0.907866 0.260502 0.130251
0.938964 0.265476 0.148318
0.966827 0.272129 0.169131
0.991577 0.281651 0.191226
1.000000 0.293126 0.215518
1.000000 0.308232 0.241550
1.000000 0.327245 0.270420
1.000000 0.349950 0.302098
1.000000 0.377417 0.337560
0.000000 0.197208 0.085969
0.000000 0.197787 0.085847
0.000000 0.198886 0.085573
0.000000 0.201358 0.086122
0.000000 0.205478 0.087221
0.032013 0.211368 0.088228
0.110658 0.218082 0.089906
0.160983 0.225528 0.091463
0.209018 0.233005 0.092653
0.257725 0.241123 0.091249
0.308721 0.249973 0.083284
0.358862 0.257115 0.083833
0.409186 0.264347 0.083558
0.460029 0.269902 0.084199
0.511009 0.275822 0.079866
0.564294 0.282383 0.076387
0.615259 0.287114 0.075532
0.662745 0.290562 0.075746
0.706569 0.292393 0.079500
0.752590 0.295537 0.086641
0.796475 0.298528 0.095705
0.837430 0.300328 0.107637
0.874632 0.302922 0.121157
0.908751 0.305852 0.137697
0.939330 0.309514 0.156222
0.966766 0.314366 0.177249
0.991180 0.321782 0.199619
1.000000 0.330907 0.223148
1.000000 0.343633 0.249546
1.000000 0.359411 0.278355
1.000000 0.378912 0.309453
1.000000 0.403540 0.345006
0.000000 0.260868 0.080049
0.000000 0.261448 0.080110
0.000000 0.262455 0.080690
0.000000 0.264683 0.080354
0.000000 0.268223 0.080446
0.056397 0.272923 0.081575
0.127993 0.278172 0.081910
0.180392 0.284092 0.082399
0.229404 0.290593 0.082948
0.277867 0.297276 0.083558
0.327276 0.304479 0.081361
0.377569 0.311406 0.070771
0.427070 0.317418 0.069520
0.476173 0.323033 0.073579
0.525963 0.328344 0.079194
0.577600 0.334539 0.081788
0.627314 0.339239 0.080598
0.673487 0.341588 0.083253
0.716518 0.342809 0.088197
0.761440 0.345342 0.096529
0.804379 0.347997 0.105562
0.844419 0.349645 0.117800
0.880583 0.351019 0.132570
0.913359 0.352728 0.149538
0.942840 0.355077 0.168856
0.969329 0.358770 0.190036
0.992981 0.364385 0.212222
1.000000 0.371679 0.236362
1.000000 0.381933 0.262211
1.000000 0.395239 0.290715
1.000000 0.412360 0.321813
1.000000 0.434058 0.356878
0.000000 0.324712 0.068116
0.000000 0.325139 0.068177
0.000000 0.325872 0.067597
0.000000 0.327306 0.067903
0.000000 0.329503 0.067872
0.068849 0.332769 0.068635
0.140475 0.336828 0.068635
0.194797 0.341497 0.068391
0.244663 0.346502 0.069490
0.293614 0.352117 0.069215
0.342138 0.357946 0.069276
0.391608 0.363989 0.066651
0.440681 0.369207 0.046784
0.489479 0.373968 0.031769
0.537530 0.378485 0.061402
0.587243 0.383856 0.074800
0.634272 0.387549 0.085115
0.678920 0.389410 0.092134
0.721004 0.389715 0.097780
0.764981 0.392187 0.105043
0.807248 0.393957 0.115236
0.846403 0.394812 0.127840
0.881804 0.395758 0.143038
0.913817 0.396490 0.160830
0.942809 0.397772 0.179690
0.968750 0.400336 0.200900
0.992065 0.404242 0.222965
1.000000 0.410071 0.246616
1.000000 0.418067 0.272496
1.000000 0.428962 0.300084
1.000000 0.443549 0.331304
1.000000 0.462654 0.365972
0.000000 0.387610 0.035248
0.000000 0.387549 0.034760
0.000000 0.387915 0.037690
0.000000 0.388373 0.036744
0.000000 0.390326 0.036194
0.081025 0.392615 0.036347
0.151492 0.395666 0.038087
0.207736 0.399847 0.036408
0.258640 0.404150 0.036591
0.308690 0.409277 0.034394
0.358221 0.414557 0.035187
0.408728 0.421180 0.031312
0.470924 0.437659 0.017975
0.521721 0.442603 0.000000
0.572168 0.446906 0.000000
0.618677 0.448981 0.035248
0.662928 0.449866 0.076753
0.705257 0.450294 0.095521
0.745327 0.449866 0.112367
0.785580 0.449409 0.123751
0.824308 0.448737 0.134279
0.859495 0.447608 0.147738
0.891844 0.446265 0.162509
0.921324 0.445258 0.180026
0.948272 0.445350 0.198550
0.971893 0.445350 0.217899
0.993774 0.447059 0.239292
1.000000 0.450874 0.262333
1.000000 0.456977 0.287297
1.000000 0.465492 0.314672
1.000000 0.477760 0.344915
1.000000 0.494331 0.379217
0.000000 0.438911 0.000000
0.000000 0.437446 0.000000
0.000000 0.436255 0.000000
0.000000 0.435798 0.000000
0.000000 0.436011 0.000000
0.075837 0.438453 0.000000
0.152773 0.441535 0.000000
0.209018 0.444739 0.000000
0.260319 0.448249 0.000000
0.312169 0.455665 0.000000
0.363745 0.463264 0.000000
0.415930 0.470741 0.000000
0.468482 0.479011 0.000000
0.522576 0.487465 0.000000
0.574151 0.492805 0.000000
0.623346 0.496254 0.000000
0.668696 0.497322 0.019074
0.709865 0.496498 0.080720
0.749783 0.495552 0.107088
0.788846 0.495033 0.129122
0.825956 0.494514 0.148226
0.860441 0.492439 0.161074
0.891966 0.490181 0.176181
0.920897 0.488289 0.193820
0.947295 0.486976 0.211673
0.970855 0.486122 0.230808
0.992493 0.486641 0.251926
1.000000 0.488899 0.275090
1.000000 0.493446 0.300237
1.000000 0.500237 0.327398
1.000000 0.510491 0.357427
1.000000 0.525689 0.392432
0.000000 0.499519 0.000000
0.000000 0.497810 0.000000
0.000000 0.496407 0.000000
0.000000 0.495460 0.000000
0.000000 0.494942 0.000000
0.077302 0.496651 0.000000
0.158114 0.498726 0.000000
0.216312 0.501305 0.000000
0.269383 0.504204 0.000000
0.321447 0.510948 0.000000
0.373571 0.517906 0.000000
0.425666 0.524834 0.000000
0.477882 0.531914 0.000000
0.530724 0.539117 0.000000
0.584131 0.546349 0.000000
0.632074 0.548180 0.000000
0.677028 0.547601 0.000000
0.718013 0.545281 0.018128
0.756008 0.542321 0.092226
0.793423 0.540368 0.123720
0.828824 0.538476 0.149325
0.861387 0.536065 0.172793
0.891752 0.533440 0.191775
0.920043 0.530419 0.207767
0.946136 0.528038 0.226139
0.969451 0.526207 0.245090
0.990723 0.525322 0.265995
1.000000 0.526299 0.288182
1.000000 0.529442 0.313146
1.000000 0.534661 0.339879
1.000000 0.543420 0.370520
1.000000 0.557061 0.406073
0.000000 0.558892 0.000000
0.000000 0.556970 0.000000
0.000000 0.555016 0.000000
0.000000 0.553613 0.000000
0.000000 0.552850 0.000000
0.076265 0.554009 0.000000
0.160647 0.555596 0.000000
0.221103 0.557427 0.000000
0.275303 0.559655 0.000000
0.328710 0.565484 0.000000
0.380652 0.571069 0.000000
0.432166 0.576806 0.000000
0.483558 0.582483 0.000000
0.535332 0.588708 0.000000
0.587549 0.594720 0.000000
0.639796 0.600488 0.000000
0.684718 0.599420 0.000000
0.724880 0.595117 0.000000
0.763058 0.590295 0.028107
0.798703 0.586236 0.106172
0.832273 0.582330 0.142824
0.863493 0.578424 0.171298
0.892485 0.575006 0.197055
0.919585 0.572137 0.222538
0.945159 0.569116 0.242130
0.968231 0.566217 0.260838
0.989288 0.564538 0.281834
1.000000 0.564446 0.304356
1.000000 0.566400 0.329503
1.000000 0.570916 0.357458
1.000000 0.579522 0.390204
1.000000 0.592676 0.427222
0.000000 0.618280 0.000000
0.000000 0.616724 0.000000
0.000000 0.615412 0.000000
0.000000 0.614343 0.000000
0.000000 0.613825 0.000000
0.072480 0.614679 0.000000
0.163272 0.615930 0.000000
0.226841 0.617517 0.000000
0.282811 0.619165 0.000000
0.336187 0.623743 0.000000
0.388952 0.628107 0.000000
0.440497 0.632776 0.000000
0.491493 0.637324 0.000000
0.542565 0.641871 0.000000
0.593500 0.646174 0.000000
0.644373 0.650385 0.000000
0.694728 0.654139 0.000000
0.735317 0.649500 0.024781
0.771878 0.642084 0.059144
0.807065 0.634913 0.076265
0.838560 0.628229 0.127016
0.867613 0.622065 0.166537
0.895384 0.616846 0.198154
0.921202 0.612390 0.226352
0.945006 0.608789 0.253300
0.966888 0.605798 0.277897
0.987396 0.602777 0.298161
1.000000 0.601343 0.319860
1.000000 0.601770 0.344732
1.000000 0.605646 0.373754
1.000000 0.612634 0.406226
1.000000 0.624231 0.443610
0.000000 0.667720 0.000000
0.000000 0.666316 0.000000
0.000000 0.665095 0.000000
0.000000 0.664088 0.000000
0.000000 0.663416 0.000000
0.051057 0.663874 0.000000
0.159731 0.664607 0.000000
0.224949 0.665522 0.000000
0.282353 0.666560 0.000000
0.336339 0.670130 0.000000
0.388800 0.673976 0.000000
0.440009 0.677546 0.000000
0.490517 0.681453 0.000000
0.540551 0.684871 0.000000
0.590539 0.688106 0.000000
0.639918 0.691188 0.000000
0.688899 0.694209 0.028046
0.736446 0.695827 0.062837
0.775814 0.690578 0.079042
0.809567 0.681636 0.094545
0.841550 0.672602 0.111238
0.870634 0.664210 0.148135
0.897032 0.657130 0.190555
0.921752 0.651026 0.223941
0.944671 0.645808 0.254093
0.965728 0.641596 0.282841
0.985107 0.639033 0.311070
1.000000 0.637263 0.335882
1.000000 0.636988 0.361517
1.000000 0.639582 0.390326
1.000000 0.645380 0.422919
1.000000 0.655360 0.460365
0.000000 0.715084 0.000000
0.000000 0.715145 0.000000
0.000000 0.712520 0.000000
0.000000 0.713130 0.000000
0.000000 0.714076 0.000000
0.027955 0.715236 0.000000
0.159884 0.716335 0.000000
0.227970 0.718532 0.000000
0.286625 0.720760 0.000000
0.340795 0.722896 0.000000
0.393225 0.725063 0.000000
0.443671 0.726986 0.000000
0.493263 0.728847 0.000000
0.542260 0.730831 0.000000
0.590692 0.732753 0.008698
0.637690 0.733272 0.045991
0.684047 0.733974 0.069490
0.729946 0.734493 0.084932
0.775479 0.735042 0.098878
0.812741 0.728634 0.113680
0.843046 0.717708 0.128237
0.871672 0.706661 0.144747
0.897978 0.696437 0.170260
0.921233 0.688045 0.213199
0.943023 0.680842 0.248508
0.963470 0.675257 0.280247
0.982544 0.671229 0.310826
1.000000 0.669337 0.341833
1.000000 0.669612 0.374151
1.000000 0.670649 0.403082
1.000000 0.674556 0.434852
1.000000 0.682612 0.471656
0.000000 0.745602 0.000000
0.000000 0.746517 0.000000
0.000000 0.747341 0.000000
0.000000 0.749172 0.000000
0.000000 0.750881 0.000000
0.011200 0.752895 0.000000
0.156405 0.755093 0.000000
0.225681 0.757046 0.000000
0.284825 0.759182 0.000000
0.338506 0.761288 0.000000
0.390539 0.763302 0.000000
0.440253 0.764767 0.000000
0.489265 0.766201 0.000000
0.537377 0.767636 0.034852
0.584741 0.768856 0.063600
0.630579 0.768917 0.079896
0.676020 0.769039 0.094026
0.721065 0.769284 0.108461
0.765621 0.769436 0.120699
0.808621 0.768856 0.134218
0.844694 0.762387 0.147463
0.872435 0.750240 0.162417
0.898558 0.738186 0.179019
0.922759 0.726711 0.195956
0.943816 0.717800 0.239414
0.963714 0.710597 0.277684
0.982300 0.705348 0.312352
0.999420 0.701991 0.346471
1.000000 0.700832 0.380591
1.000000 0.702327 0.416968
1.000000 0.706966 0.454841
1.000000 0.713924 0.492134
0.000000 0.786679 0.000000
0.000000 0.787289 0.000000
0.000000 0.787961 0.000000
0.000000 0.789212 0.000000
0.000000 0.790585 0.000000
0.029511 0.791928 0.000000
0.159548 0.793240 0.000000
0.226505 0.794705 0.000000
0.284062 0.796078 0.000000
0.337285 0.797360 0.000000
0.388128 0.798611 0.011139
0.437079 0.799374 0.044770
0.484871 0.800137 0.065644
0.531792 0.800839 0.081392
0.578058 0.801572 0.094484
0.622889 0.801450 0.107912
0.667140 0.801297 0.119631
0.710964 0.800900 0.131807
0.754055 0.800473 0.143771
0.795956 0.799313 0.155520
0.837156 0.798093 0.166903
0.872099 0.792050 0.179995
0.897581 0.778988 0.196017
0.921294 0.766415 0.211856
0.943908 0.754696 0.230503
0.963714 0.745235 0.267521
0.981689 0.738247 0.308141
0.998199 0.733364 0.345922
1.000000 0.730709 0.383337
1.000000 0.730739 0.421668
1.000000 0.734432 0.462959
1.000000 0.742458 0.508232
0.000000 0.823239 0.000000
0.000000 0.823819 0.000000
0.000000 0.824369 0.000000
0.000000 0.825223 0.000000
0.000000 0.826078 0.000000
0.071168 0.826963 0.000000
0.166110 0.827878 0.012360
0.230594 0.828672 0.031617
0.285649 0.829374 0.058625
0.336767 0.830167 0.069490
0.386389 0.830716 0.079438
0.434089 0.831235 0.091737
0.480415 0.831662 0.103120
0.526299 0.831998 0.113771
0.571435 0.832181 0.124392
0.615442 0.831937 0.135256
0.658869 0.831479 0.147127
0.701656 0.831052 0.157961
0.743832 0.830472 0.169406
0.785122 0.829709 0.181704
0.825742 0.828702 0.193484
0.865629 0.827695 0.206180
0.900694 0.822904 0.220401
0.924315 0.809567 0.238315
0.946349 0.797024 0.256687
0.966918 0.785183 0.275944
0.985107 0.775418 0.307866
1.000000 0.768917 0.352422
1.000000 0.764920 0.394690
1.000000 0.764401 0.438270
1.000000 0.767300 0.483955
1.000000 0.774105 0.530938
0.000000 0.862455 0.080598
0.000000 0.863035 0.081086
0.000000 0.863584 0.082704
0.000000 0.863951 0.086244
0.000000 0.864408 0.089876
0.115297 0.864775 0.094240
0.185458 0.865141 0.100038
0.242618 0.864927 0.104921
0.293889 0.864714 0.111299
0.342321 0.864408 0.117617
0.389532 0.864073 0.124483
0.435065 0.863554 0.131441
0.479652 0.862913 0.139437
0.523217 0.862211 0.147280
0.566400 0.861357 0.156344
0.608911 0.860349 0.165316
0.650477 0.859220 0.174868
0.691707 0.858000 0.184512
0.732082 0.856687 0.194583
0.772213 0.855497 0.205478
0.811795 0.854368 0.217929
0.850736 0.853239 0.229679
0.888670 0.851987 0.242863
0.922362 0.847471 0.256077
0.943999 0.833738 0.273747
0.964080 0.820890 0.293339
0.982696 0.809049 0.313787
0.999695 0.798886 0.339818
1.000000 0.793545 0.389471
1.000000 0.791104 0.437629
1.000000 0.792081 0.485573
1.000000 0.796780 0.534325
0.000000 0.890532 0.122835
0.000000 0.891051 0.124758
0.000000 0.891539 0.125368
0.000000 0.891783 0.127779
0.050172 0.891997 0.130129
0.143343 0.892180 0.133364
0.201816 0.892332 0.137972
0.253239 0.891844 0.141451
0.300511 0.891386 0.145998
0.346136 0.890776 0.151705
0.390997 0.890074 0.156649
0.434455 0.889189 0.163088
0.477150 0.888243 0.169436
0.519066 0.887144 0.176883
0.560479 0.886015 0.184848
0.601587 0.884672 0.192538
0.641779 0.883360 0.201114
0.681575 0.881895 0.210575
0.721096 0.880583 0.220279
0.760189 0.879515 0.232029
0.798581 0.878294 0.243076
0.836118 0.876829 0.255222
0.872953 0.875181 0.266880
0.908659 0.873442 0.279637
0.937652 0.865629 0.283330
0.957885 0.852140 0.301671
0.977020 0.840024 0.323766
0.994629 0.829099 0.347417
1.000000 0.819608 0.374060
1.000000 0.814908 0.424170
1.000000 0.814145 0.477394
1.000000 0.817105 0.530083
0.000000 0.915923 0.160830
0.000000 0.916442 0.162325
0.000000 0.916991 0.163577
0.038025 0.917388 0.165927
0.123568 0.917754 0.168978
0.175204 0.917388 0.171115
0.222202 0.916960 0.174228
0.267124 0.916411 0.177401
0.310948 0.915801 0.181033
0.352789 0.914641 0.185092
0.394476 0.913481 0.189181
0.435248 0.912261 0.194064
0.475776 0.911009 0.199588
0.515526 0.909483 0.205936
0.555200 0.907897 0.212345
0.594598 0.906432 0.219547
0.633448 0.904845 0.227481
0.672023 0.903288 0.236362
0.709834 0.901610 0.245975
0.747158 0.899840 0.255161
0.783780 0.897917 0.264958
0.820005 0.896025 0.275700
0.855253 0.893980 0.286900
0.889677 0.891752 0.297704
0.923339 0.889616 0.309270
0.955810 0.886900 0.322454
0.974365 0.873625 0.343389
0.991394 0.861479 0.366552
1.000000 0.850614 0.391302
1.000000 0.841978 0.421790
1.000000 0.838041 0.470436
1.000000 0.839322 0.528832
0.022675 0.937591 0.195254
0.068269 0.938079 0.196689
0.093629 0.938598 0.198550
0.129580 0.939025 0.200717
0.169192 0.939269 0.203311
0.206851 0.938933 0.205692
0.245670 0.938476 0.208255
0.284520 0.937987 0.211154
0.323674 0.937346 0.215183
0.362310 0.936217 0.218479
0.401007 0.935088 0.222629
0.439643 0.933898 0.227726
0.477974 0.932616 0.233066
0.515984 0.931151 0.238895
0.554009 0.929595 0.245212
0.591547 0.927977 0.252171
0.628809 0.926207 0.259312
0.665644 0.924498 0.268040
0.702052 0.922637 0.276371
0.737972 0.920684 0.285557
0.773251 0.918578 0.294865
0.808042 0.916564 0.305150
0.842374 0.914580 0.316411
0.875731 0.912505 0.327794
0.908446 0.910246 0.339361
0.940246 0.907988 0.351690
0.971038 0.905608 0.363684
0.988037 0.892576 0.385992
1.000000 0.880919 0.411444
1.000000 0.871916 0.443488
1.000000 0.864866 0.479164
1.000000 0.861448 0.524102
0.143191 0.957671 0.231388
0.152590 0.958038 0.233310
0.163577 0.958343 0.234653
0.184512 0.958556 0.236362
0.210910 0.958709 0.238682
0.239994 0.958312 0.241184
0.272129 0.957824 0.242954
0.305638 0.957244 0.246189
0.340520 0.956603 0.249638
0.375067 0.955474 0.252903
0.410681 0.954253 0.256809
0.446265 0.952972 0.261204
0.482216 0.951568 0.266117
0.518334 0.950011 0.271336
0.553918 0.948394 0.277165
0.589624 0.946654 0.284001
0.625116 0.944793 0.290715
0.660304 0.942962 0.298558
0.695216 0.941009 0.307195
0.729702 0.939055 0.315831
0.763851 0.937133 0.325719
0.797513 0.935149 0.336339
0.830320 0.933013 0.347082
0.862394 0.930663 0.357824
0.893645 0.928191 0.368322
0.924071 0.925719 0.380133
0.953765 0.923186 0.391943
0.982757 0.920989 0.405310
0.999329 0.909819 0.430640
1.000000 0.899535 0.462104
1.000000 0.891234 0.496407
1.000000 0.885527 0.534661
0.203983 0.975433 0.268437
0.210452 0.975799 0.270329
0.218936 0.976074 0.271824
0.233402 0.976257 0.273411
0.253452 0.976349 0.276463
0.277470 0.976226 0.278721
0.304326 0.975952 0.282231
0.333440 0.975616 0.285801
0.364508 0.975158 0.290593
0.396460 0.974517 0.294652
0.429114 0.973693 0.299779
0.462715 0.972808 0.305211
0.496498 0.971771 0.311284
0.529992 0.970397 0.317540
0.563531 0.968872 0.324132
0.597131 0.967224 0.330694
0.630915 0.965606 0.338750
0.664790 0.963989 0.347692
0.698085 0.962249 0.357183
0.730983 0.960357 0.366735
0.763333 0.958343 0.376959
0.795254 0.956390 0.388128
0.826535 0.954192 0.399359
0.856901 0.951843 0.410773
0.886442 0.949401 0.422156
0.915709 0.947326 0.436164
0.943877 0.945159 0.450294
0.970977 0.942901 0.463874
0.996948 0.940459 0.476814
1.000000 0.931212 0.505028
1.000000 0.922728 0.542748
1.000000 0.916899 0.584527
0.276951 0.994965 0.322454
0.279637 0.994873 0.322423
0.283848 0.994720 0.322789
0.293095 0.994476 0.323491
0.307164 0.994141 0.324743
0.324010 0.993561 0.325689
0.344579 0.992859 0.327337
0.367712 0.992065 0.329503
0.392950 0.991180 0.332280
0.420294 0.990173 0.335973
0.448920 0.989044 0.339818
0.478492 0.987854 0.344518
0.509087 0.986603 0.349615
0.540032 0.985229 0.355779
