cubelut/NW-3.cube
# Created by Adobe Lightroom plugin Export LUT (1.18.0)
# www.johnrellis.com/lightroom/exportlut.htm
# Preset: NW3
# Color profile: /Library/Application Support/Adobe/Color/Profiles/Recommended/AdobeRGB1998.icc
LUT_3D_SIZE 8
DOMAIN_MIN 0.000000 0.000000 0.000000
DOMAIN_MAX 0.903226 0.903226 0.903226
0.000000 0.000000 0.000000
0.001892 0.000732 0.003143
0.137697 0.000000 0.062043
0.369238 0.000000 0.079683
0.608301 0.000000 0.071077
0.798672 0.000000 0.077760
0.938415 0.000000 0.128847
1.000000 0.142458 0.212161
0.000000 0.021393 0.014618
0.000000 0.036835 0.028412
0.147311 0.018891 0.073487
0.381476 0.000000 0.082734
0.613092 0.000000 0.069734
0.798337 0.068299 0.079896
0.937072 0.118929 0.133394
1.000000 0.205356 0.218509
0.000000 0.197208 0.085969
0.000000 0.205478 0.087221
0.209018 0.233005 0.092653
0.409186 0.264347 0.083558
0.615259 0.287114 0.075532
0.796475 0.298528 0.095705
0.939330 0.309514 0.156222
1.000000 0.343633 0.249546
0.000000 0.438911 0.000000
0.000000 0.436011 0.000000
0.260319 0.448249 0.000000
0.468482 0.479011 0.000000
0.668696 0.497322 0.019074
0.825956 0.494514 0.148226
0.947295 0.486976 0.211673
1.000000 0.493446 0.300237
0.000000 0.667720 0.000000
0.000000 0.663416 0.000000
0.282353 0.666560 0.000000
0.490517 0.681453 0.000000
0.688899 0.694209 0.028046
0.841550 0.672602 0.111238
0.944671 0.645808 0.254093
1.000000 0.636988 0.361517
0.000000 0.823239 0.000000
0.000000 0.826078 0.000000
0.285649 0.829374 0.058625
0.480415 0.831662 0.103120
0.658869 0.831479 0.147127
0.825742 0.828702 0.193484
0.946349 0.797024 0.256687
1.000000 0.764920 0.394690
0.022675 0.937591 0.195254
0.169192 0.939269 0.203311
0.323674 0.937346 0.215183
0.477974 0.932616 0.233066
0.628809 0.926207 0.259312
0.773251 0.918578 0.294865
0.908446 0.910246 0.339361
1.000000 0.880919 0.411444
0.327184 1.000000 0.363714
0.350988 1.000000 0.365667
0.423926 1.000000 0.374304
0.527733 0.999725 0.392523
0.641016 0.992828 0.416480
0.758877 0.985534 0.456519
0.869383 0.977203 0.503624
0.967895 0.968872 0.556634
0.000000 0.000000 0.063203
0.000000 0.001068 0.067597
0.141604 0.000000 0.095979
0.376501 0.000000 0.110079
0.601312 0.000000 0.118318
0.787411 0.000000 0.137942
0.930694 0.000000 0.174685
1.000000 0.127657 0.242283
0.000000 0.021149 0.075196
0.000000 0.039796 0.084565
0.155764 0.051606 0.107454
0.385443 0.000000 0.115755
0.607202 0.000000 0.123049
0.789517 0.000000 0.142061
0.930907 0.074922 0.179294
1.000000 0.196628 0.248447
0.000000 0.195407 0.132387
0.000000 0.206546 0.117189
0.207797 0.229831 0.125368
0.410895 0.260502 0.135256
0.616114 0.277684 0.139040
0.793149 0.285100 0.156741
0.931395 0.297642 0.198489
1.000000 0.334997 0.271763
0.000000 0.438392 0.140169
0.000000 0.442481 0.102846
0.250340 0.453742 0.106111
0.463386 0.474250 0.112215
0.657282 0.483558 0.133455
0.812070 0.481697 0.195407
0.937316 0.477943 0.243351
1.000000 0.488136 0.319097
0.000000 0.662776 0.074159
0.000000 0.663478 0.076417
0.260380 0.667720 0.085176
0.478920 0.674586 0.101839
0.676448 0.681727 0.127077
0.831235 0.661372 0.157839
0.936400 0.638911 0.281590
1.000000 0.633783 0.378149
0.000000 0.821653 0.112947
0.000000 0.823056 0.117952
0.265049 0.824460 0.131441
0.470008 0.825925 0.154055
0.651606 0.825925 0.185794
0.820859 0.823911 0.225071
0.942138 0.792233 0.278843
1.000000 0.762448 0.411810
0.000000 0.937469 0.230381
0.149630 0.938415 0.236301
0.317021 0.936767 0.246738
0.475288 0.932464 0.263828
0.628138 0.926329 0.288701
0.773678 0.919066 0.322515
0.909361 0.911192 0.366155
1.000000 0.882231 0.436591
0.323552 1.000000 0.378820
0.349248 1.000000 0.382208
0.424201 1.000000 0.391943
0.528405 0.998901 0.410346
0.643977 0.992706 0.437385
0.760281 0.985199 0.474006
0.869596 0.976715 0.517296
0.967559 0.968414 0.567712
0.000000 0.000000 0.214603
0.000000 0.000000 0.216495
0.145846 0.000000 0.235264
0.387396 0.000000 0.281743
0.615900 0.000000 0.283909
0.797848 0.000000 0.276646
0.933074 0.000000 0.298802
1.000000 0.134829 0.344121
0.000000 0.026368 0.220371
0.000000 0.032105 0.227878
0.165408 0.000000 0.248142
0.399542 0.000000 0.276646
0.621118 0.000000 0.276463
0.797848 0.000000 0.279606
0.931975 0.000000 0.302007
1.000000 0.200778 0.347814
0.000000 0.209842 0.259556
0.000000 0.217227 0.264927
0.195499 0.223545 0.268650
0.417914 0.232731 0.275944
0.625757 0.237034 0.279149
0.797787 0.251194 0.290929
0.931151 0.284184 0.317479
1.000000 0.342931 0.368170
0.000000 0.440925 0.298192
0.000000 0.445960 0.287785
0.162142 0.460243 0.247379
0.462806 0.473640 0.254734
0.657160 0.474495 0.300237
0.813138 0.475105 0.325933
0.934905 0.477821 0.356023
1.000000 0.498726 0.410834
0.000000 0.660822 0.297581
0.000000 0.664759 0.283513
0.153231 0.672633 0.242618
0.457465 0.676844 0.253422
0.675624 0.680934 0.269261
0.830442 0.654017 0.295109
0.930602 0.641596 0.395453
1.000000 0.642084 0.460426
0.000000 0.821927 0.292821
0.000000 0.825376 0.284062
0.198215 0.828183 0.267155
0.449317 0.827726 0.281224
0.644556 0.825803 0.301793
0.819547 0.822263 0.329198
0.939818 0.788571 0.366857
1.000000 0.769192 0.497566
0.000000 0.938018 0.337011
0.102480 0.938994 0.337316
0.299779 0.937194 0.342168
0.468452 0.932586 0.354742
0.626001 0.926146 0.374853
0.773678 0.918608 0.403540
0.909117 0.910704 0.441871
1.000000 0.882231 0.501579
0.338628 1.000000 0.447120
0.365667 1.000000 0.451545
0.437232 1.000000 0.459785
0.542565 0.998108 0.479866
0.653559 0.991760 0.501579
0.766598 0.984405 0.532372
0.872892 0.976318 0.569848
0.967498 0.968261 0.612085
0.000000 0.000000 0.379919
0.000000 0.000000 0.384192
0.206729 0.000000 0.402441
0.403967 0.000000 0.435340
0.625696 0.000000 0.463874
0.803159 0.000000 0.459174
0.934783 0.000000 0.456092
1.000000 0.195315 0.480781
0.000000 0.000000 0.393744
0.000000 0.000000 0.400855
0.206455 0.000000 0.419471
0.415320 0.000000 0.445472
0.631861 0.000000 0.463386
0.804227 0.000000 0.457923
0.932738 0.000000 0.457191
1.000000 0.249516 0.484810
0.000000 0.232609 0.432990
0.000000 0.218509 0.439246
0.124422 0.166842 0.451026
0.437049 0.148196 0.464363
0.635492 0.182071 0.457588
0.803494 0.221958 0.459205
0.929290 0.298802 0.474891
1.000000 0.387060 0.508202
0.000000 0.451972 0.468452
0.000000 0.453010 0.469276
0.087739 0.459998 0.475135
0.446632 0.456703 0.472023
0.653590 0.469947 0.484169
0.812680 0.481025 0.494606
0.930266 0.501091 0.513359
1.000000 0.536553 0.546685
0.000000 0.668727 0.485664
0.000000 0.670222 0.481727
0.000305 0.676265 0.467536
0.413184 0.679347 0.441321
0.674372 0.679042 0.452064
0.820218 0.658167 0.506645
0.922972 0.658167 0.546715
1.000000 0.667170 0.582910
0.000000 0.822873 0.470253
0.000000 0.825742 0.467414
0.142306 0.829282 0.454871
0.417487 0.829648 0.443793
0.636713 0.826322 0.459724
0.819242 0.821592 0.481880
0.935180 0.785489 0.501640
0.993774 0.785946 0.620874
0.000000 0.936278 0.477150
0.090333 0.937560 0.478859
0.292729 0.936309 0.479347
0.467384 0.931334 0.487831
0.627222 0.924407 0.501579
0.774380 0.916472 0.521935
0.907347 0.908598 0.548638
0.994293 0.880552 0.588220
0.346227 1.000000 0.536431
0.374029 1.000000 0.540520
0.452369 0.999695 0.551843
0.553979 0.994720 0.567102
0.660975 0.988525 0.582879
0.770626 0.981506 0.606439
0.873747 0.973785 0.634791
0.965850 0.966491 0.669245
0.000000 0.000000 0.572961
0.000000 0.000000 0.576654
0.235843 0.000000 0.589776
0.424628 0.000000 0.613764
0.626062 0.000000 0.637934
0.800839 0.000000 0.630243
0.929625 0.000000 0.608698
1.000000 0.164157 0.601343
0.000000 0.000000 0.582361
0.000000 0.000000 0.589014
0.217105 0.000000 0.601770
0.420325 0.000000 0.618769
0.628168 0.000000 0.639765
0.801389 0.000000 0.628992
0.928283 0.000000 0.608057
1.000000 0.226963 0.603510
0.000000 0.190127 0.619532
0.000000 0.156313 0.623682
0.005432 0.119539 0.628534
0.406531 0.047364 0.637629
0.638849 0.000000 0.649592
0.805966 0.146761 0.629786
0.927642 0.267185 0.616052
1.000000 0.392218 0.624872
0.000000 0.435218 0.640345
0.000000 0.429450 0.641199
0.000000 0.411841 0.649104
0.376623 0.387457 0.659907
0.660517 0.395514 0.669764
0.813016 0.462135 0.647608
0.923552 0.513054 0.650660
1.000000 0.568627 0.668116
0.000000 0.659144 0.664637
0.000000 0.660578 0.665919
0.000000 0.664088 0.669001
0.397681 0.667353 0.672145
0.656031 0.659632 0.664942
0.804379 0.667597 0.672724
0.912078 0.676204 0.681086
0.989868 0.692256 0.696468
0.000000 0.828031 0.649744
0.000000 0.830076 0.650172
0.118532 0.831785 0.646601
0.419074 0.830106 0.642847
0.631739 0.823331 0.641108
0.817502 0.819059 0.651637
0.917327 0.800870 0.695583
0.982513 0.806668 0.734890
0.000000 0.937285 0.629267
0.111940 0.938079 0.630701
0.306706 0.936309 0.631891
0.478401 0.930694 0.636591
0.636133 0.922667 0.645014
0.779202 0.915373 0.656641
0.907683 0.908568 0.674250
0.987945 0.881498 0.692470
0.368902 1.000000 0.646815
0.393652 1.000000 0.649134
0.468879 0.998627 0.656916
0.567864 0.992920 0.667445
0.678828 0.986053 0.685359
0.782895 0.979614 0.702724
0.879057 0.972473 0.721279
0.965728 0.966155 0.744930
0.000000 0.000000 0.754940
0.000000 0.000000 0.758541
0.238529 0.000000 0.766720
0.423377 0.000000 0.778134
0.606744 0.000000 0.789792
0.795529 0.000000 0.799588
0.924651 0.000000 0.763424
1.000000 0.117403 0.729732
0.000000 0.000000 0.758145
0.000000 0.000000 0.763058
0.208469 0.000000 0.769253
0.411505 0.000000 0.777340
0.601129 0.000000 0.787381
0.793515 0.000000 0.797604
0.922637 0.000000 0.761105
1.000000 0.188968 0.729183
0.000000 0.120241 0.783902
0.000000 0.111330 0.783749
0.000000 0.072267 0.785245
0.376989 0.000000 0.783200
0.592340 0.000000 0.790249
0.796017 0.000000 0.800076
0.923186 0.198306 0.762753
1.000000 0.363226 0.738369
0.000000 0.392859 0.789120
0.000000 0.383398 0.787778
0.000000 0.355413 0.793271
0.332036 0.343053 0.801053
0.592920 0.350378 0.806973
0.808438 0.368566 0.811521
0.922332 0.467201 0.773373
0.997803 0.542748 0.759487
0.000000 0.609277 0.798520
0.000000 0.608026 0.799466
0.000000 0.602808 0.802579
0.340185 0.596643 0.806607
0.592523 0.596185 0.807767
0.806638 0.609155 0.809659
0.909636 0.659174 0.784207
0.983124 0.695979 0.785885
0.000000 0.804837 0.806241
0.000000 0.807462 0.808835
0.066773 0.809384 0.810849
0.409979 0.810636 0.812253
0.622889 0.810086 0.811429
0.803311 0.804440 0.806119
0.901244 0.810849 0.812467
0.972595 0.816617 0.818143
0.000000 0.933776 0.778805
0.115084 0.934783 0.780545
0.311772 0.932464 0.780331
0.477516 0.926574 0.778622
0.636225 0.917845 0.778744
0.782223 0.907897 0.785367
0.902770 0.903319 0.791897
0.971038 0.890990 0.819425
0.385229 0.999725 0.760281
0.408484 0.998871 0.761410
0.478309 0.995911 0.764584
0.576471 0.990784 0.770413
0.687434 0.983337 0.781155
0.795193 0.975830 0.797787
0.884337 0.970123 0.808286
0.964843 0.965057 0.821500
0.000000 0.000000 0.889860
0.000000 0.000000 0.891386
0.215152 0.000000 0.893614
0.397986 0.000000 0.897856
0.568139 0.000000 0.901915
0.738460 0.000000 0.905516
0.907042 0.000000 0.908354
1.000000 0.000000 0.860929
0.000000 0.000000 0.890043
0.000000 0.000000 0.892149
0.182040 0.000000 0.894285
0.386542 0.000000 0.897887
0.563073 0.000000 0.901305
0.736629 0.000000 0.905028
0.906371 0.000000 0.907591
1.000000 0.135378 0.860044
0.000000 0.080385 0.901335
0.000000 0.068269 0.901549
0.000000 0.000000 0.901274
0.351019 0.000000 0.901244
0.550622 0.000000 0.902525
0.733364 0.000000 0.905577
0.908202 0.055360 0.909422
0.999542 0.328557 0.862119
0.000000 0.339635 0.903899
0.000000 0.329686 0.903136
0.000000 0.310399 0.904692
0.305272 0.315770 0.907073
0.541405 0.326574 0.908995
0.735714 0.350042 0.910521
0.910643 0.394812 0.911589
0.994202 0.508293 0.867033
0.000000 0.558160 0.905577
0.000000 0.555566 0.905638
0.000000 0.548180 0.906493
0.307012 0.540764 0.907866
0.545342 0.548821 0.907988
0.739712 0.568902 0.907683
0.906310 0.596612 0.907225
0.982696 0.665888 0.871885
0.000000 0.741634 0.904509
0.000000 0.742489 0.905638
0.134951 0.742702 0.906371
0.396155 0.744686 0.906706
0.590082 0.750057 0.906004
0.763821 0.764767 0.904234
0.903807 0.778439 0.904662
0.971557 0.808408 0.887022
0.099763 0.905486 0.905699
0.195926 0.906615 0.906828
0.339361 0.906676 0.906737
0.486885 0.905180 0.905455
0.640589 0.903044 0.903471
0.782681 0.900786 0.901244
0.895750 0.896086 0.896544
0.961212 0.899382 0.899840
0.407874 0.996735 0.877165
0.429511 0.995941 0.877226
0.490486 0.992767 0.876524
0.584405 0.987732 0.876616
0.692409 0.980468 0.878233
0.797574 0.972961 0.882567
0.888304 0.965942 0.889128
0.962463 0.962554 0.894041
0.000000 0.000000 0.979461
0.000000 0.000000 0.979950
0.182254 0.000000 0.980346
0.364874 0.000000 0.981231
0.525017 0.000000 0.981384
0.681117 0.000000 0.981262
0.833341 0.000000 0.980407
0.979034 0.000000 0.979217
0.000000 0.000000 0.978607
0.000000 0.000000 0.979370
0.148440 0.000000 0.979736
0.354131 0.000000 0.980316
0.520195 0.000000 0.980591
0.679469 0.000000 0.980926
0.832914 0.000000 0.980255
0.978424 0.000000 0.978576
0.000000 0.012116 0.982300
0.000000 0.000000 0.981964
0.000000 0.000000 0.981048
0.323522 0.000000 0.980743
0.508812 0.000000 0.980529
0.675257 0.060700 0.980316
0.832975 0.176516 0.980194
0.978271 0.282658 0.978515
0.000000 0.284733 0.981537
0.000000 0.283543 0.980896
0.000000 0.286595 0.980957
0.286137 0.296818 0.981628
0.499672 0.313817 0.981537
0.675898 0.344488 0.980743
0.835233 0.394476 0.979095
0.976471 0.456916 0.976593
0.000000 0.507439 0.979919
0.000000 0.505180 0.979950
0.000000 0.497597 0.979797
0.273472 0.489570 0.979828
0.505486 0.509331 0.978759
0.683497 0.535210 0.976715
0.838407 0.571008 0.974395
0.971771 0.616815 0.971954
0.000000 0.688014 0.976135
0.000000 0.688960 0.976471
0.218540 0.689754 0.976226
0.396979 0.691859 0.975372
0.562463 0.700526 0.973510
0.721004 0.722133 0.971283
0.854856 0.745876 0.969451
0.967437 0.770687 0.967590
0.294255 0.845487 0.972412
0.326909 0.846586 0.972595
0.405219 0.847379 0.971954
0.511711 0.848600 0.970428
0.636316 0.852659 0.968048
0.761624 0.860929 0.965423
0.870451 0.870665 0.962646
0.962005 0.880827 0.962188
0.472908 0.967895 0.967681
0.487617 0.967681 0.967529
0.537469 0.967102 0.967010
0.616907 0.966217 0.966094
0.710384 0.964965 0.964996
0.804898 0.963714 0.963745
0.891447 0.962371 0.962402
0.959991 0.960021 0.960113
