cubelut/NW-3.cube
# Created by Adobe Lightroom plugin Export LUT (1.18.0)
# www.johnrellis.com/lightroom/exportlut.htm
# Preset: NW3
# Color profile: /Library/Application Support/Adobe/Color/Profiles/Recommended/AdobeRGB1998.icc
LUT_3D_SIZE 5
DOMAIN_MIN 0.000000 0.000000 0.000000
DOMAIN_MAX 0.903226 0.903226 0.903226
0.000000 0.000000 0.000000
0.094789 0.000000 0.053773
0.489021 0.000000 0.078187
0.839200 0.000000 0.086275
1.000000 0.142458 0.212161
0.000000 0.140871 0.083619
0.140688 0.170260 0.095583
0.502556 0.225711 0.077577
0.835508 0.253178 0.101259
1.000000 0.308232 0.241550
0.000000 0.558892 0.000000
0.221103 0.557427 0.000000
0.587549 0.594720 0.000000
0.863493 0.578424 0.171298
1.000000 0.566400 0.329503
0.000000 0.862455 0.080598
0.242618 0.864927 0.104921
0.566400 0.861357 0.156344
0.850736 0.853239 0.229679
1.000000 0.793545 0.389471
0.327184 1.000000 0.363714
0.401770 1.000000 0.371099
0.582055 0.996094 0.400946
0.787625 0.983612 0.468330
0.967895 0.968872 0.556634
0.000000 0.000000 0.178378
0.085298 0.000000 0.194125
0.504936 0.000000 0.245335
0.838651 0.000000 0.244663
1.000000 0.138308 0.317784
0.000000 0.150179 0.213931
0.130373 0.167788 0.225742
0.522606 0.178775 0.235569
0.838132 0.206821 0.256443
1.000000 0.306737 0.336706
0.000000 0.559747 0.259983
0.007935 0.569238 0.198306
0.580621 0.588128 0.216464
0.851225 0.568048 0.312657
1.000000 0.569268 0.409308
0.000000 0.859831 0.256962
0.166110 0.861753 0.247044
0.550469 0.856626 0.272923
0.845090 0.847593 0.322148
1.000000 0.792508 0.460578
0.331762 1.000000 0.425086
0.408270 1.000000 0.433692
0.589319 0.994476 0.463416
0.789761 0.981781 0.517906
0.966583 0.967376 0.592432
0.000000 0.000000 0.474037
0.171145 0.000000 0.488563
0.520043 0.000000 0.539178
0.838590 0.000000 0.540764
1.000000 0.178134 0.539055
0.000000 0.155459 0.525017
0.000000 0.080201 0.534539
0.542260 0.000000 0.559564
0.842283 0.119600 0.542809
1.000000 0.365026 0.565362
0.000000 0.564111 0.573419
0.000000 0.566918 0.575952
0.560021 0.566033 0.575067
0.840024 0.585626 0.593866
1.000000 0.621973 0.628565
0.000000 0.863401 0.560388
0.077638 0.864866 0.554528
0.535088 0.858152 0.550225
0.845762 0.847410 0.576287
0.987823 0.817411 0.677852
0.357519 1.000000 0.590753
0.437964 1.000000 0.600397
0.618555 0.990967 0.627863
0.803586 0.979278 0.661677
0.966186 0.966705 0.708431
0.000000 0.000000 0.791653
0.180392 0.000000 0.798306
0.505821 0.000000 0.813779
0.826444 0.000000 0.829435
1.000000 0.095064 0.761990
0.000000 0.000000 0.810605
0.000000 0.000000 0.811826
0.486580 0.000000 0.818692
0.829465 0.000000 0.832395
1.000000 0.318547 0.768154
0.000000 0.492317 0.824369
0.000000 0.477211 0.826322
0.450629 0.457130 0.834348
0.837064 0.492805 0.839414
0.991119 0.616876 0.795132
0.000000 0.839261 0.840238
0.000000 0.840665 0.841672
0.529320 0.839658 0.840818
0.832029 0.832853 0.834104
0.969024 0.839994 0.841093
0.390936 0.999054 0.789639
0.462501 0.996307 0.792111
0.634760 0.986786 0.801266
0.821225 0.973419 0.823209
0.964233 0.964477 0.839689
0.000000 0.000000 0.979461
0.117311 0.000000 0.980194
0.445655 0.000000 0.981445
0.719509 0.000000 0.981079
0.979034 0.000000 0.979217
0.000000 0.000000 0.981476
0.000000 0.000000 0.980865
0.424475 0.000000 0.979797
0.716030 0.000000 0.980224
0.978668 0.237644 0.978912
0.000000 0.404425 0.981537
0.000000 0.386664 0.980560
0.393561 0.399817 0.980591
0.719203 0.450690 0.978576
0.974762 0.540612 0.974975
0.000000 0.732113 0.976196
0.242832 0.733761 0.975921
0.503746 0.737942 0.973358
0.764950 0.765713 0.968780
0.965576 0.799313 0.965759
0.472908 0.967895 0.967681
0.521843 0.967285 0.967163
0.662562 0.965545 0.965545
0.827543 0.963348 0.963409
0.959991 0.960021 0.960113
