cubelut/NW-4.cube
# Created by Adobe Lightroom plugin Export LUT (1.18.0)
# www.johnrellis.com/lightroom/exportlut.htm
# Preset: NW4
# Color profile: /Library/Application Support/Adobe/Color/Profiles/Recommended/AdobeRGB1998.icc
LUT_3D_SIZE 32
DOMAIN_MIN 0.0 0.0 0.0
DOMAIN_MAX 1.0 1.0 1.0
0.000000 0.000000 0.000000
0.000000 0.000000 0.000000
0.001343 0.000000 0.000000
0.005005 0.000000 0.002106
0.014496 0.000000 0.001984
0.028229 0.002289 0.002319
0.050050 0.007904 0.002350
0.070008 0.011566 0.004211
0.092348 0.012787 0.005341
0.122042 0.005493 0.005432
0.160006 0.000000 0.005890
0.207248 0.000000 0.004547
0.262181 0.000000 0.000000
0.322515 0.000000 0.000000
0.385840 0.000000 0.000000
0.449897 0.000000 0.000000
0.513237 0.000000 0.000000
0.574609 0.000000 0.000000
0.635859 0.000000 0.000000
0.704433 0.000000 0.000000
0.765621 0.000000 0.000000
0.820340 0.000000 0.000000
0.867704 0.000000 0.000000
0.908568 0.000000 0.000000
0.943786 0.000000 0.000000
0.974731 0.000000 0.000000
1.000000 0.000000 0.000000
1.000000 0.000000 0.000000
1.000000 0.114076 0.000000
1.000000 0.181460 0.000000
1.000000 0.228275 0.000000
1.000000 0.265995 0.000000
0.000000 0.000000 0.002167
0.000000 0.000000 0.002167
0.001343 0.000000 0.000000
0.005005 0.000000 0.002106
0.013794 0.001129 0.002777
0.027497 0.005890 0.003113
0.050538 0.011261 0.003143
0.069764 0.015167 0.005005
0.091890 0.016632 0.005066
0.120943 0.010010 0.006287
0.158511 0.000000 0.006836
0.204868 0.000000 0.004578
0.259281 0.000000 0.000488
0.318761 0.000000 0.000000
0.381292 0.000000 0.000000
0.445136 0.000000 0.000000
0.508141 0.000000 0.000000
0.569299 0.000000 0.000000
0.631098 0.000000 0.000000
0.697871 0.000000 0.000000
0.758297 0.000000 0.000000
0.812650 0.000000 0.000000
0.860472 0.000000 0.000000
0.901976 0.000000 0.000000
0.938018 0.000000 0.000000
0.969787 0.000000 0.000000
0.998230 0.000000 0.000000
1.000000 0.000000 0.000000
1.000000 0.111025 0.000000
1.000000 0.179751 0.000000
1.000000 0.227878 0.000000
1.000000 0.265568 0.000000
0.000000 0.000000 0.003265
0.000763 0.000977 0.002075
0.001953 0.001953 0.001953
0.005493 0.003693 0.002808
0.014099 0.006928 0.003388
0.027832 0.011688 0.003723
0.049714 0.016083 0.004944
0.069368 0.019959 0.006806
0.091554 0.021424 0.007965
0.120668 0.015991 0.009094
0.157778 0.000000 0.009583
0.204196 0.000000 0.007355
0.258091 0.000000 0.002075
0.317662 0.000000 0.000000
0.379889 0.000000 0.000000
0.443305 0.000000 0.000000
0.506188 0.000000 0.000000
0.567193 0.000000 0.000000
0.629877 0.000000 0.000000
0.695247 0.000000 0.000000
0.755154 0.000000 0.000000
0.809323 0.000000 0.000000
0.857176 0.000000 0.000000
0.898924 0.000000 0.000000
0.935271 0.000000 0.000000
0.967346 0.000000 0.000000
0.996155 0.000000 0.000000
1.000000 0.000000 0.000000
1.000000 0.117678 0.000000
1.000000 0.184176 0.000000
1.000000 0.230869 0.000000
1.000000 0.268254 0.000000
0.000000 0.014405 0.007568
0.000000 0.015381 0.006378
0.000000 0.017578 0.006165
0.003815 0.019074 0.005921
0.012604 0.021118 0.006592
0.028016 0.023255 0.007111
0.049592 0.028840 0.009308
0.069856 0.032532 0.010071
0.092592 0.033539 0.011200
0.121920 0.028870 0.011109
0.159152 0.011109 0.011444
0.205386 0.000000 0.009796
0.258854 0.000000 0.004273
0.318120 0.000000 0.000000
0.380011 0.000000 0.000000
0.443061 0.000000 0.000000
0.505455 0.000000 0.000000
0.566186 0.000000 0.000000
0.629633 0.000000 0.000000
0.692195 0.000000 0.000000
0.750362 0.000000 0.000000
0.803830 0.000000 0.000000
0.852110 0.000000 0.000000
0.895048 0.000000 0.000000
0.932769 0.000000 0.000000
0.966125 0.000000 0.000000
0.995697 0.000000 0.000000
1.000000 0.000000 0.000000
1.000000 0.143008 0.000000
1.000000 0.199893 0.000000
1.000000 0.242588 0.000000
1.000000 0.277592 0.000000
0.000000 0.035798 0.016754
0.000000 0.037018 0.012299
0.000000 0.039216 0.012085
0.000000 0.041932 0.011749
0.009155 0.044953 0.012329
0.024506 0.045869 0.014008
0.048402 0.049256 0.014099
0.070802 0.050599 0.014923
0.093538 0.052094 0.015930
0.123171 0.049897 0.017762
0.160525 0.038483 0.016510
0.206729 0.008087 0.013245
0.260258 0.000000 0.006897
0.319219 0.000000 0.000000
0.381384 0.000000 0.000000
0.444800 0.000000 0.000000
0.507866 0.000000 0.000000
0.568688 0.000000 0.000000
0.633997 0.000000 0.000000
0.694606 0.000000 0.000000
0.751034 0.000000 0.000000
0.803372 0.000000 0.000000
0.851011 0.000000 0.000000
0.893706 0.000000 0.000000
0.931609 0.000000 0.000000
0.965087 0.000000 0.000000
0.994690 0.000000 0.000000
1.000000 0.101961 0.000000
1.000000 0.171695 0.000000
1.000000 0.220035 0.000000
1.000000 0.258946 0.000000
1.000000 0.291814 0.000000
0.000000 0.060853 0.026154
0.000000 0.061341 0.021698
0.000000 0.062196 0.020417
0.000000 0.063294 0.020050
0.003784 0.065400 0.019348
0.020813 0.067720 0.021637
0.045869 0.067506 0.022126
0.069947 0.069368 0.023713
0.094850 0.070863 0.023255
0.127108 0.070100 0.023499
0.165621 0.067536 0.021332
0.212467 0.058961 0.016846
0.266392 0.017487 0.011383
0.325505 0.000000 0.000000
0.387701 0.000000 0.000000
0.450965 0.000000 0.000000
0.514000 0.000000 0.000000
0.577417 0.000000 0.000000
0.641749 0.000000 0.000000
0.701045 0.000000 0.000000
0.756558 0.000000 0.000000
0.808377 0.000000 0.000000
0.900481 0.000000 0.000000
0.936767 0.000000 0.000000
0.967956 0.000000 0.000000
0.995148 0.108583 0.000000
1.000000 0.166445 0.000000
1.000000 0.209720 0.000000
1.000000 0.246220 0.000000
1.000000 0.278569 0.000000
1.000000 0.306340 0.000000
1.000000 0.330663 0.000000
0.000000 0.081178 0.039918
0.000000 0.081849 0.031037
0.000000 0.082765 0.030732
0.000000 0.084199 0.030182
0.000000 0.086946 0.028016
0.013275 0.090394 0.027527
0.045960 0.094850 0.028443
0.072602 0.094392 0.029328
0.100038 0.097322 0.029969
0.135592 0.099153 0.029694
0.180636 0.097597 0.026581
0.233616 0.091279 0.020447
0.289769 0.080476 0.009522
0.350011 0.054139 0.000000
0.411658 0.000000 0.000000
0.473152 0.000000 0.000000
0.534112 0.000000 0.000000
0.602716 0.000000 0.000000
0.665705 0.000000 0.000000
0.724819 0.000000 0.000000
0.781888 0.000000 0.000000
0.835630 0.000000 0.000000
0.884306 0.000000 0.000000
0.926360 0.000000 0.000000
0.961852 0.109255 0.000000
0.991272 0.165286 0.000000
1.000000 0.208103 0.000000
1.000000 0.243717 0.000000
1.000000 0.274907 0.000000
1.000000 0.303166 0.000000
1.000000 0.328283 0.000000
1.000000 0.350500 0.000000
0.000000 0.106477 0.051850
0.000000 0.107240 0.040162
0.000000 0.107881 0.039826
0.000000 0.109865 0.036744
0.000000 0.112856 0.035279
0.000000 0.116823 0.033143
0.025879 0.121828 0.034394
0.068971 0.127504 0.034363
0.097383 0.127016 0.037354
0.134615 0.130373 0.034852
0.180270 0.132448 0.028992
0.235019 0.130495 0.021149
0.296422 0.123171 0.009186
0.359045 0.110628 0.000000
0.420508 0.093050 0.000000
0.481544 0.063233 0.000000
0.548272 0.000000 0.000000
0.613001 0.000000 0.000000
0.672145 0.000000 0.000000
0.728786 0.000000 0.000000
0.783719 0.000000 0.000000
0.835782 0.000000 0.000000
0.883238 0.073426 0.000000
0.924529 0.134676 0.000000
0.959594 0.179477 0.000000
0.988952 0.217258 0.000000
1.000000 0.249973 0.000000
1.000000 0.279240 0.000000
1.000000 0.306706 0.000000
1.000000 0.331365 0.000000
1.000000 0.354192 0.000000
1.000000 0.374121 0.000000
0.000000 0.139498 0.060426
0.000000 0.140230 0.049439
0.000000 0.141054 0.047425
0.000000 0.142855 0.045411
0.000000 0.145876 0.043458
0.000000 0.149996 0.039582
0.000000 0.155062 0.036866
0.053651 0.161501 0.035492
0.095247 0.168917 0.032685
0.132387 0.168154 0.035737
0.181064 0.171633 0.029053
0.236515 0.173037 0.017853
0.298344 0.171023 0.002350
0.364355 0.164004 0.000000
0.432197 0.151278 0.000000
0.500053 0.139254 0.000000
0.565881 0.126589 0.000000
0.626612 0.113771 0.000000
0.682338 0.104341 0.000000
0.736660 0.104982 0.000000
0.789487 0.119692 0.000000
0.839628 0.144503 0.000000
0.885374 0.175967 0.000000
0.925353 0.208286 0.000000
0.959564 0.239841 0.000000
0.988342 0.267735 0.000000
1.000000 0.294255 0.000000
1.000000 0.319066 0.000000
1.000000 0.342077 0.000000
1.000000 0.363622 0.000000
1.000000 0.383307 0.000000
1.000000 0.400855 0.000000
0.000000 0.179141 0.063355
0.000000 0.179690 0.057404
0.000000 0.180453 0.049622
0.000000 0.182162 0.048554
0.000000 0.184939 0.045686
0.000000 0.188693 0.040253
0.000000 0.193484 0.034699
0.005859 0.199985 0.032136
0.081422 0.207797 0.027649
0.131502 0.216190 0.021424
0.178592 0.215671 0.020203
0.236332 0.217166 0.010254
0.299046 0.218357 0.000000
0.365423 0.216098 0.000000
0.441016 0.213321 0.000000
0.515221 0.206332 0.000000
0.586389 0.196109 0.000000
0.644282 0.192020 0.000000
0.697749 0.190799 0.000000
0.749386 0.195285 0.000000
0.798856 0.206149 0.000000
0.845457 0.222965 0.000000
0.887877 0.243961 0.000000
0.925444 0.267460 0.000000
0.958160 0.290990 0.000000
0.986358 0.314153 0.000000
1.000000 0.336522 0.000000
1.000000 0.357977 0.000000
1.000000 0.378454 0.000000
1.000000 0.397711 0.000000
1.000000 0.415473 0.000000
1.000000 0.431220 0.000000
0.000000 0.222507 0.066194
0.000000 0.223026 0.059205
0.000000 0.223941 0.047608
0.000000 0.225772 0.044892
0.000000 0.228519 0.041993
0.000000 0.232425 0.035615
0.000000 0.237369 0.028779
0.000000 0.243412 0.019989
0.054627 0.251591 0.014496
0.118959 0.260349 0.007050
0.179812 0.269017 0.000000
0.240787 0.271885 0.000000
0.304326 0.270359 0.000000
0.376043 0.273442 0.000000
0.449287 0.273259 0.000000
0.521050 0.270329 0.000000
0.589471 0.265751 0.000000
0.652583 0.260960 0.000000
0.709377 0.257877 0.000000
0.758755 0.263127 0.000000
0.806210 0.273106 0.000000
0.851011 0.287663 0.000000
0.891997 0.305730 0.000000
0.928161 0.324926 0.000000
0.959747 0.344457 0.000000
0.987060 0.363348 0.000000
1.000000 0.381781 0.000000
1.000000 0.399664 0.000000
1.000000 0.416907 0.000000
1.000000 0.433204 0.000000
1.000000 0.448310 0.000000
1.000000 0.462074 0.000000
0.000000 0.271672 0.064790
0.000000 0.272313 0.056519
0.000000 0.273198 0.039063
0.000000 0.274815 0.032654
0.000000 0.277623 0.028992
0.000000 0.281376 0.020630
0.000000 0.286381 0.013550
0.000000 0.291966 0.002716
0.000000 0.299351 0.000000
0.099886 0.308690 0.000000
0.170840 0.319799 0.000000
0.245975 0.332433 0.000000
0.363836 0.371862 0.000000
0.431739 0.363684 0.000000
0.506767 0.365362 0.000000
0.577447 0.364599 0.000000
0.641840 0.362737 0.000000
0.699794 0.360845 0.000000
0.753201 0.360418 0.000000
0.803769 0.362982 0.000000
0.848142 0.369360 0.000000
0.885588 0.379858 0.000000
0.919219 0.392065 0.000000
0.949432 0.405035 0.000000
0.976135 0.418311 0.000000
0.999725 0.431495 0.000000
1.000000 0.444190 0.000000
1.000000 0.456397 0.000000
1.000000 0.468421 0.000000
1.000000 0.480049 0.000000
1.000000 0.491005 0.000000
1.000000 0.500969 0.000000
0.000000 0.335576 0.060151
0.000000 0.336126 0.045869
0.000000 0.336339 0.018402
0.000000 0.337072 0.005127
0.000000 0.338842 0.000000
0.000000 0.341100 0.000000
0.000000 0.344793 0.000000
0.000000 0.349645 0.000000
0.000000 0.357946 0.000000
0.071748 0.371679 0.000000
0.168215 0.387640 0.000000
0.255131 0.403571 0.000000
0.344701 0.419165 0.000000
0.436561 0.432532 0.000000
0.503532 0.423346 0.000000
0.575189 0.424872 0.000000
0.638880 0.424414 0.000000
0.695827 0.423377 0.000000
0.748562 0.423468 0.000000
0.798215 0.425910 0.000000
0.844511 0.430976 0.000000
0.886442 0.437018 0.000000
0.920500 0.445533 0.000000
0.949554 0.455665 0.000000
0.975433 0.466011 0.000000
0.998383 0.476356 0.000000
1.000000 0.486336 0.000000
1.000000 0.496254 0.000000
1.000000 0.506065 0.000000
1.000000 0.515648 0.000000
1.000000 0.524804 0.000000
1.000000 0.533074 0.000000
0.000000 0.389685 0.048920
0.000000 0.390234 0.025818
0.000000 0.390539 0.000000
0.000000 0.391302 0.000000
0.000000 0.393286 0.000000
0.000000 0.397375 0.000000
0.000000 0.402899 0.000000
0.000000 0.409735 0.000000
0.000000 0.417945 0.000000
0.000000 0.427924 0.000000
0.146059 0.442298 0.000000
0.240452 0.457465 0.000000
0.331487 0.471839 0.000000
0.422644 0.484504 0.000000
0.510399 0.495247 0.000000
0.570459 0.483558 0.000000
0.634791 0.482948 0.000000
0.691035 0.482216 0.000000
0.743435 0.482704 0.000000
0.792752 0.485267 0.000000
0.838987 0.490120 0.000000
0.880888 0.496101 0.000000
0.917906 0.501915 0.000000
0.950530 0.507530 0.000000
0.976043 0.515190 0.000000
0.998291 0.522728 0.000000
1.000000 0.530358 0.000000
1.000000 0.537896 0.000000
1.000000 0.545434 0.000000
1.000000 0.553063 0.000000
1.000000 0.560113 0.000000
1.000000 0.566644 0.000000
0.000000 0.455848 0.027344
0.000000 0.456550 0.001892
0.000000 0.456855 0.000000
0.000000 0.457771 0.000000
0.000000 0.459236 0.000000
0.000000 0.461585 0.000000
0.000000 0.465156 0.000000
0.000000 0.470100 0.000000
0.000000 0.477058 0.000000
0.000000 0.485481 0.000000
0.110842 0.496468 0.000000
0.221164 0.510491 0.000000
0.316106 0.524132 0.000000
0.407904 0.536217 0.000000
0.495735 0.546441 0.000000
0.576715 0.554406 0.000000
0.629145 0.541070 0.000000
0.687617 0.539635 0.000000
0.739315 0.540154 0.000000
0.788205 0.542626 0.000000
0.833921 0.546746 0.000000
0.875578 0.551995 0.000000
0.912474 0.557031 0.000000
0.945190 0.561639 0.000000
0.973816 0.565698 0.000000
0.998596 0.569299 0.000000
1.000000 0.575128 0.000000
1.000000 0.581079 0.000000
1.000000 0.587091 0.000000
1.000000 0.593072 0.000000
1.000000 0.598596 0.000000
1.000000 0.603449 0.000000
0.000000 0.520958 0.000000
0.000000 0.521935 0.000000
0.000000 0.522393 0.000000
0.000000 0.523461 0.000000
0.000000 0.524834 0.000000
0.000000 0.527306 0.000000
0.000000 0.530846 0.000000
0.000000 0.535607 0.000000
0.000000 0.541619 0.000000
0.000000 0.548425 0.000000
0.059724 0.555566 0.000000
0.199100 0.565789 0.000000
0.298894 0.576226 0.000000
0.390845 0.585626 0.000000
0.477638 0.593622 0.000000
0.558526 0.600366 0.000000
0.631983 0.606958 0.000000
0.679408 0.594476 0.000000
0.735775 0.595087 0.000000
0.785183 0.598383 0.000000
0.831266 0.602899 0.000000
0.873167 0.608209 0.000000
0.910216 0.612634 0.000000
0.942870 0.616632 0.000000
0.971466 0.619745 0.000000
0.996490 0.622034 0.000000
1.000000 0.623438 0.000000
1.000000 0.625086 0.000000
1.000000 0.628748 0.000000
1.000000 0.632044 0.000000
1.000000 0.635096 0.000000
1.000000 0.637812 0.000000
0.000000 0.580468 0.000000
0.000000 0.580835 0.000000
0.000000 0.580987 0.000000
0.000000 0.581811 0.000000
0.000000 0.583032 0.000000
0.000000 0.584771 0.000000
0.000000 0.587823 0.000000
0.000000 0.591547 0.000000
0.000000 0.596399 0.000000
0.000000 0.601923 0.000000
0.000000 0.608209 0.000000
0.164889 0.614618 0.000000
0.276555 0.624475 0.000000
0.372198 0.632837 0.000000
0.460426 0.640101 0.000000
0.541802 0.645960 0.000000
0.615717 0.651575 0.000000
0.682643 0.657923 0.000000
0.726925 0.647120 0.000000
0.780606 0.649226 0.000000
0.826352 0.653285 0.000000
0.868009 0.657649 0.000000
0.905119 0.661372 0.000000
0.938079 0.664576 0.000000
0.966949 0.667109 0.000000
0.992279 0.668696 0.000000
1.000000 0.669337 0.000000
1.000000 0.669398 0.000000
1.000000 0.668605 0.000000
1.000000 0.668757 0.000000
1.000000 0.670283 0.000000
1.000000 0.671351 0.000000
0.000000 0.638941 0.000000
0.000000 0.640070 0.000000
0.000000 0.672053 0.000000
0.000000 0.672450 0.000000
0.000000 0.672938 0.000000
0.000000 0.673610 0.000000
0.000000 0.674739 0.000000
0.000000 0.676448 0.000000
0.000000 0.679255 0.000000
0.000000 0.682582 0.000000
0.000000 0.686519 0.000000
0.169619 0.690150 0.000000
0.275090 0.694240 0.000000
0.375494 0.700343 0.000000
0.465614 0.705196 0.000000
0.547204 0.709163 0.000000
0.620691 0.712978 0.000000
0.686152 0.716945 0.000000
0.745846 0.721645 0.000000
0.785428 0.711757 0.000000
0.833829 0.712642 0.000000
0.873198 0.714534 0.000000
0.908568 0.716121 0.000000
0.939788 0.716793 0.000000
0.967010 0.716548 0.000000
0.990967 0.715541 0.000000
1.000000 0.713863 0.000000
1.000000 0.711849 0.000000
1.000000 0.709773 0.000000
1.000000 0.707210 0.000000
1.000000 0.704189 0.000000
1.000000 0.702876 0.000000
0.000000 0.702754 0.000000
0.000000 0.707301 0.000000
0.000000 0.711666 0.000000
0.000000 0.715938 0.000000
0.000000 0.719387 0.000000
0.000000 0.721492 0.000000
0.000000 0.722988 0.000000
0.000000 0.724514 0.000000
0.000000 0.726925 0.000000
0.000000 0.729458 0.000000
0.000000 0.732540 0.000000
0.144350 0.735378 0.000000
0.254032 0.737331 0.000000
0.352239 0.741085 0.000000
0.445197 0.744900 0.000000
0.528344 0.748165 0.000000
0.602869 0.750851 0.000000
0.669673 0.753841 0.000000
0.730343 0.757595 0.000000
0.785855 0.762264 0.000000
0.824277 0.755612 0.000000
0.867948 0.755612 0.000000
0.904204 0.756497 0.000000
0.935760 0.756802 0.000000
0.963287 0.756100 0.000000
0.987549 0.754574 0.000000
1.000000 0.752438 0.000000
1.000000 0.749935 0.000000
1.000000 0.747127 0.000000
1.000000 0.743923 0.000000
1.000000 0.740230 0.000000
1.000000 0.736019 0.000000
0.000000 0.752560 0.000000
0.000000 0.756435 0.000000
0.000000 0.760494 0.000000
0.000000 0.764126 0.000000
0.000000 0.767239 0.000000
0.000000 0.768978 0.000000
0.000000 0.770230 0.000000
0.000000 0.771511 0.000000
0.000000 0.773404 0.000000
0.000000 0.775448 0.000000
0.000000 0.777798 0.000000
0.119753 0.779873 0.000000
0.243076 0.781216 0.000000
0.331609 0.781796 0.000000
0.427100 0.784604 0.000000
0.512627 0.786770 0.000000
0.588373 0.788540 0.000000
0.656275 0.790402 0.000000
0.717556 0.792782 0.000000
0.773648 0.795895 0.000000
0.824582 0.799741 0.000000
0.863523 0.797116 0.000000
0.899992 0.793729 0.000000
0.932677 0.793057 0.000000
0.960266 0.791653 0.000000
0.984497 0.789487 0.000000
1.000000 0.786740 0.000000
1.000000 0.783597 0.000000
1.000000 0.780240 0.000000
1.000000 0.776516 0.000000
1.000000 0.772396 0.000000
1.000000 0.767727 0.000000
0.000000 0.799863 0.000000
0.000000 0.803220 0.000000
0.000000 0.806668 0.000000
0.000000 0.809995 0.000000
0.000000 0.812589 0.000000
0.000000 0.814115 0.000000
0.000000 0.815030 0.000000
0.000000 0.815824 0.000000
0.000000 0.816892 0.000000
0.000000 0.818265 0.000000
0.000000 0.819669 0.000000
0.092805 0.820829 0.000000
0.234226 0.821408 0.000000
0.325811 0.821347 0.000000
0.409949 0.821530 0.000000
0.498421 0.823239 0.000000
0.577234 0.824765 0.000000
0.647456 0.826566 0.000000
0.710872 0.828794 0.000000
0.768612 0.831510 0.000000
0.820981 0.834714 0.000000
0.868437 0.838254 0.000000
0.906554 0.838193 0.000000
0.936156 0.832364 0.000000
0.964721 0.829862 0.000000
0.988190 0.827024 0.000000
1.000000 0.823484 0.000000
1.000000 0.819516 0.000000
1.000000 0.815183 0.000000
1.000000 0.810636 0.000000
1.000000 0.805631 0.000000
1.000000 0.800290 0.000000
0.000000 0.854337 0.000000
0.000000 0.855772 0.000000
0.000000 0.856931 0.000000
0.000000 0.858122 0.000000
0.000000 0.859190 0.000000
0.000000 0.859678 0.000000
0.000000 0.860197 0.000000
0.000000 0.860777 0.000000
0.000000 0.861723 0.000000
0.000000 0.862852 0.000000
0.000000 0.863798 0.000000
0.098543 0.864408 0.000000
0.241886 0.864195 0.000000
0.333837 0.863310 0.000000
0.412055 0.861784 0.000000
0.493446 0.860990 0.000000
0.572473 0.860929 0.000000
0.642542 0.860899 0.000000
0.705470 0.861204 0.000000
0.762295 0.861784 0.000000
0.813626 0.862730 0.000000
0.859922 0.863951 0.000000
0.901640 0.865446 0.000000
0.937255 0.865599 0.000000
0.960754 0.857664 0.000000
0.985809 0.853727 0.000000
1.000000 0.849912 0.000000
1.000000 0.845792 0.000000
1.000000 0.841337 0.000000
1.000000 0.836423 0.000000
1.000000 0.831235 0.000000
1.000000 0.825681 0.000000
0.000000 0.890196 0.000000
0.000000 0.891386 0.000000
0.000000 0.892515 0.000000
0.000000 0.893553 0.000000
0.000000 0.894316 0.000000
0.000000 0.894560 0.000000
0.000000 0.894652 0.000000
0.000000 0.894713 0.000000
0.000000 0.894957 0.000000
0.000000 0.895262 0.000000
0.000000 0.895537 0.000000
0.089845 0.895415 0.000000
0.240360 0.894682 0.000000
0.333928 0.893431 0.000000
0.412207 0.891630 0.000000
0.482185 0.889494 0.000000
0.561028 0.888518 0.000000
0.632227 0.887694 0.000000
0.695888 0.887053 0.000000
0.753170 0.886656 0.000000
0.804898 0.886564 0.000000
0.851499 0.886778 0.000000
0.893553 0.887327 0.000000
0.931334 0.887968 0.000000
0.961242 0.885893 0.000000
0.980560 0.877073 0.000000
1.000000 0.872313 0.000000
1.000000 0.868132 0.000000
1.000000 0.863554 0.000000
1.000000 0.858671 0.000000
1.000000 0.853574 0.000000
1.000000 0.848020 0.000000
0.000000 0.927001 0.026307
0.000000 0.928038 0.000153
0.000000 0.928740 0.000000
0.000000 0.929168 0.000000
0.000000 0.929412 0.000000
0.000000 0.929229 0.000000
0.000000 0.928649 0.000000
0.000000 0.927886 0.000000
0.000000 0.927062 0.000000
0.000000 0.926238 0.000000
0.000000 0.925109 0.000000
0.105715 0.923919 0.000000
0.246769 0.922271 0.000000
0.337377 0.920073 0.000000
0.413489 0.917235 0.000000
0.480964 0.914122 0.000000
0.546471 0.911101 0.000000
0.617639 0.909026 0.000000
0.681636 0.907408 0.000000
0.739528 0.906249 0.000000
0.791928 0.905425 0.000000
0.839048 0.904784 0.000000
0.881193 0.904234 0.000000
0.918822 0.903716 0.000000
0.952361 0.903258 0.000000
0.982757 0.902983 0.000000
1.000000 0.894865 0.000000
1.000000 0.889067 0.000000
1.000000 0.884276 0.000000
1.000000 0.879240 0.000000
1.000000 0.873960 0.000000
1.000000 0.868437 0.000000
0.000000 0.950622 0.099062
0.000000 0.951446 0.093385
0.000000 0.952056 0.078767
0.000000 0.952392 0.014679
0.000000 0.952605 0.000000
0.000000 0.952544 0.000000
0.000000 0.952026 0.000000
0.000000 0.951385 0.000000
0.000000 0.950652 0.000000
0.000000 0.949828 0.000000
0.000000 0.948760 0.000000
0.129488 0.947478 0.000000
0.258000 0.945769 0.000000
0.346563 0.943511 0.000000
0.420752 0.940764 0.000000
0.487373 0.937652 0.000000
0.547662 0.934478 0.000000
0.611261 0.931579 0.000000
0.675257 0.929137 0.000000
0.732906 0.927031 0.000000
0.784939 0.925200 0.000000
0.831724 0.923583 0.000000
0.873564 0.922118 0.000000
0.910948 0.920806 0.000000
0.944549 0.919554 0.000000
0.974670 0.918486 0.000000
1.000000 0.917571 0.000000
1.000000 0.910338 0.000000
1.000000 0.904204 0.000000
1.000000 0.898772 0.000000
1.000000 0.893370 0.081392
1.000000 0.887755 0.126741
0.000000 0.972076 0.142824
0.000000 0.972534 0.139498
0.000000 0.972808 0.132143
0.000000 0.972930 0.111208
0.000000 0.972900 0.065156
0.000000 0.972778 0.000000
0.000000 0.972076 0.000000
0.000000 0.971252 0.000000
0.000000 0.970306 0.000000
0.000000 0.969299 0.000000
0.000000 0.968078 0.000000
0.153048 0.966674 0.000000
0.269810 0.964843 0.000000
0.355016 0.962463 0.000000
0.426886 0.959655 0.000000
0.491371 0.956481 0.000000
0.550011 0.953185 0.000000
0.604028 0.949889 0.000000
0.665766 0.946777 0.000000
0.723293 0.943999 0.000000
0.775113 0.941466 0.000000
0.821714 0.939117 0.000000
0.863554 0.936980 0.000000
0.900969 0.935027 0.000000
0.934569 0.933227 0.000000
0.964782 0.931579 0.000000
0.992309 0.930144 0.000000
1.000000 0.928832 0.000000
1.000000 0.922332 0.000000
1.000000 0.915831 0.101106
1.000000 0.909880 0.139223
1.000000 0.904265 0.170962
0.000000 0.988617 0.181704
0.000000 0.988891 0.178500
0.000000 0.989075 0.172152
0.000000 0.989258 0.156588
0.000000 0.989471 0.130282
0.000000 0.989776 0.081727
0.000000 0.989593 0.077913
0.000000 0.989349 0.071107
0.000000 0.989075 0.066163
0.000000 0.988556 0.056672
0.000000 0.987762 0.036133
0.213596 0.986603 0.006897
0.310063 0.984924 0.000000
0.387366 0.982696 0.000000
0.454932 0.979980 0.000000
0.515129 0.976837 0.000000
0.570123 0.973510 0.000000
0.620966 0.970153 0.000000
0.670832 0.966796 0.000000
0.726741 0.963256 0.000000
0.776791 0.959991 0.000000
0.821988 0.956878 0.000000
0.862394 0.954009 0.000000
0.898711 0.951354 0.000000
0.931273 0.948913 0.000000
0.960662 0.946654 0.046601
0.987396 0.944671 0.090455
1.000000 0.942779 0.117494
1.000000 0.941070 0.140993
1.000000 0.934966 0.176516
1.000000 0.927886 0.212711
1.000000 0.921233 0.242649
0.000000 1.000000 0.237827
0.000000 1.000000 0.234897
0.000000 1.000000 0.229740
0.000000 1.000000 0.218509
0.000000 1.000000 0.198917
0.000000 1.000000 0.170993
0.000000 1.000000 0.161318
0.000000 1.000000 0.156649
0.000000 1.000000 0.152132
0.000000 1.000000 0.147555
0.134249 1.000000 0.140719
0.250645 0.999908 0.133547
0.332647 0.997742 0.124544
0.402319 0.995209 0.112764
