cubelut/NW-4.cube
# Created by Adobe Lightroom plugin Export LUT (1.18.0)
# www.johnrellis.com/lightroom/exportlut.htm
# Preset: NW4
# Color profile: /Library/Application Support/Adobe/Color/Profiles/Recommended/AdobeRGB1998.icc
LUT_3D_SIZE 5
DOMAIN_MIN 0.000000 0.000000 0.000000
DOMAIN_MAX 0.903226 0.903226 0.903226
0.000000 0.000000 0.000000
0.070008 0.011566 0.004211
0.385840 0.000000 0.000000
0.820340 0.000000 0.000000
1.000000 0.114076 0.000000
0.000000 0.106477 0.051850
0.068971 0.127504 0.034363
0.420508 0.093050 0.000000
0.835782 0.000000 0.000000
1.000000 0.306706 0.000000
0.000000 0.455848 0.027344
0.000000 0.470100 0.000000
0.495735 0.546441 0.000000
0.875578 0.551995 0.000000
1.000000 0.587091 0.000000
0.000000 0.854337 0.000000
0.000000 0.860777 0.000000
0.412055 0.861784 0.000000
0.859922 0.863951 0.000000
1.000000 0.841337 0.000000
0.000000 1.000000 0.276341
0.000000 1.000000 0.208225
0.458503 1.000000 0.135195
0.797574 0.978180 0.088746
1.000000 0.958465 0.219211
0.000000 0.000000 0.166934
0.000000 0.000000 0.177371
0.365728 0.000000 0.147463
0.774655 0.000000 0.139040
1.000000 0.000000 0.000000
0.000000 0.099489 0.182712
0.000000 0.119722 0.191806
0.395361 0.086183 0.178866
0.797543 0.000000 0.143771
1.000000 0.249180 0.000000
0.000000 0.442206 0.223178
0.000000 0.462623 0.203647
0.460853 0.507774 0.173587
0.853727 0.517357 0.137301
1.000000 0.577356 0.044404
0.000000 0.848478 0.264652
0.000000 0.856321 0.220859
0.420508 0.857053 0.134890
0.855100 0.858976 0.127596
1.000000 0.838926 0.192050
0.000000 1.000000 0.419745
0.053498 1.000000 0.380713
0.494759 0.999847 0.314855
0.800290 0.977935 0.281132
1.000000 0.958343 0.359350
0.000000 0.000000 0.418708
0.000000 0.000000 0.438758
0.447669 0.000000 0.466865
0.826688 0.000000 0.442115
1.000000 0.000000 0.334966
0.000000 0.096254 0.426429
0.000000 0.094148 0.444129
0.464118 0.000000 0.479744
0.816587 0.000000 0.432410
1.000000 0.065736 0.367407
0.000000 0.422400 0.460639
0.000000 0.442084 0.468574
0.480293 0.497871 0.501549
0.821134 0.492714 0.459815
1.000000 0.549584 0.416602
0.000000 0.832059 0.554955
0.000000 0.832578 0.549889
0.480110 0.844114 0.527337
0.844327 0.851011 0.519982
1.000000 0.833158 0.536126
0.000000 1.000000 0.645228
0.281590 0.999298 0.645258
0.571252 0.988006 0.623377
0.790494 0.972900 0.555901
0.994354 0.954986 0.613825
0.000000 0.000000 0.753872
0.000000 0.000000 0.768490
0.505669 0.000000 0.815915
0.844999 0.000000 0.828733
1.000000 0.000000 0.799313
0.000000 0.026093 0.752316
0.000000 0.000000 0.765988
0.485023 0.000000 0.810788
0.840452 0.000000 0.826108
1.000000 0.165805 0.792416
0.000000 0.385748 0.725185
0.000000 0.388800 0.735195
0.395453 0.393866 0.790829
0.825650 0.469123 0.821622
1.000000 0.529076 0.773251
0.000000 0.789090 0.794614
0.000000 0.791379 0.795193
0.462287 0.805203 0.808103
0.824643 0.838865 0.842802
0.983490 0.819455 0.795712
0.312535 0.988769 0.868711
0.420233 0.984985 0.868009
0.642176 0.973693 0.867277
0.833585 0.959991 0.864012
0.975586 0.950835 0.863523
0.000000 0.000000 0.980804
0.000000 0.000000 0.982269
0.519768 0.000000 0.988037
0.842649 0.000000 0.995941
1.000000 0.000000 0.990051
0.000000 0.000000 0.978607
0.000000 0.000000 0.980255
0.488319 0.000000 0.986145
0.833616 0.000000 0.993225
1.000000 0.000000 0.987671
0.000000 0.315007 0.971160
0.000000 0.246342 0.974304
0.336370 0.221225 0.979675
0.800198 0.296086 0.985473
0.993500 0.495583 0.981872
0.000000 0.738277 0.959777
0.000000 0.729885 0.958648
0.000000 0.696193 0.957488
0.724819 0.704372 0.970733
0.975647 0.834165 0.975677
0.000000 0.967651 0.969329
0.253910 0.964813 0.968872
0.557549 0.955901 0.968811
0.813138 0.944518 0.968780
0.971099 0.945708 0.976562
