cubelut/NW-4.cube
# Created by Adobe Lightroom plugin Export LUT (1.18.0)
# www.johnrellis.com/lightroom/exportlut.htm
# Preset: NW4
# Color profile: /Library/Application Support/Adobe/Color/Profiles/Recommended/AdobeRGB1998.icc
LUT_3D_SIZE 8
DOMAIN_MIN 0.000000 0.000000 0.000000
DOMAIN_MAX 0.903226 0.903226 0.903226
0.000000 0.000000 0.000000
0.014496 0.000000 0.001984
0.092348 0.012787 0.005341
0.262181 0.000000 0.000000
0.513237 0.000000 0.000000
0.765621 0.000000 0.000000
0.943786 0.000000 0.000000
1.000000 0.114076 0.000000
0.000000 0.035798 0.016754
0.009155 0.044953 0.012329
0.093538 0.052094 0.015930
0.260258 0.000000 0.006897
0.507866 0.000000 0.000000
0.751034 0.000000 0.000000
0.931609 0.000000 0.000000
1.000000 0.171695 0.000000
0.000000 0.139498 0.060426
0.000000 0.145876 0.043458
0.095247 0.168917 0.032685
0.298344 0.171023 0.002350
0.565881 0.126589 0.000000
0.789487 0.119692 0.000000
0.959564 0.239841 0.000000
1.000000 0.342077 0.000000
0.000000 0.335576 0.060151
0.000000 0.338842 0.000000
0.000000 0.357946 0.000000
0.344701 0.419165 0.000000
0.638880 0.424414 0.000000
0.844511 0.430976 0.000000
0.975433 0.466011 0.000000
1.000000 0.506065 0.000000
0.000000 0.580468 0.000000
0.000000 0.583032 0.000000
0.000000 0.596399 0.000000
0.276555 0.624475 0.000000
0.615717 0.651575 0.000000
0.826352 0.653285 0.000000
0.966949 0.667109 0.000000
1.000000 0.668605 0.000000
0.000000 0.799863 0.000000
0.000000 0.812589 0.000000
0.000000 0.816892 0.000000
0.234226 0.821408 0.000000
0.577234 0.824765 0.000000
0.820981 0.834714 0.000000
0.964721 0.829862 0.000000
1.000000 0.815183 0.000000
0.000000 0.950622 0.099062
0.000000 0.952605 0.000000
0.000000 0.950652 0.000000
0.258000 0.945769 0.000000
0.547662 0.934478 0.000000
0.784939 0.925200 0.000000
0.944549 0.919554 0.000000
1.000000 0.904204 0.000000
0.000000 1.000000 0.276341
0.000000 1.000000 0.244846
0.000000 1.000000 0.205631
0.361089 1.000000 0.189303
0.566491 0.994415 0.108675
0.751919 0.981720 0.051179
0.908171 0.968688 0.155276
1.000000 0.958465 0.219211
0.000000 0.000000 0.083436
0.000000 0.000000 0.085206
0.082094 0.002411 0.077424
0.241703 0.000000 0.086275
0.486763 0.000000 0.068208
0.728939 0.000000 0.000000
0.917723 0.000000 0.000000
1.000000 0.000000 0.000000
0.000000 0.032837 0.088014
0.000000 0.040497 0.091371
0.083589 0.052796 0.091951
0.249729 0.000000 0.089845
0.492531 0.000000 0.069581
0.727169 0.000000 0.000000
0.909819 0.000000 0.000000
1.000000 0.105165 0.000000
0.000000 0.130922 0.115084
0.000000 0.140139 0.109834
0.086488 0.162295 0.104524
0.288457 0.161685 0.098238
0.539666 0.115389 0.069032
0.758724 0.067475 0.000000
0.930694 0.185092 0.000000
1.000000 0.309453 0.000000
0.000000 0.320104 0.139223
0.000000 0.327398 0.121981
0.000000 0.349432 0.097505
0.311894 0.387976 0.080507
0.585534 0.381933 0.016815
0.801419 0.382940 0.000000
0.948425 0.426429 0.000000
1.000000 0.482734 0.000000
0.000000 0.571496 0.143954
0.000000 0.572686 0.111208
0.000000 0.581842 0.050080
0.252628 0.598932 0.000000
0.584894 0.621668 0.000000
0.804105 0.627497 0.000000
0.955230 0.649012 0.000000
1.000000 0.656825 0.000000
0.000000 0.785122 0.136202
0.000000 0.787991 0.076448
0.000000 0.794186 0.000000
0.213443 0.803372 0.000000
0.561334 0.812406 0.000000
0.813870 0.828305 0.000000
0.959197 0.824521 0.000000
1.000000 0.810391 0.000000
0.000000 0.939483 0.191684
0.000000 0.938872 0.143221
0.000000 0.939544 0.000000
0.237369 0.937987 0.000000
0.538720 0.929442 0.000000
0.775967 0.920623 0.000000
0.936828 0.914824 0.000000
1.000000 0.899901 0.065522
0.000000 1.000000 0.322942
0.000000 1.000000 0.298253
0.000000 1.000000 0.239414
0.358007 1.000000 0.227359
0.580041 0.995361 0.197269
0.754086 0.981933 0.158511
0.906554 0.967987 0.203525
1.000000 0.957427 0.250309
0.000000 0.000000 0.201480
0.000000 0.000000 0.206027
0.055604 0.000000 0.211887
0.273472 0.000000 0.208286
0.496529 0.000000 0.172702
0.729305 0.000000 0.180819
0.919432 0.000000 0.156069
1.000000 0.000000 0.114321
0.000000 0.034882 0.204532
0.000000 0.035340 0.208560
0.056306 0.035157 0.214633
0.267369 0.000000 0.205631
0.488441 0.000000 0.190066
0.727443 0.000000 0.181582
0.915038 0.000000 0.154360
1.000000 0.000000 0.110719
0.000000 0.130709 0.215366
0.000000 0.137819 0.218265
0.040406 0.160403 0.225772
0.284276 0.160678 0.218235
0.543145 0.117067 0.208042
0.759365 0.045930 0.188693
0.928405 0.161440 0.156619
1.000000 0.289952 0.111025
0.000000 0.320073 0.243198
0.000000 0.329259 0.243595
0.000000 0.359655 0.236210
0.328679 0.392157 0.227115
0.607202 0.385229 0.219669
0.807614 0.387549 0.198123
0.949706 0.429297 0.163241
1.000000 0.482307 0.120943
0.000000 0.566217 0.262333
0.000000 0.572320 0.260258
0.000000 0.590478 0.238285
0.269047 0.607416 0.208957
0.603510 0.630671 0.200046
0.813596 0.632990 0.192081
0.957671 0.648402 0.174685
1.000000 0.659113 0.162722
0.000000 0.783322 0.282078
0.000000 0.786831 0.279271
0.000000 0.794400 0.242863
0.234714 0.799924 0.197879
0.554650 0.804868 0.171939
0.807919 0.821195 0.179965
0.954376 0.820249 0.208499
1.000000 0.810391 0.226566
0.000000 0.940215 0.342321
0.000000 0.939422 0.337316
0.000000 0.938750 0.288884
0.260807 0.936034 0.234165
0.544091 0.926726 0.199344
0.773922 0.918914 0.202548
0.937865 0.915526 0.243320
1.000000 0.901793 0.301488
0.000000 1.000000 0.436988
0.000000 1.000000 0.433875
0.160494 1.000000 0.396979
0.388678 1.000000 0.358373
0.590814 0.992859 0.334478
0.753231 0.980774 0.304173
0.905394 0.967285 0.340887
1.000000 0.957336 0.382483
0.000000 0.000000 0.333532
0.000000 0.000000 0.341588
0.000000 0.000000 0.360876
0.299565 0.000000 0.367712
0.573053 0.000000 0.368658
0.758633 0.000000 0.326574
0.909331 0.000000 0.269718
1.000000 0.000000 0.274296
0.000000 0.020508 0.342016
0.000000 0.021515 0.347448
0.000000 0.000000 0.364141
0.306035 0.000000 0.372656
0.573358 0.000000 0.368536
0.752712 0.000000 0.322606
0.902190 0.000000 0.273869
1.000000 0.000000 0.273350
0.000000 0.134127 0.338994
0.000000 0.136843 0.344274
0.000000 0.141695 0.364965
0.316381 0.141909 0.381598
0.572992 0.000000 0.366735
0.756313 0.000000 0.320195
0.918791 0.109987 0.317327
1.000000 0.246616 0.291600
0.000000 0.314336 0.368170
0.000000 0.321843 0.371038
0.000000 0.347143 0.381933
0.336156 0.383246 0.401404
0.582025 0.372930 0.382483
0.777005 0.373480 0.361852
0.931701 0.407599 0.338293
1.000000 0.465431 0.315068
0.000000 0.567742 0.421210
0.000000 0.570428 0.420172
0.000000 0.585473 0.420844
0.337316 0.613092 0.416052
0.616114 0.631922 0.406989
0.819364 0.636255 0.406134
0.953765 0.647761 0.393439
1.000000 0.660334 0.367315
0.000000 0.789578 0.455848
0.000000 0.799710 0.461830
0.000000 0.802579 0.455390
0.333043 0.810941 0.431312
0.569451 0.811063 0.394049
0.812375 0.823514 0.412268
0.950011 0.820401 0.432807
1.000000 0.810422 0.438972
0.000000 0.937499 0.505699
0.000000 0.938079 0.505760
0.000000 0.937652 0.501152
0.370245 0.936095 0.469947
0.575006 0.928893 0.425849
0.775418 0.919493 0.416327
0.934295 0.915007 0.449683
1.000000 0.901274 0.491432
0.000000 1.000000 0.580194
0.091615 1.000000 0.580346
0.321569 1.000000 0.576684
0.478706 0.995789 0.553033
0.613825 0.988739 0.508721
0.759396 0.977966 0.480720
0.900877 0.965759 0.502800
1.000000 0.956542 0.544884
0.000000 0.000000 0.508904
0.000000 0.000000 0.516320
0.000000 0.000000 0.535393
0.342504 0.000000 0.570611
0.594018 0.000000 0.577356
0.802670 0.000000 0.577264
0.939391 0.000000 0.541863
1.000000 0.000000 0.482368
0.000000 0.000000 0.513024
0.000000 0.000000 0.521263
0.000000 0.000000 0.539574
0.338537 0.000000 0.570916
0.595666 0.000000 0.579248
0.803677 0.000000 0.578851
0.938079 0.000000 0.540093
1.000000 0.000000 0.478096
0.000000 0.122621 0.514397
0.000000 0.111330 0.521019
0.000000 0.119265 0.537591
0.325139 0.079561 0.572717
0.596551 0.000000 0.581872
0.798367 0.000000 0.576623
0.928527 0.000000 0.525841
1.000000 0.000000 0.456214
0.000000 0.302220 0.516625
0.000000 0.305791 0.518883
0.000000 0.319127 0.528801
0.293645 0.339086 0.571313
0.605005 0.365759 0.595392
0.789212 0.363958 0.570672
0.917510 0.327428 0.502800
1.000000 0.398291 0.469612
0.000000 0.531212 0.556390
0.000000 0.536950 0.559258
0.000000 0.553246 0.567254
0.334752 0.578882 0.582788
0.603967 0.610773 0.605310
0.781857 0.600305 0.575341
0.920592 0.606744 0.545037
1.000000 0.627588 0.516808
0.000000 0.764767 0.613855
0.000000 0.767819 0.616083
0.000000 0.771908 0.616571
0.369512 0.780362 0.617334
0.581659 0.792508 0.601495
0.796017 0.810269 0.606806
0.935302 0.812131 0.625391
1.000000 0.805478 0.621759
0.000000 0.929168 0.672389
0.000000 0.928252 0.670863
0.107515 0.926146 0.667445
0.418585 0.923308 0.662013
0.602441 0.920348 0.636683
0.756283 0.913298 0.597528
0.921202 0.910338 0.632197
1.000000 0.897337 0.659754
0.000000 0.999390 0.716762
0.170260 0.998138 0.715724
0.341985 0.993835 0.712367
0.522148 0.987823 0.715450
0.657282 0.979767 0.698360
0.765255 0.972717 0.658839
0.889738 0.962585 0.658198
0.988586 0.954131 0.697383
0.000000 0.000000 0.713558
0.000000 0.000000 0.718379
0.000000 0.000000 0.730922
0.343053 0.000000 0.759060
0.641566 0.000000 0.794003
0.809018 0.000000 0.788998
0.944121 0.000000 0.780758
1.000000 0.000000 0.749172
0.000000 0.000000 0.706081
0.000000 0.000000 0.710170
0.000000 0.000000 0.724788
0.329625 0.000000 0.753902
0.634943 0.000000 0.788785
0.804807 0.000000 0.784970
0.941741 0.000000 0.778561
1.000000 0.000000 0.746242
0.000000 0.089052 0.709285
0.000000 0.089570 0.713680
0.000000 0.074739 0.729915
0.309758 0.000000 0.758297
0.635889 0.000000 0.794186
0.806516 0.000000 0.789792
0.940215 0.000000 0.781613
1.000000 0.225345 0.742397
0.000000 0.296086 0.698360
0.000000 0.295995 0.702754
0.000000 0.299046 0.724971
0.262150 0.300359 0.760891
0.626184 0.331762 0.800046
0.813291 0.375830 0.804685
0.938354 0.437201 0.791379
1.000000 0.443610 0.734798
0.000000 0.511864 0.710445
0.000000 0.514641 0.712245
0.000000 0.522942 0.717739
0.195071 0.533043 0.728420
0.561486 0.555230 0.773892
0.797482 0.609857 0.798459
0.919371 0.622370 0.770687
1.000000 0.590906 0.697566
0.000000 0.736507 0.745327
0.000000 0.741878 0.749294
0.000000 0.750179 0.754604
0.328405 0.761715 0.763790
0.582696 0.776577 0.777188
0.790921 0.807279 0.805997
0.906737 0.796902 0.779904
0.991333 0.792111 0.752193
0.000000 0.921386 0.814969
0.000000 0.922087 0.817136
0.254704 0.920562 0.819852
0.487526 0.917693 0.824277
0.650874 0.912963 0.821439
0.787533 0.909148 0.813901
0.910674 0.908141 0.814603
0.988159 0.899199 0.826841
0.276036 0.991272 0.844053
0.315068 0.989990 0.843320
0.421729 0.985870 0.841276
0.557427 0.979614 0.840238
0.690059 0.971191 0.838804
0.800900 0.963256 0.834195
0.881224 0.958282 0.809598
0.977630 0.951659 0.838071
0.000000 0.000000 0.884306
0.000000 0.000000 0.888396
0.000000 0.000000 0.894926
0.370336 0.000000 0.906798
0.638361 0.000000 0.920928
0.822843 0.000000 0.929992
0.936675 0.000000 0.923980
1.000000 0.000000 0.899748
0.000000 0.000000 0.877531
0.000000 0.000000 0.881285
0.000000 0.000000 0.888457
0.346288 0.000000 0.899962
0.625238 0.000000 0.914488
0.814511 0.000000 0.924071
0.929503 0.000000 0.917510
1.000000 0.000000 0.894347
0.000000 0.000000 0.880919
0.000000 0.000000 0.882811
0.000000 0.000000 0.888518
0.306462 0.000000 0.899840
0.611994 0.000000 0.913298
0.813657 0.000000 0.925200
0.930449 0.000000 0.920378
1.000000 0.223209 0.897856
0.000000 0.264195 0.877714
0.000000 0.251133 0.878843
0.000000 0.222751 0.885008
0.207950 0.220798 0.897704
0.586297 0.217807 0.911925
0.812863 0.301335 0.928191
0.929015 0.378210 0.923522
1.000000 0.478157 0.899413
0.000000 0.488838 0.853208
0.000000 0.485756 0.851896
0.000000 0.479957 0.856748
0.000000 0.472480 0.875944
0.504570 0.465888 0.896818
0.779934 0.541466 0.916045
0.914763 0.604303 0.916411
0.991089 0.673762 0.898344
0.000000 0.715572 0.869871
0.000000 0.715938 0.870146
0.000000 0.716335 0.871214
0.000000 0.715358 0.873808
0.446235 0.708064 0.876463
0.740108 0.744778 0.904143
0.907591 0.802884 0.918181
0.978515 0.810880 0.898802
0.000000 0.892210 0.892119
0.000000 0.893034 0.893217
0.000000 0.893004 0.894438
0.361639 0.892424 0.897032
0.585779 0.890227 0.899565
0.770932 0.891691 0.905669
0.904784 0.903258 0.921141
0.970184 0.892271 0.904204
0.256626 0.983093 0.919493
0.304753 0.981994 0.919554
0.441077 0.978912 0.921965
0.588800 0.972107 0.923522
0.733059 0.962951 0.926848
0.830472 0.955993 0.926757
0.904936 0.951415 0.924956
0.972808 0.948913 0.925994
0.000000 0.000000 0.980804
0.000000 0.000000 0.981781
0.000000 0.000000 0.982727
0.399176 0.000000 0.985992
0.625757 0.000000 0.990021
0.804410 0.000000 0.994598
0.926909 0.000000 0.995850
1.000000 0.000000 0.990051
0.000000 0.000000 0.978912
0.000000 0.000000 0.979950
0.000000 0.000000 0.981323
0.380957 0.000000 0.984314
0.617700 0.000000 0.988464
0.800046 0.000000 0.993133
0.924102 0.000000 0.994171
1.000000 0.000000 0.988342
0.000000 0.000000 0.977386
0.000000 0.000000 0.978119
0.000000 0.000000 0.978943
0.328527 0.000000 0.983856
0.598077 0.000000 0.987457
0.790494 0.000000 0.991211
0.920073 0.000000 0.992432
1.000000 0.000000 0.986542
0.000000 0.144717 0.975677
0.000000 0.144869 0.976654
0.000000 0.132235 0.978027
0.187778 0.052125 0.981537
0.558160 0.000000 0.985351
0.774014 0.000000 0.988891
0.913970 0.257450 0.990234
0.998566 0.377844 0.984253
0.000000 0.445472 0.964843
0.000000 0.441566 0.966247
0.000000 0.421027 0.968872
0.000000 0.339910 0.975555
0.458564 0.352056 0.978882
0.735531 0.408972 0.982116
0.901183 0.532006 0.984558
0.987732 0.611994 0.979431
0.000000 0.680934 0.957336
0.000000 0.677394 0.956786
0.000000 0.665614 0.955627
0.000000 0.642115 0.955077
0.333959 0.618952 0.963500
0.673518 0.633204 0.972839
0.885771 0.748653 0.977478
0.977600 0.804074 0.976257
0.000000 0.867063 0.961028
0.000000 0.865904 0.960693
0.000000 0.862028 0.959899
0.000000 0.855772 0.959594
0.411627 0.845853 0.959075
0.636622 0.835782 0.958373
0.864134 0.865171 0.968811
0.971038 0.896574 0.974426
0.000000 0.967651 0.969329
0.104616 0.966766 0.969085
0.298650 0.963989 0.968811
0.473091 0.959106 0.968841
0.638300 0.952331 0.968658
0.782162 0.945739 0.968627
0.893095 0.942504 0.969970
0.971099 0.945708 0.976562
