cubelut/NW-5.cube
# Created by Adobe Lightroom plugin Export LUT (1.18.0)
# www.johnrellis.com/lightroom/exportlut.htm
# Preset: NW5
# Color profile: /Library/Application Support/Adobe/Color/Profiles/Recommended/AdobeRGB1998.icc
LUT_3D_SIZE 5
DOMAIN_MIN 0.000000 0.000000 0.000000
DOMAIN_MAX 0.903226 0.903226 0.903226
0.005463 0.064790 0.111788
0.151247 0.066255 0.115480
0.432929 0.071046 0.103853
0.773983 0.184054 0.000000
1.000000 0.282658 0.000000
0.000000 0.136538 0.135683
0.123140 0.134585 0.127291
0.441444 0.215824 0.105653
0.783261 0.299962 0.000000
1.000000 0.356481 0.000000
0.000000 0.348974 0.193759
0.000000 0.351843 0.122194
0.328099 0.359045 0.147005
0.755550 0.497566 0.085847
1.000000 0.544396 0.000000
0.000000 0.611658 0.264897
0.000000 0.612329 0.202945
0.166476 0.569757 0.000000
0.618402 0.637812 0.124208
0.962615 0.765774 0.375891
0.000000 0.948669 0.406226
0.000000 0.949279 0.364508
0.000000 0.951812 0.000000
0.476753 0.947539 0.000000
0.888975 0.957244 0.421698
0.000000 0.069673 0.203189
0.108827 0.081910 0.184054
0.434882 0.000000 0.175509
0.774411 0.132570 0.127840
1.000000 0.280980 0.000000
0.000000 0.135805 0.207675
0.142458 0.150332 0.215702
0.443793 0.183017 0.193545
0.782864 0.270054 0.133974
1.000000 0.352300 0.000000
0.000000 0.359350 0.264775
0.000000 0.381506 0.245335
0.356878 0.384710 0.217929
0.781765 0.505730 0.203433
1.000000 0.539330 0.131258
0.000000 0.625177 0.348730
0.000000 0.629999 0.312078
0.152163 0.596490 0.108705
0.631434 0.647608 0.223178
0.963989 0.770260 0.440375
0.000000 0.951843 0.467811
0.000000 0.952514 0.438392
0.000000 0.954803 0.000000
0.450141 0.946319 0.000000
0.889647 0.956512 0.473518
0.000000 0.066957 0.446937
0.111330 0.035950 0.428412
0.327916 0.126741 0.381018
0.684993 0.000000 0.429114
1.000000 0.000000 0.305089
0.000000 0.145418 0.469154
0.000000 0.137087 0.464668
0.358770 0.215244 0.421180
0.724941 0.059602 0.421302
1.000000 0.206577 0.323583
0.000000 0.380499 0.483864
0.000000 0.399115 0.496071
0.473762 0.481331 0.555779
0.792447 0.475563 0.482124
1.000000 0.499062 0.422217
0.000000 0.665095 0.570733
0.000000 0.674250 0.566125
0.304784 0.692836 0.521141
0.679194 0.688930 0.498970
0.967864 0.787991 0.610315
0.000000 0.961395 0.628351
0.000000 0.962036 0.614832
0.000000 0.961852 0.551934
0.386419 0.954925 0.152255
0.894774 0.955566 0.611627
0.000000 0.029175 0.742214
0.000000 0.000000 0.738216
0.451637 0.064240 0.725948
0.644007 0.269841 0.667842
0.906706 0.508324 0.753964
0.000000 0.107332 0.748470
0.000000 0.107454 0.747280
0.453376 0.206668 0.738857
0.661494 0.345373 0.684199
0.916289 0.524224 0.755489
0.000000 0.397314 0.757839
0.000000 0.386877 0.761074
0.399451 0.417090 0.772824
0.709041 0.531029 0.732143
0.947997 0.559777 0.739773
0.000000 0.668391 0.768551
0.000000 0.676631 0.772061
0.352392 0.711086 0.787747
0.808988 0.815793 0.845731
0.962371 0.783383 0.773709
0.000000 0.968139 0.839139
0.000000 0.967956 0.836545
0.428809 0.966369 0.820340
0.644160 0.960204 0.762783
0.904753 0.954437 0.798184
0.000000 0.129335 0.979004
0.000000 0.132326 0.977264
0.469886 0.219303 0.970459
0.775814 0.468208 0.952117
0.905150 0.585595 0.913603
0.000000 0.128817 0.978454
0.000000 0.131014 0.976806
0.458534 0.239994 0.970123
0.775601 0.507073 0.951751
0.903410 0.612879 0.914305
0.000000 0.340917 0.979706
0.000000 0.322118 0.979156
0.349340 0.381506 0.973083
0.764950 0.593744 0.955657
0.903258 0.709133 0.923674
0.000000 0.613123 0.979400
0.000000 0.606287 0.978424
0.000000 0.584222 0.977325
0.709529 0.703212 0.967773
0.909941 0.856321 0.947509
0.000000 0.886198 0.977752
0.000000 0.889464 0.977356
0.228305 0.904356 0.976623
0.713436 0.932891 0.971344
0.927764 0.975647 0.981384
