cubelut/NW-5.cube
# Created by Adobe Lightroom plugin Export LUT (1.18.0)
# www.johnrellis.com/lightroom/exportlut.htm
# Preset: NW5
# Color profile: /Library/Application Support/Adobe/Color/Profiles/Recommended/AdobeRGB1998.icc
LUT_3D_SIZE 32
DOMAIN_MIN 0.0 0.0 0.0
DOMAIN_MAX 1.0 1.0 1.0
0.005463 0.064790 0.111788
0.005463 0.064790 0.111788
0.010529 0.064912 0.111971
0.042939 0.064607 0.112673
0.074891 0.063569 0.113436
0.099367 0.064454 0.114412
0.124300 0.065339 0.115175
0.151247 0.066255 0.115480
0.181033 0.066926 0.115694
0.213840 0.067170 0.115267
0.250919 0.066865 0.114687
0.291783 0.066621 0.113130
0.336370 0.065827 0.110842
0.383886 0.067109 0.108003
0.432929 0.071046 0.103853
0.482460 0.078279 0.098634
0.532189 0.090639 0.091676
0.581842 0.106996 0.082704
0.630793 0.125246 0.070314
0.679988 0.144808 0.046876
0.727993 0.164370 0.000000
0.773983 0.184054 0.000000
0.817624 0.203098 0.000000
0.858701 0.220432 0.000000
0.896483 0.235721 0.000000
0.930907 0.249271 0.000000
0.961761 0.261906 0.000000
0.989075 0.272801 0.000000
1.000000 0.282658 0.000000
1.000000 0.291783 0.000000
1.000000 0.300847 0.000000
1.000000 0.310887 0.000000
0.005463 0.064790 0.111788
0.005463 0.064790 0.111788
0.010529 0.064912 0.111971
0.042390 0.065492 0.112856
0.073915 0.066804 0.113741
0.098299 0.068086 0.114870
0.123934 0.069215 0.115633
0.150912 0.070558 0.116152
0.180972 0.071107 0.115724
0.214115 0.071901 0.115663
0.251225 0.071931 0.114839
0.292454 0.071748 0.113252
0.337255 0.072236 0.111086
0.384802 0.074372 0.108186
0.434028 0.078157 0.103761
0.483680 0.086549 0.098604
0.533501 0.099306 0.091188
0.583276 0.114351 0.081758
0.632136 0.131746 0.069825
0.681331 0.150729 0.045167
0.729183 0.170199 0.000000
0.775113 0.189029 0.000000
0.818662 0.207645 0.000000
0.859586 0.224369 0.000000
0.897246 0.239231 0.000000
0.931518 0.252995 0.000000
0.962249 0.264805 0.000000
0.989441 0.275731 0.000000
1.000000 0.285283 0.000000
1.000000 0.294255 0.000000
1.000000 0.303258 0.000000
1.000000 0.313115 0.000000
0.005310 0.066438 0.112581
0.005158 0.066865 0.112551
0.008881 0.067506 0.112520
0.038849 0.069032 0.113558
0.072602 0.071138 0.114595
0.097627 0.072633 0.115724
0.122988 0.073793 0.116274
0.150546 0.075257 0.116548
0.180606 0.076539 0.116487
0.213962 0.077577 0.116030
0.251377 0.078492 0.114931
0.292790 0.079194 0.113497
0.337713 0.080201 0.111269
0.385657 0.083223 0.108034
0.434760 0.088106 0.103944
0.484565 0.096071 0.098482
0.534478 0.108522 0.091188
0.584161 0.123232 0.081941
0.633204 0.140139 0.068605
0.682277 0.158114 0.042817
0.730129 0.176822 0.000000
0.775967 0.195254 0.000000
0.819364 0.213107 0.000000
0.860166 0.229099 0.000000
0.897826 0.243992 0.000000
0.931945 0.256870 0.000000
0.962585 0.268772 0.000000
0.989654 0.279423 0.000000
1.000000 0.288731 0.000000
1.000000 0.297520 0.000000
1.000000 0.306188 0.000000
1.000000 0.315892 0.000000
0.002777 0.075624 0.114870
0.001953 0.075990 0.115480
0.004974 0.077028 0.113344
0.032349 0.076265 0.115328
0.066011 0.078279 0.118013
0.094667 0.081147 0.117372
0.121157 0.083070 0.117861
0.148898 0.085054 0.117891
0.179690 0.086610 0.117800
0.213413 0.088685 0.117067
0.251316 0.090425 0.115908
0.293187 0.092836 0.114107
0.338476 0.095827 0.111513
0.386603 0.099947 0.108370
0.436194 0.106081 0.104005
0.486091 0.115023 0.098268
0.536065 0.126467 0.091035
0.585840 0.140688 0.080812
0.634821 0.156374 0.067323
0.683986 0.173251 0.038270
0.731868 0.190860 0.000000
0.777523 0.207980 0.000000
0.820737 0.224369 0.000000
0.861265 0.239658 0.000000
0.898558 0.253605 0.000000
0.932433 0.265812 0.000000
0.962890 0.276799 0.000000
0.989837 0.287022 0.000000
1.000000 0.295750 0.000000
1.000000 0.304143 0.000000
1.000000 0.312596 0.000000
1.000000 0.321843 0.000000
0.000000 0.088380 0.118868
0.000000 0.089021 0.119051
0.000000 0.089937 0.116762
0.023102 0.091707 0.113466
0.063539 0.088380 0.118898
0.083253 0.088899 0.123598
0.115358 0.093996 0.121492
0.146944 0.097566 0.119997
0.178378 0.100435 0.119387
0.212863 0.103761 0.118532
0.251255 0.107271 0.117006
0.293736 0.110994 0.115053
0.339605 0.115969 0.112215
0.388037 0.121889 0.108980
0.437781 0.129305 0.104128
0.487892 0.139223 0.097963
0.537926 0.150423 0.090364
0.587579 0.164065 0.079988
0.636744 0.178683 0.065461
0.685817 0.194064 0.032380
0.733425 0.210239 0.000000
0.779049 0.226352 0.000000
0.822110 0.241337 0.000000
0.862425 0.255192 0.000000
0.899474 0.267552 0.000000
0.933135 0.279118 0.000000
0.963409 0.289281 0.000000
0.990173 0.298405 0.000000
1.000000 0.306645 0.000000
1.000000 0.314488 0.000000
1.000000 0.322271 0.000000
1.000000 0.331090 0.000000
0.000000 0.102968 0.123049
0.000000 0.103487 0.123018
0.000000 0.104280 0.120821
0.006714 0.106142 0.114809
0.057343 0.106264 0.114748
0.082429 0.102174 0.122042
0.100465 0.100526 0.129244
0.135378 0.108492 0.126070
0.173190 0.115297 0.122988
0.211307 0.121157 0.120424
0.250523 0.126497 0.118685
0.293736 0.132204 0.116274
0.340215 0.139010 0.113344
0.389349 0.146792 0.109499
0.439490 0.156069 0.104158
0.489754 0.166629 0.097810
0.539727 0.178622 0.089357
0.589532 0.191165 0.078370
0.638605 0.204776 0.063325
0.687739 0.219333 0.024384
0.735256 0.233982 0.000000
0.780575 0.247990 0.000000
0.818723 0.259373 0.000000
0.859342 0.272282 0.000000
0.896727 0.283879 0.000000
0.930755 0.294224 0.000000
0.961303 0.303868 0.000000
0.988373 0.312139 0.000000
1.000000 0.319738 0.000000
1.000000 0.326970 0.000000
1.000000 0.334173 0.000000
1.000000 0.342290 0.000000
0.000000 0.118776 0.127535
0.000000 0.119234 0.127504
0.000000 0.119844 0.125429
0.000000 0.121736 0.115908
0.036255 0.123140 0.113893
0.078157 0.121279 0.116945
0.101839 0.116945 0.124636
0.117281 0.113191 0.135714
0.155337 0.124178 0.131502
0.197543 0.134707 0.127443
0.245029 0.145571 0.122286
0.291478 0.154726 0.118318
0.338567 0.163577 0.115023
0.388373 0.173709 0.110719
0.439155 0.184604 0.104860
0.489906 0.195743 0.097780
0.540215 0.207675 0.089113
0.590204 0.220096 0.077180
0.639399 0.233249 0.060182
0.688380 0.246494 0.016968
0.735470 0.259586 0.000000
0.780331 0.272190 0.000000
0.822568 0.284031 0.000000
0.862303 0.295140 0.000000
0.898772 0.305241 0.000000
0.932158 0.314366 0.000000
0.962310 0.322728 0.000000
0.989014 0.330144 0.000000
1.000000 0.336858 0.000000
1.000000 0.343175 0.000000
1.000000 0.349645 0.000000
1.000000 0.357153 0.016724
0.000000 0.136538 0.135683
0.000000 0.136873 0.135653
0.000000 0.138033 0.133822
0.000000 0.139590 0.123018
0.010864 0.141085 0.116823
0.066224 0.142397 0.113252
0.099245 0.138827 0.119509
0.123140 0.134585 0.127291
0.139162 0.130190 0.140291
0.178439 0.142977 0.138064
0.225254 0.157656 0.132876
0.278294 0.173159 0.126497
0.336950 0.190036 0.118288
0.389837 0.203403 0.112184
0.441444 0.215824 0.105653
0.492348 0.228153 0.097414
0.542992 0.240055 0.087434
0.593439 0.252445 0.073945
0.642817 0.264714 0.053437
0.691707 0.277012 0.004913
0.738735 0.288731 0.000000
0.783261 0.299962 0.000000
0.825193 0.310399 0.000000
0.864561 0.320104 0.000000
0.900572 0.329076 0.000000
0.933593 0.337194 0.000000
0.963287 0.344244 0.000000
0.989685 0.350652 0.000000
1.000000 0.356481 0.000000
1.000000 0.361852 0.000000
1.000000 0.367529 0.000000
1.000000 0.374365 0.047150
0.000000 0.156954 0.145357
0.000000 0.157504 0.144015
0.000000 0.158602 0.142306
0.000000 0.160128 0.133852
0.000000 0.161898 0.120821
0.047181 0.162905 0.117830
0.088045 0.163088 0.116274
0.120790 0.159884 0.122988
0.146304 0.156161 0.132631
0.165103 0.151705 0.144808
0.203738 0.164981 0.145510
0.255589 0.184085 0.138399
0.313481 0.204776 0.130159
0.376623 0.226596 0.120027
0.441718 0.248081 0.106569
0.494514 0.261631 0.097017
0.545861 0.274083 0.085481
0.596612 0.286198 0.071077
0.646113 0.297673 0.045228
0.695186 0.309026 0.000000
0.742000 0.319615 0.000000
0.786191 0.329320 0.000000
0.827909 0.338598 0.000000
0.866789 0.347173 0.000000
0.902403 0.355016 0.000000
0.934997 0.361791 0.000000
0.964263 0.368017 0.000000
0.990265 0.373388 0.000000
1.000000 0.378149 0.000000
1.000000 0.382818 0.000000
1.000000 0.387640 0.000000
1.000000 0.393774 0.068605
0.000000 0.180636 0.153719
0.000000 0.181491 0.152743
0.000000 0.182406 0.151003
0.000000 0.184054 0.144839
0.000000 0.185794 0.127810
0.003357 0.186831 0.121614
0.072541 0.187564 0.117922
0.110445 0.186770 0.119081
0.144106 0.184298 0.127230
0.171786 0.181369 0.137453
0.193545 0.177371 0.150179
0.232670 0.190951 0.154299
0.289555 0.215396 0.145998
0.351446 0.240452 0.135592
0.416785 0.265049 0.122255
0.483070 0.288273 0.105226
0.548547 0.308995 0.084138
0.599664 0.320470 0.067903
0.649470 0.331456 0.031983
0.698421 0.341619 0.000000
0.745235 0.351324 0.000000
0.789364 0.360082 0.000000
0.830838 0.368414 0.000000
0.869322 0.376104 0.000000
0.904570 0.382727 0.000000
0.936584 0.388647 0.000000
0.965393 0.393774 0.000000
0.990875 0.398260 0.000000
1.000000 0.401953 0.000000
1.000000 0.405737 0.000000
1.000000 0.409735 0.000000
1.000000 0.415167 0.084657
0.000000 0.208225 0.162875
0.000000 0.208927 0.161837
0.000000 0.209812 0.160067
0.000000 0.211856 0.156100
0.000000 0.213321 0.141207
0.000000 0.214420 0.125399
0.045716 0.214817 0.121096
0.092958 0.214694 0.116548
0.133730 0.213901 0.121401
0.168978 0.212650 0.130770
0.199496 0.211032 0.141909
0.225071 0.208286 0.154849
0.263676 0.220798 0.163149
0.325048 0.250034 0.153384
0.390539 0.278477 0.140963
0.457649 0.304692 0.125887
0.524620 0.327886 0.106264
0.591424 0.349218 0.078645
0.653407 0.365972 0.022339
0.702541 0.375555 0.000000
0.749111 0.384344 0.000000
0.792844 0.392218 0.000000
0.833951 0.399725 0.000000
0.871855 0.406287 0.000000
0.906523 0.412085 0.000000
0.938109 0.416999 0.000000
0.966369 0.421149 0.000000
0.991455 0.424567 0.000000
1.000000 0.427527 0.000000
1.000000 0.430365 0.000000
1.000000 0.433753 0.005921
1.000000 0.438483 0.102480
0.000000 0.239597 0.171359
0.000000 0.240299 0.170382
0.000000 0.241123 0.168948
0.000000 0.243137 0.164950
0.000000 0.244724 0.153384
0.000000 0.245823 0.130983
0.000000 0.245792 0.124422
0.073793 0.245121 0.119326
0.115023 0.244175 0.115053
0.158236 0.244816 0.123445
0.195621 0.245182 0.133120
0.229129 0.244785 0.144839
0.256657 0.241428 0.158511
0.293950 0.251469 0.171023
0.358495 0.284031 0.159945
0.425879 0.314153 0.146395
0.493843 0.340551 0.129641
0.561944 0.363989 0.108644
0.629267 0.384619 0.079255
0.695033 0.403510 0.000000
0.749691 0.416205 0.000000
0.793545 0.423804 0.000000
0.834653 0.430671 0.000000
0.872465 0.436805 0.000000
0.906950 0.441749 0.000000
0.938231 0.445960 0.000000
0.966247 0.449348 0.000000
0.991028 0.452003 0.000000
1.000000 0.454139 0.000000
1.000000 0.456214 0.000000
1.000000 0.458900 0.055909
1.000000 0.463020 0.119448
0.000000 0.273075 0.179141
0.000000 0.273747 0.178073
0.000000 0.274723 0.176577
0.000000 0.276677 0.172885
0.000000 0.278843 0.164004
0.000000 0.279484 0.144320
0.000000 0.279545 0.126467
0.013428 0.278386 0.121798
0.095521 0.276310 0.115938
0.138857 0.275608 0.114931
0.183108 0.277684 0.123812
0.222904 0.279210 0.134249
0.259770 0.280644 0.147005
0.293523 0.281346 0.161318
0.329137 0.287327 0.179049
0.396643 0.322210 0.166476
0.465766 0.352636 0.151583
0.534722 0.378424 0.133608
0.603967 0.401465 0.110750
0.672663 0.422522 0.078248
0.736446 0.440803 0.000000
0.794095 0.456245 0.000000
0.838376 0.464607 0.000000
0.875517 0.469825 0.000000
0.909392 0.474159 0.000000
0.939971 0.477272 0.000000
0.967376 0.479835 0.000000
0.991608 0.481605 0.000000
1.000000 0.482795 0.000000
1.000000 0.484138 0.000000
1.000000 0.486030 0.084504
1.000000 0.489662 0.140536
0.000000 0.310552 0.186984
0.000000 0.311254 0.185702
0.000000 0.312078 0.184054
0.000000 0.313909 0.180514
0.000000 0.316350 0.173770
0.000000 0.316625 0.156344
0.000000 0.316381 0.127565
0.000000 0.314549 0.122744
0.064149 0.311833 0.117128
0.116304 0.308385 0.110811
0.163882 0.309453 0.113771
0.209903 0.313268 0.123171
0.252567 0.316533 0.134524
0.293126 0.319615 0.147311
0.331090 0.322148 0.162631
0.368231 0.327062 0.183474
0.434974 0.359716 0.173342
0.504997 0.389349 0.157565
0.575982 0.415351 0.138399
0.647211 0.439063 0.114199
0.714992 0.460029 0.080140
0.775967 0.477821 0.000000
0.830350 0.492744 0.000000
0.878355 0.504234 0.000000
0.911620 0.507683 0.000000
0.941497 0.510063 0.000000
0.968353 0.511620 0.000000
0.991974 0.512535 0.000000
1.000000 0.512932 0.000000
1.000000 0.513451 0.033967
1.000000 0.514641 0.110018
1.000000 0.517784 0.163607
0.000000 0.348974 0.193759
0.000000 0.349340 0.192813
0.000000 0.350072 0.191348
0.000000 0.351781 0.187472
0.000000 0.354162 0.181827
0.000000 0.354528 0.166720
0.000000 0.353857 0.142092
0.000000 0.351843 0.122194
0.000000 0.348608 0.116823
0.089784 0.344488 0.110353
0.136873 0.339361 0.103304
0.189700 0.344152 0.110628
0.238132 0.349462 0.120851
0.284062 0.354467 0.132876
0.328099 0.359045 0.147005
0.369879 0.363287 0.163119
0.409369 0.368170 0.185306
0.473335 0.395605 0.181460
0.545312 0.425208 0.164767
0.618891 0.452399 0.144686
0.690455 0.476844 0.119448
0.755550 0.497566 0.085847
0.813413 0.515007 0.001251
0.864164 0.529015 0.000000
0.908049 0.539055 0.000000
0.942962 0.544244 0.000000
0.969055 0.544854 0.000000
0.992065 0.544884 0.000000
1.000000 0.544396 0.000000
1.000000 0.544030 0.082765
1.000000 0.544579 0.135714
1.000000 0.547143 0.188907
0.000000 0.387182 0.200809
0.000000 0.387518 0.199680
0.000000 0.388037 0.197971
0.000000 0.389410 0.194644
0.000000 0.391455 0.188785
0.000000 0.392340 0.176242
0.000000 0.390936 0.154269
0.000000 0.389136 0.121126
0.000000 0.385351 0.115175
0.013642 0.380865 0.108644
0.113558 0.375250 0.101320
0.162295 0.371984 0.097322
0.216983 0.378882 0.106355
0.267918 0.385626 0.117586
0.316838 0.391882 0.130587
0.364202 0.397681 0.145418
0.409094 0.402686 0.163027
0.450721 0.407416 0.187106
0.512657 0.430793 0.191653
0.587793 0.461860 0.174197
0.662715 0.490242 0.153109
0.732174 0.514733 0.128634
0.793851 0.535332 0.098726
0.848081 0.552239 0.050477
0.894682 0.564996 0.000000
0.934417 0.573571 0.000000
0.967559 0.578241 0.000000
0.991821 0.578424 0.000000
1.000000 0.577111 0.059876
1.000000 0.575952 0.114748
1.000000 0.575769 0.163912
1.000000 0.577966 0.217075
0.000000 0.424414 0.208347
0.000000 0.424781 0.207034
0.000000 0.425330 0.205570
0.000000 0.426307 0.201816
0.000000 0.427985 0.196170
0.000000 0.429450 0.185977
0.000000 0.427771 0.165164
0.000000 0.425849 0.134096
0.000000 0.422187 0.113130
0.000000 0.417426 0.106508
0.075410 0.411688 0.098543
0.136782 0.404700 0.089815
0.189609 0.405066 0.090394
0.245792 0.413092 0.100923
0.299077 0.420630 0.113222
0.350652 0.427741 0.127382
0.400732 0.434241 0.143771
0.448585 0.440284 0.163119
0.493202 0.445563 0.189456
0.554101 0.466865 0.204959
0.631922 0.499733 0.187198
0.705837 0.528832 0.166690
0.772183 0.553399 0.144472
0.830289 0.573907 0.119631
0.880125 0.589746 0.090211
0.922515 0.600916 0.067353
0.958007 0.607904 0.065309
0.987060 0.611048 0.078248
1.000000 0.611048 0.101381
1.000000 0.609094 0.147219
1.000000 0.608270 0.194858
1.000000 0.609918 0.249058
0.000000 0.460060 0.216892
0.000000 0.460182 0.215305
0.000000 0.458503 0.213077
0.000000 0.459266 0.209384
0.000000 0.460670 0.203403
0.000000 0.462379 0.194797
0.000000 0.461097 0.175631
0.000000 0.458991 0.148165
0.000000 0.455940 0.110475
0.000000 0.451240 0.103578
0.000000 0.445441 0.095064
0.106386 0.438788 0.086061
0.159518 0.431037 0.076081
0.217960 0.436591 0.082094
0.275822 0.445533 0.093935
0.331121 0.453986 0.107729
0.385138 0.462043 0.123354
0.437842 0.469673 0.141238
0.488655 0.476905 0.162875
0.536522 0.483772 0.192111
0.596551 0.503258 0.221775
0.675074 0.537896 0.204837
0.746395 0.567498 0.186496
0.809171 0.592493 0.167849
0.863218 0.612329 0.149752
0.908782 0.626856 0.132937
0.946960 0.636652 0.133242
0.978241 0.641901 0.144839
1.000000 0.643641 0.163973
1.000000 0.643061 0.189395
1.000000 0.641749 0.228702
1.000000 0.642939 0.284062
0.000000 0.494881 0.226017
0.000000 0.494728 0.224460
0.000000 0.494789 0.223026
0.000000 0.495186 0.219059
0.000000 0.495979 0.212680
0.000000 0.497230 0.203677
0.000000 0.496895 0.186984
0.000000 0.494545 0.160647
0.000000 0.491737 0.122042
0.000000 0.487251 0.098939
0.000000 0.481575 0.090120
0.043793 0.474769 0.079927
0.134859 0.467201 0.067567
0.185092 0.460029 0.052949
0.248936 0.470283 0.068940
0.308873 0.480232 0.083223
0.367041 0.489998 0.099550
0.423896 0.499428 0.117342
0.479835 0.508202 0.138003
0.533410 0.516625 0.163241
0.583886 0.524895 0.196658
0.641840 0.542840 0.243687
0.718441 0.578302 0.228824
0.786007 0.608515 0.214328
0.844450 0.633143 0.200809
0.893645 0.651575 0.190097
0.934630 0.664240 0.185245
0.968231 0.672145 0.199283
0.994873 0.675929 0.220188
1.000000 0.676905 0.247349
1.000000 0.676692 0.281529
1.000000 0.676722 0.322179
0.000000 0.531884 0.237003
0.000000 0.531792 0.235813
0.000000 0.531823 0.234012
0.000000 0.532158 0.229892
0.000000 0.532799 0.223484
0.000000 0.533837 0.214237
0.000000 0.534173 0.199588
0.000000 0.531762 0.173342
0.000000 0.528649 0.137514
0.000000 0.524712 0.091859
0.000000 0.519005 0.082124
0.000000 0.512322 0.070161
0.097200 0.504631 0.051637
0.162112 0.496315 0.015106
0.217624 0.494301 0.001801
0.283024 0.505791 0.035584
0.345251 0.517174 0.066499
0.406165 0.528222 0.086915
0.466072 0.538811 0.108614
0.524498 0.548913 0.133425
0.580224 0.558587 0.163699
0.632441 0.568139 0.202090
0.688594 0.585473 0.265263
0.759731 0.620325 0.260075
0.823087 0.650721 0.250309
0.876524 0.673884 0.243168
0.920775 0.690272 0.240024
0.956909 0.701289 0.251194
0.985443 0.707546 0.274205
1.000000 0.710506 0.304112
1.000000 0.712001 0.340887
1.000000 0.713283 0.382910
0.000000 0.571069 0.250217
0.000000 0.570947 0.248753
0.000000 0.570764 0.246647
0.000000 0.571069 0.242618
0.000000 0.571435 0.235599
0.000000 0.572320 0.226627
0.000000 0.573327 0.213901
0.000000 0.570947 0.186587
0.000000 0.567803 0.151705
0.000000 0.564141 0.098360
0.000000 0.558923 0.068879
0.000000 0.552300 0.048981
0.000000 0.544823 0.009979
0.132815 0.536400 0.000000
0.190494 0.526848 0.000000
0.252995 0.531487 0.000000
0.320287 0.544274 0.000000
0.385077 0.556817 0.014252
0.448585 0.568933 0.067140
0.510857 0.580560 0.097108
0.570825 0.591821 0.128389
0.627649 0.602564 0.165988
0.680964 0.613642 0.211490
0.734310 0.630793 0.283848
0.797787 0.662806 0.297368
0.856077 0.692103 0.293553
0.904326 0.713313 0.293187
0.943511 0.727718 0.299718
0.974334 0.737148 0.325292
0.997803 0.742550 0.357305
1.000000 0.746029 0.396185
1.000000 0.748379 0.437385
0.000000 0.611658 0.264897
0.000000 0.611719 0.263493
0.000000 0.611749 0.261570
0.000000 0.611963 0.257267
0.000000 0.612482 0.250217
0.000000 0.613031 0.240604
0.000000 0.613855 0.227390
0.000000 0.612329 0.202945
0.000000 0.609308 0.167239
0.000000 0.605493 0.118074
0.000000 0.600885 0.037507
0.000000 0.594476 0.000000
0.000000 0.587213 0.000000
0.082918 0.578943 0.000000
0.166476 0.569757 0.000000
0.219944 0.559503 0.000000
0.291569 0.571893 0.000000
0.361059 0.585962 0.000000
0.428229 0.599847 0.000000
0.494087 0.613184 0.001526
0.557794 0.625849 0.079957
0.618402 0.637812 0.124208
0.675135 0.649317 0.171969
0.727901 0.661524 0.226444
0.778714 0.678889 0.307774
0.834165 0.707240 0.343328
0.886687 0.734249 0.345983
0.929259 0.753079 0.353491
0.962615 0.765774 0.375891
0.987762 0.773800 0.409339
1.000000 0.778927 0.447639
1.000000 0.783047 0.488869
0.000000 0.656336 0.281895
0.000000 0.656367 0.280400
0.000000 0.656336 0.278447
0.000000 0.656397 0.273777
0.000000 0.656672 0.266697
0.000000 0.657099 0.256779
0.000000 0.657679 0.243168
0.000000 0.657099 0.221103
0.000000 0.654322 0.184848
0.000000 0.650752 0.135744
0.000000 0.646815 0.019959
0.000000 0.640833 0.000000
0.000000 0.633845 0.000000
0.000000 0.626093 0.000000
0.130678 0.617243 0.000000
0.200839 0.607355 0.000000
0.258640 0.602197 0.000000
0.334478 0.617823 0.000000
0.406043 0.632929 0.000000
0.475166 0.647456 0.000000
0.541863 0.661219 0.000000
0.605737 0.674189 0.057527
0.665949 0.686519 0.124300
0.721370 0.698207 0.184115
0.772671 0.711238 0.248142
0.820462 0.728176 0.337560
0.867308 0.751553 0.395789
0.913695 0.775845 0.405615
0.950042 0.792203 0.423835
0.977142 0.803433 0.457832
0.996063 0.810208 0.495003
1.000000 0.816281 0.537163
0.000000 0.702480 0.300237
0.000000 0.702358 0.298680
0.000000 0.702327 0.296605
0.000000 0.702388 0.291966
0.000000 0.702602 0.284703
0.000000 0.702937 0.274662
0.000000 0.703304 0.260868
0.000000 0.703456 0.242344
0.000000 0.701076 0.205142
0.000000 0.698054 0.155947
0.000000 0.694575 0.075746
0.000000 0.690059 0.000000
0.000000 0.683894 0.000000
0.000000 0.676722 0.000000
0.047272 0.668940 0.000000
0.172732 0.660212 0.000000
0.237125 0.650568 0.000000
0.304173 0.653346 0.000000
0.381323 0.669581 0.000000
0.454231 0.684932 0.000000
0.524163 0.699428 0.000000
0.591119 0.713100 0.000000
0.654444 0.725978 0.014313
0.713161 0.738064 0.133455
0.766354 0.749447 0.205478
0.814054 0.760708 0.277440
0.858244 0.776425 0.374151
0.896666 0.794644 0.452766
0.936492 0.815854 0.469673
0.965667 0.830076 0.501610
0.985809 0.839353 0.539330
0.998871 0.847288 0.582208
0.000000 0.751797 0.320012
0.000000 0.751675 0.318456
0.000000 0.751675 0.316350
0.000000 0.751644 0.311681
0.000000 0.751827 0.304692
0.000000 0.752041 0.294652
0.000000 0.752193 0.280949
0.000000 0.752346 0.263249
0.000000 0.750668 0.228946
0.000000 0.748257 0.180514
0.000000 0.745449 0.107973
0.000000 0.742000 0.000000
0.000000 0.736721 0.000000
0.000000 0.730678 0.000000
0.000000 0.723812 0.000000
0.124819 0.716335 0.000000
0.213565 0.708034 0.000000
0.275486 0.698848 0.000000
0.352544 0.709529 0.000000
0.430426 0.725521 0.000000
0.504204 0.740383 0.000000
0.574182 0.754330 0.000000
0.640375 0.767147 0.000000
0.701564 0.778866 0.020569
0.757504 0.789639 0.157137
0.807553 0.799649 0.238651
0.851591 0.808774 0.317235
0.891997 0.822934 0.417853
0.921660 0.835935 0.514183
0.953277 0.853269 0.541741
0.975128 0.865293 0.580194
0.989014 0.874998 0.623987
0.000000 0.802670 0.340856
0.000000 0.802609 0.339391
0.000000 0.802579 0.337346
0.000000 0.802609 0.332952
0.000000 0.802731 0.325841
0.000000 0.802945 0.316228
0.000000 0.803067 0.302739
0.000000 0.803128 0.285771
0.000000 0.802304 0.256291
0.000000 0.800565 0.208499
0.000000 0.798398 0.140383
0.000000 0.795926 0.000000
0.000000 0.792386 0.000000
0.000000 0.787533 0.000000
0.000000 0.782162 0.000000
0.000000 0.776150 0.000000
0.176455 0.769558 0.000000
0.255741 0.762264 0.000000
0.318944 0.755825 0.000000
0.404028 0.771603 0.000000
0.482551 0.786221 0.000000
0.555779 0.799466 0.000000
0.624537 0.811398 0.000000
0.688228 0.822110 0.000000
0.746426 0.831785 0.088869
0.798886 0.840452 0.199161
0.845335 0.848264 0.287510
0.885618 0.855406 0.369787
0.920836 0.865965 0.467506
0.941039 0.873289 0.576989
0.964172 0.888121 0.619654
0.979187 0.899474 0.663752
0.000000 0.854063 0.362737
0.000000 0.854002 0.361212
0.000000 0.853910 0.359106
0.000000 0.854002 0.355230
0.000000 0.854002 0.348211
0.000000 0.854093 0.338933
0.000000 0.854063 0.326452
0.000000 0.853910 0.310338
0.000000 0.853483 0.286931
0.000000 0.852201 0.241123
0.000000 0.850706 0.176974
0.000000 0.849058 0.040955
0.000000 0.847288 0.000000
0.000000 0.843687 0.000000
0.000000 0.839780 0.000000
0.000000 0.835416 0.000000
0.107546 0.830716 0.000000
0.224063 0.825620 0.000000
0.298833 0.820127 0.000000
0.371466 0.821012 0.000000
0.456062 0.834226 0.000000
0.533410 0.846067 0.000000
0.605188 0.856504 0.000000
0.671351 0.865690 0.000000
0.731838 0.873686 0.000000
0.786435 0.880644 0.154269
0.834592 0.886076 0.258122
0.876493 0.890562 0.347204
0.912261 0.894530 0.426734
0.942748 0.902098 0.520226
0.955230 0.907103 0.641138
0.969390 0.919280 0.699001
0.000000 0.902342 0.383856
0.000000 0.902342 0.382574
0.000000 0.902373 0.380926
0.000000 0.902464 0.377050
0.000000 0.902617 0.371038
0.000000 0.902708 0.362188
0.000000 0.902800 0.350835
0.000000 0.902892 0.336309
0.000000 0.902800 0.317540
0.000000 0.902464 0.276555
0.000000 0.902068 0.218753
0.000000 0.901610 0.128634
0.000000 0.901122 0.000000
0.000000 0.899718 0.000000
