cubelut/NW-5.cube
# Created by Adobe Lightroom plugin Export LUT (1.18.0)
# www.johnrellis.com/lightroom/exportlut.htm
# Preset: NW5
# Color profile: /Library/Application Support/Adobe/Color/Profiles/Recommended/AdobeRGB1998.icc
LUT_3D_SIZE 8
DOMAIN_MIN 0.000000 0.000000 0.000000
DOMAIN_MAX 0.903226 0.903226 0.903226
0.005463 0.064790 0.111788
0.074891 0.063569 0.113436
0.181033 0.066926 0.115694
0.336370 0.065827 0.110842
0.532189 0.090639 0.091676
0.727993 0.164370 0.000000
0.896483 0.235721 0.000000
1.000000 0.282658 0.000000
0.000000 0.088380 0.118868
0.063539 0.088380 0.118898
0.178378 0.100435 0.119387
0.339605 0.115969 0.112215
0.537926 0.150423 0.090364
0.733425 0.210239 0.000000
0.899474 0.267552 0.000000
1.000000 0.306645 0.000000
0.000000 0.156954 0.145357
0.000000 0.161898 0.120821
0.146304 0.156161 0.132631
0.313481 0.204776 0.130159
0.545861 0.274083 0.085481
0.742000 0.319615 0.000000
0.902403 0.355016 0.000000
1.000000 0.378149 0.000000
0.000000 0.273075 0.179141
0.000000 0.278843 0.164004
0.095521 0.276310 0.115938
0.259770 0.280644 0.147005
0.465766 0.352636 0.151583
0.736446 0.440803 0.000000
0.909392 0.474159 0.000000
1.000000 0.482795 0.000000
0.000000 0.424414 0.208347
0.000000 0.427985 0.196170
0.000000 0.422187 0.113130
0.189609 0.405066 0.090394
0.400732 0.434241 0.143771
0.631922 0.499733 0.187198
0.880125 0.589746 0.090211
1.000000 0.611048 0.101381
0.000000 0.571069 0.250217
0.000000 0.571435 0.235599
0.000000 0.567803 0.151705
0.000000 0.544823 0.009979
0.320287 0.544274 0.000000
0.570825 0.591821 0.128389
0.797787 0.662806 0.297368
0.974334 0.737148 0.325292
0.000000 0.751797 0.320012
0.000000 0.751827 0.304692
0.000000 0.750668 0.228946
0.000000 0.736721 0.000000
0.213565 0.708034 0.000000
0.504204 0.740383 0.000000
0.757504 0.789639 0.157137
0.921660 0.835935 0.514183
0.000000 0.948669 0.406226
0.000000 0.948943 0.394903
0.000000 0.949310 0.348913
0.000000 0.950744 0.000000
0.000000 0.949340 0.000000
0.389105 0.943023 0.000000
0.693935 0.956420 0.000000
0.888975 0.957244 0.421698
0.000000 0.067994 0.146365
0.049653 0.069581 0.136385
0.181521 0.059968 0.136873
0.337011 0.070222 0.133547
0.534447 0.101869 0.111604
0.731807 0.180179 0.029236
0.899474 0.248966 0.000000
1.000000 0.287266 0.000000
0.000000 0.086854 0.147982
0.063081 0.089998 0.149569
0.177218 0.099428 0.147372
0.338842 0.114504 0.138186
0.538140 0.151980 0.114046
0.735470 0.218418 0.029572
0.901884 0.278477 0.000000
1.000000 0.310765 0.000000
0.000000 0.155123 0.172305
0.021729 0.162692 0.170443
0.152010 0.161563 0.163577
0.328222 0.211093 0.158846
0.547082 0.269291 0.123171
0.744015 0.318273 0.043763
0.905699 0.361364 0.000000
1.000000 0.380713 0.000000
0.000000 0.276951 0.202518
0.000000 0.284184 0.195346
0.092012 0.287358 0.146395
0.269169 0.290349 0.170901
0.482582 0.363287 0.174441
0.748470 0.443519 0.089540
0.912169 0.474708 0.000000
1.000000 0.484169 0.000000
0.000000 0.429664 0.232486
0.000000 0.433387 0.221744
0.000000 0.433875 0.142763
0.186282 0.412665 0.113222
0.409552 0.441474 0.165743
0.644068 0.507958 0.213779
0.885130 0.592004 0.141543
1.000000 0.611200 0.103944
0.000000 0.576471 0.276585
0.000000 0.577874 0.263706
0.000000 0.577752 0.194369
0.000000 0.554589 0.079561
0.319310 0.548516 0.053803
0.576165 0.595850 0.156802
0.802640 0.668177 0.324651
0.975494 0.737881 0.335485
0.000000 0.756680 0.346014
0.000000 0.757321 0.332128
0.000000 0.757839 0.274723
0.000000 0.743771 0.000000
0.207095 0.713741 0.000000
0.502739 0.742092 0.000000
0.759915 0.791897 0.193240
0.923003 0.839078 0.530907
0.000000 0.950469 0.426246
0.000000 0.950561 0.415717
0.000000 0.950927 0.374853
0.000000 0.952026 0.156435
0.000000 0.949554 0.000000
0.382910 0.943450 0.000000
0.692500 0.956573 0.000000
0.889464 0.957397 0.439338
0.000000 0.070314 0.223911
0.021332 0.068818 0.215610
0.131991 0.087587 0.201785
0.288457 0.037873 0.221530
0.530877 0.000000 0.186526
0.725216 0.000000 0.165194
0.895872 0.183352 0.116548
1.000000 0.263890 0.000000
0.000000 0.090303 0.228214
0.020325 0.089784 0.224094
0.142977 0.109529 0.211582
0.311467 0.060304 0.220249
0.535363 0.000000 0.192813
0.729213 0.124331 0.167605
0.898070 0.222934 0.119051
1.000000 0.288884 0.012573
0.000000 0.158419 0.231052
0.000000 0.162356 0.233097
0.177371 0.181643 0.244114
0.349310 0.196597 0.229862
0.545434 0.228367 0.208835
0.739132 0.275181 0.176547
0.902647 0.324498 0.130037
1.000000 0.363684 0.070100
0.000000 0.278477 0.265537
0.000000 0.287297 0.266361
0.132906 0.316747 0.257053
0.297826 0.316838 0.244480
0.526635 0.384253 0.249668
0.754635 0.430365 0.207706
0.909300 0.454841 0.165774
1.000000 0.472175 0.131533
0.000000 0.440101 0.309422
0.000000 0.445014 0.305089
0.000000 0.460578 0.280369
0.188663 0.445258 0.188449
0.434638 0.460426 0.244572
0.675624 0.529015 0.304601
0.896300 0.595636 0.263737
1.000000 0.606134 0.237675
0.000000 0.589288 0.359777
0.000000 0.591516 0.352239
0.000000 0.598688 0.318669
0.000000 0.586816 0.177005
0.313451 0.561181 0.138582
0.593408 0.608789 0.249882
0.816709 0.684077 0.408423
0.976013 0.742031 0.419135
0.000000 0.766445 0.424903
0.000000 0.767117 0.415381
0.000000 0.768795 0.376226
0.000000 0.762417 0.218906
0.182650 0.732082 0.000000
0.493629 0.744045 0.000000
0.763607 0.794400 0.292668
0.924712 0.845060 0.576226
0.000000 0.953521 0.486885
0.000000 0.953948 0.478767
0.000000 0.954498 0.450019
0.000000 0.954223 0.353857
0.000000 0.954040 0.000000
0.361730 0.946563 0.000000
0.685939 0.956115 0.000000
0.890257 0.956664 0.490791
0.000000 0.069642 0.355047
0.000000 0.064485 0.346838
0.165316 0.073640 0.325841
0.252781 0.111543 0.302708
0.407141 0.135592 0.345830
0.682521 0.000000 0.302983
0.890623 0.000000 0.242863
1.000000 0.125093 0.216770
0.000000 0.082429 0.358160
0.000000 0.084138 0.354162
0.167971 0.100252 0.339239
0.262699 0.135409 0.314305
0.425116 0.148531 0.354162
0.695827 0.000000 0.292882
0.892424 0.000000 0.250187
1.000000 0.179782 0.220890
0.000000 0.176913 0.382300
0.000000 0.174014 0.385412
0.143282 0.171450 0.384192
0.297032 0.218570 0.358068
0.489387 0.195834 0.370001
0.731563 0.140414 0.304356
0.895628 0.233402 0.274876
1.000000 0.299474 0.242496
0.000000 0.294377 0.385229
0.000000 0.299962 0.389105
0.096040 0.323278 0.404944
0.360906 0.378393 0.445014
0.560784 0.380377 0.405035
0.748074 0.394781 0.368414
0.902861 0.416999 0.330449
1.000000 0.440955 0.301488
0.000000 0.455207 0.441474
0.000000 0.461280 0.443946
0.000000 0.480079 0.447608
0.286900 0.507317 0.434943
0.485725 0.500755 0.421637
0.726406 0.563104 0.457038
0.906157 0.595605 0.427741
1.000000 0.596307 0.402319
0.000000 0.609766 0.489784
0.000000 0.612055 0.486854
0.000000 0.622126 0.476326
0.183566 0.635187 0.441535
0.319799 0.599542 0.278416
0.624140 0.633997 0.410803
0.839109 0.709377 0.521874
0.977447 0.749264 0.527214
0.000000 0.783566 0.536492
0.000000 0.784390 0.531762
0.000000 0.786709 0.512047
0.000000 0.788174 0.463722
0.158755 0.768215 0.257816
0.472114 0.748043 0.190890
0.771328 0.801022 0.429572
0.928710 0.856535 0.645045
0.000000 0.957885 0.576562
0.000000 0.958099 0.571466
0.000000 0.959014 0.551598
0.000000 0.959014 0.511589
0.000000 0.960479 0.324132
0.328099 0.953063 0.000000
0.670802 0.955566 0.218997
0.892515 0.955718 0.566949
0.000000 0.061952 0.536187
0.000000 0.045563 0.532250
0.138247 0.000000 0.521141
0.315892 0.093294 0.504967
0.407660 0.151125 0.466041
0.524590 0.281498 0.500298
0.816953 0.037537 0.522087
0.997864 0.000000 0.428016
0.000000 0.070802 0.537407
0.000000 0.068940 0.535210
0.128359 0.070985 0.529046
0.322271 0.129213 0.515465
0.415991 0.181064 0.476204
0.538537 0.292424 0.509361
0.823941 0.093996 0.519890
1.000000 0.000000 0.419074
0.000000 0.168887 0.557641
0.000000 0.159396 0.558709
0.000000 0.160311 0.556054
0.333806 0.218601 0.546319
0.444862 0.274632 0.510582
0.589197 0.329747 0.537896
0.848478 0.176852 0.507988
1.000000 0.171572 0.431159
0.000000 0.315557 0.565850
0.000000 0.315557 0.568566
0.000000 0.316747 0.578882
0.317327 0.346807 0.591272
0.498665 0.412207 0.567346
0.677943 0.389532 0.566552
0.885618 0.321691 0.488136
1.000000 0.375647 0.454902
0.000000 0.462318 0.570275
0.000000 0.466468 0.572930
0.000000 0.483253 0.583276
0.300359 0.517876 0.605890
0.589776 0.580285 0.649256
0.757168 0.563043 0.602075
0.895964 0.559380 0.559625
0.996460 0.567010 0.530114
0.000000 0.630640 0.617914
0.000000 0.635676 0.620600
0.000000 0.652674 0.630732
0.304143 0.672694 0.634241
0.481239 0.689845 0.609918
0.680049 0.681819 0.598840
0.869841 0.743832 0.645899
0.978637 0.758511 0.638453
0.000000 0.806882 0.660853
0.000000 0.808255 0.659327
0.000000 0.812039 0.652155
0.116213 0.815732 0.633082
0.356970 0.815244 0.584253
0.445808 0.770565 0.380255
0.788327 0.815000 0.575708
0.934844 0.872129 0.725338
0.000000 0.964263 0.683650
0.000000 0.964538 0.681025
0.000000 0.965240 0.670527
0.000000 0.965270 0.645441
0.264195 0.963958 0.598688
0.325139 0.963043 0.398108
0.637079 0.955688 0.342473
0.897215 0.955047 0.658839
0.000000 0.037079 0.699580
0.000000 0.000000 0.698329
0.091402 0.000000 0.693599
0.346654 0.000000 0.687068
0.506950 0.155947 0.667445
0.591760 0.240299 0.627649
0.723110 0.397070 0.662196
0.927794 0.431281 0.711696
0.000000 0.018616 0.700649
0.000000 0.000977 0.700099
0.071443 0.000000 0.697810
0.346746 0.053040 0.692500
0.514305 0.196384 0.674098
0.598444 0.267124 0.633753
0.726009 0.412238 0.666072
0.930510 0.437018 0.711421
0.000000 0.134524 0.711574
0.000000 0.135958 0.711513
0.000000 0.144625 0.710475
0.336095 0.189548 0.706233
0.536675 0.304753 0.695033
0.619745 0.345922 0.653285
0.734615 0.461219 0.678767
0.940032 0.453315 0.707576
0.000000 0.311833 0.717708
0.000000 0.307469 0.719570
0.000000 0.302098 0.726162
0.283635 0.321355 0.727474
0.555535 0.418311 0.723293
0.655634 0.456519 0.686336
0.767300 0.518364 0.701472
0.957214 0.475349 0.692226
0.000000 0.478523 0.722744
0.000000 0.478706 0.724025
0.000000 0.480476 0.728817
0.094392 0.486732 0.739651
0.533745 0.529015 0.757107
0.706630 0.599237 0.735805
0.834043 0.576776 0.721584
0.980865 0.524437 0.658412
0.000000 0.627771 0.730007
0.000000 0.630243 0.730953
0.000000 0.640253 0.735744
0.208774 0.661219 0.746365
0.521111 0.699641 0.766873
0.775784 0.774472 0.811093
0.881926 0.747311 0.759487
0.970367 0.738949 0.726253
0.000000 0.815732 0.773098
0.000000 0.817960 0.773770
0.000000 0.825864 0.776669
0.311833 0.837644 0.782620
0.533288 0.846159 0.781613
0.664393 0.846433 0.748318
0.822354 0.843381 0.746426
0.940154 0.891569 0.818601
0.000000 0.967773 0.807645
0.000000 0.967895 0.806424
0.000000 0.968109 0.801450
0.280217 0.967742 0.790341
0.447364 0.966308 0.769375
0.579431 0.961975 0.725521
0.583825 0.956329 0.499214
0.903105 0.954345 0.768276
0.000000 0.045045 0.863310
0.000000 0.008057 0.864256
0.000000 0.000000 0.861967
0.368780 0.000000 0.856046
0.570306 0.180545 0.847654
0.706111 0.304570 0.823362
0.784573 0.376226 0.784268
0.883848 0.603082 0.827726
0.000000 0.030030 0.858579
0.000000 0.000000 0.859403
0.000000 0.000000 0.857481
0.359258 0.000000 0.852750
0.564172 0.205600 0.843961
0.701595 0.320195 0.819425
0.778317 0.383368 0.779202
0.878447 0.597589 0.821469
0.000000 0.120607 0.866331
0.000000 0.121279 0.865782
0.000000 0.128420 0.863127
0.334569 0.175296 0.859068
0.561456 0.292851 0.850492
0.711940 0.397009 0.830472
0.788510 0.444678 0.791989
0.882597 0.639796 0.833158
0.000000 0.293523 0.872648
0.000000 0.290257 0.872496
0.000000 0.253758 0.871702
0.256809 0.305882 0.869566
0.549645 0.396338 0.863584
0.733608 0.514366 0.851926
0.804349 0.541009 0.813321
0.885405 0.696254 0.847013
0.000000 0.464759 0.867491
0.000000 0.460700 0.866545
0.000000 0.448127 0.866300
0.000000 0.448676 0.871031
0.482765 0.485451 0.872282
0.738735 0.613519 0.867308
0.814664 0.643519 0.831815
0.891020 0.746365 0.858488
0.000000 0.621027 0.870115
0.000000 0.620691 0.870207
0.000000 0.620020 0.870848
0.000000 0.620539 0.873381
0.339117 0.623682 0.877745
0.715541 0.706844 0.888518
0.841428 0.781613 0.871733
0.924407 0.782681 0.866087
0.000000 0.780423 0.876463
0.000000 0.782498 0.877287
0.000000 0.787716 0.877989
0.000000 0.798276 0.879942
0.444129 0.815732 0.882567
0.705257 0.849699 0.892271
0.879759 0.909392 0.924834
0.939452 0.891020 0.890959
0.000000 0.966949 0.910918
0.000000 0.967132 0.910246
0.000000 0.969818 0.910277
0.303593 0.968750 0.907622
0.582330 0.963684 0.907591
0.739315 0.960266 0.907256
0.805661 0.957000 0.875731
0.909880 0.955657 0.885130
0.000000 0.129335 0.979004
0.000000 0.130129 0.979004
0.000000 0.135134 0.976562
0.353552 0.176486 0.973236
0.571862 0.273960 0.966491
0.742000 0.427070 0.955474
0.841459 0.503227 0.939147
0.905150 0.585595 0.913603
0.000000 0.127810 0.977691
0.000000 0.128267 0.977691
0.000000 0.133120 0.975616
0.349615 0.172000 0.971954
0.567926 0.268498 0.965270
0.739803 0.435004 0.954467
0.839597 0.510582 0.937652
0.903197 0.588403 0.911925
0.000000 0.127993 0.977996
0.000000 0.127962 0.977691
0.000000 0.136172 0.975036
0.330755 0.205539 0.973205
0.558862 0.324132 0.966278
0.737728 0.472663 0.955138
0.840665 0.554681 0.938842
0.902464 0.620020 0.914061
0.000000 0.221805 0.980652
0.000000 0.218631 0.980774
0.000000 0.242771 0.978668
0.240543 0.302190 0.975463
0.533471 0.398169 0.969177
0.734279 0.533074 0.958770
0.845365 0.629938 0.943725
0.903349 0.676997 0.920470
0.000000 0.415930 0.979370
0.000000 0.413306 0.979736
0.000000 0.408576 0.978912
0.000000 0.392920 0.978454
0.452491 0.462440 0.972351
0.712764 0.587884 0.962158
0.850095 0.715724 0.949187
0.904204 0.747768 0.928862
0.000000 0.573358 0.977996
0.000000 0.570520 0.977539
0.000000 0.560815 0.976593
0.000000 0.543023 0.976104
0.246220 0.557214 0.974365
0.661402 0.650965 0.968719
0.857115 0.804166 0.959655
0.908995 0.836393 0.944060
0.000000 0.728573 0.977600
0.000000 0.728023 0.977264
0.000000 0.726528 0.976440
0.000000 0.726131 0.975891
0.103792 0.729366 0.974762
0.533257 0.748196 0.972412
0.834928 0.853971 0.968353
0.912993 0.909941 0.957580
0.000000 0.886198 0.977752
0.000000 0.886961 0.977539
0.000000 0.890806 0.977356
0.000000 0.899168 0.977478
0.414862 0.910796 0.975280
0.664485 0.927916 0.972045
0.832273 0.948577 0.970520
0.927764 0.975647 0.981384
