cubelut/NW-6.cube
# Created by Adobe Lightroom plugin Export LUT (1.18.0)
# www.johnrellis.com/lightroom/exportlut.htm
# Preset: NW6
# Color profile: /Library/Application Support/Adobe/Color/Profiles/Recommended/AdobeRGB1998.icc
LUT_3D_SIZE 8
DOMAIN_MIN 0.000000 0.000000 0.000000
DOMAIN_MAX 0.903226 0.903226 0.903226
0.066011 0.141573 0.178836
0.071443 0.141909 0.178866
0.114107 0.144076 0.178592
0.264958 0.144930 0.175082
0.530632 0.096651 0.160586
0.749630 0.000000 0.138033
0.880186 0.000000 0.120394
0.948699 0.147311 0.126833
0.064973 0.144900 0.179232
0.071046 0.145327 0.179019
0.116854 0.150698 0.178256
0.267765 0.160708 0.174228
0.529900 0.140749 0.158968
0.744228 0.095003 0.135958
0.875731 0.110933 0.117830
0.946807 0.182712 0.124300
0.044587 0.178897 0.181674
0.058473 0.182467 0.177829
0.116152 0.183627 0.178561
0.302190 0.229618 0.168948
0.567224 0.248875 0.146548
0.764065 0.246311 0.120577
0.886381 0.256016 0.106111
0.949401 0.286748 0.125673
0.000000 0.344732 0.186831
0.000000 0.349828 0.173617
0.103243 0.369604 0.156832
0.319860 0.379400 0.155703
0.602350 0.425879 0.118868
0.795560 0.411566 0.076326
0.892821 0.400732 0.082551
0.948089 0.406409 0.130465
0.000000 0.588952 0.185977
0.000000 0.591211 0.166018
0.000000 0.602136 0.094606
0.295872 0.609674 0.070100
0.558801 0.584771 0.101472
0.770565 0.583307 0.100069
0.889036 0.552819 0.093263
0.944915 0.531212 0.159060
0.000000 0.742031 0.226566
0.000000 0.745998 0.217441
0.000000 0.750484 0.120333
0.216373 0.750637 0.059083
0.507897 0.736049 0.079713
0.728847 0.709957 0.182528
0.868772 0.701747 0.270603
0.929870 0.674281 0.307866
0.162600 0.826352 0.348608
0.229343 0.825193 0.355169
0.221622 0.827268 0.300114
0.303471 0.827573 0.238682
0.471260 0.820859 0.208835
0.681209 0.800931 0.275822
0.824674 0.781704 0.374578
0.904692 0.776303 0.485634
0.478889 0.860380 0.505669
0.505394 0.858183 0.514641
0.512505 0.858946 0.494545
0.514488 0.861845 0.447181
0.572076 0.857603 0.418158
0.666102 0.851194 0.408637
0.797757 0.834501 0.502800
0.873136 0.823514 0.587121
0.066255 0.141665 0.180606
0.070741 0.141665 0.180941
0.113863 0.140017 0.180911
0.254459 0.136568 0.181033
0.517418 0.060395 0.170108
0.733974 0.000000 0.152285
0.870726 0.000000 0.138888
0.944488 0.139284 0.147158
0.064820 0.144472 0.181186
0.071839 0.145663 0.181888
0.115328 0.149081 0.182345
0.263096 0.152346 0.180423
0.522515 0.116945 0.168368
0.734188 0.005493 0.149935
0.867918 0.070558 0.136477
0.942535 0.175326 0.144717
0.049744 0.176455 0.187320
0.066438 0.179751 0.186313
0.117159 0.183719 0.184237
0.303777 0.220676 0.175937
0.555383 0.233280 0.158846
0.751003 0.227726 0.138827
0.875639 0.240513 0.128634
0.944549 0.282597 0.147829
0.000000 0.334142 0.200320
0.000000 0.340063 0.193118
0.090120 0.363073 0.167300
0.306584 0.364721 0.168826
0.579187 0.404913 0.141054
0.775631 0.393622 0.111086
0.882322 0.389471 0.114321
0.943542 0.404181 0.155093
0.000000 0.583856 0.210483
0.000000 0.584527 0.198001
0.000000 0.593957 0.124697
0.282536 0.599023 0.105837
0.547143 0.572534 0.133761
0.762051 0.574609 0.135836
0.884825 0.547601 0.130922
0.941711 0.532403 0.189548
0.000000 0.736507 0.252384
0.000000 0.736660 0.247776
0.000000 0.740719 0.179690
0.226474 0.743374 0.121950
0.507988 0.731289 0.130709
0.728847 0.706874 0.218326
0.866300 0.699825 0.296605
0.927764 0.673426 0.327337
0.171633 0.822080 0.362799
0.228824 0.820188 0.366430
0.270634 0.820676 0.334295
0.326665 0.822873 0.270329
0.484535 0.817166 0.244907
0.683162 0.798154 0.299931
0.822934 0.778866 0.388891
0.902647 0.773770 0.491188
0.476051 0.859190 0.510613
0.503990 0.857053 0.520226
0.535485 0.855436 0.516594
0.535271 0.858732 0.470832
0.596643 0.855680 0.453010
0.676081 0.850034 0.434455
0.799741 0.833616 0.517266
0.872831 0.822721 0.594263
0.067048 0.141421 0.195010
0.076356 0.141390 0.195712
0.115389 0.140078 0.199557
0.294408 0.092500 0.214023
0.538659 0.000000 0.195224
0.737057 0.000000 0.199252
0.871122 0.000000 0.204349
0.942016 0.207431 0.232517
0.059693 0.145144 0.198001
0.075166 0.146761 0.198764
0.118471 0.146944 0.201450
0.291508 0.109895 0.209995
0.535363 0.000000 0.195590
0.736110 0.000000 0.199252
0.869474 0.015564 0.203220
0.941039 0.233616 0.232059
0.050477 0.175235 0.203738
0.069306 0.177798 0.205020
0.126986 0.186465 0.208286
0.303807 0.196048 0.208164
0.560266 0.190311 0.203159
0.752224 0.194797 0.198703
0.873869 0.243290 0.206607
0.940368 0.323003 0.241367
0.000000 0.334295 0.240818
0.000000 0.341039 0.239017
0.117067 0.361578 0.225711
0.327550 0.372137 0.213840
0.604456 0.392187 0.200870
0.775814 0.387701 0.199374
0.880705 0.403174 0.218723
0.938964 0.439429 0.265385
0.000000 0.581598 0.281682
0.000000 0.583764 0.276982
0.111177 0.587945 0.261326
0.296971 0.600244 0.202121
0.568627 0.575860 0.233188
0.769955 0.576287 0.247135
0.885161 0.552056 0.248905
0.935515 0.556634 0.307469
0.000000 0.734340 0.335027
0.000000 0.733913 0.336889
0.243931 0.730251 0.340429
0.317479 0.735042 0.264958
0.532280 0.725795 0.257145
0.735622 0.702480 0.324773
0.863127 0.699092 0.381781
0.923491 0.679774 0.409735
0.262974 0.819150 0.434241
0.307042 0.817136 0.439033
0.416541 0.810941 0.451881
0.432990 0.813993 0.388952
0.541833 0.809567 0.361822
0.701320 0.794614 0.390875
0.827756 0.778164 0.468818
0.899474 0.775814 0.550683
0.500023 0.856565 0.547509
0.520317 0.854734 0.552544
0.593439 0.847929 0.577386
0.617365 0.848539 0.559503
0.645136 0.848692 0.528313
0.705531 0.845060 0.508934
0.808774 0.831632 0.568719
0.874022 0.822354 0.631403
0.077211 0.139193 0.245335
0.096407 0.138460 0.247868
0.155367 0.134279 0.253178
0.284581 0.098421 0.274723
0.591638 0.000000 0.311192
0.764889 0.000000 0.281590
0.876524 0.000000 0.268956
0.934844 0.250065 0.337285
0.064485 0.146242 0.255711
0.090547 0.145663 0.256992
0.158785 0.141482 0.260777
0.294133 0.108858 0.279759
0.592401 0.000000 0.308354
0.761868 0.000000 0.280430
0.873411 0.000000 0.273686
0.931395 0.303746 0.353307
0.000000 0.187503 0.271092
0.000000 0.184970 0.273625
0.149691 0.185977 0.282048
0.320409 0.175570 0.296117
0.592309 0.086885 0.304845
0.760433 0.100832 0.293980
0.865690 0.307073 0.344457
0.928832 0.402960 0.386267
0.000000 0.323369 0.307836
0.000000 0.328161 0.310369
0.147494 0.344976 0.318975
0.360174 0.369268 0.329442
0.587091 0.385626 0.336187
0.756680 0.407630 0.347753
0.866331 0.443671 0.370306
0.926818 0.490822 0.408850
0.000000 0.581506 0.402045
0.000000 0.581506 0.400732
0.223758 0.582452 0.399695
0.422248 0.581384 0.395117
0.594354 0.573236 0.383154
0.776577 0.576959 0.392340
0.873045 0.574945 0.410834
0.923491 0.589441 0.449378
0.000000 0.732723 0.461891
0.179934 0.733761 0.467689
0.344518 0.727687 0.472572
0.497505 0.719234 0.474647
0.581750 0.721218 0.419471
0.749020 0.700740 0.460975
0.859800 0.701137 0.497505
0.916381 0.688472 0.515007
0.352087 0.813413 0.529595
0.386633 0.811887 0.533715
0.481514 0.806302 0.546105
0.595392 0.797421 0.563928
0.626856 0.799466 0.514824
0.729091 0.790677 0.513268
0.832761 0.776608 0.564569
0.894804 0.776638 0.616052
0.556359 0.850889 0.613184
0.573938 0.849424 0.617517
0.623285 0.844785 0.629206
0.696132 0.837186 0.652003
0.704891 0.839384 0.620172
0.746120 0.837644 0.604211
0.819608 0.829038 0.631403
0.875425 0.821744 0.676295
0.101686 0.128634 0.377905
0.133120 0.125338 0.380529
0.217960 0.108614 0.386389
0.342718 0.004944 0.395422
0.549889 0.000000 0.435676
0.780484 0.000000 0.450111
0.886564 0.000000 0.421302
0.939422 0.182620 0.426215
0.073030 0.138918 0.389715
0.116274 0.135775 0.392554
0.213474 0.121126 0.396704
0.345678 0.063966 0.403082
0.554284 0.000000 0.439857
0.781765 0.000000 0.452583
0.884611 0.000000 0.427253
0.937316 0.238132 0.434241
0.000000 0.174197 0.413703
0.000000 0.181827 0.417487
0.181704 0.181765 0.421241
0.353826 0.165805 0.428840
0.566033 0.114076 0.453498
0.780697 0.093355 0.463813
0.875639 0.236576 0.447211
0.929961 0.354955 0.456886
0.000000 0.321935 0.447761
0.000000 0.321782 0.449409
0.125856 0.325017 0.455024
0.382025 0.359106 0.466011
0.584192 0.373632 0.481544
0.768551 0.394202 0.486976
0.862699 0.431006 0.481147
0.915221 0.508507 0.516930
0.000000 0.530419 0.501610
0.000000 0.533379 0.503258
0.240970 0.541588 0.506615
0.442390 0.551537 0.512078
0.603967 0.558923 0.516564
0.753567 0.569024 0.524346
0.851682 0.586999 0.539483
0.907836 0.613001 0.564965
0.262089 0.718441 0.585687
0.312444 0.717494 0.587304
0.417700 0.712367 0.587213
0.542473 0.705043 0.587640
0.647303 0.696956 0.577966
0.752987 0.692012 0.573419
0.855619 0.697993 0.593530
0.904906 0.698604 0.611139
0.448615 0.803708 0.630426
0.472633 0.801938 0.632044
0.543389 0.796658 0.637507
0.630274 0.789914 0.644862
0.708248 0.783261 0.648005
0.747555 0.784634 0.612238
0.835111 0.773098 0.642359
0.890684 0.775143 0.669886
0.607813 0.842802 0.677668
0.620417 0.841581 0.679713
0.658686 0.837827 0.686183
0.713283 0.833524 0.697658
0.766110 0.828244 0.708400
0.780209 0.830228 0.683009
0.827665 0.826383 0.685359
0.876158 0.820401 0.715755
0.122011 0.104402 0.548577
0.161379 0.097169 0.549737
0.259068 0.056977 0.551781
0.393194 0.000000 0.559564
0.560052 0.000000 0.576806
0.741482 0.000000 0.597620
0.878264 0.000000 0.585809
0.936004 0.228763 0.564843
0.089174 0.121828 0.551843
0.139864 0.116487 0.552422
0.248569 0.089479 0.555016
0.388861 0.000000 0.562280
0.557275 0.000000 0.576532
0.740475 0.000000 0.598169
0.876616 0.000000 0.588495
0.933837 0.271885 0.569207
0.000000 0.186465 0.574487
0.000000 0.184909 0.575067
0.220310 0.178012 0.577417
0.387518 0.160678 0.581353
0.561578 0.132387 0.585931
0.743679 0.142947 0.608026
0.872892 0.268132 0.603052
0.926909 0.388190 0.587610
0.000000 0.299596 0.593561
0.000000 0.300084 0.594568
0.157076 0.315923 0.601312
0.417731 0.360815 0.607263
0.587060 0.370367 0.610040
0.749660 0.399145 0.627649
0.867826 0.461433 0.629358
0.915923 0.515892 0.618128
0.000000 0.497810 0.626123
0.000000 0.500572 0.626520
0.254215 0.510277 0.626978
0.431189 0.521447 0.627039
0.607996 0.543969 0.630488
0.748562 0.560662 0.642817
0.854459 0.589899 0.647883
0.902800 0.613611 0.644984
0.243503 0.674006 0.661616
0.292302 0.675532 0.662867
0.406867 0.677211 0.664088
0.542748 0.679011 0.665583
0.661097 0.680781 0.666835
0.757931 0.684565 0.669184
0.841825 0.694240 0.676875
0.891661 0.708156 0.688838
0.524834 0.793515 0.715785
0.548241 0.792386 0.717098
0.612146 0.788296 0.719905
0.685542 0.783536 0.723842
0.741787 0.779171 0.723598
0.789395 0.774380 0.716854
0.838621 0.770840 0.711360
0.888487 0.775326 0.723690
0.671077 0.834073 0.741299
0.679591 0.833219 0.742061
0.706325 0.830625 0.744686
0.744045 0.827573 0.748928
0.782162 0.824735 0.752529
0.818051 0.822293 0.754940
0.835813 0.824308 0.736355
0.877440 0.819577 0.754635
0.170138 0.062959 0.697353
0.205478 0.035706 0.697993
0.300328 0.000000 0.699489
0.428504 0.000000 0.701656
0.572869 0.000000 0.703059
0.727260 0.000000 0.716213
0.849790 0.000000 0.712795
0.920806 0.258274 0.685176
0.151492 0.098177 0.699825
0.191073 0.089967 0.700313
0.292576 0.029938 0.701472
0.424781 0.000000 0.702815
0.572381 0.000000 0.704128
0.726711 0.000000 0.716243
0.848753 0.000000 0.713527
0.919341 0.295079 0.687312
0.084230 0.189853 0.708095
0.151583 0.188296 0.708278
0.278202 0.182681 0.708583
0.424018 0.172274 0.709163
0.577173 0.164675 0.709377
0.727230 0.184024 0.717494
0.846372 0.270268 0.717769
0.914672 0.401190 0.696742
0.000000 0.297826 0.717678
0.000000 0.312657 0.717372
0.309636 0.354589 0.717067
0.450538 0.360815 0.716823
0.594232 0.370031 0.716365
0.727779 0.385931 0.718685
0.842313 0.439460 0.724727
0.907225 0.521965 0.712215
0.000000 0.472114 0.727291
0.129183 0.474617 0.726741
0.284062 0.482338 0.725002
0.443824 0.498238 0.725063
0.615564 0.531823 0.724453
0.732448 0.540185 0.723995
0.837400 0.576867 0.733394
0.898894 0.629450 0.732265
0.315099 0.640497 0.744045
0.344427 0.641535 0.743862
0.430060 0.645228 0.742977
0.538048 0.649744 0.741238
0.640436 0.652705 0.737911
0.750668 0.667964 0.737484
0.835233 0.685756 0.746090
0.890043 0.711482 0.750484
0.503716 0.757809 0.761013
0.522667 0.757839 0.761074
0.579004 0.757961 0.761135
0.652766 0.758511 0.761440
0.727138 0.759976 0.761990
0.790524 0.762509 0.762753
0.838376 0.764828 0.762417
0.881529 0.772000 0.766812
0.688228 0.828122 0.786130
0.697627 0.827359 0.786435
0.726528 0.825223 0.787686
0.766171 0.822629 0.790066
0.806485 0.820859 0.793759
0.832700 0.820279 0.794705
0.854734 0.819730 0.791775
0.878813 0.818967 0.789242
0.265873 0.082399 0.804318
0.290959 0.076295 0.804288
0.367346 0.038392 0.804074
0.478035 0.000000 0.803677
0.603571 0.000000 0.802731
0.725826 0.107881 0.801175
0.836118 0.196323 0.806851
0.904845 0.309575 0.788205
0.265019 0.128023 0.804593
0.290684 0.125490 0.804593
0.368414 0.116854 0.804318
0.480079 0.107424 0.803769
0.605585 0.119936 0.802701
0.726650 0.173220 0.800992
0.835416 0.239933 0.806332
0.903746 0.337560 0.788479
0.280339 0.240543 0.805295
0.305730 0.241306 0.805203
0.383093 0.244419 0.804685
0.493721 0.253147 0.803922
0.615076 0.271489 0.802426
0.730159 0.303777 0.800473
0.833310 0.346136 0.804898
0.900053 0.420722 0.789883
0.340581 0.393042 0.804837
0.361608 0.394293 0.804715
0.427405 0.398596 0.804105
0.523491 0.406378 0.803159
0.630732 0.417975 0.801724
0.735103 0.436591 0.799954
0.829892 0.467842 0.802548
0.894408 0.522637 0.792508
0.282292 0.479561 0.806607
0.313024 0.483192 0.806394
0.400275 0.495003 0.805539
0.551873 0.537987 0.802365
0.650660 0.548913 0.800809
0.742763 0.559380 0.799344
0.826017 0.577111 0.799680
0.887938 0.619776 0.796384
0.420233 0.624201 0.808591
0.437659 0.625330 0.808194
0.490822 0.628656 0.806943
0.562707 0.631769 0.804776
0.652857 0.640070 0.802274
0.757717 0.665248 0.800107
0.826108 0.673732 0.799466
0.882170 0.703578 0.801785
0.569879 0.733700 0.811673
0.581201 0.734279 0.811460
0.616632 0.736049 0.810788
0.668391 0.738979 0.809689
0.724941 0.742397 0.808103
0.776455 0.744472 0.805631
0.833127 0.753933 0.804044
0.878569 0.768673 0.808499
0.688014 0.806394 0.816098
0.694972 0.806455 0.816037
0.717556 0.806729 0.815976
0.751766 0.807492 0.815976
0.789883 0.808957 0.816251
0.825376 0.811307 0.816892
0.855497 0.814481 0.818021
0.879240 0.817075 0.818326
