cubelut/NW-6.cube
# Created by Adobe Lightroom plugin Export LUT (1.18.0)
# www.johnrellis.com/lightroom/exportlut.htm
# Preset: NW6
# Color profile: /Library/Application Support/Adobe/Color/Profiles/Recommended/AdobeRGB1998.icc
LUT_3D_SIZE 32
DOMAIN_MIN 0.0 0.0 0.0
DOMAIN_MAX 1.0 1.0 1.0
0.066011 0.141573 0.178836
0.066011 0.141573 0.178836
0.066438 0.141726 0.178805
0.067842 0.141817 0.178805
0.071443 0.141909 0.178866
0.077272 0.142336 0.178805
0.086213 0.142763 0.178805
0.097871 0.143343 0.178744
0.114107 0.144076 0.178592
0.136019 0.145113 0.178286
0.167025 0.145968 0.177676
0.209384 0.146242 0.176699
0.264958 0.144930 0.175082
0.330388 0.140108 0.172519
0.400244 0.130709 0.169070
0.468818 0.115938 0.164920
0.530632 0.096651 0.160586
0.588525 0.071351 0.155795
0.642542 0.009552 0.150576
0.700404 0.000000 0.144289
0.749630 0.000000 0.138033
0.791287 0.000000 0.132265
0.826200 0.000000 0.127352
0.855467 0.000000 0.123476
0.880186 0.000000 0.120394
0.901305 0.026429 0.119295
0.919585 0.084993 0.119417
0.935241 0.117372 0.121675
0.948699 0.147311 0.126833
0.960174 0.177615 0.135348
0.969909 0.210239 0.148440
0.977905 0.247044 0.167330
0.065949 0.141756 0.178805
0.065949 0.141756 0.178805
0.066377 0.141909 0.178805
0.068269 0.141939 0.178775
0.071382 0.142092 0.178866
0.077577 0.142641 0.178775
0.086427 0.143252 0.178775
0.098024 0.144015 0.178714
0.113985 0.144747 0.178561
0.135897 0.145785 0.178225
0.166537 0.147066 0.177737
0.208774 0.147555 0.176638
0.263462 0.146456 0.175051
0.328496 0.142367 0.172488
0.398108 0.133944 0.169009
0.466346 0.120211 0.165042
0.528099 0.103182 0.160708
0.585779 0.080995 0.155825
0.640284 0.038972 0.150729
0.697536 0.000000 0.144381
0.746395 0.000000 0.138277
0.788113 0.000000 0.132387
0.823270 0.000000 0.127504
0.852964 0.000000 0.123384
0.878019 0.000000 0.120516
0.899535 0.048737 0.119081
0.918120 0.089998 0.118990
0.934112 0.120302 0.121187
0.947784 0.149050 0.126009
0.959442 0.178531 0.134585
0.969329 0.210544 0.147005
0.977478 0.246403 0.165530
0.065797 0.141939 0.178927
0.065827 0.142123 0.178775
0.066224 0.142092 0.178897
0.068055 0.142306 0.178866
0.071656 0.142580 0.178836
0.077760 0.143130 0.178866
0.086610 0.143771 0.178866
0.098177 0.144503 0.178805
0.114076 0.145602 0.178500
0.135927 0.146944 0.178164
0.166720 0.148196 0.177676
0.208743 0.149203 0.176547
0.263493 0.148775 0.174899
0.328038 0.145296 0.172427
0.397223 0.137758 0.168856
0.465644 0.125338 0.164797
0.527367 0.110353 0.160433
0.585138 0.090608 0.155642
0.640223 0.063966 0.150484
0.696559 0.000000 0.144198
0.745174 0.000000 0.137972
0.786831 0.000000 0.132143
0.822080 0.000000 0.127230
0.851804 0.000000 0.123079
0.877012 0.007691 0.120150
0.898650 0.067536 0.118624
0.917357 0.099245 0.118441
0.933501 0.126986 0.120638
0.947295 0.153811 0.125673
0.959045 0.181888 0.133791
0.968994 0.213046 0.146487
0.977203 0.248234 0.164950
0.065431 0.142824 0.178988
0.065949 0.142977 0.178866
0.066438 0.142947 0.178866
0.067750 0.143008 0.178958
0.071199 0.143618 0.179019
0.078614 0.144442 0.178775
0.087282 0.145235 0.178744
0.099001 0.146273 0.178653
0.115236 0.147463 0.178347
0.137423 0.149203 0.178103
0.168124 0.151003 0.177554
0.210483 0.152804 0.176364
0.265202 0.153353 0.174624
0.329503 0.151247 0.171939
0.398535 0.145205 0.168521
0.466438 0.135470 0.164370
0.527642 0.123018 0.159976
0.585107 0.107729 0.155001
0.640955 0.088716 0.149752
0.695735 0.066224 0.143465
0.743465 0.032074 0.137514
0.784665 0.012482 0.131655
0.820127 0.012421 0.126589
0.850309 0.043702 0.122347
0.876127 0.073335 0.119203
0.898161 0.095583 0.117678
0.917174 0.118044 0.117891
0.933410 0.141909 0.120027
0.947234 0.165774 0.125124
0.958923 0.191897 0.133639
0.968780 0.220951 0.146426
0.976928 0.254429 0.164706
0.064973 0.144900 0.179232
0.065492 0.145022 0.179080
0.065980 0.145174 0.178958
0.067811 0.145388 0.178927
0.071046 0.145327 0.179019
0.077516 0.146365 0.178897
0.087617 0.147860 0.178714
0.100496 0.149111 0.178470
0.116854 0.150698 0.178256
0.139223 0.152956 0.177951
0.170230 0.155856 0.177188
0.212924 0.158602 0.176120
0.267765 0.160708 0.174228
0.332219 0.160525 0.171481
0.401007 0.157076 0.167727
0.468513 0.150240 0.163424
0.529900 0.140749 0.158968
0.586999 0.129702 0.154025
0.644434 0.116762 0.148226
0.697688 0.104372 0.142092
0.744228 0.095003 0.135958
0.784817 0.089937 0.130190
0.819913 0.091707 0.125216
0.849973 0.099397 0.120943
0.875731 0.110933 0.117830
0.897826 0.125521 0.116304
0.916808 0.143191 0.116487
0.933013 0.161532 0.119203
0.946807 0.182712 0.124300
0.958526 0.205753 0.133303
0.968383 0.232486 0.146304
0.976532 0.263890 0.164797
0.064118 0.148745 0.179599
0.064149 0.149081 0.179324
0.064363 0.149416 0.178805
0.066682 0.149752 0.178775
0.070771 0.149996 0.178836
0.076783 0.149722 0.178927
0.085512 0.150973 0.179019
0.099397 0.153231 0.178561
0.119478 0.155734 0.178103
0.142428 0.158846 0.177584
0.174716 0.162722 0.176944
0.218662 0.167269 0.175540
0.273808 0.171145 0.173404
0.338354 0.173220 0.170504
0.406928 0.172519 0.166445
0.473854 0.168612 0.161868
0.534264 0.162081 0.157412
0.591455 0.154391 0.152163
0.649836 0.146090 0.146059
0.701625 0.138247 0.139895
0.747280 0.133822 0.133577
0.787289 0.132418 0.127810
0.840024 0.142184 0.120119
0.866880 0.148775 0.117281
0.889494 0.157839 0.115480
0.908904 0.169162 0.115267
0.925444 0.182162 0.117311
0.939635 0.197574 0.121767
0.951751 0.215702 0.129213
0.962158 0.236698 0.139864
0.970916 0.261845 0.155184
0.978088 0.291691 0.176059
0.061341 0.155428 0.179995
0.061921 0.155703 0.179751
0.062135 0.156039 0.179232
0.063783 0.156741 0.178683
0.069276 0.157626 0.178592
0.077089 0.157443 0.178653
0.085481 0.156954 0.178958
0.097719 0.158785 0.179049
0.118074 0.162997 0.178347
0.147097 0.168276 0.177401
0.186130 0.174258 0.176120
0.233249 0.181094 0.174380
0.291173 0.187198 0.171847
0.356237 0.191501 0.168276
0.423835 0.192630 0.164065
0.487984 0.191440 0.159304
0.546471 0.187533 0.154452
0.606287 0.182895 0.148501
0.663142 0.178164 0.142153
0.713771 0.174350 0.135683
0.759060 0.172488 0.129397
0.799130 0.173373 0.123323
0.833616 0.176181 0.118502
0.862821 0.181949 0.114717
0.887236 0.189242 0.112978
0.907439 0.198428 0.112947
0.924376 0.209049 0.115602
0.938689 0.222049 0.120119
0.950927 0.236973 0.127993
0.961303 0.255406 0.139162
0.970092 0.277867 0.154849
0.977295 0.305455 0.175937
0.057404 0.164706 0.180697
0.057771 0.164858 0.180331
0.057923 0.165469 0.179782
0.059266 0.166323 0.178500
0.065675 0.167422 0.178256
0.074281 0.168765 0.178073
0.086336 0.168093 0.178378
0.097871 0.167269 0.178805
0.114015 0.169680 0.179110
0.142000 0.177401 0.177890
0.182834 0.186740 0.176120
0.239231 0.197238 0.173312
0.300481 0.206180 0.170047
0.365637 0.212924 0.166262
0.432258 0.216892 0.161563
0.495033 0.217563 0.156527
0.554864 0.216037 0.151217
0.614313 0.214115 0.144900
0.668330 0.211795 0.138338
0.716945 0.209964 0.131930
0.760678 0.209140 0.125643
0.799680 0.209812 0.119783
0.833524 0.212650 0.114626
0.862272 0.216739 0.111391
0.886351 0.222080 0.109773
0.906523 0.229282 0.110323
0.923430 0.237583 0.113191
0.937804 0.247807 0.118196
0.950042 0.260838 0.126619
0.960479 0.276616 0.138399
0.969268 0.297032 0.154910
0.976471 0.322057 0.176852
0.044587 0.178897 0.181674
0.046113 0.179294 0.181277
0.046509 0.179812 0.180636
0.047700 0.180880 0.178988
0.058473 0.182467 0.177829
0.069764 0.184360 0.177584
0.083955 0.185580 0.177462
0.100160 0.184665 0.177859
0.116152 0.183627 0.178561
0.137606 0.187259 0.179080
0.176608 0.200076 0.177066
0.232486 0.215152 0.173648
0.302190 0.229618 0.168948
0.378546 0.239597 0.163241
0.443824 0.245182 0.158175
0.506462 0.248020 0.152529
0.567224 0.248875 0.146548
0.624048 0.248508 0.139986
0.675257 0.247135 0.133364
0.721859 0.246494 0.126802
0.764065 0.246311 0.120577
0.801846 0.246921 0.114656
0.834745 0.248722 0.110048
0.862730 0.252018 0.106874
0.886381 0.256016 0.106111
0.906279 0.261265 0.106752
0.923003 0.267857 0.110353
0.937224 0.276005 0.116548
0.949401 0.286748 0.125673
0.959716 0.300725 0.138613
0.968444 0.318608 0.155825
0.975647 0.341131 0.178347
0.019532 0.200687 0.182956
0.020661 0.201114 0.182681
0.021546 0.201694 0.181674
0.022797 0.203098 0.179751
0.029419 0.205325 0.176974
0.059907 0.207736 0.176608
0.078248 0.210971 0.175998
0.100160 0.211307 0.176211
0.122011 0.210147 0.176852
0.143191 0.209079 0.177676
0.170932 0.213474 0.178195
0.223941 0.232883 0.174746
0.293095 0.253147 0.169162
0.371283 0.269139 0.162203
0.453559 0.279881 0.153841
0.522728 0.283879 0.146609
0.581476 0.285649 0.139956
0.636042 0.286046 0.132998
0.684718 0.285405 0.126650
0.729000 0.284642 0.120089
0.769223 0.284581 0.113558
0.804868 0.284764 0.108248
0.836088 0.285649 0.103975
0.862943 0.287449 0.101442
0.885863 0.289860 0.101167
0.905486 0.293400 0.102968
0.922179 0.298253 0.107210
0.936400 0.305119 0.114534
0.948608 0.314183 0.124910
0.958984 0.326268 0.139010
0.967712 0.342412 0.157626
0.974823 0.363195 0.181582
0.000000 0.232975 0.184787
0.000000 0.233524 0.184146
0.000000 0.234226 0.183261
0.000000 0.236057 0.180667
0.000000 0.238834 0.176211
0.015137 0.242283 0.174441
0.065370 0.246372 0.173739
0.093690 0.251377 0.172702
0.125429 0.250553 0.173342
0.154543 0.249180 0.174166
0.182925 0.247623 0.175143
0.217655 0.251591 0.175448
0.285618 0.277317 0.169924
0.367315 0.301579 0.161227
0.450172 0.317906 0.151308
0.524529 0.324590 0.141848
0.593072 0.325475 0.132143
0.645930 0.325597 0.124788
0.692470 0.324773 0.118288
0.734829 0.323888 0.111513
0.773373 0.323217 0.105379
0.807858 0.322881 0.100038
0.838102 0.323064 0.096559
0.864195 0.323644 0.094636
0.886595 0.325048 0.095064
0.905638 0.327153 0.098268
0.921965 0.330327 0.103975
0.935912 0.335393 0.112612
0.947906 0.342779 0.124544
0.958129 0.353033 0.140078
0.966735 0.367315 0.160037
0.973816 0.385962 0.184909
0.000000 0.279545 0.186252
0.000000 0.280156 0.185489
0.000000 0.280919 0.184329
0.000000 0.283055 0.181186
0.000000 0.286137 0.175631
0.000000 0.290379 0.170413
0.000000 0.295384 0.169253
0.077790 0.301030 0.167819
0.120516 0.305425 0.166751
0.161715 0.304021 0.167300
0.199832 0.302129 0.168215
0.239353 0.302647 0.168917
0.303227 0.321813 0.166690
0.388006 0.351568 0.157259
0.470832 0.371252 0.145113
0.544335 0.379767 0.133608
0.612116 0.383001 0.121767
0.672053 0.381109 0.110231
0.720485 0.376440 0.100954
0.758328 0.373816 0.095338
0.792599 0.371313 0.090303
0.823056 0.369116 0.087068
0.849668 0.367407 0.085389
0.872923 0.366155 0.086549
0.893065 0.365637 0.089754
0.910460 0.366247 0.095583
0.925353 0.367956 0.104463
0.938170 0.371313 0.115633
0.949248 0.377081 0.129732
0.958709 0.385962 0.147463
0.966735 0.398383 0.169131
0.973327 0.415229 0.196139
0.000000 0.344732 0.186831
0.000000 0.345403 0.186007
0.000000 0.345800 0.184421
0.000000 0.347387 0.180453
0.000000 0.349828 0.173617
0.000000 0.353613 0.163241
0.000000 0.357885 0.161074
0.000000 0.363287 0.159121
0.103243 0.369604 0.156832
0.160586 0.375097 0.155337
0.215335 0.377295 0.155154
0.268009 0.378790 0.155337
0.319860 0.379400 0.155703
0.372930 0.380316 0.156161
0.459358 0.406714 0.145418
0.533928 0.419989 0.132082
0.602350 0.425879 0.118868
0.662898 0.426520 0.105837
0.714870 0.422797 0.093782
0.760464 0.416358 0.081880
0.795560 0.411566 0.076326
0.824918 0.408270 0.073274
0.850645 0.405066 0.073762
0.873198 0.402533 0.076997
0.892821 0.400732 0.082551
0.909819 0.399817 0.090425
0.924468 0.400275 0.100862
0.937133 0.402167 0.114412
0.948089 0.406409 0.130465
0.957519 0.413611 0.149569
0.965454 0.424353 0.173007
0.971984 0.439338 0.201450
0.000000 0.408118 0.186465
0.000000 0.408545 0.185214
0.000000 0.409064 0.183688
0.000000 0.410407 0.178988
0.000000 0.412451 0.171176
0.000000 0.415961 0.158816
0.000000 0.422095 0.149569
0.000000 0.428626 0.147036
0.057191 0.435859 0.143740
0.141299 0.444160 0.139498
0.210330 0.445747 0.139040
0.272679 0.445899 0.139101
0.332006 0.445045 0.139712
0.388830 0.442634 0.140749
0.442664 0.438453 0.143038
0.522393 0.457191 0.133883
0.591089 0.466285 0.119020
0.652491 0.469429 0.104128
0.705715 0.467597 0.090272
0.752346 0.462715 0.077363
0.792966 0.455940 0.064332
0.827268 0.447852 0.051667
0.852140 0.443488 0.056947
0.874052 0.439551 0.065309
0.893095 0.436469 0.074311
0.909667 0.434272 0.085908
0.923980 0.433295 0.099489
0.936400 0.433997 0.114961
0.947143 0.436896 0.133242
0.956420 0.442603 0.154299
0.964202 0.451820 0.179507
0.970642 0.464942 0.209323
0.000000 0.474800 0.185275
0.000000 0.475471 0.184146
0.000000 0.475837 0.182254
0.000000 0.477241 0.177066
0.000000 0.479316 0.167880
0.000000 0.482551 0.154086
0.000000 0.486519 0.135286
0.000000 0.490730 0.132723
0.000000 0.495613 0.129061
0.108095 0.501610 0.124392
0.188235 0.506798 0.119966
0.262333 0.506004 0.120516
0.329229 0.504326 0.121584
0.391852 0.501213 0.122896
0.450721 0.496498 0.125978
0.504845 0.490059 0.130251
0.579889 0.503899 0.123659
0.642267 0.509575 0.107485
0.696559 0.509911 0.092683
0.744106 0.506706 0.078584
0.785611 0.501091 0.064851
0.821164 0.493446 0.050080
0.851286 0.484230 0.035340
0.874907 0.476631 0.044129
0.893431 0.472145 0.066499
0.909636 0.468788 0.082399
0.923705 0.466804 0.099489
0.935943 0.466529 0.118074
0.946532 0.468482 0.139284
0.955627 0.473304 0.162875
0.963256 0.481300 0.190188
0.969421 0.493172 0.222660
0.000000 0.535363 0.184756
0.000000 0.535973 0.183627
0.000000 0.536370 0.181704
0.000000 0.537469 0.176028
0.000000 0.539239 0.165835
0.000000 0.541833 0.150576
0.000000 0.545403 0.128481
0.000000 0.549310 0.115969
0.000000 0.553124 0.111788
0.000000 0.557610 0.106569
0.160281 0.561944 0.099916
0.242161 0.563317 0.096407
0.317449 0.560235 0.098756
0.385718 0.555840 0.101534
0.448615 0.550286 0.105959
0.506920 0.543481 0.111818
0.560479 0.535851 0.119081
0.630976 0.546288 0.118502
0.687037 0.549279 0.102876
0.736172 0.548180 0.089418
0.778805 0.544244 0.077028
0.815366 0.537774 0.068086
0.846250 0.529564 0.062623
0.872374 0.519951 0.060670
0.894347 0.509483 0.063233
0.910399 0.504265 0.082795
0.923980 0.500999 0.103426
0.935760 0.499733 0.125460
0.945953 0.500481 0.148196
0.954650 0.503807 0.173922
0.961944 0.510124 0.202426
0.967834 0.520134 0.235874
0.000000 0.588952 0.185977
0.000000 0.589105 0.184512
0.000000 0.589258 0.182650
0.000000 0.589868 0.177340
0.000000 0.591211 0.166018
0.000000 0.593286 0.150729
0.000000 0.596033 0.127321
0.000000 0.599268 0.099519
0.000000 0.602136 0.094606
0.000000 0.605249 0.088594
0.120272 0.608515 0.080415
0.212863 0.611566 0.069642
0.295872 0.609674 0.070100
0.371374 0.605127 0.075410
0.439521 0.599481 0.082490
0.501610 0.592432 0.090974
0.558801 0.584771 0.101472
0.610986 0.576837 0.113375
0.678309 0.585595 0.119081
0.726925 0.585657 0.110353
0.770565 0.583307 0.100069
0.808011 0.578271 0.093507
0.839658 0.571099 0.089693
0.866484 0.562493 0.089815
0.889036 0.552819 0.093263
0.908110 0.542687 0.098543
0.923552 0.534142 0.109895
0.934997 0.531640 0.133913
0.944915 0.531212 0.159060
0.953368 0.533379 0.185885
0.960479 0.538384 0.216190
0.966125 0.546807 0.250858
0.000000 0.635920 0.189944
0.000000 0.636439 0.188602
0.000000 0.649622 0.188754
0.000000 0.649958 0.183597
0.000000 0.650752 0.171786
0.000000 0.651850 0.154788
0.000000 0.653346 0.130800
0.000000 0.655360 0.091981
0.000000 0.656947 0.075563
0.000000 0.658534 0.067506
0.063996 0.660090 0.054353
0.192447 0.661189 0.025025
0.273625 0.661463 0.000000
0.357794 0.656367 0.016938
0.431739 0.650080 0.047791
0.498299 0.642908 0.068605
0.559289 0.635065 0.085603
0.614282 0.626703 0.102663
0.663905 0.618524 0.120211
0.725460 0.624903 0.134981
0.767483 0.623102 0.135836
0.804593 0.619104 0.130617
0.836149 0.612757 0.128573
0.862730 0.604791 0.129335
0.885039 0.595544 0.132052
0.903868 0.585718 0.137270
0.919829 0.575708 0.143984
0.933501 0.565820 0.152102
0.943786 0.561700 0.172000
0.951934 0.562524 0.200565
0.958770 0.566094 0.231846
0.964202 0.572808 0.267033
0.000000 0.679194 0.198428
0.000000 0.680873 0.197360
0.000000 0.682429 0.196109
0.000000 0.683925 0.192905
0.000000 0.685756 0.181643
0.000000 0.687190 0.165438
0.000000 0.688624 0.142184
0.000000 0.690272 0.107759
0.000000 0.692012 0.070161
0.000000 0.692958 0.061799
0.000000 0.693843 0.042145
0.161288 0.694453 0.010620
0.250065 0.694545 0.000000
0.329137 0.692378 0.000000
0.408576 0.686519 0.000000
0.479561 0.679591 0.043854
0.543999 0.672023 0.074372
0.601984 0.664240 0.095369
0.654749 0.656306 0.116548
0.701686 0.648920 0.137942
0.756893 0.652918 0.159396
0.796445 0.652338 0.168948
0.828855 0.647883 0.167666
0.856168 0.641382 0.169192
0.878996 0.633417 0.172976
0.898344 0.624598 0.177981
0.914580 0.615625 0.185275
0.928435 0.606592 0.194003
0.940307 0.598352 0.204868
0.950378 0.591180 0.217807
0.956939 0.593378 0.249454
0.962127 0.598566 0.285344
0.000000 0.712642 0.209751
0.000000 0.713954 0.209415
0.000000 0.715297 0.208865
0.000000 0.716426 0.206882
0.000000 0.717769 0.196902
0.000000 0.719020 0.181064
0.000000 0.720180 0.159976
0.000000 0.721523 0.129854
0.000000 0.723354 0.080232
0.000000 0.723934 0.070588
0.000000 0.724483 0.059358
0.132174 0.724666 0.031800
0.230350 0.724361 0.000000
0.304997 0.723476 0.000000
0.383551 0.719265 0.000000
0.458930 0.712795 0.024201
0.526452 0.705715 0.071015
0.587549 0.698207 0.095949
0.642603 0.690730 0.118807
0.692226 0.683375 0.142763
0.736172 0.676661 0.166629
0.784787 0.678950 0.193393
0.821561 0.679408 0.210605
0.849424 0.674556 0.212772
0.872770 0.667994 0.216526
0.892424 0.660273 0.222232
0.908934 0.652064 0.229252
0.922881 0.644038 0.238895
0.934783 0.636500 0.250462
0.944945 0.629664 0.263706
0.953613 0.624018 0.278874
0.959899 0.623255 0.304234
0.000000 0.742031 0.226566
0.000000 0.743099 0.226413
0.000000 0.744137 0.226505
0.000000 0.744961 0.225406
0.000000 0.745998 0.217441
0.000000 0.746975 0.203494
0.000000 0.747921 0.183688
0.000000 0.749050 0.158297
0.000000 0.750484 0.120333
0.000000 0.751308 0.092531
0.000000 0.751400 0.084810
0.111696 0.751247 0.073823
0.216373 0.750637 0.059083
0.291691 0.749569 0.022766
0.357671 0.748043 0.000000
0.436591 0.742428 0.035981
0.507897 0.736049 0.079713
0.572198 0.729366 0.106264
0.630304 0.722621 0.130983
0.682551 0.716030 0.156893
0.728847 0.709957 0.182528
0.769802 0.704280 0.209293
0.811978 0.705226 0.239597
0.845396 0.706752 0.265782
0.868772 0.701747 0.270603
0.888243 0.695430 0.277440
0.904540 0.688319 0.285893
0.918242 0.681086 0.295933
0.929870 0.674281 0.307866
0.939696 0.668147 0.321630
0.947997 0.662989 0.337316
0.954955 0.658991 0.354650
0.000000 0.771084 0.251560
0.000000 0.771450 0.252018
0.000000 0.771695 0.251835
0.000000 0.771786 0.251591
0.000000 0.772091 0.245792
0.000000 0.772732 0.233097
0.000000 0.773465 0.215854
0.000000 0.774441 0.193484
0.000000 0.775753 0.162936
0.000000 0.777157 0.127291
0.000000 0.777096 0.121096
0.125643 0.776761 0.114504
0.220462 0.775998 0.104768
0.290898 0.774838 0.093782
0.353521 0.773159 0.079042
0.417517 0.770169 0.072908
0.491585 0.764004 0.100832
0.557733 0.757534 0.126070
0.617182 0.750881 0.151339
0.670497 0.744259 0.176150
0.717800 0.737972 0.201724
0.759487 0.732082 0.228244
0.795956 0.726741 0.254978
0.831754 0.726040 0.284520
0.861997 0.728420 0.316014
0.881743 0.723384 0.322576
0.898283 0.717281 0.330663
0.912139 0.710933 0.341009
0.923827 0.704707 0.352972
0.933623 0.699092 0.367315
0.941802 0.694392 0.383612
0.948577 0.690974 0.402686
0.000000 0.792416 0.278386
0.000000 0.792660 0.279240
0.000000 0.792844 0.279973
0.000000 0.792782 0.280461
0.000000 0.792782 0.277165
0.000000 0.793301 0.265537
0.000000 0.793912 0.250278
0.000000 0.794705 0.230838
0.000000 0.795743 0.205325
0.000000 0.797055 0.173922
0.000000 0.797238 0.159121
0.154879 0.796689 0.153506
0.232944 0.795834 0.146273
0.296941 0.794614 0.137636
0.354406 0.793027 0.128450
0.409125 0.791073 0.116762
0.473487 0.786893 0.124453
0.541558 0.780758 0.148409
0.602472 0.774472 0.173526
0.656916 0.768215 0.198489
0.705379 0.762173 0.224216
0.748104 0.756497 0.250828
0.785580 0.751339 0.277562
0.818051 0.746731 0.304112
0.847013 0.743618 0.327214
0.874754 0.747036 0.363317
0.891600 0.742123 0.371832
0.905577 0.736751 0.382757
0.917327 0.731258 0.395605
0.927153 0.726223 0.410681
0.935271 0.722103 0.428168
0.941833 0.719387 0.449073
0.000000 0.812222 0.314519
0.000000 0.812406 0.315709
0.000000 0.812375 0.316564
0.073976 0.812070 0.317906
0.119509 0.811673 0.317113
0.118196 0.812009 0.306859
0.114992 0.812406 0.293004
0.110323 0.812985 0.275242
0.106081 0.813687 0.253361
0.102205 0.814542 0.227359
0.128359 0.815061 0.202945
0.203616 0.814237 0.197421
0.262303 0.813138 0.190829
0.315373 0.811734 0.183322
0.364996 0.809995 0.174716
0.413031 0.807950 0.165225
0.460212 0.805570 0.154391
0.524773 0.800168 0.171756
0.586542 0.794064 0.195743
0.641901 0.788083 0.220066
0.691188 0.782284 0.246036
0.734707 0.776822 0.272068
0.772824 0.771664 0.297978
0.805966 0.766873 0.323033
0.834470 0.762570 0.347448
0.860380 0.760159 0.373785
0.885374 0.764462 0.415320
0.899199 0.759854 0.426642
0.910857 0.755062 0.439796
0.920592 0.750637 0.454902
0.928618 0.747036 0.472847
0.935119 0.744625 0.493660
0.162600 0.826352 0.348608
0.172366 0.826413 0.349767
0.184085 0.826352 0.351232
0.204410 0.825925 0.353155
0.229343 0.825193 0.355169
0.228061 0.825559 0.345953
0.226688 0.825986 0.334051
0.224277 0.826535 0.318822
0.221622 0.827268 0.300114
0.220127 0.828122 0.278599
0.218204 0.829191 0.252445
0.258762 0.828611 0.243931
0.303471 0.827573 0.238682
0.346410 0.826322 0.232334
0.388586 0.824765 0.225681
0.429877 0.822934 0.217594
0.471260 0.820859 0.208835
0.515557 0.818173 0.203830
0.577020 0.812314 0.226596
0.632227 0.806516 0.251194
0.681209 0.800931 0.275822
0.724575 0.795560 0.301061
0.762509 0.790585 0.325536
0.795743 0.785946 0.349767
0.824674 0.781704 0.374578
0.849638 0.777920 0.399084
0.871397 0.775113 0.424720
0.893950 0.780575 0.467628
0.904692 0.776303 0.485634
0.914275 0.772549 0.500481
0.922148 0.769467 0.518425
0.928496 0.767391 0.538628
0.262699 0.838193 0.386481
0.269291 0.838102 0.387915
0.275944 0.837949 0.388830
0.289189 0.837430 0.390814
0.307897 0.836515 0.393622
0.308812 0.836698 0.386328
0.306493 0.837095 0.375586
0.304692 0.837552 0.362463
0.302953 0.838224 0.346990
0.301457 0.838987 0.328527
0.299504 0.839963 0.306554
0.314366 0.840146 0.291325
0.349065 0.839170 0.286992
0.383886 0.837949 0.281895
0.418219 0.836576 0.275578
0.453040 0.834928 0.268650
0.488106 0.833097 0.261051
0.523735 0.831022 0.253056
0.569451 0.827390 0.258030
0.623438 0.821866 0.281193
0.671717 0.816464 0.304814
0.714443 0.811337 0.328710
0.752224 0.806455 0.352209
0.785550 0.801907 0.376623
0.814603 0.797757 0.401190
0.839780 0.793973 0.425971
0.861357 0.790738 0.450782
0.879667 0.787930 0.475105
0.899535 0.793668 0.515984
0.908110 0.790402 0.539330
0.915984 0.787747 0.556329
0.922271 0.785855 0.575586
0.337011 0.847349 0.422889
0.341283 0.847227 0.423987
0.346624 0.847013 0.425086
0.356970 0.846525 0.427131
0.372869 0.845640 0.430274
0.377661 0.845640 0.426612
0.377691 0.846128 0.418433
0.378332 0.846738 0.408728
0.378637 0.847532 0.396643
0.379736 0.848447 0.382788
0.381231 0.849454 0.366857
0.382300 0.850584 0.347601
0.409735 0.849760 0.345098
0.437415 0.848753 0.341527
0.465370 0.847562 0.337011
0.493660 0.846098 0.331853
0.522393 0.844480 0.325597
0.551629 0.842741 0.318914
0.581659 0.840848 0.312322
0.626520 0.836484 0.326238
0.671962 0.831388 0.348241
0.712978 0.826413 0.371588
0.749355 0.821714 0.395148
0.781430 0.817319 0.419043
0.809537 0.813260 0.443549
0.833829 0.809659 0.467414
0.854734 0.806485 0.490486
0.872526 0.803799 0.513481
0.887541 0.801633 0.536095
0.903197 0.806210 0.573602
0.910399 0.804837 0.599725
0.916503 0.803189 0.617273
0.416632 0.855406 0.467536
0.420233 0.855222 0.468635
0.424262 0.854948 0.469581
0.432898 0.854307 0.471901
0.446357 0.853330 0.475471
0.452918 0.852964 0.474220
0.451942 0.853361 0.466896
0.450538 0.853910 0.457710
0.450324 0.854459 0.447608
0.449866 0.855192 0.435401
0.449256 0.856016 0.421027
0.448646 0.856931 0.404334
0.460334 0.856840 0.394842
0.481483 0.855894 0.391333
