cubelut/NW-6.cube
# Created by Adobe Lightroom plugin Export LUT (1.18.0)
# www.johnrellis.com/lightroom/exportlut.htm
# Preset: NW6
# Color profile: /Library/Application Support/Adobe/Color/Profiles/Recommended/AdobeRGB1998.icc
LUT_3D_SIZE 5
DOMAIN_MIN 0.000000 0.000000 0.000000
DOMAIN_MAX 0.903226 0.903226 0.903226
0.066011 0.141573 0.178836
0.097871 0.143343 0.178744
0.400244 0.130709 0.169070
0.791287 0.000000 0.132265
0.948699 0.147311 0.126833
0.057404 0.164706 0.180697
0.097871 0.167269 0.178805
0.432258 0.216892 0.161563
0.799680 0.209812 0.119783
0.950042 0.260838 0.126619
0.000000 0.474800 0.185275
0.000000 0.490730 0.132723
0.450721 0.496498 0.125978
0.821164 0.493446 0.050080
0.946532 0.468482 0.139284
0.000000 0.771084 0.251560
0.000000 0.774441 0.193484
0.353521 0.773159 0.079042
0.759487 0.732082 0.228244
0.923827 0.704707 0.352972
0.478889 0.860380 0.505669
0.512596 0.858427 0.502647
0.532738 0.859709 0.426093
0.705287 0.846555 0.432258
0.873136 0.823514 0.587121
0.066621 0.141726 0.189334
0.097688 0.140810 0.192020
0.404242 0.000000 0.190646
0.773770 0.000000 0.181186
0.942260 0.173800 0.201938
0.059297 0.162173 0.194705
0.103700 0.168826 0.197513
0.421057 0.172244 0.193240
0.784817 0.154482 0.177737
0.942260 0.280400 0.208804
0.000000 0.468238 0.244388
0.000000 0.478950 0.220523
0.444892 0.480537 0.191958
0.815793 0.474586 0.171908
0.940032 0.490974 0.252079
0.000000 0.766659 0.338903
0.236149 0.763455 0.348272
0.417639 0.764981 0.248936
0.765652 0.728389 0.334020
0.919005 0.708217 0.427253
0.499916 0.857755 0.540459
0.576165 0.850889 0.566155
0.605737 0.852354 0.516808
0.728054 0.843259 0.502983
0.874327 0.823117 0.625025
0.089357 0.135286 0.302220
0.166659 0.127535 0.309239
0.421515 0.000000 0.349554
0.810636 0.000000 0.353643
0.939727 0.162356 0.361547
0.000000 0.162661 0.331823
0.142153 0.166323 0.338598
0.449012 0.093935 0.369574
0.803311 0.000000 0.363287
0.931060 0.343969 0.406073
0.000000 0.433783 0.405005
0.104463 0.445472 0.410285
0.493141 0.472633 0.423316
0.786221 0.500664 0.441505
0.917296 0.557916 0.492439
0.249821 0.753658 0.541772
0.377417 0.747677 0.544915
0.602136 0.733913 0.551873
0.778592 0.720943 0.542748
0.907225 0.715145 0.580224
0.578149 0.846952 0.643732
0.626825 0.842741 0.654444
0.733303 0.832303 0.681209
0.772976 0.833371 0.640101
0.875486 0.820706 0.694606
0.129610 0.096559 0.585657
0.238987 0.058839 0.589075
0.477272 0.000000 0.600427
0.773800 0.000000 0.629786
0.934234 0.230777 0.596979
0.000000 0.161379 0.602899
0.200351 0.150729 0.605280
0.475898 0.082460 0.611627
0.773037 0.000000 0.635096
0.927337 0.354376 0.610132
0.000000 0.386236 0.634974
0.101930 0.393988 0.634821
0.513878 0.448524 0.640803
0.771969 0.482490 0.656672
0.908415 0.566888 0.653193
0.321508 0.700984 0.693507
0.421607 0.700984 0.693050
0.625147 0.703090 0.694850
0.783139 0.707668 0.696895
0.888182 0.724941 0.709957
0.685451 0.831876 0.754940
0.711238 0.829587 0.757259
0.771633 0.825040 0.763119
0.829221 0.821622 0.765805
0.877684 0.819242 0.763302
0.265873 0.082399 0.804318
0.344274 0.057313 0.804166
0.540002 0.000000 0.803311
0.754147 0.135256 0.800717
0.904845 0.309575 0.788205
0.272862 0.207370 0.805234
0.353491 0.208652 0.804868
0.550011 0.222293 0.803372
0.756039 0.281529 0.800168
0.901274 0.396765 0.789425
0.270268 0.416388 0.806729
0.404089 0.451728 0.804654
0.588708 0.480171 0.801907
0.761318 0.504082 0.799008
0.891203 0.572168 0.794217
0.460548 0.655604 0.809323
0.510216 0.658778 0.808255
0.626856 0.664240 0.804623
0.779690 0.689845 0.800534
0.881010 0.721584 0.803311
0.688014 0.806394 0.816098
0.710536 0.806638 0.816007
0.770779 0.808133 0.816068
0.833463 0.812039 0.817136
0.879240 0.817075 0.818326
