cubelut/NW-7.cube
# Created by Adobe Lightroom plugin Export LUT (1.18.0)
# www.johnrellis.com/lightroom/exportlut.htm
# Preset: NW7
# Color profile: /Library/Application Support/Adobe/Color/Profiles/Recommended/AdobeRGB1998.icc
LUT_3D_SIZE 32
DOMAIN_MIN 0.0 0.0 0.0
DOMAIN_MAX 1.0 1.0 1.0
0.129305 0.154147 0.175326
0.129549 0.154116 0.175326
0.129732 0.154238 0.175326
0.130709 0.154421 0.175540
0.133120 0.154879 0.175845
0.137087 0.155398 0.176089
0.143923 0.156374 0.176394
0.154299 0.157687 0.176699
0.166445 0.159274 0.177035
0.180667 0.161013 0.177401
0.197208 0.162875 0.178012
0.216251 0.165255 0.178958
0.238346 0.167788 0.179934
0.263645 0.171237 0.181796
0.292912 0.175143 0.184237
0.326452 0.180362 0.187625
0.364721 0.186831 0.191409
0.407294 0.194614 0.195407
0.453529 0.203616 0.199435
0.503868 0.215061 0.203433
0.557031 0.229160 0.207797
0.613214 0.246708 0.213169
0.667292 0.267430 0.219120
0.715297 0.289769 0.227085
0.757687 0.313603 0.237278
0.797238 0.338933 0.250309
0.834073 0.365667 0.266148
0.867430 0.393133 0.286687
0.896971 0.422217 0.312322
0.922606 0.453010 0.343877
0.944305 0.485481 0.384039
0.962249 0.519677 0.432502
0.129549 0.154116 0.175326
0.129549 0.154116 0.175326
0.129946 0.154208 0.175326
0.130922 0.154543 0.175540
0.133272 0.155154 0.175814
0.137392 0.155978 0.176059
0.144594 0.157076 0.176333
0.154910 0.158511 0.176608
0.167147 0.160067 0.176944
0.181430 0.161929 0.177432
0.197848 0.163912 0.178042
0.216983 0.166232 0.178836
0.238926 0.169039 0.180056
0.264469 0.172396 0.181796
0.293614 0.176425 0.184329
0.327276 0.182040 0.187686
0.365332 0.188602 0.191684
0.408301 0.196353 0.195407
0.454414 0.205478 0.199313
0.504387 0.217044 0.203342
0.557580 0.231327 0.207736
0.613397 0.249027 0.212924
0.667140 0.269230 0.218936
0.714900 0.291508 0.227115
0.757321 0.315251 0.237308
0.796933 0.340429 0.249912
0.833707 0.366735 0.265843
0.867094 0.394354 0.286564
0.896727 0.423255 0.311620
0.922393 0.453834 0.343633
0.944152 0.486122 0.383215
0.962097 0.520134 0.431769
0.129427 0.154604 0.175418
0.129641 0.154574 0.175418
0.129854 0.154696 0.175418
0.131258 0.155123 0.175479
0.133608 0.155734 0.175753
0.138064 0.156649 0.176120
0.145388 0.158022 0.176364
0.155764 0.159579 0.176638
0.168093 0.161227 0.176974
0.182254 0.163241 0.177432
0.198856 0.165316 0.178042
0.218112 0.167849 0.178805
0.240116 0.170687 0.180117
0.265568 0.174105 0.181949
0.295048 0.178500 0.184451
0.328496 0.184054 0.188052
0.366979 0.190921 0.191714
0.409644 0.198825 0.195560
0.456031 0.208408 0.199466
0.505791 0.220096 0.203586
0.559411 0.234562 0.207797
0.614893 0.252171 0.212772
0.668116 0.272709 0.219150
0.715633 0.294713 0.226963
0.757839 0.318242 0.237064
0.797269 0.342931 0.250004
0.833951 0.369116 0.266148
0.867277 0.396399 0.286656
0.896880 0.425147 0.312108
0.922423 0.455665 0.344152
0.944152 0.487526 0.383673
0.962036 0.521386 0.432319
0.129732 0.155947 0.175692
0.129915 0.156069 0.175814
0.130312 0.156161 0.175784
0.131563 0.156619 0.175631
0.134585 0.157443 0.175631
0.139559 0.158572 0.175937
0.147494 0.160128 0.176303
0.157992 0.162051 0.176516
0.170260 0.163943 0.176822
0.184604 0.166110 0.177401
0.201328 0.168521 0.177951
0.220584 0.171176 0.178958
0.242802 0.174258 0.180331
0.268711 0.178195 0.182223
0.298192 0.182712 0.184909
0.332280 0.188785 0.188388
0.370916 0.196078 0.192081
0.413550 0.204471 0.195926
0.459968 0.214603 0.199710
0.509636 0.226749 0.203799
0.563256 0.241825 0.207858
0.617853 0.259648 0.213016
0.670680 0.280064 0.218936
0.717647 0.301854 0.227207
0.759609 0.324895 0.237552
0.798978 0.349523 0.250553
0.835416 0.375067 0.267063
0.868620 0.401892 0.287510
0.897856 0.430152 0.313420
0.923095 0.459998 0.345678
0.944579 0.491463 0.385168
0.962249 0.524712 0.433845
0.130129 0.158938 0.176089
0.130526 0.158877 0.176211
0.131136 0.158938 0.176333
0.132357 0.159396 0.176272
0.135317 0.160800 0.175875
0.141573 0.163058 0.175692
0.150576 0.165103 0.175967
0.161379 0.166598 0.176364
0.173739 0.168795 0.176761
0.188296 0.171084 0.177401
0.205203 0.173800 0.178042
0.224826 0.176761 0.179110
0.247410 0.180301 0.180514
0.273442 0.184543 0.182681
0.303502 0.190005 0.185458
0.338079 0.196750 0.188876
0.377264 0.204715 0.192630
0.420325 0.213962 0.196384
0.466835 0.224949 0.200198
0.516838 0.237766 0.203830
0.570031 0.253391 0.208133
0.623957 0.271489 0.213046
0.675502 0.291814 0.219425
0.721309 0.313115 0.227878
0.762753 0.335668 0.238437
0.801724 0.359319 0.251469
0.837675 0.384100 0.268467
0.870329 0.410071 0.289189
0.899138 0.437598 0.315190
0.924071 0.466743 0.347570
0.945159 0.497414 0.387579
0.962615 0.529870 0.436194
0.130922 0.164309 0.176425
0.131533 0.164218 0.176547
0.132174 0.164279 0.176516
0.133608 0.164401 0.176608
0.136995 0.166567 0.176272
0.143252 0.169863 0.175631
0.153536 0.173678 0.175357
0.165194 0.175570 0.175692
0.178317 0.176913 0.176364
0.193423 0.178622 0.177249
0.210605 0.181582 0.178195
0.230655 0.185183 0.179294
0.253910 0.189212 0.180941
0.280583 0.194186 0.183108
0.311162 0.200320 0.186282
0.346624 0.207980 0.189700
0.386084 0.216922 0.193332
0.430121 0.227329 0.196750
0.476509 0.238956 0.200534
0.526299 0.252781 0.204349
0.579339 0.269139 0.208652
0.632593 0.287724 0.213626
0.691035 0.312108 0.221439
0.734615 0.333013 0.230594
0.774746 0.354864 0.242039
0.811978 0.377234 0.256474
0.846403 0.400885 0.274052
0.877348 0.425635 0.296086
0.904570 0.452033 0.323339
0.928099 0.480018 0.356817
0.948058 0.509575 0.397528
0.964508 0.540856 0.446479
0.132326 0.173953 0.176516
0.132967 0.173892 0.176516
0.133730 0.173922 0.176730
0.135744 0.173922 0.176944
0.139254 0.175662 0.176852
0.145144 0.179049 0.176333
0.154910 0.183352 0.175509
0.168307 0.188266 0.175021
0.183108 0.190433 0.175418
0.199161 0.191958 0.176547
0.218265 0.193973 0.178103
0.239475 0.197482 0.179690
0.263523 0.202060 0.181552
0.291295 0.207980 0.184054
0.322820 0.215305 0.187167
0.359197 0.224094 0.190402
0.399756 0.234165 0.193759
0.443824 0.245396 0.197421
0.490608 0.258366 0.200809
0.541100 0.273259 0.204868
0.594171 0.290776 0.209140
0.647028 0.309911 0.214694
0.696162 0.330022 0.221561
0.739162 0.350072 0.231113
0.779080 0.371160 0.243290
0.816007 0.392737 0.258061
0.849729 0.415076 0.276463
0.880064 0.438788 0.298955
0.906554 0.463905 0.326665
0.929442 0.490608 0.360601
0.948943 0.518975 0.401556
0.964935 0.549187 0.450752
0.133761 0.186160 0.176822
0.134554 0.186038 0.177066
0.135561 0.186069 0.177157
0.137728 0.186191 0.177340
0.141146 0.186252 0.177890
0.147066 0.189792 0.177218
0.155673 0.194400 0.176608
0.168307 0.199893 0.175540
0.185397 0.206546 0.174716
0.203464 0.209689 0.175326
0.223545 0.212100 0.176791
0.246738 0.215152 0.179049
0.274174 0.219303 0.182040
0.302892 0.226078 0.184634
0.335607 0.234470 0.187778
0.372717 0.244205 0.191104
0.414099 0.255467 0.194278
0.458686 0.267887 0.197513
0.505638 0.281773 0.200931
0.556115 0.297490 0.204654
0.607385 0.314794 0.209567
0.658564 0.333623 0.214969
0.705135 0.352483 0.222690
0.746578 0.371069 0.232822
0.785214 0.390478 0.245304
0.821195 0.410620 0.260807
0.853941 0.431708 0.279728
0.883268 0.453956 0.302708
0.908965 0.477821 0.330877
0.931151 0.503227 0.365393
0.950011 0.530388 0.407050
0.965545 0.559258 0.456336
0.135470 0.200748 0.177676
0.136477 0.200748 0.177768
0.137606 0.200870 0.177981
0.140108 0.200809 0.178439
0.143801 0.200961 0.179080
0.149203 0.202731 0.179141
0.157198 0.207736 0.178378
0.168765 0.213565 0.177279
0.184573 0.220829 0.175845
0.205844 0.229831 0.174716
0.228031 0.234897 0.175265
0.253208 0.239322 0.176974
0.281132 0.244358 0.180301
0.314275 0.251041 0.184237
0.351446 0.259464 0.188205
0.389715 0.270268 0.191318
0.431891 0.282597 0.194339
0.476997 0.296025 0.197604
0.524163 0.310521 0.200839
0.573327 0.326390 0.204807
0.623590 0.343542 0.209293
0.672145 0.360876 0.215366
0.715908 0.377996 0.223728
0.755642 0.395209 0.234623
0.792935 0.412726 0.248142
0.827634 0.431250 0.264042
0.859129 0.450690 0.283848
0.887266 0.471534 0.307866
0.911955 0.493904 0.336522
0.933318 0.517845 0.371649
0.951385 0.543572 0.413947
0.966308 0.570916 0.463203
0.137697 0.218509 0.179019
0.138705 0.218387 0.179141
0.139834 0.218479 0.179355
0.142672 0.218418 0.179782
0.146609 0.218509 0.180667
0.152010 0.218509 0.181735
0.159579 0.223331 0.181186
0.170321 0.229648 0.179904
0.184695 0.237705 0.178500
0.204013 0.247044 0.176577
0.230198 0.259068 0.174685
0.257481 0.267185 0.175387
0.288823 0.275059 0.177371
0.322515 0.282567 0.181064
0.362280 0.292149 0.185397
0.407477 0.303197 0.190066
0.453712 0.316106 0.193668
0.499397 0.330175 0.196719
0.545739 0.344335 0.200381
0.593408 0.359533 0.204623
0.641474 0.375311 0.209567
0.686763 0.390784 0.216739
0.727535 0.405524 0.225772
0.765530 0.420600 0.237217
0.801266 0.436530 0.251133
0.834348 0.453223 0.268467
0.864622 0.471168 0.288823
0.891569 0.490547 0.313756
0.915190 0.511498 0.343755
0.935668 0.534020 0.379431
0.952972 0.558404 0.422461
0.967193 0.584314 0.472206
0.140352 0.239292 0.181033
0.141268 0.239292 0.181369
0.142580 0.239353 0.181460
0.145480 0.239353 0.182101
0.149844 0.239475 0.183078
0.155703 0.239628 0.184451
0.162936 0.241825 0.185336
0.172976 0.248875 0.184054
0.186465 0.257389 0.182437
0.204349 0.267704 0.180514
0.227756 0.279728 0.177859
0.259190 0.295018 0.174899
0.292943 0.307744 0.175235
0.331243 0.319158 0.176944
0.372625 0.330388 0.180392
0.418982 0.342962 0.184878
0.469337 0.355993 0.189670
0.522362 0.368994 0.195285
0.568841 0.382147 0.199191
0.614862 0.395483 0.203952
0.660304 0.409308 0.209781
0.702235 0.422248 0.217990
0.740566 0.434943 0.228183
0.776791 0.448005 0.240818
0.810910 0.462196 0.255680
0.842435 0.477302 0.273686
0.870939 0.493568 0.295567
0.896483 0.511315 0.321111
0.918853 0.530663 0.351751
0.938170 0.551568 0.388647
0.954620 0.574212 0.431769
0.968048 0.598627 0.481727
0.143496 0.264195 0.183993
0.144564 0.264195 0.184329
0.145815 0.264256 0.184543
0.148775 0.264317 0.185275
0.153506 0.264469 0.186313
0.159701 0.264652 0.187778
0.166995 0.265141 0.189731
0.176547 0.271183 0.189212
0.189639 0.280522 0.187533
0.206729 0.291661 0.185183
0.228855 0.304692 0.182589
0.257389 0.319982 0.178866
0.295659 0.340124 0.174777
0.340887 0.361242 0.173098
0.387427 0.376776 0.174655
0.437568 0.391394 0.177493
0.488746 0.404273 0.182376
0.541100 0.416480 0.188144
0.593561 0.427253 0.195529
0.644862 0.437720 0.204471
0.685847 0.447974 0.212222
0.723262 0.457618 0.222141
0.758724 0.467903 0.233585
0.792538 0.479194 0.247501
0.824247 0.491249 0.263554
0.853452 0.504601 0.283299
0.879789 0.519219 0.306188
0.903288 0.535180 0.333104
0.923888 0.552819 0.364965
0.941802 0.571984 0.402380
0.956878 0.592889 0.446509
0.969360 0.615412 0.495705
0.146609 0.294713 0.187289
0.147799 0.294774 0.187594
0.149203 0.294743 0.187930
0.152651 0.294743 0.188632
0.157443 0.294865 0.189670
0.163912 0.295109 0.191073
0.171939 0.295476 0.192935
0.181216 0.297642 0.194430
0.194186 0.307622 0.192691
0.210941 0.319677 0.190433
0.232670 0.334112 0.187472
0.260777 0.351141 0.183780
0.296269 0.370733 0.178683
0.338262 0.390387 0.173404
0.394202 0.418067 0.168917
0.446509 0.434424 0.170352
0.501305 0.448737 0.172702
0.552850 0.458930 0.179171
0.603815 0.467933 0.186923
0.654261 0.476356 0.197665
0.700557 0.483375 0.211093
0.739345 0.490242 0.225315
0.772824 0.498726 0.238193
0.804471 0.508019 0.253483
0.834318 0.518547 0.270756
0.861662 0.530236 0.291142
0.886381 0.543236 0.315282
0.908202 0.557733 0.343572
0.927550 0.573754 0.376196
0.944305 0.591394 0.414588
0.958556 0.610559 0.458381
0.970153 0.631281 0.507317
0.149752 0.328985 0.190616
0.151186 0.329015 0.190707
0.152743 0.328985 0.191012
0.156130 0.329259 0.191806
0.161318 0.329320 0.192782
0.168338 0.329473 0.194491
0.176974 0.330114 0.196139
0.187015 0.330510 0.198642
0.199680 0.337987 0.198367
0.216617 0.351141 0.196109
0.238102 0.366461 0.193057
0.265782 0.384222 0.189212
0.299992 0.404059 0.183902
0.342016 0.425605 0.177279
0.390906 0.446967 0.169741
0.453956 0.474708 0.163119
0.508873 0.488380 0.165499
0.564141 0.499947 0.168917
0.614801 0.507469 0.177432
0.663233 0.514092 0.188754
0.707118 0.519036 0.203769
0.747616 0.524041 0.221653
0.785641 0.529931 0.242527
0.817197 0.537652 0.260655
0.844938 0.546563 0.279606
0.870298 0.556634 0.301671
0.893156 0.568139 0.326604
0.913481 0.581140 0.355627
0.931426 0.595605 0.389380
0.946960 0.611658 0.428656
0.960143 0.629145 0.472663
0.971008 0.647974 0.520409
0.153384 0.368261 0.193545
0.154665 0.368353 0.193851
0.156374 0.368261 0.194156
0.160189 0.368627 0.194766
0.166110 0.368841 0.195804
0.173709 0.369299 0.197391
0.183108 0.369879 0.199435
0.194186 0.370520 0.201694
0.206851 0.372412 0.204166
0.223789 0.386023 0.201663
0.245365 0.401587 0.198520
0.272587 0.419318 0.194583
0.306218 0.438880 0.189517
0.347143 0.459876 0.182803
0.395239 0.480964 0.174899
0.449622 0.500908 0.165896
0.515953 0.525475 0.158572
0.570703 0.536248 0.162203
0.624018 0.544823 0.168368
0.672297 0.550408 0.179263
0.714076 0.553674 0.195712
0.753475 0.557427 0.214115
0.790494 0.562005 0.235782
0.824643 0.567681 0.261234
0.855497 0.574701 0.290593
0.878965 0.583520 0.313512
0.900053 0.593622 0.339940
0.918822 0.605341 0.370764
0.935424 0.618402 0.405432
0.949828 0.632837 0.445106
0.961944 0.648707 0.489387
0.971832 0.665888 0.536553
0.157351 0.412573 0.196384
0.158968 0.412665 0.196567
0.160708 0.412726 0.196933
0.165133 0.412848 0.197482
0.171511 0.413153 0.198764
0.179904 0.413550 0.200320
0.190188 0.414130 0.202182
0.202426 0.414984 0.204715
0.216037 0.415991 0.207614
0.232670 0.423468 0.208042
0.254673 0.438819 0.204715
0.281895 0.456031 0.200626
0.314855 0.474159 0.195834
0.354131 0.493080 0.189731
0.400275 0.512169 0.182467
0.452644 0.531060 0.173587
0.509789 0.548699 0.163272
0.575921 0.569299 0.156832
0.630243 0.578576 0.161593
0.678981 0.584161 0.172335
0.721981 0.587549 0.186313
0.760159 0.590082 0.206821
0.796048 0.593622 0.229953
0.829191 0.598077 0.256291
0.859068 0.603815 0.285985
0.885252 0.611017 0.320836
0.907042 0.619806 0.356512
0.924163 0.630030 0.388220
0.939269 0.641566 0.424079
0.952453 0.654261 0.463264
0.963500 0.668238 0.506706
0.972412 0.683619 0.552728
0.163272 0.458442 0.198734
0.164736 0.458381 0.198947
0.166842 0.458473 0.199405
0.171511 0.458625 0.200015
0.178683 0.458839 0.201297
0.187655 0.459174 0.202884
0.199100 0.459693 0.204990
0.212131 0.460273 0.207370
0.226871 0.461006 0.210513
0.243168 0.461982 0.213993
0.265446 0.475715 0.211460
0.292515 0.491402 0.207767
0.325017 0.508080 0.203433
0.363378 0.525170 0.197818
0.407477 0.542351 0.191135
0.456672 0.559167 0.183902
0.510979 0.575402 0.174411
0.569238 0.590723 0.163943
0.633997 0.608209 0.158694
0.683619 0.615198 0.167117
0.726131 0.618280 0.181765
0.766201 0.621393 0.198489
0.801358 0.623987 0.222293
0.833463 0.627466 0.249912
0.862394 0.632013 0.280766
0.887694 0.637964 0.316289
0.909575 0.645319 0.356176
0.928161 0.654261 0.400885
0.942779 0.664363 0.443275
0.954742 0.675502 0.482795
0.964843 0.687800 0.524926
0.972869 0.701289 0.569299
0.172213 0.503685 0.201602
0.173800 0.503777 0.201755
0.177279 0.508080 0.202731
0.182376 0.508049 0.203555
0.190280 0.508324 0.204746
0.200076 0.508293 0.206363
0.212345 0.508476 0.208743
0.226291 0.508751 0.211368
0.242344 0.509178 0.214633
0.259800 0.509758 0.218296
0.280858 0.515373 0.219944
0.308324 0.529412 0.216403
0.340490 0.544091 0.212375
0.377966 0.559319 0.207858
0.420203 0.574517 0.202213
0.467048 0.589380 0.195682
0.518395 0.603723 0.188388
0.572564 0.617090 0.179873
0.628443 0.629358 0.169863
0.687648 0.643183 0.167819
0.731991 0.648615 0.178744
0.770932 0.651209 0.197543
0.807187 0.654200 0.217868
0.839017 0.657069 0.244755
0.866575 0.660426 0.276738
0.890715 0.665034 0.312627
0.911681 0.670802 0.352697
0.929595 0.678004 0.397986
0.944549 0.686519 0.447791
0.956725 0.696468 0.500755
0.965911 0.707149 0.543725
0.973144 0.718776 0.585931
0.185916 0.548547 0.205814
0.188022 0.549157 0.206119
0.190463 0.549767 0.206729
0.195926 0.550195 0.207706
0.204044 0.550744 0.208957
0.214542 0.550988 0.210910
0.227237 0.551171 0.213107
0.242313 0.551415 0.215915
0.259037 0.551751 0.219333
0.277409 0.552026 0.223148
0.297307 0.552605 0.227543
0.323583 0.562829 0.226383
0.355322 0.576013 0.223117
0.391577 0.589502 0.218845
0.432197 0.602960 0.214267
0.476600 0.616083 0.208865
0.524681 0.628748 0.202609
0.574640 0.640192 0.196475
0.626123 0.650721 0.189456
0.677302 0.660273 0.181491
0.731991 0.672541 0.182193
0.774044 0.678676 0.194980
0.809598 0.681300 0.217014
0.841917 0.684321 0.241672
0.870054 0.687648 0.270420
0.893370 0.691096 0.307408
0.913664 0.695705 0.348638
0.931090 0.701350 0.394293
0.945617 0.708278 0.444495
0.957427 0.716396 0.498146
0.966613 0.725704 0.552026
0.973144 0.736141 0.603418
0.203799 0.590051 0.211612
0.205844 0.590509 0.212009
0.208774 0.591150 0.212345
0.214237 0.591577 0.213474
0.222873 0.591913 0.214817
0.233524 0.592157 0.216861
0.246677 0.592218 0.219242
0.261936 0.592279 0.222232
0.279088 0.592493 0.225772
0.298039 0.592706 0.229923
0.318761 0.593011 0.234775
0.342046 0.595941 0.238163
0.373175 0.607507 0.235325
0.408209 0.619318 0.232120
0.446693 0.630915 0.228489
0.488411 0.642115 0.224643
0.532616 0.652674 0.220462
0.578759 0.662409 0.215396
0.625940 0.671412 0.210269
0.673976 0.680140 0.205234
0.721736 0.688624 0.199130
0.773098 0.700649 0.201450
0.812222 0.707454 0.216709
0.843656 0.710079 0.242649
0.871641 0.713100 0.271183
0.895933 0.716640 0.302892
0.915740 0.720119 0.343603
0.932555 0.724483 0.390326
0.946715 0.729854 0.441016
0.958221 0.736202 0.494331
0.967163 0.743557 0.548516
0.973358 0.752102 0.602167
0.226230 0.629328 0.219608
0.228305 0.629755 0.219791
0.231113 0.630182 0.220554
0.236881 0.630671 0.221653
0.245365 0.630854 0.223301
0.256321 0.630945 0.225162
0.269383 0.630945 0.227787
0.284794 0.630915 0.230961
0.302281 0.630884 0.234684
0.321477 0.630884 0.239170
0.342535 0.630823 0.243961
0.364752 0.630915 0.249943
0.392828 0.637568 0.250584
0.425940 0.647486 0.248508
0.462409 0.657221 0.245762
0.501030 0.666590 0.243290
0.542046 0.675349 0.240452
0.585107 0.683955 0.237400
0.629694 0.692348 0.234073
0.674952 0.700557 0.230777
0.720150 0.708675 0.226871
0.764370 0.716732 0.223453
0.810300 0.727535 0.227726
0.847105 0.735988 0.245731
0.874083 0.738643 0.275914
0.897612 0.741756 0.308751
0.918090 0.745113 0.344976
0.934874 0.748531 0.389105
0.948394 0.752377 0.440681
0.959411 0.757076 0.494545
0.967864 0.762600 0.549035
0.973693 0.769100 0.602014
0.253788 0.666957 0.231388
0.255802 0.667079 0.231662
0.258396 0.667231 0.232334
0.263645 0.667262 0.233310
0.272068 0.667292 0.235050
0.282719 0.667140 0.237125
0.295811 0.666987 0.239811
0.311223 0.666773 0.243137
0.328496 0.666651 0.247105
0.347845 0.666468 0.251896
0.368780 0.666346 0.257450
0.391150 0.666041 0.263523
0.415229 0.666590 0.269657
0.446174 0.674525 0.268498
0.479774 0.682338 0.267033
0.515892 0.690150 0.265690
0.554192 0.697871 0.264134
0.594476 0.705592 0.262242
0.636194 0.713191 0.260288
0.678614 0.720668 0.257847
0.720882 0.728115 0.255924
0.762234 0.735470 0.253696
0.802060 0.742947 0.251926
0.841276 0.752193 0.258610
0.875029 0.761929 0.279393
0.898222 0.765011 0.312871
0.918151 0.767819 0.350072
0.935363 0.770809 0.390265
0.949584 0.773709 0.436194
0.960266 0.776883 0.490211
0.968444 0.780636 0.544976
0.973938 0.785245 0.598718
0.282292 0.698238 0.246616
0.284215 0.698329 0.247105
0.286717 0.698512 0.247776
0.292027 0.698482 0.248936
0.299718 0.698360 0.250675
0.310094 0.698177 0.252964
0.322881 0.697932 0.255680
0.337560 0.697505 0.259434
0.354772 0.697200 0.263493
0.373480 0.696803 0.268589
0.394049 0.696345 0.274296
0.415961 0.695827 0.281010
0.438849 0.695216 0.288182
0.466041 0.698604 0.291447
0.497658 0.705501 0.290959
0.531701 0.712459 0.290562
0.567834 0.719478 0.289830
0.605524 0.726467 0.289342
0.644617 0.733425 0.288792
0.684230 0.740322 0.288334
0.723781 0.747219 0.287266
0.762478 0.754147 0.287022
0.799985 0.761135 0.286839
0.835325 0.768215 0.286168
0.867399 0.775540 0.293858
0.897917 0.786313 0.317723
0.918120 0.789761 0.354009
0.934844 0.792111 0.395697
0.949096 0.794369 0.439765
0.960906 0.796506 0.485878
0.968902 0.798672 0.540581
0.974121 0.801450 0.594842
0.314244 0.727962 0.266941
0.316197 0.728115 0.267735
0.318364 0.728206 0.268376
0.323369 0.728084 0.269444
0.330907 0.727901 0.271092
0.340642 0.727596 0.273533
0.352880 0.727169 0.276280
0.367285 0.726680 0.279942
0.383459 0.726101 0.284489
0.401678 0.725521 0.289494
0.421485 0.724849 0.295720
0.442603 0.724147 0.302342
0.465034 0.723323 0.310002
0.488289 0.722377 0.318395
0.517845 0.728206 0.318547
0.549706 0.734371 0.318791
0.583215 0.740505 0.318761
0.618402 0.746700 0.319341
0.654719 0.753017 0.319585
0.691463 0.759396 0.320134
0.728206 0.765743 0.320989
0.764279 0.772152 0.321630
0.799161 0.778622 0.322698
0.832151 0.785153 0.323766
0.862669 0.791928 0.324437
0.889830 0.798550 0.333928
0.917327 0.809934 0.362310
0.934661 0.813321 0.400916
0.948455 0.814878 0.445502
0.959899 0.816098 0.491859
0.968902 0.817014 0.538720
0.974304 0.817960 0.590570
0.347204 0.755245 0.290471
0.349096 0.755337 0.290867
0.351263 0.755398 0.291569
0.356146 0.755306 0.292851
0.363165 0.755062 0.294560
0.372595 0.754726 0.297154
0.384161 0.754360 0.300450
0.397986 0.753841 0.304295
0.413886 0.753201 0.308690
0.431434 0.752621 0.314366
0.450690 0.751919 0.320592
0.471351 0.751186 0.327916
0.493172 0.750362 0.336126
0.515953 0.749386 0.344884
0.541344 0.751003 0.350988
0.570916 0.756435 0.351934
0.602258 0.761990 0.353002
0.634821 0.767605 0.354284
0.668269 0.773281 0.355596
0.702205 0.779080 0.356970
0.735958 0.784909 0.359075
0.769162 0.790799 0.361151
0.801358 0.796750 0.362951
0.831754 0.802884 0.365362
0.859983 0.809140 0.367773
0.886107 0.815579 0.370336
0.908873 0.821134 0.380041
0.933349 0.832517 0.412207
0.947997 0.835416 0.453193
0.959075 0.835782 0.499306
0.967742 0.835660 0.545953
0.973602 0.835080 0.592615
0.383581 0.781765 0.318761
0.385260 0.781857 0.319310
0.387243 0.781827 0.319799
0.391608 0.781674 0.321172
0.398352 0.781369 0.322881
0.407324 0.780972 0.325628
0.418219 0.780514 0.328710
0.431525 0.779904 0.332799
0.446540 0.779294 0.337926
0.463416 0.778622 0.343755
0.481971 0.777890 0.350317
0.501976 0.777066 0.357885
0.522911 0.776181 0.366644
0.545098 0.775174 0.376379
0.567559 0.774105 0.386694
0.594507 0.778012 0.389563
0.623224 0.782925 0.391333
0.653010 0.787961 0.393194
0.683558 0.793088 0.395483
0.714443 0.798337 0.397955
0.745266 0.803708 0.400305
0.775570 0.809110 0.403632
0.804776 0.814633 0.406439
0.832517 0.820249 0.409857
0.858396 0.826078 0.412787
0.882383 0.831937 0.416236
0.904814 0.837858 0.419654
0.924865 0.842954 0.429847
0.946105 0.853117 0.463539
0.958160 0.855009 0.505333
0.966491 0.853819 0.551720
0.972137 0.851987 0.597681
0.422004 0.806973 0.351843
0.423529 0.806943 0.352544
0.425360 0.806943 0.353185
0.429572 0.806790 0.354528
0.435950 0.806516 0.356451
0.444709 0.806210 0.359228
0.455421 0.805814 0.363012
0.468177 0.805447 0.367956
0.483009 0.804929 0.373388
0.499611 0.804440 0.380102
0.517693 0.803799 0.387701
0.537072 0.803128 0.396094
0.557427 0.802335 0.405402
0.578637 0.801419 0.415869
0.600366 0.800381 0.427039
0.623224 0.800809 0.435798
0.649256 0.805173 0.438483
0.676143 0.809689 0.440742
0.703517 0.814267 0.443671
0.731136 0.819028 0.446662
0.758541 0.823850 0.449958
0.785580 0.828824 0.453437
0.811551 0.833829 0.457191
0.836149 0.838956 0.460945
0.859190 0.844144 0.464881
0.880827 0.849424 0.468452
0.901091 0.854643 0.472419
0.920439 0.859739 0.476509
0.938109 0.864073 0.486336
0.956298 0.872526 0.520409
0.965362 0.872526 0.561181
0.970611 0.869352 0.606561
0.465797 0.832303 0.393835
0.467140 0.832303 0.394263
0.469032 0.832181 0.395178
0.472816 0.831998 0.396399
0.478859 0.831693 0.398688
0.486702 0.831296 0.401434
0.496620 0.830838 0.405127
0.508568 0.830289 0.409766
0.522240 0.829648 0.415320
0.537682 0.828946 0.422309
0.554406 0.828183 0.429725
0.572503 0.827359 0.438239
0.591485 0.826413 0.447639
0.611322 0.825437 0.457771
