cubelut/NW-7.cube
# Created by Adobe Lightroom plugin Export LUT (1.18.0)
# www.johnrellis.com/lightroom/exportlut.htm
# Preset: NW7
# Color profile: /Library/Application Support/Adobe/Color/Profiles/Recommended/AdobeRGB1998.icc
LUT_3D_SIZE 5
DOMAIN_MIN 0.000000 0.000000 0.000000
DOMAIN_MAX 0.903226 0.903226 0.903226
0.129305 0.154147 0.175326
0.154299 0.157687 0.176699
0.292912 0.175143 0.184237
0.613214 0.246708 0.213169
0.896971 0.422217 0.312322
0.133761 0.186160 0.176822
0.168307 0.199893 0.175540
0.335607 0.234470 0.187778
0.658564 0.333623 0.214969
0.908965 0.477821 0.330877
0.153384 0.368261 0.193545
0.194186 0.370520 0.201694
0.395239 0.480964 0.174899
0.753475 0.557427 0.214115
0.935424 0.618402 0.405432
0.253788 0.666957 0.231388
0.311223 0.666773 0.243137
0.479774 0.682338 0.267033
0.762234 0.735470 0.253696
0.949584 0.773709 0.436194
0.509972 0.855344 0.439521
0.549798 0.853361 0.456092
0.661158 0.846342 0.510613
0.804776 0.864469 0.550683
0.924956 0.890776 0.577569
0.121218 0.156191 0.233677
0.159457 0.160769 0.233249
0.303838 0.174166 0.243961
0.588128 0.270939 0.301244
0.879301 0.442634 0.419348
0.125093 0.203128 0.231693
0.172854 0.212680 0.240299
0.318791 0.253391 0.265476
0.633387 0.345434 0.312016
0.890990 0.494667 0.441840
0.146914 0.394690 0.251225
0.205264 0.399207 0.268772
0.395087 0.480018 0.271000
0.742733 0.555779 0.355657
0.919707 0.632868 0.526513
0.258335 0.676204 0.316564
0.323247 0.675898 0.333837
0.485908 0.680629 0.370275
0.758785 0.734310 0.386450
0.937804 0.777798 0.568200
0.527977 0.855070 0.519738
0.566339 0.853056 0.533196
0.675196 0.847410 0.580102
0.807065 0.862913 0.621546
0.920134 0.890623 0.649622
0.000000 0.181918 0.563104
0.118563 0.197787 0.559380
0.370031 0.221408 0.553155
0.676570 0.170962 0.573175
0.884947 0.392340 0.597925
0.000000 0.250767 0.552483
0.155612 0.276493 0.549584
0.380957 0.306493 0.549920
0.674983 0.307561 0.563500
0.879210 0.465583 0.603662
0.000000 0.483375 0.519097
0.154513 0.491127 0.525017
0.442267 0.527611 0.563470
0.686183 0.571374 0.606226
0.880461 0.655146 0.694209
0.242039 0.702083 0.538750
0.337438 0.701747 0.555840
0.539330 0.697688 0.608240
0.754177 0.735378 0.653315
0.916442 0.789731 0.757168
0.604608 0.854551 0.697780
0.633570 0.853178 0.703639
0.700435 0.850858 0.705074
0.809293 0.857115 0.738796
0.912108 0.890013 0.767849
0.168185 0.300328 0.846921
0.291417 0.327459 0.845762
0.519036 0.416602 0.841794
0.724025 0.472389 0.832731
0.897398 0.518120 0.847715
0.259586 0.417609 0.839994
0.348333 0.436591 0.838987
0.548211 0.497597 0.836240
0.729763 0.533715 0.828855
0.895384 0.557794 0.844816
0.299626 0.574060 0.829465
0.403632 0.584588 0.828916
0.613184 0.633265 0.824460
0.746853 0.646082 0.821317
0.892271 0.644617 0.832212
0.393622 0.745663 0.799832
0.463264 0.743771 0.800015
0.614832 0.741482 0.803708
0.775418 0.749783 0.818326
0.889372 0.782559 0.842252
0.624170 0.866392 0.810178
0.653742 0.865263 0.813474
0.733974 0.863279 0.824125
0.819852 0.862181 0.838224
0.908537 0.891142 0.869688
0.619379 0.607172 0.955352
0.652338 0.619837 0.954314
0.736690 0.656458 0.951568
0.821775 0.708705 0.948058
0.886900 0.723934 0.945617
0.657038 0.650294 0.952544
0.682643 0.658381 0.951812
0.753140 0.685603 0.949737
0.828122 0.727993 0.946838
0.888640 0.740291 0.944762
0.698512 0.716732 0.948974
0.731533 0.730282 0.947570
0.785672 0.748562 0.946014
0.843900 0.775692 0.944396
0.894865 0.786069 0.943114
0.727108 0.794919 0.943481
0.745327 0.796567 0.943328
0.796567 0.803525 0.943481
0.861326 0.831357 0.942321
0.904936 0.846220 0.941680
0.754604 0.887205 0.934112
0.766476 0.886961 0.934051
0.803952 0.887053 0.934295
0.856107 0.888823 0.934936
0.911284 0.894865 0.937652
