cubelut/NW-7.cube
# Created by Adobe Lightroom plugin Export LUT (1.18.0)
# www.johnrellis.com/lightroom/exportlut.htm
# Preset: NW7
# Color profile: /Library/Application Support/Adobe/Color/Profiles/Recommended/AdobeRGB1998.icc
LUT_3D_SIZE 8
DOMAIN_MIN 0.000000 0.000000 0.000000
DOMAIN_MAX 0.903226 0.903226 0.903226
0.129305 0.154147 0.175326
0.133120 0.154879 0.175845
0.166445 0.159274 0.177035
0.238346 0.167788 0.179934
0.364721 0.186831 0.191409
0.557031 0.229160 0.207797
0.757687 0.313603 0.237278
0.896971 0.422217 0.312322
0.130129 0.158938 0.176089
0.135317 0.160800 0.175875
0.173739 0.168795 0.176761
0.247410 0.180301 0.180514
0.377264 0.204715 0.192630
0.570031 0.253391 0.208133
0.762753 0.335668 0.238437
0.899138 0.437598 0.315190
0.135470 0.200748 0.177676
0.143801 0.200961 0.179080
0.184573 0.220829 0.175845
0.281132 0.244358 0.180301
0.431891 0.282597 0.194339
0.623590 0.343542 0.209293
0.792935 0.412726 0.248142
0.911955 0.493904 0.336522
0.146609 0.294713 0.187289
0.157443 0.294865 0.189670
0.194186 0.307622 0.192691
0.296269 0.370733 0.178683
0.501305 0.448737 0.172702
0.700557 0.483375 0.211093
0.834318 0.518547 0.270756
0.927550 0.573754 0.376196
0.163272 0.458442 0.198734
0.178683 0.458839 0.201297
0.226871 0.461006 0.210513
0.325017 0.508080 0.203433
0.510979 0.575402 0.174411
0.726131 0.618280 0.181765
0.862394 0.632013 0.280766
0.942779 0.664363 0.443275
0.226230 0.629328 0.219608
0.245365 0.630854 0.223301
0.302281 0.630884 0.234684
0.392828 0.637568 0.250584
0.542046 0.675349 0.240452
0.720150 0.708675 0.226871
0.874083 0.738643 0.275914
0.948394 0.752377 0.440681
0.347204 0.755245 0.290471
0.363165 0.755062 0.294560
0.413886 0.753201 0.308690
0.493172 0.750362 0.336126
0.602258 0.761990 0.353002
0.735958 0.784909 0.359075
0.859983 0.809140 0.367773
0.947997 0.835416 0.453193
0.509972 0.855344 0.439521
0.521996 0.854765 0.444251
0.562585 0.852720 0.462013
0.627222 0.849638 0.494270
0.699672 0.845151 0.533104
0.784176 0.860410 0.546746
0.861234 0.876677 0.562737
0.924956 0.890776 0.577569
0.129061 0.154757 0.183963
0.134035 0.155154 0.184207
0.170504 0.156588 0.187869
0.233951 0.178653 0.203677
0.357610 0.200107 0.218997
0.547570 0.240116 0.237827
0.748104 0.319463 0.269993
0.890196 0.427314 0.346319
0.128664 0.161776 0.184329
0.136416 0.163210 0.185824
0.172610 0.173587 0.193729
0.243076 0.190219 0.205234
0.370611 0.216190 0.220462
0.561120 0.262577 0.238743
0.754086 0.340734 0.271611
0.892393 0.442054 0.349737
0.134432 0.206729 0.190463
0.147127 0.207736 0.196750
0.184726 0.222538 0.196872
0.277684 0.246616 0.208988
0.422766 0.287205 0.224521
0.612146 0.345617 0.243015
0.782620 0.414069 0.282658
0.904997 0.496834 0.371527
0.148653 0.300450 0.205936
0.161257 0.301518 0.210330
0.197330 0.309148 0.216342
0.294347 0.368109 0.206180
0.491218 0.441138 0.210147
0.691035 0.479103 0.252750
0.824399 0.517510 0.308202
0.921141 0.575891 0.412024
0.166140 0.464790 0.221500
0.181643 0.465034 0.224125
0.231174 0.466682 0.233127
0.324712 0.505486 0.231540
0.506249 0.571466 0.211002
0.721126 0.614862 0.227390
0.857633 0.631098 0.327916
0.937346 0.667018 0.481239
0.228092 0.631373 0.246006
0.246250 0.631495 0.249058
0.303685 0.631586 0.260227
0.392676 0.635065 0.279576
0.540642 0.673640 0.274449
0.718502 0.707546 0.268620
0.871122 0.737636 0.323217
0.944274 0.753170 0.483284
0.348516 0.754665 0.317479
0.363836 0.753964 0.321019
0.414832 0.752346 0.334997
0.494972 0.749874 0.362280
0.602258 0.760189 0.383978
0.734279 0.783383 0.393347
0.857023 0.807736 0.405219
0.944396 0.834379 0.488960
0.513268 0.854429 0.463020
0.525353 0.853971 0.467964
0.565881 0.852018 0.484810
0.629969 0.849058 0.515404
0.704067 0.845274 0.557153
0.785489 0.859983 0.570733
0.860410 0.876127 0.585626
0.923156 0.890288 0.600336
0.115145 0.157015 0.260197
0.128603 0.158785 0.259190
0.173281 0.166934 0.258427
0.258854 0.166323 0.267674
0.381842 0.176852 0.274205
0.549493 0.230686 0.304692
0.730526 0.339971 0.363226
0.874876 0.450843 0.450721
0.118715 0.170413 0.258732
0.136568 0.176577 0.257847
0.176730 0.183932 0.258427
0.259648 0.186435 0.266880
0.382055 0.200992 0.273930
0.544213 0.279454 0.318547
0.737301 0.360052 0.366857
0.877867 0.465431 0.455848
0.124422 0.224338 0.255222
0.140810 0.226902 0.257145
0.191501 0.239414 0.267857
0.269505 0.261021 0.280308
0.407141 0.301091 0.303502
0.593042 0.357366 0.334264
0.765042 0.428565 0.386145
0.889403 0.516411 0.480201
0.136934 0.324407 0.259770
0.154513 0.328130 0.264897
0.208957 0.337163 0.282933
0.302983 0.380896 0.287388
0.493111 0.442084 0.319066
0.672999 0.484108 0.365240
0.807980 0.529473 0.427985
0.906249 0.593591 0.525841
0.149355 0.490394 0.281651
0.176761 0.491920 0.289952
0.243473 0.495338 0.307164
0.334539 0.512688 0.321050
0.513207 0.575891 0.319432
0.718715 0.614191 0.364385
0.847837 0.638331 0.477760
0.922972 0.680995 0.588342
0.225742 0.644892 0.323156
0.249912 0.645167 0.330205
0.317235 0.645075 0.348089
0.407721 0.644099 0.369818
0.543603 0.672663 0.382818
0.715816 0.706569 0.394995
0.862242 0.737270 0.467292
0.932647 0.760281 0.604608
0.362554 0.759579 0.409186
0.379492 0.758907 0.414405
0.431617 0.756741 0.428473
0.510491 0.753475 0.453223
0.608881 0.757015 0.482734
0.734463 0.781552 0.501091
0.851896 0.807736 0.523491
0.935363 0.835782 0.599878
0.533867 0.854307 0.542473
0.543389 0.853727 0.543481
0.581872 0.851682 0.556664
0.643793 0.849058 0.582177
0.713649 0.845548 0.615045
0.788663 0.857633 0.635218
0.858885 0.875181 0.650752
0.918761 0.890257 0.665919
0.000000 0.169070 0.434546
0.063691 0.173892 0.433143
0.167758 0.189517 0.429541
0.274754 0.198764 0.427008
0.431525 0.173007 0.448615
0.608698 0.165164 0.458289
0.761196 0.244083 0.466133
0.876921 0.398260 0.522301
0.041810 0.195285 0.428534
0.094453 0.198917 0.428046
0.177218 0.211582 0.426764
0.278355 0.221073 0.426459
0.435492 0.199374 0.448249
0.608331 0.207156 0.454841
0.759213 0.281682 0.465217
0.872251 0.436469 0.538140
0.027893 0.247715 0.424903
0.094789 0.249485 0.425452
0.194553 0.275364 0.425299
0.291844 0.291600 0.427680
0.448829 0.285679 0.443946
0.611353 0.323491 0.449836
0.751705 0.417975 0.496529
0.861845 0.538628 0.593347
0.057954 0.374243 0.407996
0.103059 0.376989 0.409644
0.193576 0.389654 0.419165
0.328771 0.421607 0.446693
0.470100 0.451301 0.465400
0.633631 0.493965 0.504082
0.773709 0.545892 0.561028
0.882017 0.612360 0.634882
0.087556 0.524895 0.409155
0.131533 0.527184 0.412634
0.233066 0.537072 0.428595
0.368261 0.548333 0.467567
0.527672 0.587640 0.489815
0.708797 0.619348 0.556298
0.826230 0.653101 0.628748
0.903807 0.695369 0.685847
0.203525 0.666346 0.448920
0.236728 0.667933 0.456397
0.332494 0.669368 0.482368
0.443671 0.666255 0.512902
0.558099 0.673854 0.539086
0.715419 0.708492 0.564569
0.849668 0.740963 0.632471
0.919890 0.770382 0.717128
0.393408 0.767575 0.541619
0.417517 0.766598 0.551080
0.469703 0.764523 0.562707
0.543694 0.761105 0.578546
0.630121 0.756710 0.604608
0.739040 0.779477 0.627924
0.845792 0.808072 0.651820
0.925048 0.837339 0.706447
0.585748 0.853880 0.654902
0.593652 0.853605 0.655665
0.618555 0.852537 0.656519
0.663996 0.850492 0.662867
0.726955 0.847623 0.683986
0.792172 0.854307 0.704616
0.857389 0.873869 0.720027
0.914214 0.890288 0.736202
0.000000 0.199710 0.675990
0.000000 0.205020 0.675532
0.170687 0.222263 0.673243
0.328618 0.254765 0.671412
0.485389 0.260197 0.665614
0.654963 0.230076 0.669490
0.792020 0.270481 0.669245
0.890105 0.411322 0.681697
0.000000 0.233097 0.671382
0.000000 0.237491 0.671290
0.184421 0.252964 0.670192
0.334813 0.284245 0.669276
0.487495 0.291234 0.663691
0.656062 0.266728 0.668086
0.790738 0.309819 0.667536
0.888548 0.434272 0.681849
0.000000 0.300694 0.665461
0.000000 0.319158 0.663203
0.211337 0.340063 0.662257
0.353796 0.370916 0.662409
0.496040 0.383093 0.658045
0.658412 0.367651 0.662654
0.785824 0.412909 0.662226
0.882933 0.498939 0.682338
0.000000 0.438300 0.652430
0.000000 0.439521 0.652857
0.202121 0.445441 0.655634
0.387366 0.486336 0.656184
0.519585 0.502342 0.655482
0.665858 0.489479 0.656001
0.778653 0.529778 0.660731
0.874266 0.580865 0.686122
0.000000 0.582208 0.624323
0.000000 0.583368 0.625391
0.229129 0.587335 0.629633
0.393866 0.595727 0.640070
0.562158 0.610376 0.661463
0.676478 0.623377 0.674495
0.789059 0.650355 0.702022
0.881376 0.691585 0.740658
0.178531 0.685176 0.602655
0.219883 0.685451 0.605432
0.327916 0.685908 0.615930
0.467659 0.686732 0.639368
0.596338 0.685695 0.670222
0.720150 0.712001 0.694362
0.840848 0.744686 0.742702
0.908354 0.777066 0.791104
0.403143 0.777096 0.648005
0.424811 0.776333 0.651881
0.492348 0.774136 0.665827
0.583825 0.771664 0.688228
0.659052 0.767605 0.699947
0.743252 0.775937 0.719234
0.842557 0.808957 0.741878
0.917235 0.838773 0.787778
0.605890 0.857725 0.727138
0.616052 0.857206 0.729458
0.649134 0.855558 0.737148
0.694820 0.853880 0.746181
0.736141 0.852415 0.744778
0.794705 0.850889 0.763973
0.855833 0.871763 0.781521
0.910521 0.890196 0.799222
0.076173 0.271733 0.820768
0.153048 0.279332 0.820554
0.282902 0.304814 0.819089
0.422065 0.351629 0.817044
0.558648 0.418677 0.814054
0.683436 0.426398 0.806943
0.811521 0.427802 0.815061
0.897765 0.484016 0.821286
0.133211 0.311406 0.817563
0.183474 0.317662 0.817197
0.297581 0.340429 0.816129
0.430762 0.383093 0.814267
0.564050 0.443549 0.811612
0.684718 0.449439 0.805051
0.810758 0.449165 0.813748
0.896910 0.498756 0.820432
0.221469 0.418311 0.811551
0.253849 0.423072 0.811185
0.345342 0.441230 0.810178
0.465095 0.472572 0.808774
0.586877 0.514855 0.807156
0.692592 0.517784 0.801419
0.810025 0.512261 0.810605
0.895048 0.543359 0.817716
0.202426 0.496010 0.808011
0.249363 0.503777 0.807126
0.380407 0.535027 0.804135
0.516625 0.570733 0.801938
0.621820 0.596094 0.802090
0.707607 0.598535 0.798123
0.811002 0.587366 0.806363
0.891722 0.606287 0.810941
0.256596 0.622431 0.792142
0.294408 0.623774 0.792264
0.397864 0.628382 0.792660
0.526116 0.636927 0.794675
0.643885 0.656855 0.795285
0.721859 0.662409 0.794186
0.812284 0.648341 0.795621
0.885496 0.671565 0.799008
0.316381 0.718868 0.771023
0.345556 0.718807 0.771572
0.428473 0.717617 0.772549
0.536217 0.716335 0.775021
0.637842 0.717281 0.780392
0.741726 0.724849 0.792477
0.817868 0.737118 0.802182
0.887572 0.765103 0.824369
0.431952 0.789151 0.752956
0.452979 0.788632 0.754757
0.514733 0.786770 0.760250
0.595575 0.785214 0.768795
0.682002 0.785275 0.780697
0.763180 0.785519 0.797116
0.844205 0.813016 0.818723
0.911376 0.843687 0.857755
0.620325 0.864500 0.793729
0.629450 0.864073 0.794888
0.659541 0.862791 0.798764
0.705501 0.861448 0.805509
0.759518 0.860380 0.815702
0.803983 0.859251 0.820157
0.855802 0.868864 0.837552
0.908659 0.890898 0.856809
0.368658 0.424170 0.910155
0.393225 0.433265 0.909941
0.464790 0.460151 0.908446
0.564385 0.501762 0.906218
0.666529 0.551415 0.903349
0.752438 0.601862 0.900694
0.819455 0.596765 0.896178
0.899321 0.605493 0.909636
0.392859 0.458076 0.907591
0.414649 0.465126 0.907378
0.480690 0.487221 0.906157
0.574182 0.522362 0.904051
0.671504 0.566003 0.901457
0.753750 0.610742 0.899046
0.818845 0.604761 0.894560
0.898009 0.611261 0.907927
0.465126 0.544427 0.903258
0.481697 0.548302 0.902983
0.534356 0.561608 0.901946
0.611810 0.584222 0.900420
0.692958 0.612390 0.898619
0.764401 0.643732 0.897276
0.823087 0.638087 0.893523
0.898131 0.641016 0.906523
0.502495 0.609369 0.900298
0.528466 0.617639 0.899199
0.592554 0.636896 0.896880
0.651759 0.648554 0.896361
0.717678 0.665003 0.895720
0.779629 0.687404 0.895506
0.829862 0.683192 0.892454
0.898131 0.680537 0.903349
0.519890 0.670344 0.894713
0.536248 0.671687 0.894530
0.586450 0.676143 0.894255
0.655360 0.690089 0.893126
0.733913 0.711177 0.891661
0.791043 0.727626 0.892210
0.835874 0.727352 0.889738
0.897734 0.722469 0.897490
0.549828 0.747982 0.883818
0.563104 0.748135 0.883848
0.604852 0.748745 0.884154
0.664881 0.750088 0.885313
0.732235 0.752865 0.887816
0.801236 0.769192 0.889128
0.844877 0.775814 0.888334
0.897948 0.766445 0.888884
0.576776 0.814298 0.870573
0.587457 0.814084 0.870848
0.620966 0.812985 0.871122
0.670558 0.811765 0.871946
0.729091 0.810880 0.873228
0.790646 0.812619 0.876188
0.850767 0.820676 0.883177
0.897185 0.835477 0.891508
0.642603 0.872435 0.860349
0.649622 0.872099 0.860502
0.673793 0.871458 0.861326
0.714199 0.870573 0.863920
0.764920 0.870176 0.868925
0.817227 0.871244 0.876921
0.862699 0.872892 0.887175
0.909148 0.892515 0.904570
0.619379 0.607172 0.955352
0.630060 0.611383 0.955077
0.662318 0.623774 0.954009
0.710262 0.644007 0.952483
0.762844 0.670192 0.950561
0.810880 0.700496 0.948547
0.851225 0.733455 0.946685
0.886900 0.723934 0.945617
0.632349 0.621912 0.954253
0.641932 0.625422 0.954040
0.671412 0.635859 0.953124
0.716304 0.653864 0.951690
0.766537 0.678035 0.949950
0.812894 0.706569 0.948058
0.852201 0.737789 0.946258
0.887175 0.728206 0.945220
0.665919 0.660914 0.951781
0.673365 0.663233 0.951629
0.697200 0.670375 0.950835
0.736263 0.684993 0.949889
0.779355 0.703975 0.948455
0.820401 0.727230 0.946868
0.856657 0.754116 0.945403
0.889128 0.745113 0.944457
0.703578 0.707424 0.948974
0.709682 0.709163 0.948882
0.728878 0.714199 0.948363
0.759854 0.724178 0.947601
0.795773 0.738552 0.946624
0.831327 0.756863 0.945495
0.863706 0.778653 0.944488
0.892699 0.771176 0.943664
0.701320 0.731868 0.948272
0.709102 0.734310 0.948089
0.732662 0.741634 0.947417
0.778134 0.761715 0.945525
0.809293 0.772457 0.944823
0.841367 0.787167 0.944060
0.871397 0.805753 0.943389
0.897459 0.802579 0.942687
0.721065 0.780880 0.944488
0.726925 0.781430 0.944396
0.746334 0.783627 0.944244
0.776272 0.787839 0.944244
0.811917 0.799344 0.943816
0.851621 0.819730 0.942748
0.880705 0.836393 0.942657
0.903624 0.838041 0.941985
0.740261 0.834684 0.939788
0.744991 0.834867 0.939788
0.760494 0.835538 0.939757
0.785794 0.837278 0.939910
0.817624 0.841001 0.940337
0.852995 0.848264 0.941253
0.887663 0.864317 0.941283
0.908904 0.869993 0.940703
0.754604 0.887205 0.934112
0.758083 0.887114 0.934081
0.770413 0.886900 0.934081
0.791165 0.886931 0.934173
0.817838 0.887297 0.934386
0.848142 0.888396 0.934783
0.880430 0.890623 0.935637
0.911284 0.894865 0.937652
