cubelut/NW-8.cube
# Created by Adobe Lightroom plugin Export LUT (1.18.0)
# www.johnrellis.com/lightroom/exportlut.htm
# Preset: NW8
# Color profile: /Library/Application Support/Adobe/Color/Profiles/Recommended/AdobeRGB1998.icc
LUT_3D_SIZE 32
DOMAIN_MIN 0.0 0.0 0.0
DOMAIN_MAX 1.0 1.0 1.0
0.143313 0.146273 0.150423
0.146304 0.146426 0.150637
0.152377 0.146883 0.151034
0.167086 0.149599 0.152773
0.185061 0.153506 0.154818
0.202609 0.157259 0.157351
0.220340 0.161044 0.159579
0.238956 0.164553 0.161868
0.258396 0.168307 0.163546
0.278660 0.171542 0.165011
0.299718 0.174868 0.166415
0.321324 0.178470 0.167941
0.343542 0.182223 0.169284
0.366705 0.186404 0.171298
0.390326 0.191226 0.174075
0.414588 0.196536 0.177066
0.439612 0.202060 0.180392
0.465492 0.207828 0.183536
0.492195 0.213840 0.186923
0.522026 0.220493 0.190219
0.553338 0.227848 0.193454
0.585321 0.235416 0.196872
0.617853 0.243442 0.200320
0.650690 0.251896 0.204105
0.683162 0.260990 0.208164
0.715358 0.270665 0.212619
0.747219 0.280980 0.217502
0.778836 0.292363 0.223209
0.810025 0.304509 0.229557
0.840757 0.317845 0.237400
0.870848 0.332738 0.246555
0.900175 0.349523 0.257664
0.143954 0.149935 0.151003
0.148104 0.150546 0.151461
0.153933 0.151644 0.152255
0.168551 0.155184 0.153597
0.185763 0.158724 0.156069
0.203189 0.161898 0.158328
0.220951 0.165133 0.160464
0.239445 0.168276 0.162600
0.258701 0.171542 0.164187
0.278843 0.174594 0.165652
0.299840 0.177768 0.166964
0.321294 0.181338 0.168215
0.343664 0.184695 0.169833
0.366674 0.188876 0.171969
0.390295 0.193545 0.174380
0.414466 0.198795 0.177615
0.439277 0.204318 0.180697
0.465095 0.209964 0.183963
0.491829 0.215885 0.187228
0.521569 0.222599 0.190494
0.552728 0.229679 0.193668
0.584619 0.237247 0.196994
0.617060 0.245090 0.200656
0.649866 0.253605 0.204318
0.682368 0.262730 0.208164
0.714565 0.272374 0.212619
0.746548 0.282567 0.217594
0.778195 0.293736 0.223209
0.809476 0.305852 0.229740
0.840208 0.319158 0.237400
0.870359 0.333989 0.246494
0.899748 0.350561 0.257755
0.144930 0.157748 0.152102
0.150851 0.158358 0.152651
0.158206 0.159579 0.153506
0.170169 0.161196 0.155795
0.187015 0.165225 0.157900
0.204135 0.167849 0.159884
0.221805 0.170413 0.161776
0.240085 0.172946 0.163668
0.259129 0.175906 0.165011
0.279271 0.178592 0.166476
0.300053 0.181704 0.167788
0.321538 0.185061 0.168917
0.343816 0.188266 0.170535
0.366827 0.192081 0.172671
0.390295 0.196689 0.175204
0.414496 0.201846 0.178195
0.439368 0.207248 0.181247
0.465034 0.212985 0.184360
0.491768 0.218601 0.187655
0.521355 0.225498 0.190799
0.552483 0.232303 0.194186
0.584314 0.239719 0.197421
0.616724 0.247654 0.200961
0.649439 0.256046 0.204440
0.681941 0.264897 0.208560
0.714168 0.274449 0.212924
0.746151 0.284672 0.217777
0.777859 0.295781 0.223392
0.809110 0.307836 0.229831
0.839872 0.321172 0.237461
0.870085 0.335698 0.246738
0.899474 0.352270 0.257908
0.147890 0.174838 0.155734
0.154391 0.175265 0.156252
0.163363 0.175662 0.156954
0.178225 0.177249 0.158907
0.190768 0.175540 0.161166
0.206058 0.179873 0.162997
0.223362 0.181247 0.164401
0.241459 0.182986 0.165652
0.260380 0.185122 0.166903
0.280247 0.187320 0.168246
0.300877 0.190066 0.169162
0.322301 0.192752 0.170596
0.344335 0.195865 0.171939
0.367346 0.199313 0.173983
0.390661 0.203769 0.176242
0.414649 0.208530 0.179477
0.439429 0.213657 0.182528
0.465156 0.219181 0.185367
0.491859 0.224613 0.188632
0.521263 0.231113 0.191806
0.552117 0.238010 0.194858
0.583764 0.245335 0.198276
0.616114 0.252934 0.201724
0.648890 0.261295 0.205142
0.681514 0.269963 0.209171
0.713832 0.279576 0.213382
0.745907 0.289525 0.218387
0.777646 0.300633 0.223972
0.808957 0.312474 0.230533
0.839719 0.325505 0.238071
0.869902 0.339940 0.247227
0.899260 0.356298 0.258213
0.151400 0.194217 0.159915
0.157626 0.194522 0.160281
0.165774 0.194827 0.160861
0.181216 0.195560 0.161990
0.200290 0.197269 0.164187
0.212161 0.191287 0.166110
0.227085 0.194583 0.167758
0.243503 0.197635 0.169284
0.262211 0.198703 0.170077
0.281590 0.200351 0.171084
0.302129 0.201999 0.171939
0.323278 0.204318 0.172976
0.345251 0.206882 0.174228
0.367834 0.210117 0.175998
0.391089 0.213993 0.178500
0.414923 0.218479 0.181338
0.439765 0.223178 0.184482
0.465278 0.228397 0.187320
0.492287 0.233860 0.190249
0.521538 0.239994 0.193301
0.552117 0.246738 0.196445
0.583642 0.253727 0.199405
0.615747 0.261326 0.202823
0.648524 0.269444 0.206332
0.681086 0.278019 0.210208
0.713436 0.287236 0.214420
0.745480 0.297124 0.219364
0.777218 0.307774 0.224735
0.808530 0.319371 0.231296
0.839322 0.332128 0.238956
0.869535 0.346349 0.247990
0.898924 0.362463 0.259159
0.153506 0.214267 0.163180
0.159152 0.214481 0.163424
0.166506 0.214633 0.163607
0.181582 0.215000 0.164218
0.201328 0.216037 0.165621
0.223178 0.217990 0.167941
0.234592 0.208194 0.170748
0.249882 0.210697 0.171542
0.265263 0.214481 0.173678
0.283574 0.216281 0.174899
0.303746 0.217624 0.175387
0.324559 0.219089 0.176242
0.346380 0.221073 0.177493
0.368780 0.223789 0.178897
0.391821 0.227359 0.181125
0.415595 0.231327 0.183932
0.440192 0.235813 0.186587
0.465675 0.240513 0.189517
0.492927 0.245701 0.192630
0.521935 0.251713 0.195377
0.552453 0.258000 0.198276
0.583734 0.265049 0.201297
0.620539 0.273747 0.205173
0.653132 0.281621 0.208713
0.685359 0.290196 0.212314
0.717403 0.299046 0.216648
0.749111 0.308629 0.221530
0.780453 0.318914 0.227054
0.811429 0.330236 0.233433
0.841917 0.342687 0.241184
0.871733 0.356542 0.250431
0.900816 0.372259 0.261509
0.154025 0.235111 0.165377
0.159701 0.235203 0.165499
0.166201 0.235447 0.165682
0.180545 0.235782 0.166445
0.200992 0.236240 0.167086
0.222934 0.237522 0.168643
0.247166 0.239597 0.170565
0.258366 0.226596 0.174136
0.274327 0.227939 0.174166
0.289586 0.231601 0.177646
0.306218 0.235874 0.180117
0.327001 0.236728 0.180514
0.348425 0.238224 0.181308
0.370611 0.240360 0.182712
0.393439 0.243198 0.184817
0.416968 0.246738 0.187350
0.441444 0.250736 0.189853
0.467140 0.255192 0.192477
0.494392 0.260258 0.195254
0.523552 0.266087 0.198032
0.554131 0.272251 0.200748
0.585779 0.279088 0.203555
0.618402 0.286412 0.206973
0.651362 0.294163 0.210391
0.684016 0.302434 0.214115
0.716274 0.311009 0.218265
0.748135 0.320470 0.222904
0.779568 0.330388 0.228611
0.810605 0.341253 0.234958
0.841093 0.353491 0.242435
0.871000 0.366888 0.251652
0.900175 0.382238 0.262852
0.152621 0.256291 0.166873
0.157900 0.256382 0.167391
0.164553 0.256535 0.167483
0.178592 0.256718 0.167605
0.198306 0.257023 0.168002
0.222110 0.257572 0.168429
0.245396 0.259190 0.170138
0.271183 0.261448 0.172305
0.282109 0.247044 0.176913
0.299351 0.245914 0.175967
0.314733 0.249271 0.180270
0.330877 0.253788 0.183871
0.349828 0.256870 0.185946
0.371588 0.258488 0.186923
0.394202 0.260868 0.189120
0.417548 0.263859 0.191073
0.441962 0.267491 0.193637
0.467933 0.271672 0.195956
0.494850 0.276249 0.198398
0.523705 0.281712 0.200961
0.554040 0.287724 0.203494
0.585382 0.294133 0.206363
0.617731 0.301244 0.209323
0.650507 0.308843 0.212528
0.683070 0.316777 0.216068
0.715297 0.325109 0.220279
0.747097 0.334173 0.224765
0.778592 0.343816 0.230137
0.809659 0.354467 0.236545
0.840269 0.366033 0.244083
0.870237 0.379278 0.253147
0.899504 0.394049 0.264500
0.150576 0.278050 0.169162
0.154604 0.278294 0.168399
0.161440 0.278416 0.168338
0.175174 0.278569 0.168490
0.194553 0.278843 0.168643
0.217990 0.279149 0.168734
0.243931 0.279820 0.168948
0.268894 0.281743 0.170687
0.296147 0.283940 0.172763
0.306676 0.268559 0.178592
0.325261 0.265171 0.177707
0.341222 0.267979 0.181643
0.357092 0.272435 0.187198
0.373480 0.277684 0.191897
0.395117 0.280095 0.193942
0.418372 0.282780 0.195743
0.443030 0.285954 0.197787
0.468666 0.289860 0.199985
0.495186 0.293980 0.202090
0.523888 0.299107 0.204257
0.553948 0.304784 0.206760
0.585077 0.311009 0.209293
0.617212 0.317845 0.212009
0.649805 0.325322 0.215030
0.682246 0.332982 0.218418
0.714412 0.341039 0.222354
0.746212 0.349645 0.226902
0.777676 0.359045 0.232181
0.808804 0.369238 0.238437
0.839445 0.380529 0.246036
0.869505 0.393164 0.255100
0.898833 0.407568 0.266453
0.146914 0.300572 0.170291
0.149508 0.300847 0.168246
0.156374 0.300969 0.168460
0.170199 0.301091 0.168338
0.189487 0.301335 0.168276
0.213016 0.301610 0.168246
0.239750 0.301762 0.168002
0.266575 0.302739 0.168521
0.293217 0.304906 0.170260
0.321935 0.307195 0.172335
0.333135 0.291569 0.178958
0.351995 0.285344 0.179629
0.368627 0.287633 0.182467
0.384131 0.292210 0.190585
0.400671 0.297673 0.196872
0.419623 0.302831 0.200870
0.444007 0.305760 0.202457
0.469276 0.309087 0.204196
0.495796 0.312993 0.206149
0.524224 0.317754 0.208194
0.553887 0.323247 0.210269
0.584710 0.329290 0.212528
0.616480 0.335790 0.215030
0.648798 0.342870 0.218021
0.681056 0.350286 0.221164
0.713130 0.358038 0.225040
0.744961 0.366461 0.229282
0.776577 0.375463 0.234501
0.807858 0.385382 0.240635
0.838621 0.396368 0.248173
0.868864 0.408576 0.257420
0.898375 0.422614 0.268681
0.142092 0.323369 0.171298
0.143862 0.323827 0.168734
0.149416 0.323980 0.167910
0.163607 0.324102 0.167819
0.183658 0.324285 0.167636
0.207492 0.324498 0.167361
0.233829 0.324926 0.167117
0.262943 0.325109 0.166629
0.290837 0.326543 0.167422
0.318883 0.328862 0.169772
0.348913 0.331426 0.172061
0.361181 0.316411 0.179416
0.379889 0.307012 0.182620
0.397498 0.309026 0.183871
0.413336 0.313756 0.193942
0.429969 0.319127 0.201205
0.447395 0.324773 0.206424
0.469581 0.329168 0.209171
0.495857 0.332769 0.210788
0.524041 0.337346 0.212284
0.553643 0.342535 0.214267
0.584222 0.348333 0.216312
0.615808 0.354833 0.218509
0.647944 0.361730 0.221042
0.680110 0.368902 0.224216
0.712154 0.376410 0.227848
0.743923 0.384558 0.231907
0.775509 0.393317 0.236942
0.806851 0.402838 0.243168
0.837675 0.413428 0.250675
0.868009 0.425330 0.259831
0.897612 0.439063 0.271214
0.136385 0.346838 0.172702
0.138308 0.347265 0.170047
0.141054 0.347692 0.167056
0.156649 0.347692 0.167208
0.177584 0.347906 0.167025
0.201663 0.348119 0.166781
0.228702 0.348455 0.166537
0.257908 0.348638 0.166232
0.288426 0.348760 0.165805
0.316442 0.351019 0.167666
0.345800 0.353735 0.170596
0.376898 0.356939 0.173831
0.392584 0.344305 0.182437
0.411658 0.332189 0.187839
0.429511 0.333989 0.189181
0.446265 0.337896 0.197116
0.463020 0.343023 0.205447
0.480537 0.348547 0.211276
0.498939 0.354742 0.215732
0.526604 0.359319 0.217227
0.555840 0.364294 0.218723
0.586236 0.369848 0.220676
0.617487 0.376074 0.222538
0.649317 0.382605 0.225101
0.681147 0.389593 0.227848
0.712917 0.396857 0.231296
0.744533 0.404639 0.235447
0.776028 0.412970 0.240391
0.807156 0.422217 0.246403
0.837980 0.432441 0.253849
0.868223 0.444007 0.263218
0.897826 0.457221 0.274846
0.131533 0.371252 0.174197
0.133120 0.371649 0.172305
0.136080 0.372045 0.168185
0.149935 0.372290 0.167849
0.172091 0.372381 0.167544
0.196567 0.372442 0.167575
0.224002 0.372595 0.167514
0.252934 0.372869 0.167361
0.283818 0.373175 0.167330
0.315526 0.374151 0.167422
0.344549 0.377295 0.170108
0.375250 0.380804 0.173404
0.407385 0.384558 0.176974
0.422705 0.371435 0.185885
0.441779 0.356725 0.192264
0.460304 0.358038 0.193576
0.477852 0.361242 0.198886
0.494514 0.366094 0.208255
0.512322 0.371649 0.214755
0.531731 0.378088 0.219699
0.554681 0.384741 0.223178
0.584863 0.390173 0.224613
0.615991 0.396246 0.226413
0.647700 0.402716 0.228550
0.679438 0.409461 0.231144
0.711177 0.416602 0.234409
0.742885 0.424231 0.238376
0.774441 0.432471 0.243259
0.805722 0.441505 0.249119
0.836698 0.451423 0.256687
0.867155 0.462654 0.266026
0.896971 0.475654 0.277745
0.128084 0.395392 0.177646
0.130220 0.395697 0.174929
0.132753 0.396094 0.171908
0.145388 0.396429 0.169406
0.167025 0.396612 0.169375
0.192325 0.396887 0.169375
0.219944 0.397375 0.169375
0.249271 0.397772 0.169192
0.280034 0.398230 0.169009
0.311894 0.398810 0.168795
0.343206 0.400519 0.169711
0.373358 0.404059 0.172610
0.404761 0.407874 0.176089
0.437903 0.411933 0.179568
0.453803 0.399420 0.188968
0.471839 0.383673 0.196384
0.492134 0.383032 0.198062
0.510582 0.385534 0.199557
0.527367 0.390173 0.210391
0.545678 0.395880 0.217929
0.565576 0.402502 0.223636
0.586664 0.410010 0.227939
0.614313 0.416876 0.230350
0.645960 0.423285 0.232120
0.677790 0.429999 0.234684
0.709499 0.437049 0.237675
0.741238 0.444587 0.241459
0.772915 0.452644 0.246311
0.804349 0.461494 0.252262
0.835447 0.471290 0.259709
0.866148 0.482307 0.269261
0.896178 0.495003 0.281071
0.124208 0.421027 0.179690
0.126131 0.421363 0.177890
0.128603 0.421668 0.174807
0.139437 0.422309 0.171176
0.162234 0.422431 0.171023
0.188174 0.422675 0.170901
0.216281 0.422919 0.170840
0.245487 0.423377 0.170901
0.276219 0.423774 0.170626
0.308324 0.424384 0.170291
0.341253 0.424903 0.169711
0.371893 0.427649 0.171695
0.403052 0.431617 0.174777
0.435554 0.435859 0.178134
0.469337 0.440284 0.181979
0.485969 0.427924 0.191592
0.502831 0.411566 0.200198
0.524895 0.408850 0.202213
0.543481 0.410742 0.202701
0.561334 0.415259 0.212009
0.580102 0.421057 0.220554
0.600458 0.427893 0.226932
0.622095 0.435554 0.231662
0.644709 0.443885 0.235813
0.675746 0.450813 0.238224
0.707607 0.457893 0.241093
0.739528 0.465370 0.244724
0.771450 0.473457 0.249577
0.803159 0.482246 0.255589
0.834562 0.491981 0.263127
0.865568 0.502892 0.272709
0.895872 0.515404 0.285069
0.119051 0.447333 0.182712
0.120943 0.447669 0.180453
0.123445 0.448066 0.177523
0.132479 0.448707 0.172244
0.156771 0.448859 0.172305
0.183108 0.449195 0.172427
0.211765 0.449439 0.172244
0.241978 0.449836 0.171939
0.272953 0.450294 0.171908
0.304997 0.450874 0.171572
0.337896 0.451423 0.171145
0.371588 0.451972 0.170687
0.402136 0.455818 0.173281
0.433845 0.460060 0.176516
0.467048 0.464515 0.180148
0.501427 0.469184 0.183902
0.518578 0.457130 0.193820
0.533745 0.439582 0.203830
0.557916 0.434943 0.206607
0.577050 0.437049 0.207156
0.596246 0.441230 0.213291
0.615625 0.447303 0.223209
0.636225 0.454231 0.230381
0.657954 0.461891 0.235782
0.680568 0.470344 0.240696
0.705928 0.479133 0.244724
0.738033 0.486641 0.248295
0.770077 0.494759 0.252964
0.801968 0.503502 0.258976
0.833555 0.513146 0.266606
0.864714 0.523919 0.276402
0.895293 0.536278 0.288914
0.112581 0.474098 0.184665
0.114717 0.474342 0.182345
0.117403 0.474678 0.180179
0.123537 0.475471 0.172976
0.150332 0.475624 0.173526
0.177737 0.475929 0.173434
0.207370 0.476204 0.173220
0.237888 0.476631 0.173037
0.269444 0.477089 0.172854
0.301427 0.477638 0.172580
0.334630 0.478248 0.172244
0.368597 0.478859 0.171359
0.401709 0.480354 0.171725
0.432959 0.484443 0.174655
0.465339 0.488808 0.178103
0.498817 0.493294 0.181735
0.533410 0.497841 0.185824
0.550805 0.486030 0.196201
0.564843 0.467628 0.207462
0.591699 0.461860 0.211215
0.611383 0.464118 0.211826
0.631556 0.467811 0.214237
0.650996 0.473854 0.225376
0.671504 0.480781 0.233768
0.693202 0.488472 0.240299
0.715908 0.497078 0.246067
0.739742 0.506615 0.251225
0.768215 0.516075 0.256474
0.800381 0.524834 0.262425
0.832303 0.534539 0.270115
0.863767 0.545281 0.280003
0.894652 0.557580 0.292882
0.104494 0.501640 0.186740
0.106844 0.501915 0.184329
0.109224 0.504387 0.181613
0.115999 0.505058 0.175113
0.142519 0.505394 0.174411
0.172610 0.505486 0.174197
0.202853 0.505760 0.174105
0.234226 0.506065 0.173953
0.266667 0.506493 0.173526
0.299382 0.506859 0.173373
0.332616 0.507408 0.172915
0.366339 0.507897 0.172519
0.400855 0.508263 0.171817
0.433600 0.510613 0.172946
0.465522 0.514733 0.175967
0.498360 0.519005 0.179568
0.532250 0.523491 0.183627
0.567010 0.528069 0.187991
0.584771 0.516472 0.198672
0.597925 0.497505 0.211490
0.627192 0.490211 0.216373
0.646815 0.492287 0.217136
0.667231 0.495491 0.217777
0.686763 0.501213 0.228275
0.707149 0.508019 0.237949
0.728603 0.515770 0.245792
0.751247 0.524559 0.252537
0.775174 0.534508 0.259068
0.800320 0.545708 0.265751
0.830900 0.556115 0.273594
0.862730 0.566857 0.283848
0.893919 0.579187 0.297002
0.094820 0.530449 0.187533
0.096803 0.530938 0.185977
0.100404 0.531548 0.182956
0.107362 0.532494 0.176791
0.134432 0.533043 0.174838
0.165927 0.533288 0.174807
0.197635 0.533623 0.174716
0.229740 0.533898 0.174563
0.262852 0.534234 0.174258
0.296239 0.534569 0.173739
0.329595 0.535027 0.173465
0.363806 0.535454 0.172915
0.397986 0.535912 0.172488
0.433021 0.536156 0.171542
0.465034 0.539544 0.173861
0.497230 0.543725 0.177401
0.530480 0.548150 0.181186
0.564813 0.552667 0.185275
0.599847 0.557427 0.189914
0.617762 0.545922 0.201328
0.631556 0.527825 0.214511
0.660243 0.518212 0.221622
0.680629 0.519615 0.223056
0.700923 0.522789 0.224155
0.721035 0.527977 0.231632
0.741421 0.534997 0.242832
0.762966 0.543084 0.252140
0.785794 0.552331 0.260441
0.809873 0.562921 0.268681
0.835203 0.574975 0.277531
0.861784 0.588678 0.287663
0.893248 0.601068 0.301305
0.082521 0.559014 0.188418
0.085634 0.559533 0.186618
0.089326 0.560082 0.183871
0.097322 0.560998 0.177615
0.125551 0.561608 0.175387
0.159304 0.561852 0.175357
0.193240 0.562036 0.175051
0.225956 0.562341 0.174868
0.259556 0.562646 0.174594
0.293248 0.563012 0.174289
0.327276 0.563439 0.173892
0.361669 0.563806 0.173342
0.395972 0.564233 0.172793
0.430884 0.564538 0.172122
0.465431 0.565209 0.171817
0.497414 0.569268 0.175021
0.530114 0.573602 0.178622
0.563531 0.577966 0.182742
0.597833 0.582452 0.187411
0.632929 0.587091 0.192233
0.650721 0.575525 0.204440
0.664820 0.557946 0.218601
0.691676 0.547295 0.227268
0.713893 0.547051 0.230228
0.734066 0.550225 0.231876
0.754665 0.554894 0.236271
0.775021 0.562219 0.249180
0.796658 0.570764 0.260288
0.819577 0.580682 0.270603
0.843717 0.592096 0.281193
0.869108 0.605219 0.292699
0.895598 0.620478 0.306523
0.067109 0.588403 0.188754
0.071077 0.588830 0.187106
0.075746 0.589441 0.183963
0.085206 0.590234 0.177981
0.118166 0.590845 0.175601
0.154086 0.591058 0.175326
0.189090 0.591211 0.175143
0.222751 0.591455 0.175082
0.256870 0.591760 0.174807
0.290959 0.592126 0.174533
0.325414 0.592493 0.173983
0.359747 0.592828 0.173709
0.394232 0.593164 0.173190
0.429450 0.593408 0.172519
0.464393 0.593683 0.171817
0.498360 0.595331 0.172641
0.530449 0.599420 0.176455
0.563409 0.603693 0.180636
0.597131 0.608087 0.185153
0.631525 0.612573 0.190219
0.666377 0.617212 0.195834
0.684230 0.605737 0.208774
0.698329 0.588464 0.223819
0.723537 0.577050 0.234653
0.747433 0.575219 0.239475
0.767575 0.578485 0.241733
0.788449 0.583001 0.244602
0.809018 0.590570 0.258030
0.830686 0.599817 0.271489
0.853605 0.610620 0.284398
0.877684 0.623194 0.298222
0.902770 0.637903 0.313939
0.036866 0.619379 0.188663
0.047211 0.619715 0.186221
0.058564 0.620081 0.183963
0.071839 0.620722 0.176669
0.110445 0.621057 0.175845
0.149111 0.621241 0.175692
0.184787 0.621393 0.175631
0.220249 0.621546 0.175326
0.255009 0.621820 0.175174
0.289647 0.622034 0.174929
0.323949 0.622431 0.174624
0.358984 0.622705 0.174228
0.393622 0.622980 0.173831
0.428626 0.623133 0.173220
0.463783 0.623224 0.172580
0.499123 0.623285 0.172030
0.531792 0.625971 0.174411
0.564111 0.629938 0.178744
0.597101 0.634058 0.183413
0.630640 0.638239 0.188540
0.664790 0.642542 0.194247
0.699275 0.646784 0.200443
0.716579 0.635248 0.214298
0.730220 0.618036 0.230289
0.753597 0.605798 0.243107
0.778927 0.602411 0.250248
0.798947 0.605890 0.253727
0.819821 0.610834 0.257664
0.840879 0.618311 0.269108
0.862455 0.628473 0.285496
0.885222 0.640436 0.301823
0.908934 0.654627 0.319890
0.000000 0.649317 0.187503
0.005463 0.649622 0.185641
0.020630 0.649928 0.182773
0.053101 0.650568 0.176669
0.104799 0.650782 0.176455
0.145724 0.650813 0.176333
0.182620 0.650965 0.176120
0.217899 0.651087 0.176120
0.253696 0.651209 0.175845
0.288609 0.651392 0.175601
0.323308 0.651637 0.175357
0.357885 0.651881 0.175113
0.392859 0.652064 0.174746
0.427802 0.652155 0.174411
0.462928 0.652247 0.173892
0.498268 0.652277 0.173281
0.533501 0.652247 0.172641
0.565209 0.656001 0.176974
0.597498 0.659846 0.182010
0.630488 0.663783 0.187259
0.663783 0.667842 0.193362
0.697475 0.671901 0.199893
0.731472 0.676020 0.207034
0.748379 0.664271 0.221805
0.760739 0.646571 0.238346
0.782498 0.634180 0.253422
0.809049 0.629297 0.263523
0.829007 0.633234 0.268223
0.849790 0.638666 0.273991
0.871214 0.646265 0.283787
0.892638 0.657618 0.303593
0.914946 0.671260 0.324681
0.000000 0.680049 0.186435
0.000000 0.680354 0.185000
0.000000 0.680629 0.181918
0.032441 0.681086 0.176028
0.104097 0.681147 0.177432
0.144747 0.681117 0.177340
0.182040 0.681178 0.177279
0.218479 0.681086 0.177188
0.253941 0.681117 0.176974
0.288701 0.681178 0.176913
0.323400 0.681270 0.176730
0.358404 0.681300 0.176425
0.393072 0.681361 0.176242
0.427710 0.681392 0.176089
0.462593 0.681300 0.175814
0.497841 0.681117 0.175143
0.532830 0.680964 0.174746
0.566766 0.681880 0.176059
0.598383 0.685451 0.181155
0.630518 0.689174 0.186770
0.663142 0.692927 0.193088
0.696162 0.696742 0.199741
0.729335 0.700557 0.207340
0.762509 0.704250 0.215518
0.778622 0.692317 0.231144
0.790677 0.675044 0.248753
0.811002 0.662470 0.266239
0.838315 0.656428 0.279850
0.858122 0.660883 0.286412
0.878721 0.667109 0.294499
0.900023 0.675257 0.305028
0.920989 0.687953 0.328496
0.000000 0.709743 0.185336
0.000000 0.710018 0.183688
0.000000 0.710292 0.180545
0.050294 0.710536 0.178256
0.107210 0.710567 0.179171
0.146853 0.710536 0.179110
0.184115 0.710536 0.179049
0.220005 0.710506 0.178958
0.255192 0.710536 0.178988
0.290196 0.710567 0.178897
0.324559 0.710628 0.178958
0.359380 0.710689 0.178775
0.394202 0.710689 0.178622
0.428779 0.710689 0.178561
0.463478 0.710628 0.178439
0.498390 0.710475 0.178073
0.533227 0.710292 0.178042
0.568231 0.710109 0.177859
0.600824 0.712093 0.181216
0.632288 0.715480 0.187411
0.664179 0.718929 0.193973
0.696437 0.722377 0.201266
0.728817 0.725856 0.209049
0.761166 0.729305 0.217685
0.793454 0.732723 0.226993
0.808865 0.720607 0.243717
0.819913 0.703243 0.262242
0.838865 0.691005 0.282383
0.865690 0.685054 0.299443
0.886015 0.689235 0.309758
0.906126 0.696559 0.321294
0.926787 0.706233 0.336675
0.000000 0.739773 0.184451
0.000000 0.739956 0.182223
0.000000 0.740139 0.179934
0.073854 0.740139 0.181827
0.115084 0.740108 0.181949
0.153323 0.740017 0.181888
0.188693 0.739986 0.181979
0.223697 0.739956 0.182010
0.258610 0.739895 0.182040
0.293034 0.739895 0.181979
0.327611 0.739864 0.181949
0.361944 0.739925 0.182132
0.396246 0.739925 0.182223
0.430793 0.739895 0.182193
0.465309 0.739803 0.182315
0.499733 0.739620 0.182559
0.534356 0.739406 0.182589
0.569085 0.739132 0.182681
0.603876 0.738918 0.182895
0.634882 0.741817 0.189059
0.666133 0.744930 0.196139
0.697566 0.748043 0.203922
0.729152 0.751217 0.212314
0.760769 0.754330 0.221408
0.792172 0.757412 0.231357
0.823392 0.760433 0.241855
0.837919 0.748257 0.259648
0.848264 0.731136 0.279088
0.865293 0.719142 0.302251
0.890837 0.714107 0.322881
0.911498 0.717769 0.338903
0.930816 0.726802 0.355840
0.000000 0.769436 0.184115
0.003143 0.769467 0.184298
0.057099 0.769528 0.185183
0.096620 0.769497 0.185885
0.130159 0.769497 0.186069
0.163760 0.769528 0.186221
0.197543 0.769558 0.186404
0.231296 0.769680 0.186435
0.264897 0.769802 0.186770
0.298863 0.769955 0.186984
0.333043 0.770077 0.187198
0.366949 0.770260 0.187533
0.400855 0.770352 0.188022
0.435096 0.770382 0.188296
0.469306 0.770321 0.188724
0.503502 0.770169 0.189303
0.537865 0.769955 0.189761
0.572229 0.769680 0.190249
0.606683 0.769467 0.191104
0.640070 0.770016 0.193637
0.670558 0.772732 0.201175
0.701228 0.775509 0.209781
0.732021 0.778286 0.218753
0.762875 0.780972 0.228519
0.793515 0.783658 0.239048
0.823819 0.786282 0.250462
0.853758 0.788907 0.262516
0.867185 0.776638 0.281529
0.876555 0.759915 0.302159
0.891966 0.748531 0.328283
0.915160 0.744594 0.354528
0.935210 0.748379 0.378149
0.076783 0.799954 0.191745
0.090028 0.799954 0.192386
0.102388 0.799954 0.192599
0.123873 0.799924 0.192752
0.150851 0.799893 0.192844
0.180514 0.799802 0.193027
0.211490 0.799771 0.193210
0.243168 0.799741 0.193301
0.275303 0.799710 0.193668
0.307622 0.799741 0.194247
0.340581 0.799741 0.194644
0.373816 0.799741 0.195041
0.407172 0.799680 0.195682
0.440528 0.799619 0.196445
