cubelut/NW-8.cube
# Created by Adobe Lightroom plugin Export LUT (1.18.0)
# www.johnrellis.com/lightroom/exportlut.htm
# Preset: NW8
# Color profile: /Library/Application Support/Adobe/Color/Profiles/Recommended/AdobeRGB1998.icc
LUT_3D_SIZE 8
DOMAIN_MIN 0.000000 0.000000 0.000000
DOMAIN_MAX 0.903226 0.903226 0.903226
0.143313 0.146273 0.150423
0.185061 0.153506 0.154818
0.258396 0.168307 0.163546
0.343542 0.182223 0.169284
0.439612 0.202060 0.180392
0.553338 0.227848 0.193454
0.683162 0.260990 0.208164
0.810025 0.304509 0.229557
0.151400 0.194217 0.159915
0.200290 0.197269 0.164187
0.262211 0.198703 0.170077
0.345251 0.206882 0.174228
0.439765 0.223178 0.184482
0.552117 0.246738 0.196445
0.681086 0.278019 0.210208
0.808530 0.319371 0.231296
0.150576 0.278050 0.169162
0.194553 0.278843 0.168643
0.296147 0.283940 0.172763
0.357092 0.272435 0.187198
0.443030 0.285954 0.197787
0.553948 0.304784 0.206760
0.682246 0.332982 0.218418
0.808804 0.369238 0.238437
0.131533 0.371252 0.174197
0.172091 0.372381 0.167544
0.283818 0.373175 0.167330
0.407385 0.384558 0.176974
0.477852 0.361242 0.198886
0.554681 0.384741 0.223178
0.679438 0.409461 0.231144
0.805722 0.441505 0.249119
0.112581 0.474098 0.184665
0.150332 0.475624 0.173526
0.269444 0.477089 0.172854
0.401709 0.480354 0.171725
0.533410 0.497841 0.185824
0.611383 0.464118 0.211826
0.693202 0.488472 0.240299
0.800381 0.524834 0.262425
0.067109 0.588403 0.188754
0.118166 0.590845 0.175601
0.256870 0.591760 0.174807
0.394232 0.593164 0.173190
0.530449 0.599420 0.176455
0.666377 0.617212 0.195834
0.747433 0.575219 0.239475
0.830686 0.599817 0.271489
0.000000 0.709743 0.185336
0.107210 0.710567 0.179171
0.255192 0.710536 0.178988
0.394202 0.710689 0.178622
0.533227 0.710292 0.178042
0.664179 0.718929 0.193973
0.793454 0.732723 0.226993
0.865690 0.685054 0.299443
0.125490 0.829160 0.201511
0.177005 0.829099 0.202060
0.289006 0.828977 0.203525
0.415930 0.828977 0.206821
0.546746 0.826993 0.210544
0.680598 0.826169 0.218387
0.797391 0.833921 0.262455
0.907561 0.840757 0.321141
0.142367 0.145480 0.198520
0.176425 0.151858 0.204196
0.259617 0.165225 0.213382
0.350958 0.158846 0.203128
0.447486 0.192416 0.210788
0.559899 0.217105 0.219089
0.686946 0.250187 0.229374
0.811887 0.295720 0.246555
0.149844 0.186526 0.209506
0.190097 0.195132 0.213718
0.266178 0.195438 0.214572
0.352605 0.200961 0.209415
0.447669 0.216159 0.213748
0.559228 0.238285 0.221195
0.685267 0.268742 0.231022
0.810239 0.311437 0.247776
0.148318 0.278782 0.225498
0.175113 0.282078 0.222263
0.287938 0.284550 0.208682
0.355535 0.277867 0.222354
0.449104 0.284367 0.224125
0.559258 0.300481 0.229129
0.684688 0.326390 0.237400
0.809873 0.362982 0.253941
0.126894 0.371832 0.226719
0.147616 0.374701 0.215579
0.259403 0.377752 0.192020
0.402075 0.383948 0.200504
0.473304 0.362127 0.224674
0.557244 0.382818 0.241917
0.680903 0.405646 0.247562
0.806424 0.437385 0.263157
0.108125 0.474922 0.232456
0.128878 0.477211 0.218082
0.239292 0.480812 0.193088
0.389960 0.481575 0.190219
0.529137 0.496773 0.204471
0.609216 0.463600 0.227085
0.690517 0.488594 0.256291
0.801572 0.523033 0.275120
0.057954 0.588281 0.232700
0.093202 0.590326 0.217685
0.222324 0.593622 0.192111
0.378149 0.594812 0.190188
0.523766 0.599481 0.191897
0.664393 0.617182 0.211490
0.746517 0.575555 0.251896
0.829160 0.600183 0.283696
0.000000 0.708675 0.226749
0.032044 0.709834 0.211582
0.220859 0.711360 0.193912
0.376959 0.711727 0.193484
0.523949 0.711299 0.192752
0.660029 0.718563 0.206699
0.791379 0.731930 0.239139
0.864927 0.684413 0.309209
0.079500 0.829068 0.223789
0.118074 0.829923 0.211978
0.264530 0.829770 0.215610
0.402106 0.829679 0.218631
0.539361 0.828916 0.223209
0.676173 0.827329 0.230381
0.795468 0.833951 0.271824
0.906462 0.840543 0.330083
0.145113 0.145754 0.274876
0.168643 0.149844 0.279088
0.238132 0.162997 0.290929
0.346807 0.165743 0.305303
0.446021 0.168948 0.307408
0.568902 0.151583 0.300847
0.704158 0.136355 0.278080
0.825650 0.263737 0.298589
0.152804 0.175479 0.285771
0.177249 0.179812 0.288823
0.242191 0.189670 0.296544
0.351019 0.191806 0.308354
0.450629 0.191897 0.307164
0.572381 0.171633 0.294865
0.704463 0.199680 0.283970
0.824399 0.283482 0.299474
0.146090 0.252232 0.301030
0.171206 0.253208 0.303502
0.254032 0.261723 0.307561
0.361273 0.269963 0.313359
0.466255 0.253635 0.295811
0.582971 0.275242 0.291783
0.704005 0.301823 0.293980
0.822049 0.344244 0.303593
0.106752 0.374823 0.326299
0.133974 0.377569 0.327092
0.213565 0.384039 0.318975
0.379004 0.384680 0.282780
0.467506 0.373754 0.303624
0.578210 0.379004 0.299718
0.698787 0.397070 0.300664
0.817990 0.428473 0.310521
0.077424 0.477729 0.325628
0.109865 0.480293 0.322789
0.184787 0.488258 0.305241
0.328191 0.494514 0.258030
0.519463 0.499367 0.265599
0.606073 0.468757 0.286809
0.689052 0.493629 0.308202
0.811276 0.520745 0.318944
0.000000 0.590875 0.324987
0.062409 0.593011 0.320409
0.157229 0.599756 0.295598
0.303014 0.606012 0.247074
0.497902 0.603723 0.242130
0.657832 0.618433 0.262486
0.745022 0.578515 0.293492
0.826841 0.605280 0.326329
0.000000 0.710780 0.318669
0.000000 0.712001 0.311955
0.138735 0.716335 0.280613
0.304387 0.719783 0.242496
0.488594 0.717861 0.240818
0.646876 0.720546 0.248722
0.788174 0.733669 0.281987
0.865324 0.689815 0.345006
0.012177 0.829801 0.308232
0.088045 0.830472 0.299565
0.181827 0.833188 0.270176
0.348150 0.834257 0.258793
0.508965 0.832700 0.262364
0.659052 0.830503 0.268528
0.789517 0.834989 0.304631
0.904265 0.841520 0.363439
0.154788 0.144900 0.354589
0.174289 0.148043 0.357855
0.231022 0.156100 0.366339
0.315007 0.166415 0.377356
0.445869 0.157931 0.394781
0.559655 0.162051 0.408759
0.693935 0.131472 0.406500
0.826505 0.098177 0.383398
0.159487 0.169436 0.363989
0.178378 0.170901 0.365881
0.234348 0.176394 0.371954
0.316686 0.187198 0.381109
0.449866 0.180636 0.397620
0.562585 0.185885 0.409827
0.696468 0.159396 0.404425
0.828305 0.135897 0.378759
0.133791 0.218418 0.377996
0.155398 0.219089 0.380011
0.237583 0.235660 0.384009
0.327855 0.248356 0.391241
0.463081 0.248936 0.405890
0.575494 0.254612 0.411322
0.708400 0.235630 0.396490
0.836179 0.232914 0.365606
0.134981 0.332860 0.392187
0.157504 0.333318 0.394018
0.225467 0.334600 0.398962
0.340368 0.345525 0.403235
0.479927 0.356542 0.413794
0.594690 0.351476 0.401587
0.723598 0.343114 0.374975
0.835508 0.417792 0.386725
0.108858 0.463142 0.408637
0.134554 0.466102 0.410224
0.202853 0.477089 0.415625
0.303807 0.498054 0.423316
0.474464 0.499886 0.386969
0.598291 0.487800 0.395727
0.714107 0.496040 0.388556
0.827024 0.521019 0.391821
0.000000 0.595758 0.429999
0.000000 0.598291 0.429084
0.141756 0.604364 0.422278
0.256321 0.613672 0.399786
0.412421 0.620783 0.343328
0.642298 0.620905 0.350652
0.739376 0.587274 0.369207
0.819638 0.617304 0.395544
0.000000 0.713558 0.422827
0.000000 0.714961 0.419562
0.116976 0.719448 0.405280
0.238804 0.726680 0.369818
0.405921 0.731136 0.321721
0.617914 0.724941 0.317479
0.780972 0.735805 0.353155
0.863310 0.699245 0.401892
0.000000 0.831662 0.412451
0.056214 0.832486 0.407416
0.162997 0.835080 0.386816
0.272129 0.839353 0.347112
0.447303 0.839689 0.327276
0.626184 0.835966 0.331914
0.778103 0.836393 0.358556
0.900053 0.842832 0.417090
0.176638 0.143923 0.439826
0.193179 0.145876 0.442054
0.242863 0.150912 0.448371
0.315221 0.158419 0.457588
0.410346 0.166690 0.469581
0.540642 0.152560 0.479957
0.690761 0.123934 0.510704
0.816251 0.123720 0.511467
0.178408 0.164797 0.446601
0.194583 0.165988 0.448310
0.244205 0.169406 0.453285
0.317601 0.176303 0.461463
0.411505 0.186160 0.472145
0.544060 0.173556 0.482643
0.692958 0.153536 0.511254
0.818082 0.155001 0.509392
0.163943 0.215946 0.459998
0.186007 0.218814 0.461646
0.243076 0.223301 0.465675
0.322850 0.231052 0.471901
0.416541 0.243870 0.480018
0.554345 0.236332 0.490181
0.699550 0.232212 0.511528
0.824002 0.234501 0.500481
0.125460 0.296910 0.475502
0.148531 0.295445 0.477180
0.211643 0.294133 0.481575
0.324865 0.315221 0.485603
0.430762 0.330022 0.491402
0.571466 0.333043 0.500816
0.709926 0.340185 0.508965
0.835386 0.339879 0.480446
0.125002 0.425849 0.487800
0.148623 0.426184 0.489143
0.214328 0.426886 0.493080
0.311101 0.428046 0.499031
0.448951 0.447364 0.501884
0.595819 0.466438 0.506706
0.726772 0.476326 0.495277
0.846036 0.499916 0.474220
0.111513 0.555962 0.498787
0.137484 0.557763 0.500023
0.206180 0.564233 0.503441
0.302373 0.577203 0.508019
0.424994 0.605127 0.512871
0.599908 0.621271 0.492836
0.725612 0.615625 0.491371
0.834195 0.630884 0.486641
0.000000 0.716762 0.544701
0.000000 0.717861 0.543236
0.078065 0.721675 0.536675
0.231083 0.728115 0.518547
0.367285 0.735348 0.476570
0.557794 0.736904 0.435431
0.766445 0.736995 0.452033
0.857572 0.710445 0.472145
0.000000 0.832486 0.531914
0.000000 0.833158 0.528588
0.150088 0.835538 0.515190
0.260075 0.840269 0.485664
0.386755 0.844572 0.436774
0.576928 0.842710 0.421241
0.758541 0.837400 0.428840
0.892851 0.843900 0.487861
0.203952 0.138186 0.534661
0.217868 0.139315 0.535943
0.261570 0.142672 0.540490
0.327459 0.148348 0.547906
0.407874 0.158083 0.556634
0.506798 0.167269 0.566491
0.652491 0.137606 0.587762
0.816312 0.092226 0.628016
0.202670 0.157809 0.538445
0.216678 0.158450 0.539757
0.261051 0.160983 0.543786
0.327672 0.166110 0.550286
0.408789 0.175631 0.558404
0.507134 0.185824 0.567895
0.654170 0.160861 0.589075
0.817258 0.131228 0.627527
0.191806 0.210147 0.550744
0.207889 0.210788 0.551446
0.256535 0.213504 0.554314
0.327886 0.219028 0.559289
0.412726 0.228489 0.565911
0.508965 0.242588 0.573846
0.661250 0.226474 0.594232
0.821347 0.219608 0.625483
0.098238 0.263584 0.565026
0.138979 0.267674 0.565667
0.238254 0.288060 0.567681
0.324407 0.296452 0.571984
0.418708 0.307469 0.577295
0.520012 0.324987 0.583368
0.675013 0.320104 0.601404
0.828031 0.330053 0.619074
0.117189 0.387884 0.576593
0.141817 0.386969 0.577722
0.207706 0.383795 0.581506
0.296300 0.383001 0.586053
0.426001 0.409735 0.587854
0.542168 0.432044 0.592187
0.696773 0.442390 0.605035
0.834318 0.462837 0.605371
0.128542 0.517601 0.586603
0.151949 0.518181 0.587579
0.216617 0.519524 0.590356
0.306889 0.523186 0.594690
0.425544 0.534112 0.599512
0.586816 0.575402 0.600793
0.729641 0.599115 0.607630
0.847868 0.621363 0.591302
0.131807 0.656825 0.606531
0.155398 0.658381 0.607324
0.220340 0.663722 0.609339
0.310216 0.674769 0.611719
0.428138 0.694514 0.612177
0.565637 0.731746 0.616175
0.739223 0.738094 0.591547
0.839872 0.737881 0.591028
0.000000 0.835447 0.671839
0.000000 0.835935 0.670741
0.136721 0.837613 0.665827
0.256901 0.840696 0.652705
0.388678 0.844633 0.615167
0.539055 0.847013 0.559716
0.728298 0.842741 0.548577
0.881559 0.845365 0.584710
0.225040 0.129366 0.642054
0.237308 0.130251 0.642451
0.277226 0.133211 0.645350
0.337621 0.138918 0.650202
0.412024 0.148623 0.656275
0.495857 0.165072 0.663722
0.598291 0.178653 0.672419
0.753689 0.159396 0.707454
0.222904 0.149111 0.646235
0.235538 0.149783 0.646571
0.276036 0.152102 0.649073
0.337621 0.157321 0.653498
0.413092 0.166781 0.659602
0.497932 0.182406 0.667109
0.600458 0.197452 0.675715
0.757229 0.183474 0.710689
0.210697 0.201205 0.652461
0.224857 0.201846 0.653101
0.268833 0.204349 0.655543
0.334325 0.209415 0.659449
0.413214 0.218235 0.665064
0.500938 0.232670 0.671595
0.602106 0.250187 0.678676
0.761471 0.241978 0.711757
0.179416 0.272526 0.662226
0.198367 0.273777 0.662837
0.251102 0.276219 0.665003
0.325872 0.281529 0.667964
0.412451 0.291020 0.672541
0.506188 0.306249 0.677699
0.606683 0.328740 0.683284
0.772091 0.327428 0.714168
0.089113 0.350988 0.676936
0.118746 0.350896 0.677760
0.187839 0.350347 0.679835
0.308354 0.370733 0.680812
0.413733 0.384405 0.683375
0.520623 0.404028 0.687587
0.629084 0.434791 0.692103
0.792721 0.445045 0.717647
0.138552 0.484321 0.687068
0.160403 0.484230 0.687648
0.221408 0.483894 0.689723
0.305913 0.483955 0.692775
0.414466 0.493568 0.695705
0.556268 0.535637 0.694850
0.669886 0.567224 0.698238
0.821439 0.584527 0.717342
0.183749 0.611627 0.695491
0.201114 0.612116 0.695705
0.254582 0.614771 0.697169
0.334844 0.620935 0.699458
0.444587 0.635218 0.702846
0.580652 0.662867 0.706508
0.730648 0.713069 0.707912
0.851560 0.736507 0.717250
0.247501 0.755489 0.725429
0.261845 0.757015 0.725795
0.305669 0.761349 0.725643
0.378241 0.771664 0.726619
0.476875 0.788876 0.727474
0.594079 0.813931 0.726253
0.712306 0.846433 0.723812
0.864500 0.846860 0.708431
0.232883 0.123903 0.768521
0.245029 0.125124 0.768795
0.283543 0.129549 0.770748
0.342473 0.138277 0.773342
0.414527 0.152285 0.777127
0.495125 0.173129 0.781888
0.581628 0.203311 0.787045
0.688258 0.233249 0.793362
0.230411 0.144137 0.770626
0.242741 0.144961 0.770840
0.281956 0.148836 0.772549
0.341741 0.156649 0.775235
0.414527 0.169467 0.778866
0.495857 0.189090 0.783474
0.583246 0.218296 0.788724
0.689906 0.248753 0.794949
0.218692 0.196963 0.774960
0.232090 0.197696 0.775265
0.274571 0.201144 0.777066
0.337469 0.207156 0.778683
0.413214 0.218204 0.782223
0.497475 0.236088 0.786801
0.587396 0.263523 0.791653
0.693874 0.295109 0.797330
0.189944 0.265751 0.780697
0.206577 0.266484 0.780880
0.256840 0.269749 0.782315
0.327916 0.275975 0.784237
0.410529 0.286687 0.787076
0.500389 0.304479 0.790951
0.595361 0.331823 0.795163
0.701991 0.367529 0.800076
0.102144 0.340948 0.790677
0.143526 0.344427 0.790494
0.234989 0.357824 0.790555
0.311009 0.358495 0.790982
0.407691 0.371679 0.793668
0.509148 0.393164 0.796902
0.613550 0.426307 0.800229
0.719722 0.469093 0.803830
0.174502 0.459876 0.800259
0.192203 0.459754 0.800748
0.243565 0.460670 0.801785
0.315007 0.464912 0.802426
0.430732 0.490913 0.801389
0.539483 0.513634 0.801541
0.649256 0.547478 0.803311
0.751217 0.589807 0.806210
0.261906 0.595880 0.806821
0.275029 0.596765 0.807126
0.318090 0.599969 0.808011
0.386114 0.606195 0.808896
0.478584 0.619318 0.809812
0.590661 0.645106 0.809903
0.712459 0.691096 0.807980
0.805051 0.725338 0.811002
0.360449 0.727443 0.814145
0.370855 0.728786 0.814389
0.404700 0.733120 0.814817
0.461616 0.741115 0.814939
0.540520 0.754757 0.815183
0.638758 0.776120 0.815610
0.754025 0.808011 0.816129
0.868620 0.852415 0.817929
