cubelut/NW-8.cube
# Created by Adobe Lightroom plugin Export LUT (1.18.0)
# www.johnrellis.com/lightroom/exportlut.htm
# Preset: NW8
# Color profile: /Library/Application Support/Adobe/Color/Profiles/Recommended/AdobeRGB1998.icc
LUT_3D_SIZE 5
DOMAIN_MIN 0.000000 0.000000 0.000000
DOMAIN_MAX 0.903226 0.903226 0.903226
0.143313 0.146273 0.150423
0.238956 0.164553 0.161868
0.390326 0.191226 0.174075
0.585321 0.235416 0.196872
0.810025 0.304509 0.229557
0.152621 0.256291 0.166873
0.271183 0.261448 0.172305
0.394202 0.260868 0.189120
0.585382 0.294133 0.206363
0.809659 0.354467 0.236545
0.124208 0.421027 0.179690
0.245487 0.423377 0.170901
0.469337 0.440284 0.181979
0.600458 0.427893 0.226932
0.803159 0.482246 0.255589
0.036866 0.619379 0.188663
0.220249 0.621546 0.175326
0.463783 0.623224 0.172580
0.699275 0.646784 0.200443
0.840879 0.618311 0.269108
0.125490 0.829160 0.201511
0.258885 0.829007 0.202884
0.480385 0.827298 0.207767
0.709987 0.828122 0.228092
0.907561 0.840757 0.321141
0.144381 0.145785 0.255253
0.221836 0.161624 0.269322
0.394995 0.168490 0.283177
0.603479 0.132296 0.256657
0.820737 0.274144 0.282475
0.150332 0.235630 0.278447
0.238193 0.245182 0.284398
0.409766 0.236790 0.273991
0.606226 0.268956 0.271702
0.818936 0.333104 0.286870
0.102052 0.423926 0.300084
0.178286 0.432044 0.282567
0.455238 0.440223 0.248753
0.597314 0.432227 0.286656
0.812070 0.476265 0.300633
0.000000 0.621546 0.300175
0.130617 0.627985 0.271336
0.420996 0.632197 0.226505
0.694087 0.648127 0.249393
0.838743 0.622400 0.310918
0.046906 0.830320 0.284794
0.163851 0.832944 0.253941
0.444556 0.832456 0.248142
0.699580 0.829770 0.260929
0.905486 0.841733 0.353979
0.164584 0.145052 0.396246
0.219608 0.152132 0.403906
0.361120 0.167208 0.422614
0.594537 0.146761 0.454994
0.821622 0.113466 0.448646
0.158816 0.203983 0.414527
0.221866 0.210147 0.419104
0.368444 0.228183 0.432868
0.604089 0.222110 0.458625
0.828397 0.206973 0.437598
0.129091 0.379461 0.440223
0.198459 0.380499 0.444984
0.391608 0.393896 0.453285
0.629603 0.413214 0.456275
0.841276 0.471809 0.436347
0.000000 0.627802 0.485603
0.081270 0.632563 0.483589
0.314214 0.647456 0.451270
0.666835 0.650782 0.404852
0.824643 0.644495 0.437110
0.000000 0.831754 0.469154
0.130953 0.834470 0.454597
0.324620 0.842039 0.389014
0.647700 0.837736 0.373785
0.896635 0.843107 0.449256
0.209934 0.136294 0.559472
0.253025 0.139437 0.563867
0.368109 0.149935 0.575799
0.529961 0.168246 0.591730
0.816281 0.070649 0.659449
0.201358 0.192355 0.571130
0.247898 0.194491 0.573968
0.369360 0.204349 0.583124
0.531273 0.225559 0.596582
0.819760 0.184298 0.658076
0.101625 0.312871 0.594324
0.174685 0.311620 0.597070
0.367864 0.342565 0.602258
0.551232 0.373968 0.612268
0.831388 0.384863 0.646693
0.135836 0.541009 0.613062
0.202487 0.542260 0.615198
0.362493 0.551415 0.622034
0.622644 0.609216 0.626490
0.847288 0.650416 0.622065
0.062135 0.818814 0.685298
0.159823 0.826780 0.687892
0.330785 0.843229 0.680049
0.581781 0.847227 0.597559
0.877684 0.845609 0.613062
0.232883 0.123903 0.768521
0.271733 0.128206 0.770199
0.377203 0.144411 0.775021
0.516197 0.179660 0.783108
0.688258 0.233249 0.793362
0.222660 0.181521 0.773342
0.264347 0.184695 0.774746
0.375067 0.197238 0.779080
0.518608 0.227695 0.786831
0.692195 0.280156 0.796201
0.185519 0.314397 0.784878
0.230686 0.311162 0.785702
0.364202 0.320989 0.789334
0.528527 0.352850 0.795621
0.709651 0.415442 0.802121
0.193942 0.494209 0.801144
0.244968 0.494697 0.802365
0.376928 0.503410 0.803922
0.581048 0.556695 0.803159
0.763210 0.622950 0.807523
0.360449 0.727443 0.814145
0.394079 0.731685 0.814725
0.498451 0.747097 0.815000
0.665827 0.782925 0.815702
0.868620 0.852415 0.817929
