cubelut/NW-9.cube
# Created by Adobe Lightroom plugin Export LUT (1.18.0)
# www.johnrellis.com/lightroom/exportlut.htm
# Preset: NW9
# Color profile: /Library/Application Support/Adobe/Color/Profiles/Recommended/AdobeRGB1998.icc
LUT_3D_SIZE 32
DOMAIN_MIN 0.0 0.0 0.0
DOMAIN_MAX 1.0 1.0 1.0
0.167727 0.174655 0.167941
0.167727 0.174655 0.167941
0.167727 0.174655 0.167941
0.182712 0.172946 0.168582
0.199985 0.171176 0.169253
0.215274 0.169345 0.170047
0.231205 0.169162 0.171145
0.249058 0.172396 0.173373
0.272343 0.175326 0.175143
0.300786 0.177829 0.176455
0.334386 0.179873 0.176944
0.373449 0.182132 0.177005
0.418799 0.183017 0.177249
0.469001 0.182010 0.177310
0.521355 0.181064 0.176730
0.574792 0.178805 0.175906
0.627863 0.175540 0.174685
0.680049 0.171664 0.173312
0.731044 0.168002 0.171969
0.790433 0.163851 0.171054
0.840726 0.161563 0.171359
0.883177 0.162814 0.173342
0.918975 0.166262 0.177218
0.949584 0.173465 0.182925
0.976379 0.182620 0.189761
1.000000 0.194064 0.198398
1.000000 0.208927 0.209140
1.000000 0.227359 0.222446
1.000000 0.250706 0.239078
1.000000 0.279850 0.259922
1.000000 0.316594 0.286229
1.000000 0.362280 0.319280
0.167727 0.174655 0.167941
0.167727 0.174655 0.167941
0.167727 0.174655 0.167941
0.183444 0.172946 0.168429
0.200320 0.170993 0.169009
0.215000 0.171359 0.170413
0.230137 0.173922 0.172213
0.247684 0.177035 0.174166
0.270787 0.179446 0.175998
0.298802 0.181643 0.176944
0.331914 0.183658 0.177401
0.370275 0.186252 0.177218
0.415290 0.187076 0.177646
0.464759 0.186893 0.177707
0.516716 0.185733 0.177249
0.569665 0.184085 0.176364
0.622522 0.181338 0.175204
0.674495 0.178195 0.173648
0.726558 0.174807 0.172335
0.784390 0.171328 0.171176
0.834104 0.169894 0.171206
0.876768 0.169497 0.173129
0.912902 0.172488 0.176516
0.944121 0.178439 0.181796
0.971405 0.186923 0.188418
0.996002 0.197360 0.196872
1.000000 0.210971 0.207095
1.000000 0.228824 0.220218
1.000000 0.251011 0.236606
1.000000 0.278996 0.257023
1.000000 0.314611 0.282963
1.000000 0.359136 0.315526
0.167727 0.174655 0.167941
0.167727 0.174655 0.167941
0.167727 0.174655 0.167941
0.183749 0.175326 0.168734
0.199344 0.176852 0.170352
0.213657 0.178439 0.172030
0.228763 0.180301 0.173617
0.246342 0.182406 0.175509
0.269200 0.184695 0.176822
0.297124 0.186435 0.177615
0.329900 0.188815 0.177920
0.368017 0.191501 0.177737
0.412940 0.192203 0.178195
0.462135 0.192905 0.178134
0.513787 0.192386 0.177676
0.566613 0.190921 0.176699
0.619257 0.189029 0.175418
0.671168 0.186313 0.174014
0.724575 0.182864 0.172549
0.781216 0.181033 0.171389
0.830716 0.178561 0.171603
0.873381 0.178775 0.173220
0.909697 0.181918 0.176486
0.941161 0.186557 0.181674
0.968780 0.194247 0.188174
0.993622 0.203708 0.196353
1.000000 0.216587 0.206668
1.000000 0.233280 0.219638
1.000000 0.254429 0.235752
1.000000 0.281773 0.256229
1.000000 0.316381 0.282078
1.000000 0.359899 0.314244
0.168856 0.189456 0.169711
0.169039 0.190280 0.169619
0.169467 0.191196 0.169924
0.184024 0.191867 0.170748
0.197604 0.191104 0.174197
0.211551 0.191592 0.176089
0.226871 0.192081 0.176974
0.244633 0.193118 0.177951
0.267460 0.194522 0.178500
0.295262 0.196597 0.178866
0.327855 0.199069 0.178805
0.366125 0.201511 0.179141
0.410346 0.203555 0.179294
0.459388 0.204654 0.179202
0.510674 0.205173 0.178592
0.563226 0.204837 0.177493
0.615564 0.203952 0.176181
0.667262 0.202213 0.174533
0.722194 0.200351 0.173068
0.776730 0.198245 0.172030
0.824979 0.197024 0.172183
0.867338 0.197391 0.173526
0.904295 0.199283 0.176913
0.936828 0.203891 0.181888
0.965698 0.209903 0.188724
0.991669 0.218845 0.197086
1.000000 0.230900 0.207614
1.000000 0.246494 0.221134
1.000000 0.266789 0.237644
1.000000 0.292515 0.258152
1.000000 0.325383 0.283696
1.000000 0.366796 0.315282
0.172335 0.204074 0.173434
0.172519 0.204471 0.173617
0.174411 0.204898 0.173800
0.184512 0.205478 0.174350
0.199161 0.206088 0.175326
0.212375 0.205051 0.177981
0.224216 0.204776 0.180514
0.242039 0.205570 0.180758
0.264500 0.207340 0.180789
0.291966 0.209873 0.180758
0.324285 0.212863 0.180667
0.362676 0.215854 0.181064
0.406561 0.218845 0.181033
0.455146 0.221469 0.180636
0.506615 0.223178 0.179934
0.559594 0.224308 0.178683
0.612726 0.224094 0.177279
0.664637 0.224186 0.175479
0.722560 0.223728 0.173709
0.775357 0.223026 0.172854
0.822416 0.222507 0.173129
0.864225 0.223056 0.174716
0.900999 0.224674 0.178012
0.933776 0.227939 0.183261
0.962982 0.233280 0.190097
0.989349 0.240543 0.198703
1.000000 0.251164 0.209445
1.000000 0.264775 0.222751
1.000000 0.283268 0.239414
1.000000 0.307317 0.259983
1.000000 0.338201 0.285466
1.000000 0.377905 0.317388
0.175631 0.218265 0.176852
0.175998 0.218631 0.176944
0.179294 0.219028 0.177157
0.187198 0.219516 0.177401
0.199405 0.220249 0.177707
0.214725 0.221225 0.178317
0.230076 0.220584 0.179812
0.244236 0.220218 0.181979
0.262333 0.221744 0.183597
0.290227 0.225345 0.183536
0.322911 0.229221 0.183658
0.361395 0.233341 0.183688
0.405005 0.237613 0.183505
0.453620 0.241520 0.182834
0.504936 0.245121 0.181582
0.557977 0.247440 0.180301
0.611261 0.249119 0.178592
0.666377 0.250370 0.176638
0.724361 0.251835 0.174990
0.776059 0.252262 0.174258
0.822660 0.252537 0.174655
0.864500 0.253056 0.176822
0.936217 0.266789 0.189303
0.964965 0.271336 0.197024
0.990051 0.277226 0.206332
1.000000 0.285161 0.217136
1.000000 0.296178 0.230076
1.000000 0.310643 0.245518
1.000000 0.329870 0.264195
1.000000 0.354833 0.286961
1.000000 0.386816 0.314611
1.000000 0.426581 0.347845
0.178317 0.237034 0.179110
0.180789 0.237217 0.179141
0.184146 0.237644 0.179141
0.191775 0.238376 0.179202
0.203555 0.239689 0.179416
0.218814 0.240757 0.179660
0.237186 0.242313 0.179934
0.257969 0.244480 0.181155
0.277379 0.244633 0.183993
0.299687 0.246647 0.186709
0.329808 0.250980 0.187961
0.369879 0.256809 0.187472
0.415015 0.262882 0.186618
0.464149 0.268223 0.185336
0.515404 0.272892 0.183810
0.567498 0.276371 0.182101
0.619745 0.279118 0.180117
0.681361 0.283513 0.177981
0.738094 0.286107 0.176638
0.789792 0.287663 0.176791
0.837675 0.289342 0.178561
0.881102 0.291997 0.182528
0.919677 0.295109 0.188815
0.953368 0.299443 0.197299
0.982300 0.305180 0.207584
1.000000 0.312474 0.219242
1.000000 0.322301 0.232609
1.000000 0.335058 0.248478
1.000000 0.352117 0.267247
1.000000 0.374762 0.290074
1.000000 0.403998 0.317296
1.000000 0.441321 0.350378
0.182620 0.258366 0.180514
0.185245 0.258762 0.180545
0.188663 0.259220 0.180484
0.196078 0.260288 0.180758
0.207950 0.261936 0.181033
0.223301 0.263951 0.181460
0.242161 0.265965 0.181857
0.264134 0.268620 0.182559
0.290837 0.272770 0.183230
0.313878 0.273075 0.185824
0.339879 0.275242 0.188785
0.368872 0.278538 0.191379
0.412360 0.285801 0.190433
0.461158 0.293065 0.188815
0.512230 0.299382 0.186923
0.564050 0.304509 0.184939
0.622492 0.310796 0.182650
0.682094 0.316106 0.180667
0.736019 0.319615 0.179538
0.785916 0.322087 0.179965
0.832822 0.324285 0.182101
0.875792 0.326513 0.186252
0.914183 0.329290 0.192569
0.947906 0.332708 0.201053
0.977081 0.337316 0.211185
1.000000 0.343389 0.223026
1.000000 0.351354 0.236606
1.000000 0.362310 0.252506
1.000000 0.377722 0.271672
1.000000 0.398169 0.294499
1.000000 0.425483 0.321965
1.000000 0.460426 0.355291
0.186252 0.287724 0.182712
0.188968 0.288060 0.182712
0.192630 0.288640 0.182742
0.200778 0.289647 0.182956
0.213352 0.291569 0.183017
0.229618 0.293980 0.183078
0.249729 0.296300 0.183322
0.272801 0.299077 0.183627
0.299321 0.302495 0.183810
0.332891 0.309545 0.183780
0.360479 0.310124 0.185885
0.390173 0.312169 0.189273
0.422034 0.315190 0.192050
0.460243 0.319829 0.193301
0.510887 0.327977 0.191043
0.567864 0.336919 0.188785
0.627161 0.345251 0.186435
0.683589 0.351476 0.184573
0.735470 0.355200 0.183963
0.784146 0.358160 0.184756
0.830014 0.360723 0.187137
0.872282 0.362982 0.191470
0.910338 0.365362 0.198032
0.943908 0.368444 0.206485
0.973083 0.372107 0.217044
0.998199 0.376806 0.229068
1.000000 0.383581 0.242985
1.000000 0.393164 0.259068
1.000000 0.406744 0.278294
1.000000 0.425483 0.301488
1.000000 0.450568 0.329107
1.000000 0.483253 0.362463
0.188907 0.323735 0.184115
0.191928 0.324193 0.184085
0.196262 0.324651 0.183902
0.205203 0.325811 0.184024
0.218845 0.327642 0.183902
0.236545 0.330388 0.183902
0.258213 0.333379 0.183902
0.283055 0.336309 0.183902
0.311223 0.339849 0.183749
0.342748 0.344457 0.183413
0.383856 0.354589 0.182223
0.414984 0.354620 0.184268
0.447059 0.355596 0.188266
0.480507 0.357427 0.191592
0.521172 0.363043 0.194888
0.574517 0.372778 0.194400
0.632197 0.382269 0.192050
0.687373 0.389166 0.190402
0.737819 0.393683 0.190311
0.785061 0.396521 0.191318
0.829129 0.398871 0.193851
0.869566 0.400671 0.198215
0.906004 0.402136 0.204593
0.938537 0.403906 0.213016
0.967376 0.406470 0.223148
0.992706 0.410346 0.235172
1.000000 0.416022 0.249424
1.000000 0.424781 0.266087
1.000000 0.437385 0.286320
1.000000 0.455207 0.310246
1.000000 0.479316 0.339086
1.000000 0.510796 0.373602
0.190616 0.365820 0.183932
0.194247 0.366339 0.183963
0.198947 0.366918 0.183963
0.208743 0.368261 0.183871
0.224094 0.370611 0.183658
0.243961 0.373693 0.183291
0.267918 0.377691 0.183017
0.295293 0.381720 0.182681
0.325841 0.385779 0.182132
0.359594 0.390478 0.181643
0.396246 0.395636 0.180789
0.443793 0.407935 0.178561
0.481331 0.409827 0.180636
0.519615 0.412238 0.185000
0.557458 0.414313 0.190341
0.594659 0.416144 0.195651
0.633234 0.418341 0.200076
0.686580 0.425940 0.198428
0.735866 0.430579 0.198032
0.782162 0.433753 0.198917
0.825742 0.436316 0.201755
0.865904 0.438087 0.206180
0.902342 0.439643 0.212924
0.934874 0.441291 0.221744
0.963684 0.443366 0.232364
0.989014 0.446326 0.244541
1.000000 0.451118 0.258793
1.000000 0.458625 0.275792
1.000000 0.469917 0.296208
1.000000 0.486091 0.320317
1.000000 0.508507 0.349401
1.000000 0.538323 0.384619
0.191531 0.416876 0.182467
0.195682 0.417365 0.182254
0.200931 0.417975 0.182437
0.212436 0.419532 0.182223
0.230014 0.422004 0.181796
0.252018 0.425238 0.181308
0.278508 0.429755 0.180636
0.308995 0.435065 0.179873
0.342107 0.439368 0.179263
0.378271 0.444373 0.178408
0.418860 0.451484 0.177127
0.466560 0.462959 0.175357
0.561120 0.511559 0.168704
0.603174 0.510369 0.173098
0.639399 0.505669 0.181216
0.672694 0.500633 0.191531
0.703731 0.495552 0.200870
0.732692 0.490425 0.209537
0.768917 0.489174 0.214115
0.811154 0.490730 0.216373
0.850278 0.491096 0.220279
0.885893 0.491096 0.226200
0.918029 0.490791 0.233860
0.947021 0.491005 0.243381
0.972961 0.491951 0.254765
0.996033 0.494301 0.267918
1.000000 0.498451 0.282933
1.000000 0.505241 0.300511
1.000000 0.515740 0.321141
1.000000 0.530968 0.345892
1.000000 0.552270 0.375586
1.000000 0.580560 0.411383
0.191348 0.486397 0.178470
0.196353 0.486976 0.178286
0.203494 0.486946 0.178195
0.217350 0.487617 0.177920
0.237522 0.488808 0.177615
0.262272 0.490730 0.177096
0.291905 0.494118 0.176303
0.325109 0.498573 0.175418
0.363104 0.506584 0.174228
0.407507 0.517937 0.172457
0.456275 0.530846 0.170809
0.509514 0.544244 0.169039
0.566064 0.557641 0.167147
0.630518 0.575158 0.163790
0.672419 0.571862 0.170138
0.703822 0.561761 0.179843
0.731044 0.551537 0.194278
0.756161 0.541955 0.206119
0.780728 0.533867 0.217288
0.805783 0.528038 0.227848
0.843381 0.528222 0.232212
0.879057 0.528191 0.238102
0.911162 0.527764 0.245457
0.940307 0.527550 0.255039
0.966461 0.528069 0.266117
0.989868 0.529625 0.279149
1.000000 0.532952 0.294224
1.000000 0.538811 0.311864
1.000000 0.548119 0.332738
1.000000 0.562280 0.357916
1.000000 0.582086 0.387976
1.000000 0.608972 0.424781
0.191684 0.546136 0.174411
0.197818 0.546471 0.174258
0.205142 0.546715 0.174197
0.220432 0.547112 0.174044
0.242710 0.548455 0.173434
0.270695 0.553033 0.172885
0.303685 0.559472 0.171939
0.341222 0.567102 0.170687
0.382757 0.576287 0.169558
0.428229 0.586023 0.168246
0.476814 0.595941 0.166781
0.528771 0.606836 0.165560
0.583062 0.617487 0.164340
0.638422 0.626581 0.163088
0.696284 0.636225 0.162661
0.732601 0.627039 0.171695
0.757137 0.610803 0.183444
0.779080 0.596307 0.200259
0.800717 0.584405 0.214725
0.822995 0.575189 0.227787
0.845792 0.568444 0.241001
0.872526 0.565148 0.252140
0.904936 0.564843 0.259617
0.934386 0.564660 0.269169
0.960845 0.564874 0.280339
0.984527 0.566064 0.293462
1.000000 0.568750 0.308629
1.000000 0.573968 0.326513
1.000000 0.582513 0.347784
1.000000 0.595758 0.373419
1.000000 0.614527 0.404517
1.000000 0.640131 0.442329
0.195987 0.619898 0.170321
0.202090 0.620752 0.170321
0.210727 0.620996 0.169924
0.228031 0.621973 0.169833
0.253147 0.623499 0.169284
0.282811 0.625696 0.168887
0.317449 0.629450 0.168307
0.355688 0.634546 0.167636
0.397955 0.641505 0.166598
0.444282 0.650141 0.165652
0.492073 0.657649 0.165042
0.542504 0.665614 0.164950
0.594476 0.673213 0.165072
0.647120 0.679713 0.165347
0.699123 0.684321 0.166201
0.750332 0.687251 0.168673
0.782406 0.674556 0.180026
0.802304 0.654566 0.192752
0.821286 0.637903 0.210117
0.840696 0.624750 0.227329
0.860807 0.614649 0.242954
0.881285 0.607263 0.258000
0.901640 0.602228 0.273045
0.928130 0.601068 0.284703
0.954955 0.601221 0.296025
0.979156 0.602441 0.309667
1.000000 0.605249 0.325505
1.000000 0.610742 0.344732
1.000000 0.619623 0.367651
1.000000 0.633234 0.395422
1.000000 0.652338 0.429114
1.000000 0.678004 0.469947
0.203677 0.688930 0.169192
0.210758 0.689662 0.169162
0.219394 0.690059 0.169070
0.237675 0.690883 0.168948
0.263737 0.691981 0.168643
0.295354 0.693751 0.168551
0.330663 0.696681 0.168429
0.370428 0.700618 0.168063
0.412787 0.705470 0.168002
0.457893 0.711238 0.168460
0.505394 0.716823 0.168795
0.552850 0.720851 0.170077
0.601251 0.724269 0.171237
0.650172 0.726955 0.173007
0.698573 0.728786 0.174746
0.746548 0.729335 0.176577
0.793057 0.728695 0.180758
0.822843 0.714717 0.193729
0.840757 0.693629 0.208072
0.858976 0.676814 0.225315
0.877287 0.663813 0.245487
0.895842 0.653742 0.263737
0.914336 0.646418 0.281224
0.932708 0.641627 0.298650
0.951385 0.639551 0.316777
0.975769 0.640833 0.330816
0.997650 0.643702 0.347478
1.000000 0.648981 0.367254
1.000000 0.657557 0.391180
1.000000 0.670192 0.419532
1.000000 0.687770 0.453468
1.000000 0.711116 0.494026
0.217563 0.743893 0.173587
0.224094 0.744137 0.173495
0.232090 0.744137 0.173831
0.250004 0.744411 0.173770
0.275364 0.745052 0.173892
0.306310 0.746059 0.173800
0.340887 0.747768 0.174350
0.379339 0.750271 0.174777
0.420356 0.753445 0.175601
0.464179 0.757351 0.176608
0.509941 0.761898 0.178531
0.556359 0.765286 0.180697
0.603052 0.767544 0.183169
0.649866 0.769039 0.185702
0.696315 0.769467 0.188479
0.741665 0.768887 0.191348
0.786648 0.767544 0.194430
0.829953 0.764981 0.199374
0.857969 0.750546 0.214054
0.874388 0.729458 0.228916
0.891234 0.712184 0.244938
0.907774 0.699062 0.266850
0.924315 0.688991 0.287022
0.940978 0.681819 0.306432
0.957519 0.677546 0.326238
0.973846 0.676387 0.347387
0.992462 0.678859 0.367987
1.000000 0.684047 0.388586
1.000000 0.692409 0.413489
1.000000 0.704555 0.443030
1.000000 0.721492 0.478462
1.000000 0.743099 0.519432
0.236851 0.791623 0.185122
0.243992 0.792416 0.185092
0.266697 0.816190 0.195560
0.282872 0.816129 0.195621
0.306676 0.815946 0.195987
0.335454 0.815732 0.196353
0.368322 0.815671 0.197238
0.404791 0.816007 0.198184
0.444282 0.816892 0.199802
0.486000 0.818418 0.202365
0.529534 0.820218 0.205234
0.574182 0.822049 0.209293
0.617884 0.821592 0.212284
0.661830 0.820706 0.215579
0.705348 0.819211 0.218967
0.748287 0.817105 0.221988
0.790829 0.814359 0.225193
0.832639 0.811429 0.228458
0.872679 0.807156 0.234012
0.897581 0.791501 0.249607
0.911559 0.769741 0.263676
0.926055 0.751675 0.278233
0.940032 0.738033 0.300725
0.954009 0.727810 0.321935
0.967742 0.720363 0.342382
0.981445 0.716152 0.363409
0.995056 0.715419 0.386114
1.000000 0.718929 0.412116
1.000000 0.726284 0.437720
1.000000 0.737606 0.467903
1.000000 0.752956 0.503197
1.000000 0.772274 0.543633
0.268193 0.837339 0.205997
0.275822 0.840146 0.207858
0.285374 0.842985 0.209781
0.302007 0.845335 0.211887
0.324529 0.846983 0.213779
0.351690 0.847654 0.215122
0.382086 0.847807 0.216251
0.415686 0.847776 0.217899
0.452308 0.848264 0.220066
0.491035 0.849027 0.222599
0.532006 0.849973 0.226078
0.573785 0.851041 0.230472
0.615900 0.851102 0.234470
0.657160 0.849729 0.237613
0.698268 0.847837 0.240879
0.738949 0.845457 0.244480
0.779385 0.842649 0.247684
0.819394 0.839689 0.251408
0.859190 0.836728 0.255222
0.897795 0.833158 0.261387
0.921538 0.818479 0.278691
0.934936 0.798093 0.293523
0.948547 0.781003 0.308568
0.961486 0.768032 0.330297
0.974060 0.758511 0.352941
0.986542 0.752377 0.375860
0.999023 0.749783 0.399786
1.000000 0.751369 0.426703
1.000000 0.757870 0.458412
1.000000 0.769131 0.494057
1.000000 0.782925 0.529076
1.000000 0.800259 0.568963
0.298009 0.868528 0.227512
0.305211 0.870726 0.230167
0.313909 0.872953 0.232151
0.328405 0.874815 0.234470
0.348516 0.876127 0.236790
0.372503 0.876493 0.238285
0.399878 0.876432 0.239933
0.430426 0.876310 0.241581
0.463996 0.876371 0.243778
0.499855 0.876646 0.246769
0.537652 0.877134 0.250828
0.576745 0.877562 0.255283
0.616449 0.877623 0.259770
0.655573 0.876463 0.263890
0.694209 0.874418 0.267094
0.732601 0.871946 0.270542
0.770779 0.869169 0.273869
0.808713 0.866270 0.277714
0.846494 0.863340 0.281956
0.884245 0.860655 0.287144
0.921294 0.857877 0.293706
0.943633 0.844205 0.312963
0.956146 0.824979 0.328038
0.968475 0.808988 0.343542
0.980224 0.796506 0.363745
0.991424 0.788113 0.388434
1.000000 0.783413 0.413703
1.000000 0.782834 0.441444
1.000000 0.786862 0.473304
1.000000 0.795560 0.509392
1.000000 0.808988 0.550500
1.000000 0.825437 0.593011
0.332250 0.895750 0.253483
0.338598 0.897612 0.256077
0.346868 0.899382 0.258488
0.359777 0.900847 0.261173
0.377417 0.901793 0.263493
0.398291 0.901976 0.265080
0.422309 0.901732 0.266758
0.449439 0.901335 0.268589
0.479652 0.901061 0.270878
0.512047 0.900877 0.273960
0.546563 0.900847 0.277531
0.582544 0.900755 0.282048
0.619043 0.900450 0.286748
0.656336 0.899901 0.291966
0.692561 0.898009 0.295537
0.729000 0.895933 0.299840
0.765591 0.893828 0.304723
0.802152 0.891752 0.310063
0.838712 0.889769 0.316136
0.875090 0.887999 0.323430
0.911131 0.886351 0.331640
0.946654 0.884764 0.340612
0.966461 0.871763 0.361852
0.978576 0.855039 0.378790
0.989593 0.840726 0.395911
1.000000 0.829801 0.415900
1.000000 0.823728 0.444160
1.000000 0.821622 0.473945
1.000000 0.823667 0.506126
1.000000 0.829953 0.541833
1.000000 0.840421 0.581964
1.000000 0.855070 0.626764
0.383459 0.925719 0.293187
0.387976 0.926390 0.294621
0.393256 0.926879 0.295537
0.402869 0.927184 0.297002
0.416602 0.927214 0.298497
0.433722 0.926909 0.299596
0.454383 0.926452 0.301213
0.478187 0.926024 0.303471
0.505150 0.925780 0.306249
0.534569 0.925628 0.310094
0.565881 0.925475 0.314611
0.598688 0.925170 0.319554
0.632105 0.924651 0.324468
0.665980 0.923857 0.329839
0.699794 0.922423 0.334752
0.733120 0.920256 0.338994
0.766598 0.917967 0.343481
0.800198 0.915709 0.348425
0.833768 0.913481 0.354559
0.867185 0.911284 0.361028
0.900206 0.909148 0.368688
0.932799 0.907042 0.376471
0.964630 0.904936 0.385382
0.981903 0.892271 0.404761
0.993072 0.877348 0.421790
1.000000 0.864439 0.439521
1.000000 0.854887 0.459449
1.000000 0.850553 0.489693
1.000000 0.850248 0.522057
1.000000 0.853880 0.557153
1.000000 0.861509 0.596033
1.000000 0.873167 0.639521
0.425360 0.945190 0.325963
0.429419 0.945708 0.327367
0.434272 0.946197 0.329107
0.442634 0.946380 0.330571
0.454231 0.946319 0.331853
0.468696 0.945892 0.332952
0.485939 0.945312 0.334386
0.506126 0.944732 0.336095
0.529473 0.944182 0.338842
0.555413 0.943664 0.342443
0.583276 0.943267 0.346868
0.612512 0.942718 0.351781
0.642725 0.942016 0.356756
0.673854 0.941131 0.362432
0.705318 0.940093 0.368383
0.736080 0.938323 0.373266
0.766995 0.936339 0.378210
0.798184 0.934295 0.384009
0.829343 0.932311 0.390448
0.860410 0.930358 0.397986
0.891234 0.928466 0.406012
0.921630 0.926635 0.415106
0.951263 0.924895 0.424567
0.980072 0.923125 0.434668
0.993530 0.908965 0.444343
1.000000 0.896147 0.462959
1.000000 0.884977 0.481666
1.000000 0.877226 0.503288
1.000000 0.874052 0.533257
1.000000 0.875273 0.568444
1.000000 0.880400 0.606775
1.000000 0.889586 0.649714
0.482002 0.965179 0.372137
0.486091 0.965667 0.373754
0.489967 0.965881 0.375280
0.496223 0.965789 0.376104
0.504936 0.965423 0.376715
0.515923 0.964813 0.377295
0.529473 0.963958 0.377966
0.545525 0.963043 0.378851
0.564202 0.962036 0.380560
0.585321 0.961059 0.382818
0.608392 0.959991 0.385962
0.633326 0.959014 0.389654
0.659449 0.957885 0.393896
0.686397 0.956603 0.398444
0.713863 0.955108 0.402930
0.741573 0.953429 0.407782
0.768856 0.951141 0.411444
0.796780 0.948913 0.416175
0.825223 0.946960 0.422370
0.854093 0.945190 0.429969
0.882780 0.943542 0.438788
0.910948 0.941924 0.448035
0.938384 0.940154 0.457374
0.964935 0.938262 0.466316
0.990509 0.936217 0.475013
1.000000 0.925689 0.490639
1.000000 0.914794 0.510399
1.000000 0.905211 0.529381
1.000000 0.899016 0.552117
1.000000 0.896941 0.582055
1.000000 0.899687 0.620172
1.000000 0.906126 0.661707
0.525658 0.977966 0.408637
0.529290 0.978332 0.410498
0.532769 0.978485 0.411841
0.538109 0.978424 0.412909
0.545281 0.978058 0.413581
0.554681 0.977508 0.414374
0.566155 0.976837 0.415198
0.579980 0.976013 0.416663
0.596277 0.975219 0.418555
0.614832 0.974365 0.421393
0.635157 0.973480 0.424903
0.657374 0.972595 0.429297
0.680751 0.971557 0.434302
0.704799 0.970428 0.439368
0.729366 0.969116 0.444556
0.754299 0.967681 0.449866
0.779294 0.965942 0.455055
0.804257 0.963989 0.460151
0.829709 0.962188 0.466377
0.855558 0.960510 0.473823
0.881285 0.958923 0.482277
0.906706 0.957336 0.491096
0.931487 0.955718 0.499947
0.955535 0.954040 0.508934
0.978882 0.952239 0.517540
1.000000 0.950378 0.525902
1.000000 0.941314 0.540307
1.000000 0.932433 0.561852
1.000000 0.924865 0.582788
1.000000 0.920653 0.608392
1.000000 0.920165 0.639887
1.000000 0.924102 0.680232
0.574975 0.989532 0.451850
0.577752 0.989685 0.453285
0.580072 0.989685 0.454047
0.583917 0.989471 0.454505
0.589227 0.989044 0.454719
0.596460 0.988464 0.455116
0.605493 0.987762 0.455543
0.616693 0.986999 0.456428
0.630396 0.986175 0.458442
0.645991 0.985382 0.461036
0.663600 0.984527 0.464576
0.682979 0.983673 0.469215
0.703426 0.982757 0.474220
0.724514 0.981689 0.479225
0.745998 0.980468 0.484382
0.767941 0.979095 0.489601
0.790341 0.977661 0.495216
0.812406 0.975952 0.500084
0.834989 0.974273 0.505913
0.857969 0.972717 0.512963
0.881041 0.971191 0.520867
0.903929 0.969696 0.529564
0.926268 0.968200 0.538109
0.948058 0.966674 0.546715
0.969207 0.965057 0.555169
0.989654 0.963439 0.563684
1.000000 0.961852 0.572137
1.000000 0.954192 0.585443
1.000000 0.946868 0.608179
1.000000 0.941100 0.631495
1.000000 0.938476 0.659449
1.000000 0.938994 0.692256
0.618860 0.998413 0.492439
0.620722 0.998474 0.493263
0.622827 0.998474 0.494118
0.626032 0.998291 0.494697
0.631067 0.998016 0.495491
0.638117 0.997650 0.496864
0.647517 0.997345 0.499489
0.659083 0.997009 0.502831
0.672786 0.996643 0.507561
0.688136 0.996307 0.512840
0.705013 0.995850 0.519158
0.722866 0.995361 0.525841
0.741176 0.994751 0.532494
0.759854 0.993927 0.539147
0.778531 0.992950 0.545403
0.796994 0.991791 0.550774
0.815824 0.990509 0.556634
0.834867 0.989197 0.562554
0.853758 0.987701 0.568231
0.873014 0.986267 0.574762
0.892393 0.984863 0.582147
0.911681 0.983459 0.589899
0.930541 0.982055 0.597894
0.949035 0.980652 0.605859
0.967010 0.979217 0.613703
0.984497 0.977783 0.621637
1.000000 0.976379 0.629511
1.000000 0.975067 0.637842
1.000000 0.969085 0.650141
1.000000 0.963287 0.673274
1.000000 0.959167 0.697627
1.000000 0.957733 0.726528
0.677699 1.000000 0.550378
0.679011 1.000000 0.550958
0.680110 1.000000 0.551141
0.682307 1.000000 0.551263
0.685756 1.000000 0.551568
0.690547 1.000000 0.552087
0.697139 1.000000 0.553368
0.705348 1.000000 0.555322
0.715206 1.000000 0.558007
0.726772 1.000000 0.561730
0.739284 1.000000 0.565576
0.753109 1.000000 0.570275
0.767605 1.000000 0.575097
0.782712 1.000000 0.580163
