cubelut/NW-9.cube
# Created by Adobe Lightroom plugin Export LUT (1.18.0)
# www.johnrellis.com/lightroom/exportlut.htm
# Preset: NW9
# Color profile: /Library/Application Support/Adobe/Color/Profiles/Recommended/AdobeRGB1998.icc
LUT_3D_SIZE 5
DOMAIN_MIN 0.000000 0.000000 0.000000
DOMAIN_MAX 0.903226 0.903226 0.903226
0.167727 0.174655 0.167941
0.249058 0.172396 0.173373
0.521355 0.181064 0.176730
0.883177 0.162814 0.173342
1.000000 0.250706 0.239078
0.182620 0.258366 0.180514
0.264134 0.268620 0.182559
0.512230 0.299382 0.186923
0.875792 0.326513 0.186252
1.000000 0.377722 0.271672
0.195987 0.619898 0.170321
0.355688 0.634546 0.167636
0.699123 0.684321 0.166201
0.881285 0.607263 0.258000
1.000000 0.619623 0.367651
0.383459 0.925719 0.293187
0.478187 0.926024 0.303471
0.699794 0.922423 0.334752
0.932799 0.907042 0.376471
1.000000 0.850248 0.522057
0.717006 1.000000 0.591699
0.740810 1.000000 0.597589
0.806882 1.000000 0.606744
0.915312 0.998016 0.656428
1.000000 0.990539 0.712612
0.161929 0.177554 0.237583
0.245029 0.189639 0.239780
0.534539 0.123659 0.276310
0.879271 0.000000 0.254124
1.000000 0.206455 0.299046
0.179965 0.262943 0.253178
0.265873 0.264836 0.258213
0.558556 0.253666 0.259220
0.874083 0.261723 0.267399
1.000000 0.354955 0.323430
0.165316 0.607843 0.297917
0.307408 0.624323 0.276860
0.669581 0.650111 0.283635
0.858885 0.591608 0.338567
1.000000 0.626551 0.422095
0.412299 0.919280 0.388373
0.512902 0.918822 0.408148
0.716396 0.916228 0.436072
0.930694 0.903197 0.467475
1.000000 0.855650 0.575250
0.744320 1.000000 0.642329
0.764797 1.000000 0.646937
0.833646 1.000000 0.669825
0.924376 0.997101 0.704555
1.000000 0.990753 0.748562
0.205417 0.174166 0.476478
0.318029 0.167239 0.482002
0.569085 0.132113 0.499306
0.874632 0.242130 0.530999
1.000000 0.359503 0.516838
0.048280 0.253635 0.516472
0.286778 0.245121 0.515862
0.600458 0.258671 0.526207
0.878569 0.363134 0.534661
1.000000 0.441291 0.524071
0.000000 0.616449 0.562036
0.269444 0.615991 0.566430
0.653223 0.617731 0.566491
0.887297 0.621088 0.554192
1.000000 0.662379 0.577630
0.437446 0.902037 0.586725
0.533471 0.897246 0.596277
0.749172 0.893004 0.642664
0.922454 0.895109 0.665644
1.000000 0.865476 0.694392
0.750027 1.000000 0.717769
0.784329 1.000000 0.734676
0.860349 0.996002 0.770504
0.933135 0.992737 0.792294
1.000000 0.988769 0.815122
0.223758 0.158877 0.778408
0.338048 0.148226 0.780392
0.584375 0.160586 0.788571
0.853025 0.269261 0.791470
1.000000 0.605768 0.776455
0.120943 0.244785 0.794186
0.300114 0.246616 0.795010
0.581140 0.283055 0.794125
0.853910 0.386389 0.791836
1.000000 0.652766 0.781613
0.000000 0.525078 0.815854
0.227085 0.523949 0.816312
0.607294 0.575860 0.809689
0.866850 0.655177 0.802274
0.998749 0.765591 0.802121
0.400702 0.854154 0.830991
0.497444 0.854582 0.829313
0.707973 0.861509 0.829831
0.890959 0.870634 0.826047
0.999786 0.868437 0.811460
0.759609 0.995239 0.845182
0.786587 0.993561 0.850095
0.858518 0.990417 0.865812
0.938415 0.988342 0.890410
0.999207 0.987701 0.902159
0.222171 0.223789 0.986084
0.325811 0.239597 0.985473
0.549706 0.320317 0.982238
0.794095 0.499397 0.973663
0.975097 0.645808 0.968017
0.211398 0.305882 0.987762
0.326909 0.324071 0.986877
0.562737 0.405280 0.982788
0.805142 0.565637 0.973541
0.975738 0.688441 0.968078
0.299596 0.535241 0.989319
0.410956 0.558923 0.987549
0.623835 0.618250 0.982422
0.834775 0.716426 0.973632
0.977844 0.791165 0.968750
0.490150 0.783139 0.986694
0.549828 0.791531 0.986053
0.693874 0.814450 0.984070
0.869535 0.863798 0.976562
0.982147 0.902739 0.972442
0.750027 0.970886 0.981262
0.773556 0.971954 0.981323
0.840421 0.975189 0.981384
0.922789 0.980438 0.982391
0.990509 0.987304 0.984131
