cubelut/NW-9.cube
# Created by Adobe Lightroom plugin Export LUT (1.18.0)
# www.johnrellis.com/lightroom/exportlut.htm
# Preset: NW9
# Color profile: /Library/Application Support/Adobe/Color/Profiles/Recommended/AdobeRGB1998.icc
LUT_3D_SIZE 8
DOMAIN_MIN 0.000000 0.000000 0.000000
DOMAIN_MAX 0.903226 0.903226 0.903226
0.167727 0.174655 0.167941
0.199985 0.171176 0.169253
0.272343 0.175326 0.175143
0.418799 0.183017 0.177249
0.627863 0.175540 0.174685
0.840726 0.161563 0.171359
0.976379 0.182620 0.189761
1.000000 0.250706 0.239078
0.172335 0.204074 0.173434
0.199161 0.206088 0.175326
0.264500 0.207340 0.180789
0.406561 0.218845 0.181033
0.612726 0.224094 0.177279
0.822416 0.222507 0.173129
0.962982 0.233280 0.190097
1.000000 0.283268 0.239414
0.186252 0.287724 0.182712
0.213352 0.291569 0.183017
0.299321 0.302495 0.183810
0.422034 0.315190 0.192050
0.627161 0.345251 0.186435
0.830014 0.360723 0.187137
0.973083 0.372107 0.217044
1.000000 0.406744 0.278294
0.191348 0.486397 0.178470
0.237522 0.488808 0.177615
0.363104 0.506584 0.174228
0.566064 0.557641 0.167147
0.731044 0.551537 0.194278
0.843381 0.528222 0.232212
0.966461 0.528069 0.266117
1.000000 0.548119 0.332738
0.217563 0.743893 0.173587
0.275364 0.745052 0.173892
0.420356 0.753445 0.175601
0.603052 0.767544 0.183169
0.786648 0.767544 0.194430
0.891234 0.712184 0.244938
0.957519 0.677546 0.326238
1.000000 0.692409 0.413489
0.332250 0.895750 0.253483
0.377417 0.901793 0.263493
0.479652 0.901061 0.270878
0.619043 0.900450 0.286748
0.765591 0.893828 0.304723
0.911131 0.886351 0.331640
0.989593 0.840726 0.395911
1.000000 0.823667 0.506126
0.525658 0.977966 0.408637
0.545281 0.978058 0.413581
0.596277 0.975219 0.418555
0.680751 0.971557 0.434302
0.779294 0.965942 0.455055
0.881285 0.958923 0.482277
0.978882 0.952239 0.517540
1.000000 0.924865 0.582788
0.717006 1.000000 0.591699
0.723781 1.000000 0.592981
0.749355 1.000000 0.600580
0.794858 1.000000 0.618769
0.837003 1.000000 0.618982
0.899687 0.999054 0.648066
0.960113 0.994903 0.682002
1.000000 0.990539 0.712612
0.162631 0.175479 0.195346
0.194797 0.177340 0.194430
0.266819 0.185092 0.200412
0.425269 0.158877 0.199924
0.627039 0.125032 0.197604
0.823972 0.094881 0.196750
0.961120 0.137026 0.210697
1.000000 0.225925 0.250675
0.166690 0.202731 0.196689
0.200534 0.206119 0.198825
0.274266 0.207767 0.201602
0.420966 0.204929 0.202426
0.620691 0.194491 0.199222
0.815488 0.186252 0.198459
0.951080 0.202945 0.211215
1.000000 0.260838 0.250034
0.187106 0.282475 0.206668
0.209964 0.289372 0.206058
0.298863 0.300328 0.206516
0.420111 0.309606 0.215885
0.626093 0.332555 0.210544
0.815824 0.340978 0.211795
0.953552 0.349950 0.231144
1.000000 0.387304 0.281987
0.176303 0.471473 0.211246
0.217685 0.477852 0.205631
0.352392 0.499763 0.204776
0.535485 0.526696 0.203403
0.684627 0.514519 0.224430
0.813046 0.503319 0.246311
0.945617 0.507073 0.271031
1.000000 0.530846 0.330114
0.188083 0.736690 0.213199
0.253269 0.735988 0.212924
0.404791 0.740688 0.214176
0.584710 0.747768 0.218387
0.765072 0.745510 0.224460
0.873320 0.695827 0.266423
0.944671 0.667170 0.337804
1.000000 0.683284 0.413794
0.325414 0.886473 0.280674
0.361975 0.886839 0.283055
0.466621 0.887114 0.289799
0.609827 0.889128 0.306584
0.759548 0.886107 0.326787
0.907378 0.881865 0.356298
0.984527 0.836881 0.412329
1.000000 0.819577 0.510826
0.517937 0.970794 0.416144
0.531182 0.969482 0.415229
0.585931 0.967620 0.422400
0.675929 0.965759 0.442817
0.777920 0.961913 0.468055
0.878294 0.955016 0.491768
0.974609 0.947784 0.520104
1.000000 0.919768 0.578088
0.714199 1.000000 0.595148
0.722835 1.000000 0.598535
0.749111 1.000000 0.606744
0.795041 1.000000 0.625574
0.848295 1.000000 0.645563
0.904051 0.998871 0.665980
0.960021 0.994171 0.689815
1.000000 0.989563 0.715023
0.164706 0.178408 0.261234
0.199344 0.180362 0.260014
0.274235 0.190768 0.265263
0.424506 0.182559 0.295201
0.652277 0.000000 0.311437
0.854673 0.000000 0.300481
0.978576 0.000000 0.294560
1.000000 0.217777 0.327062
0.172244 0.202548 0.270268
0.203586 0.204898 0.270695
0.281682 0.210452 0.271672
0.432929 0.205051 0.295598
0.659358 0.104982 0.304417
0.850492 0.000000 0.285344
0.971313 0.094881 0.294652
1.000000 0.261265 0.328923
0.175662 0.295659 0.283024
0.199588 0.297185 0.286259
0.301854 0.296239 0.288853
0.474189 0.287633 0.288609
0.686458 0.288273 0.293462
0.848600 0.297978 0.298375
0.966247 0.329015 0.314183
1.000000 0.393347 0.352667
0.174777 0.472328 0.311864
0.208927 0.480873 0.311772
0.327886 0.507347 0.303349
0.549248 0.531914 0.308995
0.684901 0.510369 0.333318
0.841672 0.510033 0.336736
0.958495 0.517327 0.357000
1.000000 0.551080 0.403296
0.187900 0.730037 0.340429
0.240879 0.733852 0.337499
0.388830 0.742306 0.331304
0.589319 0.754208 0.342473
0.777157 0.751797 0.349493
0.869596 0.696773 0.377478
0.941924 0.679316 0.421118
1.000000 0.701106 0.478462
0.341985 0.882872 0.377081
0.383185 0.883177 0.382330
0.491768 0.882139 0.396033
0.624201 0.882475 0.408972
0.765927 0.880308 0.426001
0.904417 0.876616 0.449439
0.975799 0.836271 0.486336
1.000000 0.830655 0.572747
0.560266 0.967712 0.493935
0.582452 0.965972 0.501915
0.632410 0.962921 0.511406
0.705440 0.960479 0.523491
0.794736 0.957366 0.542840
0.886320 0.952697 0.564294
0.975189 0.948638 0.593347
1.000000 0.925933 0.640803
0.742458 1.000000 0.647120
0.747555 1.000000 0.647272
0.768978 1.000000 0.652186
0.813077 1.000000 0.672145
0.859953 1.000000 0.687922
0.911681 0.997131 0.707485
0.962890 0.993408 0.728389
1.000000 0.989807 0.751034
0.188846 0.177737 0.388434
0.225681 0.178225 0.392767
0.321477 0.177035 0.397498
0.453132 0.165133 0.407568
0.654841 0.156130 0.444587
0.842924 0.121828 0.456001
0.967437 0.162203 0.442725
1.000000 0.264134 0.437537
0.178103 0.201511 0.409400
0.219791 0.200320 0.410376
0.325200 0.196963 0.410315
0.464088 0.191836 0.416114
0.664729 0.204440 0.448951
0.843290 0.184207 0.453956
0.965423 0.209995 0.440162
1.000000 0.290959 0.435950
0.103273 0.308232 0.433570
0.148806 0.296361 0.436194
0.307073 0.279332 0.435706
0.493690 0.294957 0.438819
0.694545 0.344427 0.463325
0.860777 0.340795 0.460731
0.975860 0.370336 0.454322
1.000000 0.424628 0.459022
0.093629 0.503166 0.458320
0.156374 0.504601 0.461097
0.307408 0.506737 0.469459
0.538293 0.506889 0.470954
0.726131 0.509697 0.468513
0.861387 0.511345 0.463203
0.963226 0.534081 0.472328
1.000000 0.579553 0.501640
0.207828 0.726284 0.489418
0.258762 0.726467 0.488594
0.401862 0.731411 0.490883
0.596216 0.739071 0.505425
0.777279 0.745022 0.515312
0.848264 0.705135 0.524559
0.948577 0.707027 0.535546
1.000000 0.725765 0.568414
0.377081 0.881376 0.509606
0.425269 0.885313 0.519005
0.532616 0.881041 0.532494
0.671901 0.877379 0.562158
0.791653 0.879759 0.578943
0.905455 0.876402 0.588983
0.962493 0.843565 0.604608
1.000000 0.843534 0.651759
0.578088 0.963378 0.576806
0.602197 0.962554 0.585077
0.670924 0.959380 0.610040
0.754330 0.955993 0.641260
0.825742 0.954772 0.655879
0.900084 0.952117 0.669856
0.973571 0.948669 0.684016
1.000000 0.929076 0.707027
0.755947 1.000000 0.698421
0.766812 1.000000 0.704402
0.797848 1.000000 0.720546
0.836149 0.999298 0.737118
0.875608 0.997223 0.748531
0.920928 0.994965 0.764797
0.965667 0.992309 0.780056
1.000000 0.989837 0.797818
0.219333 0.168307 0.569909
0.259586 0.164981 0.572930
0.366979 0.151308 0.575586
0.507439 0.134218 0.579065
0.682673 0.105226 0.600916
0.840513 0.227481 0.602899
0.953399 0.372930 0.602106
1.000000 0.450355 0.598077
0.197452 0.192447 0.583764
0.243748 0.189181 0.587243
0.361944 0.177920 0.587762
0.510369 0.171328 0.587793
0.687190 0.166934 0.605524
0.842893 0.278111 0.605615
0.953765 0.402289 0.604700
1.000000 0.470314 0.600183
0.000000 0.278874 0.610498
0.106661 0.270970 0.612116
0.324743 0.272160 0.611841
0.515251 0.286015 0.613184
0.698329 0.312993 0.616266
0.843290 0.410254 0.610163
0.951690 0.483070 0.609583
1.000000 0.522576 0.601892
0.000000 0.490242 0.636988
0.000000 0.484108 0.639002
0.260807 0.464393 0.645411
0.521294 0.477943 0.642145
0.721584 0.517967 0.636622
0.850858 0.595758 0.635981
0.952697 0.599573 0.624170
1.000000 0.607721 0.610132
0.077180 0.705562 0.655116
0.181430 0.706203 0.656580
0.359075 0.706203 0.658839
0.561730 0.707546 0.660670
0.744656 0.711391 0.653132
0.860136 0.713985 0.644892
0.949737 0.711635 0.635248
1.000000 0.729427 0.645808
0.364111 0.863157 0.648188
0.403082 0.862486 0.649622
0.514305 0.857694 0.653132
0.652216 0.854032 0.664088
0.775021 0.853025 0.676417
0.888975 0.861204 0.694148
0.937774 0.839841 0.696407
1.000000 0.848203 0.715023
0.588800 0.955077 0.677729
0.607294 0.953735 0.680690
0.667170 0.950286 0.692683
0.750668 0.946960 0.713985
0.832334 0.945251 0.738064
0.901762 0.946777 0.753109
0.967010 0.944732 0.759792
1.000000 0.927489 0.766232
0.751705 1.000000 0.748653
0.760647 0.999756 0.751705
0.789822 0.997436 0.762387
0.839689 0.995666 0.787076
0.884245 0.993225 0.805051
0.924773 0.991974 0.817014
0.965606 0.990417 0.828885
1.000000 0.988647 0.840177
0.225711 0.159213 0.748745
0.266270 0.155245 0.749386
0.373144 0.142458 0.748104
0.515648 0.138491 0.755398
0.671626 0.180240 0.756649
0.829984 0.229862 0.762234
0.947448 0.409277 0.744411
1.000000 0.615473 0.755520
0.202396 0.185641 0.748409
0.247532 0.182620 0.748379
0.363073 0.175601 0.749172
0.510643 0.178500 0.754360
0.669123 0.219699 0.754360
0.828336 0.269932 0.760159
0.945617 0.436316 0.744045
1.000000 0.629053 0.757046
0.000000 0.274083 0.771969
0.158511 0.274388 0.771420
0.331548 0.278752 0.771176
0.505516 0.297826 0.770321
0.676387 0.346929 0.765377
0.834592 0.401129 0.766812
0.944427 0.537102 0.752285
1.000000 0.669398 0.764004
0.000000 0.446967 0.790890
0.000000 0.443305 0.789853
0.294957 0.445411 0.789639
0.518944 0.481758 0.790402
0.702968 0.534142 0.785306
0.849699 0.584497 0.782040
0.944549 0.671809 0.772183
1.000000 0.728481 0.775662
0.000000 0.645472 0.794095
0.160555 0.645472 0.794736
0.340917 0.647089 0.796323
0.534478 0.659022 0.797269
0.722621 0.693446 0.789303
0.854978 0.725338 0.783474
0.938842 0.775570 0.783932
1.000000 0.776455 0.772763
0.332464 0.827512 0.798001
0.376226 0.829465 0.800046
0.489998 0.831815 0.800870
0.629908 0.835813 0.801297
0.756039 0.839353 0.799863
0.869566 0.846647 0.797147
0.944030 0.848325 0.791104
1.000000 0.849485 0.786374
0.585229 0.951934 0.804410
0.608118 0.951415 0.806516
0.669490 0.947753 0.809628
0.751492 0.943206 0.815305
0.829953 0.940154 0.822568
0.898405 0.939696 0.831571
0.959442 0.941680 0.839506
0.992187 0.929046 0.835050
0.759304 0.996521 0.825010
0.766903 0.995819 0.826261
0.792935 0.993866 0.831388
0.834470 0.991852 0.842008
0.880705 0.989868 0.854856
0.927306 0.988678 0.872038
0.965820 0.988983 0.884306
1.000000 0.988067 0.890379
0.212741 0.167971 0.879606
0.251774 0.167636 0.879820
0.355596 0.170016 0.880491
0.488930 0.187289 0.881132
0.634699 0.240696 0.878752
0.781216 0.335698 0.875090
0.914763 0.416327 0.876463
1.000000 0.596735 0.859983
0.195438 0.197086 0.883085
0.238743 0.197696 0.883085
0.349218 0.201968 0.883177
0.486854 0.221195 0.882567
0.636011 0.275639 0.880369
0.783810 0.369207 0.876616
0.915831 0.446754 0.877775
1.000000 0.616114 0.862058
0.113863 0.282872 0.889677
0.187381 0.285191 0.889586
0.328801 0.295689 0.889006
0.484169 0.323430 0.887358
0.642817 0.379858 0.884062
0.792050 0.466987 0.878569
0.917784 0.533135 0.878904
0.998444 0.667781 0.865690
0.000000 0.424811 0.897581
0.142672 0.428199 0.896971
0.326787 0.443519 0.895811
0.499763 0.475288 0.892882
0.663691 0.527428 0.888334
0.807736 0.597345 0.881804
0.921141 0.646265 0.880980
0.994842 0.739559 0.872160
0.079164 0.591302 0.903746
0.175357 0.592584 0.903960
0.356542 0.606592 0.902983
0.552575 0.646876 0.898772
0.699611 0.680537 0.893797
0.828458 0.724147 0.887755
0.927062 0.758846 0.885954
0.991333 0.817197 0.882536
0.367620 0.772305 0.904326
0.399420 0.774350 0.904265
0.493263 0.781949 0.903960
0.611872 0.793942 0.903197
0.729702 0.807767 0.901946
0.849699 0.833890 0.896056
0.934386 0.855863 0.893034
0.988464 0.888396 0.896971
0.562982 0.912963 0.905669
0.581109 0.913481 0.905699
0.638148 0.915496 0.905852
0.716243 0.918822 0.906249
0.800229 0.923217 0.907073
0.877714 0.927703 0.907713
0.944213 0.931731 0.905241
0.992248 0.930175 0.898161
0.737118 0.995941 0.911437
0.746731 0.995300 0.911681
0.776486 0.993194 0.912322
0.821714 0.990387 0.914275
0.874083 0.987549 0.918364
0.922728 0.986053 0.924956
0.963592 0.986542 0.934264
0.995605 0.987610 0.940795
0.222171 0.223789 0.986084
0.257359 0.227909 0.985840
0.353735 0.245670 0.985260
0.480446 0.286931 0.983612
0.620905 0.362615 0.980468
0.761105 0.469459 0.975311
0.881621 0.574792 0.969909
0.975097 0.645808 0.968017
0.218204 0.250095 0.986755
0.254643 0.254398 0.986511
0.353918 0.272526 0.985809
0.483284 0.314611 0.984039
0.625025 0.388617 0.980713
0.764858 0.491890 0.975402
0.883787 0.593042 0.969970
0.975402 0.659846 0.968200
0.211917 0.331304 0.988220
0.252903 0.336461 0.987915
0.360784 0.357397 0.986969
0.496071 0.399664 0.984558
0.640131 0.468757 0.980743
0.777584 0.560845 0.975128
0.890288 0.647059 0.969604
0.975982 0.701381 0.968139
0.248295 0.458656 0.989197
0.287877 0.464240 0.988800
0.395239 0.485451 0.987396
0.530236 0.525078 0.984588
0.670344 0.584192 0.980194
0.797086 0.653620 0.974701
0.899931 0.720424 0.969116
0.977020 0.758907 0.968292
0.314366 0.596429 0.990143
0.353613 0.603540 0.989532
0.466957 0.630976 0.987243
0.582055 0.659510 0.984161
0.706386 0.700526 0.980072
0.818967 0.747768 0.975219
0.910948 0.795651 0.970031
0.978790 0.823972 0.969299
0.441413 0.744442 0.988220
0.463447 0.747433 0.988037
0.529778 0.757198 0.987304
0.622980 0.773159 0.985840
0.750942 0.811582 0.980987
0.842435 0.836606 0.976837
0.922667 0.866117 0.972442
0.981231 0.887419 0.971405
0.620050 0.882109 0.983307
0.632593 0.883574 0.983185
0.672084 0.888212 0.982818
0.730617 0.895415 0.982177
0.798672 0.904723 0.981506
0.866300 0.914519 0.980865
0.936034 0.930480 0.977569
0.985229 0.945006 0.976318
0.750027 0.970886 0.981262
0.757321 0.971221 0.981292
0.781003 0.972290 0.981323
0.818296 0.974060 0.981292
0.863828 0.976501 0.981506
0.911284 0.979614 0.982147
0.955718 0.983154 0.983307
0.990509 0.987304 0.984131
