cubelut/Oranges.cube
# Created by Adobe Lightroom plugin Export LUT (1.18.0)
# www.johnrellis.com/lightroom/exportlut.htm
# Preset: Oranges
# Color profile: /Library/Application Support/Adobe/Color/Profiles/Recommended/AdobeRGB1998.icc
LUT_3D_SIZE 5
DOMAIN_MIN 0.000000 0.000000 0.000000
DOMAIN_MAX 0.903226 0.903226 0.903226
0.000000 0.000000 0.000000
0.258305 0.000000 0.000000
0.537591 0.000000 0.000000
0.795865 0.000000 0.000000
0.998016 0.000000 0.000000
0.000000 0.238865 0.000000
0.243473 0.231357 0.000000
0.531395 0.238865 0.000000
0.792813 0.213993 0.000000
0.996643 0.098939 0.000000
0.000000 0.499519 0.000000
0.254154 0.496651 0.000000
0.513573 0.487190 0.000000
0.783017 0.482948 0.000000
0.991974 0.429267 0.000000
0.000000 0.751949 0.000000
0.234134 0.749783 0.000000
0.509392 0.742489 0.000000
0.768521 0.729671 0.000000
0.983734 0.680842 0.000000
0.000000 0.960479 0.000000
0.008179 0.959075 0.000000
0.444343 0.953918 0.000000
0.714321 0.944274 0.000000
0.974945 0.928771 0.000000
0.000000 0.000000 0.248600
0.255985 0.000000 0.239567
0.538384 0.000000 0.213993
0.796963 0.000000 0.158968
0.999878 0.000000 0.000000
0.000000 0.236515 0.229099
0.248447 0.229526 0.220005
0.533898 0.206394 0.193362
0.794308 0.158175 0.140047
0.998657 0.000000 0.000000
0.000000 0.500786 0.181308
0.232212 0.497444 0.163912
0.517113 0.486610 0.127108
0.785275 0.469581 0.000000
0.994385 0.415259 0.000000
0.000000 0.753780 0.000000
0.191012 0.751125 0.000000
0.500175 0.743404 0.000000
0.770871 0.729458 0.000000
0.986542 0.676844 0.000000
0.000000 0.962249 0.000000
0.000000 0.960662 0.000000
0.434058 0.955016 0.000000
0.716335 0.944549 0.000000
0.978027 0.928740 0.000000
0.000000 0.000000 0.520287
0.267918 0.000000 0.514488
0.537591 0.000000 0.502312
0.794400 0.000000 0.470863
0.996918 0.000000 0.421210
0.000000 0.234440 0.509087
0.251072 0.222965 0.504601
0.534691 0.182712 0.493904
0.792111 0.102846 0.462470
0.995148 0.000000 0.421241
0.000000 0.498848 0.483070
0.212406 0.495766 0.479042
0.522210 0.484291 0.465248
0.783474 0.459297 0.441901
0.992493 0.402533 0.389746
0.000000 0.753170 0.440223
0.140352 0.751156 0.433021
0.490486 0.743191 0.418433
0.772183 0.728298 0.388708
0.986938 0.664027 0.311467
0.000000 0.962524 0.342168
0.000000 0.961273 0.335149
0.385321 0.957794 0.282963
0.695460 0.947051 0.200076
0.981109 0.928771 0.000000
0.000000 0.000000 0.765225
0.262333 0.000000 0.763210
0.527733 0.000000 0.756710
0.789090 0.000000 0.740200
0.990326 0.000000 0.683589
0.000000 0.223026 0.760739
0.248386 0.214389 0.759030
0.523766 0.179019 0.753017
0.786923 0.086854 0.735775
0.988678 0.000000 0.682979
0.000000 0.490242 0.749020
0.217960 0.487373 0.747127
0.516716 0.481666 0.741207
0.777646 0.464088 0.723751
0.981415 0.445350 0.687709
0.000000 0.750179 0.728054
0.125582 0.748592 0.726375
0.495583 0.741634 0.720790
0.760372 0.726497 0.710079
0.971771 0.695949 0.685145
0.000000 0.961242 0.658900
0.000000 0.959716 0.657618
0.430213 0.952819 0.662318
0.706538 0.943481 0.658656
0.968292 0.927855 0.614954
0.000000 0.000000 0.959106
0.242252 0.000000 0.958526
0.493751 0.000000 0.956390
0.745785 0.000000 0.952636
0.986969 0.000000 0.932677
0.000000 0.216190 0.957763
0.237949 0.209537 0.957183
0.492409 0.181064 0.955108
0.744778 0.096529 0.951354
0.985107 0.000000 0.931243
0.000000 0.477974 0.953002
0.270665 0.486549 0.952209
0.503227 0.480446 0.950286
0.743893 0.461830 0.946746
0.977386 0.435554 0.927337
0.000000 0.707759 0.945006
0.159243 0.709346 0.944396
0.502831 0.720058 0.942107
0.746975 0.726375 0.938842
0.963256 0.711940 0.922789
0.000000 0.956207 0.931609
0.000000 0.955108 0.931121
0.422644 0.950195 0.929107
0.726162 0.941039 0.925292
0.945281 0.928405 0.919921
