cubelut/Oranges.cube
# Created by Adobe Lightroom plugin Export LUT (1.18.0)
# www.johnrellis.com/lightroom/exportlut.htm
# Preset: Oranges
# Color profile: /Library/Application Support/Adobe/Color/Profiles/Recommended/AdobeRGB1998.icc
LUT_3D_SIZE 8
DOMAIN_MIN 0.000000 0.000000 0.000000
DOMAIN_MAX 0.903226 0.903226 0.903226
0.000000 0.000000 0.000000
0.143496 0.000000 0.000000
0.296391 0.000000 0.000000
0.455543 0.000000 0.000000
0.619379 0.000000 0.000000
0.763058 0.000000 0.000000
0.887602 0.000000 0.000000
0.998016 0.000000 0.000000
0.000000 0.134676 0.000000
0.136355 0.130129 0.000000
0.292821 0.125429 0.000000
0.453285 0.115999 0.000000
0.617670 0.099825 0.000000
0.761929 0.037598 0.000000
0.886961 0.000000 0.000000
0.997589 0.000000 0.000000
0.000000 0.274083 0.000000
0.136568 0.272221 0.000000
0.280217 0.265934 0.000000
0.445899 0.275486 0.000000
0.612421 0.275456 0.000000
0.758419 0.261479 0.000000
0.884672 0.232822 0.000000
0.996185 0.170535 0.000000
0.000000 0.422370 0.000000
0.139712 0.421515 0.000000
0.289403 0.418067 0.000000
0.434394 0.412085 0.000000
0.603815 0.423102 0.000000
0.752438 0.414221 0.000000
0.880705 0.392309 0.000000
0.993652 0.352422 0.000000
0.000000 0.576623 0.000000
0.130159 0.575769 0.000000
0.291936 0.573114 0.000000
0.443671 0.568109 0.000000
0.591272 0.560906 0.000000
0.744381 0.558099 0.000000
0.875242 0.537804 0.000000
0.989990 0.502983 0.000000
0.000000 0.718654 0.000000
0.098238 0.717983 0.000000
0.280888 0.715663 0.000000
0.437171 0.711543 0.000000
0.587793 0.705653 0.000000
0.735225 0.697871 0.000000
0.868254 0.678431 0.000000
0.985168 0.645655 0.000000
0.000000 0.845426 0.000000
0.000000 0.844877 0.000000
0.252537 0.842954 0.000000
0.416480 0.839475 0.000000
0.569055 0.834409 0.000000
0.715755 0.827848 0.000000
0.861509 0.819547 0.000000
0.978912 0.786496 0.000000
0.000000 0.960479 0.000000
0.000000 0.960052 0.000000
0.153567 0.958556 0.000000
0.360937 0.955810 0.000000
0.523796 0.951659 0.000000
0.676783 0.945983 0.000000
0.826566 0.938415 0.000000
0.974945 0.928771 0.000000
0.000000 0.000000 0.139254
0.142947 0.000000 0.135317
0.295567 0.000000 0.120851
0.454719 0.000000 0.096071
0.619226 0.000000 0.025483
0.763241 0.000000 0.000000
0.888060 0.000000 0.000000
0.998535 0.000000 0.000000
0.000000 0.133150 0.129641
0.139010 0.129244 0.124758
0.292119 0.119265 0.111971
0.453010 0.098146 0.086732
0.617853 0.040070 0.000000
0.762295 0.000000 0.000000
0.887480 0.000000 0.000000
0.998169 0.000000 0.000000
0.000000 0.273747 0.104982
0.134157 0.271397 0.098848
0.282170 0.265385 0.083986
0.446754 0.269200 0.022339
0.613123 0.264744 0.000000
0.759060 0.247990 0.000000
0.885283 0.219577 0.000000
0.996826 0.174746 0.000000
0.000000 0.423255 0.000000
0.123384 0.421698 0.000000
0.286137 0.418158 0.000000
0.435981 0.411872 0.000000
0.605219 0.419043 0.000000
0.753384 0.407874 0.000000
0.881468 0.385565 0.000000
0.994415 0.354681 0.000000
0.000000 0.577111 0.000000
0.099580 0.576318 0.000000
0.284184 0.573480 0.000000
0.441382 0.568322 0.000000
0.592554 0.560845 0.000000
0.745418 0.555413 0.000000
0.876036 0.534508 0.000000
0.990814 0.503471 0.000000
0.000000 0.719234 0.000000
0.000977 0.718563 0.000000
0.269871 0.716213 0.000000
0.432532 0.712032 0.000000
0.586389 0.705837 0.000000
0.736172 0.697871 0.000000
0.869139 0.677394 0.000000
0.986023 0.645502 0.000000
0.000000 0.846067 0.000000
0.000000 0.845548 0.000000
0.236637 0.843595 0.000000
0.409186 0.840024 0.000000
0.565667 0.834806 0.000000
0.716152 0.827909 0.000000
0.862974 0.819486 0.000000
0.979828 0.786221 0.000000
0.000000 0.960571 0.000000
0.000000 0.960113 0.000000
0.159945 0.958587 0.000000
0.363043 0.955871 0.000000
0.525048 0.951720 0.000000
0.677699 0.946014 0.000000
0.827420 0.938445 0.000000
0.975860 0.928740 0.000000
0.000000 0.000000 0.285801
0.146792 0.000000 0.282780
0.294194 0.000000 0.275181
0.456062 0.000000 0.268254
0.620722 0.000000 0.246159
0.764096 0.000000 0.215244
0.888945 0.000000 0.180301
1.000000 0.000000 0.106722
0.000000 0.130922 0.278294
0.141573 0.125887 0.275395
0.292393 0.107546 0.269413
0.454658 0.000000 0.260502
0.619898 0.000000 0.236240
0.763180 0.000000 0.211978
0.888365 0.000000 0.175479
0.999756 0.000000 0.096956
0.000000 0.271977 0.263371
0.125185 0.270085 0.260868
0.285924 0.264073 0.253300
0.449866 0.253452 0.240635
0.615290 0.237278 0.221805
0.760189 0.213687 0.197116
0.886412 0.174929 0.157046
0.998535 0.081300 0.029694
0.000000 0.423194 0.247227
0.082429 0.422309 0.241001
0.277958 0.418250 0.228824
0.439307 0.411261 0.215518
0.607843 0.408911 0.194339
0.754849 0.392676 0.166262
0.882841 0.366247 0.113405
0.996307 0.325994 0.000000
0.000000 0.578149 0.207736
0.000000 0.577569 0.197208
0.266148 0.574121 0.187442
0.436591 0.568566 0.171695
0.595270 0.560296 0.144900
0.747311 0.548699 0.098177
0.877684 0.523522 0.000000
0.992981 0.488228 0.000000
0.000000 0.720699 0.123659
0.000000 0.720089 0.107698
0.244877 0.717067 0.110658
0.422126 0.712642 0.076051
0.583276 0.706172 0.000000
0.738277 0.697475 0.000000
0.870939 0.672114 0.000000
0.988525 0.637629 0.000000
0.000000 0.847593 0.000000
0.000000 0.846891 0.000000
0.194553 0.844816 0.000000
0.391363 0.841215 0.000000
0.556420 0.835782 0.000000
0.712734 0.828519 0.000000
0.864775 0.819364 0.000000
0.982635 0.783383 0.000000
0.000000 0.962707 0.000000
0.000000 0.962341 0.000000
0.000000 0.960693 0.000000
0.331853 0.957671 0.000000
0.512169 0.953094 0.000000
0.674250 0.946838 0.000000
0.829404 0.938720 0.000000
0.979034 0.928740 0.000000
0.000000 0.000000 0.440955
0.151095 0.000000 0.438819
0.302434 0.000000 0.431830
0.455360 0.000000 0.425299
0.620233 0.000000 0.419562
0.762875 0.000000 0.395514
0.887449 0.000000 0.367163
0.998230 0.000000 0.337530
0.000000 0.124575 0.435401
0.142550 0.119326 0.433722
0.299016 0.096376 0.428138
0.454444 0.000000 0.422034
0.619348 0.000000 0.415076
0.762173 0.000000 0.391516
0.886870 0.000000 0.364874
0.997925 0.000000 0.335760
0.000000 0.276402 0.425147
0.111604 0.271946 0.423224
0.287785 0.261204 0.417853
0.450629 0.245121 0.411688
0.615961 0.216739 0.400275
0.759518 0.188449 0.379614
0.884703 0.159579 0.358770
0.997253 0.000000 0.322210
0.000000 0.421881 0.408392
0.063447 0.420752 0.407050
0.271458 0.416846 0.401923
0.442573 0.409705 0.393133
0.608942 0.398779 0.380987
0.754208 0.382666 0.365209
0.881621 0.357580 0.341924
0.995483 0.313634 0.300359
0.000000 0.577569 0.393317
0.000000 0.576989 0.390387
0.248569 0.574273 0.380041
0.433234 0.567895 0.369970
0.597925 0.559197 0.357641
0.747311 0.542870 0.340887
0.877012 0.516686 0.314031
0.992767 0.477607 0.262638
0.000000 0.720150 0.360174
0.000000 0.719600 0.356329
0.219516 0.717464 0.345312
0.414435 0.712581 0.337041
0.580621 0.705837 0.322637
0.739681 0.696773 0.301518
0.870817 0.667506 0.269444
0.989014 0.628748 0.193668
0.000000 0.847349 0.309392
0.000000 0.846921 0.305852
0.164370 0.845060 0.296849
0.376654 0.841703 0.280674
0.548241 0.836240 0.259892
0.709010 0.828763 0.226841
0.865537 0.819028 0.171664
0.983856 0.777951 0.000000
0.000000 0.962737 0.216220
0.000000 0.962432 0.210788
0.000000 0.961181 0.194980
0.290929 0.959380 0.121553
0.489784 0.954833 0.000000
0.660243 0.948455 0.000000
0.822782 0.939849 0.000000
0.981384 0.928801 0.000000
0.000000 0.000000 0.597406
0.151949 0.000000 0.596094
0.307866 0.000000 0.591608
0.461128 0.000000 0.584253
0.617151 0.000000 0.576959
0.760128 0.000000 0.556542
0.884337 0.000000 0.528649
0.995331 0.000000 0.499489
0.000000 0.113588 0.593835
0.141512 0.106691 0.592737
0.303471 0.076295 0.588830
0.459205 0.000000 0.581964
0.616327 0.000000 0.574762
0.759426 0.000000 0.554223
0.883757 0.000000 0.527245
0.994873 0.000000 0.499275
0.000000 0.269505 0.585870
0.085512 0.263920 0.584558
0.288640 0.256809 0.581079
0.452766 0.240635 0.574823
0.613336 0.213535 0.567102
0.756802 0.185733 0.547021
0.881559 0.160739 0.523705
0.992981 0.119173 0.499702
0.000000 0.426276 0.574121
0.000000 0.423865 0.573053
0.268193 0.416144 0.569207
0.443488 0.407111 0.562707
0.607172 0.394720 0.553704
0.751522 0.382727 0.537530
0.876982 0.372503 0.521904
0.988983 0.357061 0.505089
0.000000 0.575036 0.556970
0.000000 0.574212 0.555962
0.246464 0.571466 0.552300
0.430152 0.566247 0.546105
0.597345 0.557275 0.537224
0.744350 0.543572 0.525444
0.872862 0.522759 0.507378
0.988403 0.487831 0.475654
0.000000 0.719234 0.533684
0.000000 0.718624 0.532158
0.216617 0.716304 0.527306
0.413611 0.711421 0.522179
0.578515 0.705043 0.514092
0.736751 0.694606 0.500603
0.867430 0.667292 0.479622
0.985595 0.629389 0.438941
0.000000 0.846586 0.496834
0.000000 0.846128 0.495521
0.161624 0.844114 0.492134
0.386206 0.840024 0.491707
0.544823 0.835813 0.476936
0.705287 0.828397 0.458900
0.863371 0.818509 0.432776
0.981323 0.775448 0.381140
0.000000 0.962249 0.442390
0.000000 0.961913 0.440864
0.000000 0.960418 0.437751
0.319951 0.957153 0.439429
0.478004 0.955200 0.400000
0.650294 0.949004 0.368566
0.815854 0.940307 0.320043
0.979644 0.928618 0.239902
0.000000 0.000000 0.733852
0.148867 0.000000 0.733120
0.302647 0.000000 0.730739
0.454902 0.000000 0.726589
0.607660 0.000000 0.720790
0.757168 0.000000 0.709560
0.880217 0.000000 0.679011
0.991485 0.000000 0.647608
0.000000 0.101137 0.732052
0.138888 0.094179 0.731411
0.298619 0.059083 0.729244
0.453010 0.000000 0.725246
0.606897 0.000000 0.719600
0.756527 0.000000 0.708003
0.879637 0.000000 0.677974
0.990997 0.000000 0.647395
0.000000 0.262760 0.727047
0.101228 0.260655 0.726558
0.286870 0.252995 0.724544
0.447242 0.238315 0.720882
0.603906 0.214176 0.715450
0.754116 0.181277 0.703059
0.877592 0.157595 0.675013
0.989166 0.111116 0.647181
0.000000 0.417395 0.719997
0.000000 0.415686 0.719356
0.272679 0.411444 0.717067
0.440955 0.405371 0.713405
0.599390 0.394110 0.708186
0.748989 0.380835 0.695094
0.873289 0.371252 0.672175
0.985412 0.354681 0.649500
0.000000 0.568231 0.709682
0.000000 0.567285 0.709102
0.250034 0.564416 0.706905
0.432746 0.561486 0.703182
0.593011 0.556451 0.698146
0.740780 0.547326 0.686763
0.866453 0.539879 0.672419
0.978820 0.529992 0.658656
0.000000 0.717189 0.695735
0.000000 0.716732 0.695155
0.212039 0.714870 0.693080
0.413031 0.711025 0.689509
0.582208 0.703883 0.683925
0.730343 0.694606 0.677180
0.859525 0.680476 0.666072
0.975341 0.657221 0.646235
0.000000 0.845457 0.662623
0.000000 0.844907 0.662013
0.160678 0.842832 0.660182
0.387854 0.838621 0.658900
0.563989 0.832273 0.661799
0.708064 0.826505 0.655451
0.854246 0.816342 0.641657
0.971618 0.785214 0.614496
0.000000 0.961486 0.617578
0.000000 0.961059 0.617060
0.000000 0.959442 0.615900
0.320256 0.956023 0.616999
0.525353 0.949798 0.628931
0.664332 0.946014 0.612482
0.816068 0.938506 0.589014
0.971252 0.928038 0.554070
0.000000 0.000000 0.852689
0.142061 0.000000 0.852323
0.292210 0.000000 0.851041
0.440406 0.000000 0.848814
0.588861 0.000000 0.845670
0.738247 0.000000 0.841398
0.878508 0.000000 0.826444
0.986572 0.000000 0.789273
0.000000 0.090883 0.851804
0.135103 0.083680 0.851469
0.289158 0.040681 0.850278
0.438911 0.000000 0.848112
0.588098 0.000000 0.844968
0.737819 0.000000 0.840787
0.877928 0.000000 0.825620
0.986114 0.000000 0.788937
0.000000 0.259068 0.849149
0.115785 0.257237 0.848814
0.282628 0.250889 0.847715
0.435431 0.238499 0.845640
0.586053 0.217990 0.842557
0.736294 0.185122 0.838468
0.875761 0.146456 0.822812
0.984375 0.099245 0.788296
0.000000 0.410498 0.844785
0.104829 0.411017 0.844388
0.284062 0.410681 0.843229
0.435401 0.404700 0.841245
0.584710 0.395178 0.838285
0.733730 0.381262 0.834287
0.871366 0.367285 0.818479
0.980865 0.351446 0.788418
0.000000 0.553429 0.838682
0.000000 0.553429 0.838346
0.268162 0.554528 0.837125
0.442206 0.560571 0.834958
0.585809 0.555962 0.832364
0.729671 0.546777 0.828428
0.864286 0.537896 0.813962
0.974792 0.528252 0.791592
0.000000 0.696895 0.830381
0.000000 0.696590 0.830076
0.227329 0.695949 0.828977
0.419745 0.696345 0.826963
0.583276 0.698085 0.824216
0.723812 0.694728 0.820645
0.855314 0.687282 0.809354
0.967102 0.679683 0.797024
0.000000 0.842771 0.819486
0.000000 0.842496 0.819181
0.143984 0.841062 0.818112
0.384710 0.838071 0.816220
0.562676 0.833097 0.813321
0.714290 0.825711 0.808927
0.845396 0.816953 0.803281
0.960784 0.803555 0.792813
0.000000 0.960357 0.779049
0.000000 0.959899 0.778744
0.000000 0.958190 0.777920
0.325109 0.954406 0.778134
0.529229 0.948180 0.781827
0.692683 0.941070 0.788388
0.821256 0.935973 0.782406
0.957610 0.926757 0.768185
0.000000 0.000000 0.959106
0.130831 0.000000 0.958923
0.278355 0.000000 0.958312
0.422095 0.000000 0.957183
0.565515 0.000000 0.955474
0.709621 0.000000 0.953277
0.854978 0.000000 0.950439
0.986969 0.000000 0.932677
0.000000 0.080323 0.958709
0.125460 0.072724 0.958526
0.276738 0.012604 0.957916
0.421271 0.000000 0.956786
0.565026 0.000000 0.955138
0.709224 0.000000 0.952911
0.854612 0.000000 0.950072
0.986450 0.000000 0.932280
0.000000 0.256016 0.957275
0.122164 0.254612 0.957122
0.275273 0.248783 0.956542
0.420478 0.237430 0.955444
0.564385 0.218479 0.953765
0.708400 0.187320 0.951568
0.853361 0.129397 0.948760
0.984436 0.000000 0.930816
0.080415 0.412940 0.954589
0.158236 0.412268 0.954437
0.289433 0.409186 0.953857
0.427283 0.403662 0.952819
0.567193 0.394690 0.951202
0.708309 0.380804 0.949035
0.850980 0.359899 0.946319
0.980438 0.339269 0.928618
0.000000 0.542077 0.951171
0.109346 0.543633 0.950927
0.293950 0.550561 0.950134
0.448554 0.561395 0.948974
0.577081 0.555200 0.947448
0.710628 0.546166 0.945373
0.847837 0.533684 0.942596
0.973785 0.522637 0.925994
0.000000 0.674006 0.946410
0.000000 0.674556 0.946227
0.242313 0.677302 0.945586
0.427405 0.684474 0.944305
0.587793 0.696773 0.942473
0.715053 0.694331 0.940734
0.843931 0.685359 0.937835
0.965515 0.676875 0.923369
0.000000 0.811337 0.940063
0.000000 0.811307 0.939910
0.121584 0.811337 0.939361
0.382208 0.812741 0.938231
0.561669 0.815976 0.936492
0.712245 0.819913 0.934447
0.837675 0.817411 0.932158
0.955962 0.811795 0.921019
0.000000 0.956207 0.931609
0.000000 0.955901 0.931456
0.000000 0.954742 0.930907
0.304387 0.952117 0.929839
0.521874 0.947967 0.928161
0.688930 0.942565 0.925963
0.829770 0.935698 0.922850
0.945281 0.928405 0.919921
