cubelut/Oranges.cube
# Created by Adobe Lightroom plugin Export LUT (1.18.0)
# www.johnrellis.com/lightroom/exportlut.htm
# Preset: Oranges
# Color profile: /Library/Application Support/Adobe/Color/Profiles/Recommended/AdobeRGB1998.icc
LUT_3D_SIZE 32
0.000000 0.000000 0.000000
0.042756 0.000000 0.000000
0.073091 0.000000 0.000000
0.105409 0.000000 0.000000
0.143496 0.000000 0.000000
0.182010 0.000000 0.000000
0.220279 0.000000 0.000000
0.258305 0.000000 0.000000
0.296391 0.000000 0.000000
0.335088 0.000000 0.000000
0.374823 0.000000 0.000000
0.414954 0.000000 0.000000
0.455543 0.000000 0.000000
0.496529 0.000000 0.000000
0.537591 0.000000 0.000000
0.578637 0.000000 0.000000
0.619379 0.000000 0.000000
0.658045 0.000000 0.000000
0.694209 0.000000 0.000000
0.729122 0.000000 0.000000
0.763058 0.000000 0.000000
0.795865 0.000000 0.000000
0.827604 0.000000 0.000000
0.858122 0.000000 0.000000
0.887602 0.000000 0.000000
0.916228 0.000000 0.000000
0.944152 0.000000 0.000000
0.971405 0.000000 0.000000
0.998016 0.000000 0.000000
1.000000 0.000000 0.000000
1.000000 0.000000 0.000000
1.000000 0.000000 0.000000
0.000000 0.038056 0.000000
0.038819 0.035920 0.000000
0.071778 0.032105 0.000000
0.104585 0.025544 0.000000
0.142916 0.015137 0.000000
0.181369 0.001251 0.000000
0.219760 0.000000 0.000000
0.257755 0.000000 0.000000
0.296025 0.000000 0.000000
0.334905 0.000000 0.000000
0.374517 0.000000 0.000000
0.414710 0.000000 0.000000
0.455360 0.000000 0.000000
0.496315 0.000000 0.000000
0.537438 0.000000 0.000000
0.578393 0.000000 0.000000
0.619135 0.000000 0.000000
0.657893 0.000000 0.000000
0.694057 0.000000 0.000000
0.729061 0.000000 0.000000
0.762936 0.000000 0.000000
0.795773 0.000000 0.000000
0.827481 0.000000 0.000000
0.858061 0.000000 0.000000
0.887510 0.000000 0.000000
0.916167 0.000000 0.000000
0.944121 0.000000 0.000000
0.971344 0.000000 0.000000
0.997955 0.000000 0.000000
1.000000 0.000000 0.000000
1.000000 0.000000 0.000000
1.000000 0.000000 0.000000
0.000000 0.069429 0.000000
0.035615 0.068482 0.000000
0.070222 0.067628 0.000000
0.103670 0.064363 0.000000
0.142031 0.061250 0.000000
0.180819 0.054749 0.000000
0.219059 0.042390 0.000000
0.257176 0.023285 0.000000
0.295415 0.004944 0.000000
0.334325 0.000000 0.000000
0.374060 0.000000 0.000000
0.414374 0.000000 0.000000
0.455024 0.000000 0.000000
0.496101 0.000000 0.000000
0.537102 0.000000 0.000000
0.578241 0.000000 0.000000
0.618891 0.000000 0.000000
0.657679 0.000000 0.000000
0.693996 0.000000 0.000000
0.728817 0.000000 0.000000
0.762814 0.000000 0.000000
0.795682 0.000000 0.000000
0.827390 0.000000 0.000000
0.857939 0.000000 0.000000
0.887419 0.000000 0.000000
0.916106 0.000000 0.000000
0.944030 0.000000 0.000000
0.971283 0.000000 0.000000
0.997925 0.000000 0.000000
1.000000 0.000000 0.000000
1.000000 0.000000 0.000000
1.000000 0.000000 0.000000
0.000000 0.100099 0.000000
0.025483 0.099550 0.000000
0.066590 0.099001 0.000000
0.101961 0.097414 0.000000
0.140017 0.096376 0.000000
0.178958 0.094545 0.000000
0.217563 0.091463 0.000000
0.256016 0.087404 0.000000
0.294347 0.082795 0.000000
0.333440 0.077241 0.000000
0.373114 0.071473 0.000000
0.413642 0.063172 0.000000
0.454383 0.055085 0.000000
0.495399 0.041993 0.000000
0.536522 0.020356 0.000000
0.577691 0.000000 0.000000
0.618555 0.000000 0.000000
0.657282 0.000000 0.000000
0.693538 0.000000 0.000000
0.728511 0.000000 0.000000
0.762509 0.000000 0.000000
0.795407 0.000000 0.000000
0.827146 0.000000 0.000000
0.857755 0.000000 0.000000
0.887266 0.000000 0.000000
0.915923 0.000000 0.000000
0.943877 0.000000 0.000000
0.971160 0.000000 0.000000
0.997803 0.000000 0.000000
1.000000 0.000000 0.000000
1.000000 0.000000 0.000000
1.000000 0.000000 0.000000
0.000000 0.134676 0.000000
0.013062 0.134310 0.000000
0.062409 0.133700 0.000000
0.099306 0.132235 0.000000
0.136355 0.130129 0.000000
0.176394 0.130556 0.000000
0.215457 0.129702 0.000000
0.254032 0.127749 0.000000
0.292821 0.125429 0.000000
0.331914 0.123476 0.000000
0.371923 0.120638 0.000000
0.412421 0.118532 0.000000
0.453285 0.115999 0.000000
0.494514 0.113313 0.000000
0.535698 0.110231 0.000000
0.576867 0.105684 0.000000
0.617670 0.099825 0.000000
0.656519 0.092927 0.000000
0.692927 0.081056 0.000000
0.727932 0.068666 0.000000
0.761929 0.037598 0.000000
0.794980 0.000000 0.000000
0.826780 0.000000 0.000000
0.857420 0.000000 0.000000
0.886961 0.000000 0.000000
0.915679 0.000000 0.000000
0.943603 0.000000 0.000000
0.970947 0.000000 0.000000
0.997589 0.000000 0.000000
1.000000 0.000000 0.000000
1.000000 0.000000 0.000000
1.000000 0.000000 0.000000
0.000000 0.169345 0.000000
0.001923 0.169039 0.000000
0.057465 0.168429 0.000000
0.097047 0.167422 0.000000
0.135042 0.165805 0.000000
0.171572 0.163760 0.000000
0.212406 0.165438 0.000000
0.251377 0.165042 0.000000
0.290410 0.164279 0.000000
0.330053 0.163394 0.000000
0.370153 0.162905 0.000000
0.410864 0.162173 0.000000
0.451759 0.161135 0.000000
0.493141 0.159792 0.000000
0.534447 0.157931 0.000000
0.575799 0.155093 0.000000
0.616693 0.151278 0.000000
0.655604 0.146517 0.000000
0.692012 0.140261 0.000000
0.727138 0.133272 0.000000
0.761288 0.124880 0.000000
0.794400 0.114321 0.000000
0.826230 0.101656 0.000000
0.856931 0.079652 0.000000
0.886564 0.025605 0.000000
0.915282 0.000000 0.000000
0.943328 0.000000 0.000000
0.970642 0.000000 0.000000
0.997345 0.000000 0.000000
1.000000 0.000000 0.000000
1.000000 0.000000 0.000000
1.000000 0.000000 0.000000
0.000000 0.204074 0.000000
0.000000 0.203738 0.000000
0.053498 0.203433 0.000000
0.096223 0.202396 0.000000
0.134432 0.201205 0.000000
0.171481 0.199435 0.000000
0.207279 0.197238 0.000000
0.248478 0.199802 0.000000
0.287816 0.200259 0.000000
0.327794 0.200961 0.000000
0.368109 0.201511 0.000000
0.408911 0.201572 0.000000
0.450080 0.201541 0.000000
0.491524 0.200900 0.000000
0.533074 0.199527 0.000000
0.574395 0.197971 0.000000
0.615442 0.195346 0.000000
0.654444 0.192020 0.000000
0.691005 0.187320 0.000000
0.726284 0.182010 0.000000
0.760494 0.175387 0.000000
0.793668 0.168002 0.000000
0.825589 0.160281 0.000000
0.856352 0.148104 0.000000
0.886015 0.132082 0.000000
0.914824 0.110872 0.000000
0.942901 0.079377 0.000000
0.970275 0.000000 0.000000
0.997040 0.000000 0.000000
1.000000 0.000000 0.000000
1.000000 0.000000 0.000000
1.000000 0.000000 0.000000
0.000000 0.238865 0.000000
0.000000 0.238560 0.000000
0.054749 0.238163 0.000000
0.096925 0.237461 0.000000
0.135561 0.236454 0.000000
0.172457 0.235050 0.000000
0.208194 0.233127 0.000000
0.243473 0.231357 0.000000
0.284764 0.234470 0.000000
0.325017 0.236149 0.000000
0.365789 0.237522 0.000000
0.406714 0.238437 0.000000
0.448157 0.239048 0.000000
0.489693 0.239017 0.000000
0.531395 0.238865 0.000000
0.572808 0.237736 0.000000
0.614038 0.236362 0.000000
0.653132 0.233616 0.000000
0.689815 0.229831 0.000000
0.725216 0.225254 0.000000
0.759518 0.220035 0.000000
0.792813 0.213993 0.000000
0.824857 0.207095 0.000000
0.855680 0.198337 0.000000
0.885405 0.186252 0.000000
0.914275 0.172244 0.000000
0.942412 0.154391 0.000000
0.969879 0.131380 0.000000
0.996643 0.098939 0.000000
1.000000 0.010498 0.000000
1.000000 0.000000 0.000000
1.000000 0.000000 0.000000
0.000000 0.274083 0.000000
0.000000 0.273960 0.000000
0.057923 0.273533 0.000000
0.097841 0.273014 0.000000
0.136568 0.272221 0.000000
0.173434 0.270878 0.000000
0.209567 0.269566 0.000000
0.244968 0.267887 0.000000
0.280217 0.265934 0.000000
0.322087 0.270085 0.000000
0.362982 0.272343 0.000000
0.404303 0.273991 0.000000
0.445899 0.275486 0.000000
0.487678 0.276310 0.000000
0.529320 0.276585 0.000000
0.571069 0.276493 0.000000
0.612421 0.275456 0.000000
0.651575 0.273594 0.000000
0.688441 0.269871 0.000000
0.723964 0.265995 0.000000
0.758419 0.261479 0.000000
0.791775 0.256138 0.000000
0.823972 0.249943 0.000000
0.854856 0.242710 0.000000
0.884672 0.232822 0.000000
0.913634 0.220920 0.000000
0.941833 0.207248 0.000000
0.969329 0.190860 0.000000
0.996185 0.170535 0.000000
1.000000 0.145266 0.000000
1.000000 0.109834 0.000000
1.000000 0.024506 0.000000
0.000000 0.309941 0.000000
0.004089 0.309789 0.000000
0.059937 0.309606 0.000000
0.099702 0.309148 0.000000
0.137392 0.308537 0.000000
0.174624 0.307530 0.000000
0.211154 0.306371 0.000000
0.247105 0.304875 0.000000
0.282597 0.303288 0.000000
0.317754 0.301549 0.000000
0.359991 0.305943 0.000000
0.401617 0.308568 0.000000
0.443336 0.310796 0.000000
0.485359 0.312322 0.000000
0.527306 0.313329 0.000000
0.569085 0.313787 0.000000
0.610498 0.313664 0.000000
0.649836 0.311711 0.000000
0.686732 0.308995 0.000000
0.722499 0.305150 0.000000
0.757137 0.301061 0.000000
0.790616 0.296178 0.000000
0.822965 0.290440 0.000000
0.853941 0.284184 0.000000
0.883848 0.275090 0.000000
0.912902 0.265080 0.000000
0.941192 0.253025 0.000000
0.968750 0.239506 0.000000
0.995666 0.223484 0.000000
1.000000 0.204501 0.000000
1.000000 0.181979 0.000000
1.000000 0.153323 0.000000
0.000000 0.346868 0.000000
0.005921 0.346715 0.000000
0.061097 0.346563 0.000000
0.100343 0.346197 0.000000
0.138674 0.345556 0.000000
0.176364 0.344701 0.000000
0.213016 0.343633 0.000000
0.248997 0.342473 0.000000
0.285100 0.341100 0.000000
0.320714 0.339635 0.000000
0.356085 0.337926 0.000000
0.398749 0.342473 0.000000
0.440681 0.345342 0.000000
0.482887 0.347784 0.000000
0.524987 0.349371 0.000000
0.566949 0.350408 0.000000
0.608484 0.350683 0.000000
0.647883 0.349401 0.000000
0.685023 0.346929 0.000000
0.720882 0.343603 0.000000
0.755703 0.339574 0.000000
0.789334 0.334905 0.000000
0.821805 0.329564 0.000000
0.852934 0.323766 0.000000
0.882933 0.315526 0.000000
0.912078 0.306157 0.000000
0.940429 0.295506 0.000000
0.968078 0.283421 0.000000
0.995056 0.269505 0.000000
1.000000 0.253758 0.000000
1.000000 0.235721 0.000000
1.000000 0.214481 0.000000
0.000000 0.384405 0.000000
0.003479 0.384222 0.000000
0.061769 0.384070 0.000000
0.101045 0.383734 0.000000
0.139528 0.383215 0.000000
0.177401 0.382513 0.000000
0.214572 0.381750 0.000000
0.251133 0.380591 0.000000
0.287358 0.379461 0.000000
0.323552 0.377966 0.000000
0.359503 0.376501 0.000000
0.395056 0.374823 0.000000
0.438025 0.379278 0.000000
0.480323 0.382483 0.000000
0.522484 0.384771 0.000000
0.564508 0.386419 0.000000
0.606256 0.387274 0.000000
0.645716 0.386389 0.000000
0.683009 0.384100 0.000000
0.719142 0.381048 0.000000
0.754147 0.377203 0.000000
0.787930 0.372961 0.000000
0.820462 0.367742 0.000000
0.851743 0.362036 0.000000
0.881865 0.354467 0.000000
0.911131 0.345647 0.000000
0.939605 0.335760 0.000000
0.967346 0.324590 0.000000
0.994385 0.312169 0.000000
1.000000 0.298161 0.000000
1.000000 0.282444 0.000000
1.000000 0.264652 0.000000
0.000000 0.422370 0.000000
0.000000 0.422370 0.000000
0.059113 0.422217 0.000000
0.100069 0.422004 0.000000
0.139712 0.421515 0.000000
0.177859 0.420844 0.000000
0.215396 0.420081 0.000000
0.252567 0.419104 0.000000
0.289403 0.418067 0.000000
0.325994 0.416663 0.000000
0.362310 0.415381 0.000000
0.398413 0.413733 0.000000
0.434394 0.412085 0.000000
0.477455 0.416480 0.000000
0.519829 0.419562 0.000000
0.562036 0.421820 0.000000
0.603815 0.423102 0.000000
0.643427 0.422705 0.000000
0.680873 0.420691 0.000000
0.717250 0.417823 0.000000
0.752438 0.414221 0.000000
0.786404 0.410101 0.000000
0.819059 0.405097 0.000000
0.850462 0.399420 0.000000
0.880705 0.392309 0.000000
0.910124 0.383886 0.000000
0.938689 0.374517 0.000000
0.966522 0.364019 0.000000
0.993652 0.352422 0.000000
1.000000 0.339666 0.000000
1.000000 0.325383 0.000000
1.000000 0.309514 0.000000
0.000000 0.461006 0.000000
0.000000 0.460792 0.000000
0.049928 0.460761 0.000000
0.097139 0.460517 0.000000
0.138155 0.460090 0.000000
0.177646 0.459388 0.000000
0.216312 0.458717 0.000000
0.253513 0.457832 0.000000
0.290806 0.456794 0.000000
0.327886 0.455665 0.000000
0.364752 0.454322 0.000000
0.401312 0.452857 0.000000
0.437751 0.451301 0.000000
0.473854 0.449531 0.000000
0.516472 0.453407 0.000000
0.559411 0.456764 0.000000
0.601282 0.458595 0.000000
0.640955 0.458503 0.000000
0.678614 0.456733 0.000000
0.715145 0.454139 0.000000
0.750637 0.450782 0.000000
0.784726 0.446754 0.000000
0.817594 0.441810 0.000000
0.849149 0.436378 0.000000
0.879484 0.429450 0.000000
0.908995 0.421271 0.000000
0.937682 0.412299 0.000000
0.965606 0.402319 0.000000
0.992859 0.391455 0.000000
1.000000 0.379400 0.000000
1.000000 0.366217 0.000000
1.000000 0.351598 0.000000
0.000000 0.499519 0.000000
0.000000 0.499458 0.000000
0.030091 0.499306 0.000000
0.094148 0.499062 0.000000
0.136477 0.498634 0.000000
0.176913 0.498238 0.000000
0.216007 0.497444 0.000000
0.254154 0.496651 0.000000
0.291905 0.495705 0.000000
0.329412 0.494606 0.000000
0.366491 0.493385 0.000000
0.403540 0.492073 0.000000
0.440314 0.490455 0.000000
0.477089 0.488899 0.000000
0.513573 0.487190 0.000000
0.555749 0.490394 0.000000
0.598505 0.493538 0.000000
0.638331 0.493690 0.000000
0.676295 0.492378 0.000000
0.713130 0.490120 0.000000
0.748653 0.486915 0.000000
0.783017 0.482948 0.000000
0.816007 0.478248 0.000000
0.847623 0.472877 0.000000
0.878172 0.465919 0.000000
0.907836 0.458015 0.000000
0.936645 0.449287 0.000000
0.964691 0.439796 0.000000
0.991974 0.429267 0.000000
1.000000 0.417853 0.000000
1.000000 0.405310 0.000000
1.000000 0.391577 0.000000
0.000000 0.538170 0.000000
0.000000 0.538079 0.000000
0.008850 0.537957 0.000000
0.088869 0.537713 0.000000
0.134005 0.537285 0.000000
0.175448 0.536858 0.000000
0.215183 0.536217 0.000000
0.253788 0.535485 0.000000
0.292210 0.534539 0.000000
0.330175 0.533532 0.000000
0.367803 0.532250 0.000000
0.405280 0.531090 0.000000
0.442420 0.529625 0.000000
0.479469 0.527977 0.000000
0.516258 0.526238 0.000000
0.552972 0.524529 0.000000
0.594385 0.526940 0.000000
0.635554 0.528679 0.000000
0.673762 0.527550 0.000000
0.710750 0.525566 0.000000
0.746578 0.522667 0.000000
0.781094 0.518791 0.000000
0.814267 0.514244 0.000000
0.846067 0.508812 0.000000
0.876738 0.502037 0.000000
0.906554 0.494331 0.000000
0.935454 0.485786 0.000000
0.963592 0.476600 0.000000
0.991028 0.466407 0.000000
1.000000 0.455390 0.000000
1.000000 0.443336 0.000000
1.000000 0.430274 0.000000
0.000000 0.576623 0.000000
0.000000 0.576471 0.000000
0.000000 0.576440 0.000000
0.082033 0.576196 0.000000
0.130159 0.575769 0.000000
0.173037 0.575372 0.000000
0.213809 0.574701 0.000000
0.252873 0.573999 0.000000
0.291936 0.573114 0.000000
0.330419 0.572045 0.000000
0.368475 0.570977 0.000000
0.406104 0.569574 0.000000
0.443671 0.568109 0.000000
0.480842 0.566491 0.000000
0.517845 0.564752 0.000000
0.554650 0.562951 0.000000
0.591272 0.560906 0.000000
0.631220 0.561944 0.000000
0.671077 0.562524 0.000000
0.708370 0.560784 0.000000
0.744381 0.558099 0.000000
0.779080 0.554406 0.000000
0.812406 0.549889 0.000000
0.844388 0.544579 0.000000
0.875242 0.537804 0.000000
0.905150 0.530205 0.000000
0.934234 0.521843 0.000000
0.962493 0.512840 0.000000
0.989990 0.502983 0.000000
1.000000 0.492226 0.000000
1.000000 0.480629 0.000000
1.000000 0.467964 0.000000
0.000000 0.613611 0.000000
0.000000 0.613458 0.000000
0.000000 0.613458 0.000000
0.072602 0.613184 0.000000
0.125673 0.612818 0.000000
0.169467 0.612299 0.000000
0.211307 0.611658 0.000000
0.251164 0.610956 0.000000
0.290684 0.610040 0.000000
0.329351 0.609033 0.000000
0.367498 0.607965 0.000000
0.405615 0.606622 0.000000
0.443275 0.605127 0.000000
0.480812 0.603601 0.000000
0.517937 0.602014 0.000000
0.555016 0.600214 0.000000
0.592004 0.598413 0.000000
0.628595 0.596368 0.000000
0.667201 0.596124 0.000000
0.705867 0.595727 0.000000
0.742092 0.593256 0.000000
0.776974 0.589685 0.000000
0.810483 0.585229 0.000000
0.842618 0.579889 0.000000
0.873594 0.573205 0.000000
0.903716 0.565850 0.000000
0.932891 0.557610 0.000000
0.961273 0.548791 0.000000
0.988861 0.539117 0.000000
1.000000 0.528588 0.000000
1.000000 0.517235 0.000000
1.000000 0.504875 0.000000
0.000000 0.649378 0.000000
0.000000 0.649256 0.000000
0.000000 0.649104 0.000000
0.057282 0.648951 0.000000
0.117678 0.648646 0.000000
0.165347 0.648157 0.000000
0.207858 0.647608 0.000000
0.248600 0.646876 0.000000
0.288273 0.646082 0.000000
0.327123 0.645136 0.000000
0.365881 0.644007 0.000000
0.403998 0.642817 0.000000
0.442084 0.641474 0.000000
0.479805 0.640040 0.000000
0.517205 0.638514 0.000000
0.554467 0.636774 0.000000
0.591485 0.635035 0.000000
0.628382 0.633112 0.000000
0.665156 0.631128 0.000000
0.702663 0.629908 0.000000
0.739712 0.628107 0.000000
0.774777 0.624750 0.000000
0.808438 0.620386 0.000000
0.840787 0.614954 0.000000
0.871885 0.608484 0.000000
0.902159 0.601160 0.000000
0.931487 0.593133 0.000000
0.959991 0.584375 0.000000
0.987732 0.574823 0.000000
1.000000 0.564508 0.000000
1.000000 0.553368 0.000000
1.000000 0.541344 0.000000
0.000000 0.684382 0.000000
0.000000 0.684382 0.000000
0.000000 0.684260 0.000000
0.016846 0.684016 0.000000
0.108797 0.683833 0.000000
0.158907 0.683314 0.000000
0.203098 0.682734 0.000000
0.244694 0.682033 0.000000
0.285008 0.681300 0.000000
0.324712 0.680415 0.000000
0.363409 0.679377 0.000000
0.401953 0.678248 0.000000
0.440101 0.676967 0.000000
0.477943 0.675654 0.000000
0.515587 0.674159 0.000000
0.553002 0.672541 0.000000
0.590173 0.670832 0.000000
0.627192 0.669032 0.000000
0.664027 0.667048 0.000000
0.700740 0.665034 0.000000
0.737301 0.662867 0.000000
0.772457 0.659602 0.000000
0.806302 0.655329 0.000000
0.838743 0.649989 0.000000
0.870115 0.643580 0.000000
0.900511 0.636378 0.000000
0.929992 0.628443 0.000000
0.958648 0.619776 0.000000
0.986481 0.610346 0.000000
1.000000 0.600183 0.000000
1.000000 0.589166 0.000000
1.000000 0.577264 0.000000
0.000000 0.718654 0.000000
0.000000 0.718593 0.000000
0.000000 0.718532 0.000000
0.000000 0.718349 0.000000
0.098238 0.717983 0.000000
0.151644 0.717617 0.000000
0.197177 0.717067 0.000000
0.239628 0.716457 0.000000
0.280888 0.715663 0.000000
0.320958 0.714809 0.000000
0.359960 0.713863 0.000000
0.398688 0.712856 0.000000
0.437171 0.711543 0.000000
0.475257 0.710231 0.000000
0.512993 0.708827 0.000000
0.550530 0.707301 0.000000
0.587793 0.705653 0.000000
0.624933 0.703883 0.000000
0.661891 0.701991 0.000000
0.698604 0.699977 0.000000
0.735225 0.697871 0.000000
0.771023 0.695094 0.000000
0.804074 0.689998 0.000000
0.836728 0.684688 0.000000
0.868254 0.678431 0.000000
0.898772 0.671443 0.000000
0.928435 0.663539 0.000000
0.957183 0.654994 0.000000
0.985168 0.645655 0.000000
1.000000 0.635615 0.000000
1.000000 0.624720 0.000000
1.000000 0.613397 0.000000
0.000000 0.751949 0.000000
0.000000 0.751888 0.000000
0.000000 0.751797 0.000000
0.000000 0.751614 0.000000
0.080293 0.751339 0.000000
0.142184 0.750942 0.000000
0.190005 0.750393 0.000000
0.234134 0.749783 0.000000
0.275700 0.749111 0.000000
0.316258 0.748287 0.000000
0.355901 0.747311 0.000000
0.395026 0.746304 0.000000
0.433448 0.745174 0.000000
0.471595 0.743862 0.000000
0.509392 0.742489 0.000000
0.547143 0.740963 0.000000
0.584436 0.739345 0.000000
0.621698 0.737606 0.000000
0.658656 0.735836 0.000000
0.695460 0.733883 0.000000
0.732113 0.731807 0.000000
0.768521 0.729671 0.000000
0.803708 0.726406 0.000000
0.834531 0.719387 0.000000
0.866270 0.713283 0.000000
0.896971 0.706325 0.000000
0.926757 0.698573 0.000000
0.955688 0.690089 0.000000
0.983734 0.680842 0.000000
1.000000 0.670893 0.000000
1.000000 0.660456 0.000000
1.000000 0.649866 0.000000
0.000000 0.784085 0.000000
0.000000 0.784024 0.000000
0.000000 0.783993 0.000000
0.000000 0.783780 0.000000
0.046937 0.783505 0.000000
0.129397 0.783139 0.000000
0.181064 0.782681 0.000000
0.226474 0.782101 0.000000
0.269474 0.781399 0.000000
0.310460 0.780575 0.000000
0.350622 0.779690 0.000000
0.389837 0.778683 0.000000
0.428656 0.777584 0.000000
0.467109 0.776333 0.000000
0.505028 0.774990 0.000000
0.542748 0.773587 0.000000
0.580194 0.771969 0.000000
0.617365 0.770291 0.000000
0.654383 0.768521 0.000000
0.691218 0.766690 0.000000
0.727840 0.764675 0.000000
0.764218 0.762570 0.000000
0.800504 0.760403 0.000000
0.835325 0.756832 0.000000
0.864195 0.748043 0.000000
0.895048 0.741176 0.000000
0.925017 0.733486 0.000000
0.954070 0.725124 0.000000
0.982208 0.716030 0.000000
1.000000 0.706325 0.000000
1.000000 0.696315 0.000000
1.000000 0.686458 0.000000
0.000000 0.815244 0.000000
0.000000 0.815152 0.000000
0.000000 0.815091 0.000000
0.000000 0.814908 0.000000
0.000000 0.814633 0.000000
0.111940 0.814298 0.000000
0.169284 0.813840 0.000000
0.217655 0.813260 0.000000
0.261692 0.812619 0.000000
0.303655 0.811795 0.000000
0.344457 0.810971 0.000000
0.384039 0.809995 0.000000
0.422889 0.808957 0.000000
0.461494 0.807767 0.000000
0.499611 0.806455 0.000000
0.537438 0.805051 0.000000
0.574975 0.803586 0.000000
0.612207 0.801938 0.000000
0.649348 0.800259 0.000000
0.686000 0.798520 0.000000
0.722438 0.796597 0.000000
0.758694 0.794644 0.000000
0.795041 0.792569 0.000000
0.831418 0.790311 0.000000
0.866270 0.786740 0.000000
0.893065 0.776028 0.000000
0.923156 0.768399 0.000000
0.952361 0.760098 0.000000
0.980621 0.751278 0.000000
1.000000 0.741878 0.000000
1.000000 0.732387 0.000000
1.000000 0.723171 0.000000
0.000000 0.845426 0.000000
0.000000 0.845365 0.000000
0.000000 0.845304 0.000000
0.000000 0.845151 0.000000
0.000000 0.844877 0.000000
0.088045 0.844541 0.000000
0.155825 0.844114 0.000000
0.207156 0.843565 0.000000
0.252537 0.842954 0.000000
0.295720 0.842222 0.000000
0.336767 0.841428 0.000000
0.377111 0.840482 0.000000
0.416480 0.839475 0.000000
0.455116 0.838346 0.000000
0.493446 0.837156 0.000000
0.531365 0.835843 0.000000
0.569055 0.834409 0.000000
0.606043 0.832944 0.000000
0.642664 0.831357 0.000000
0.679255 0.829679 0.000000
0.715755 0.827848 0.000000
0.752224 0.825986 0.000000
0.788693 0.824002 0.000000
0.825071 0.821836 0.000000
0.861509 0.819547 0.000000
0.896635 0.816098 0.000000
0.921355 0.803464 0.000000
0.950561 0.795163 0.000000
0.978912 0.786496 0.000000
1.000000 0.777462 0.000000
1.000000 0.768307 0.000000
1.000000 0.759762 0.000000
0.000000 0.874968 0.000000
0.000000 0.874907 0.000000
0.000000 0.874815 0.000000
0.000000 0.874723 0.000000
0.000000 0.874449 0.000000
0.029908 0.874144 0.000000
0.137270 0.873716 0.000000
0.193301 0.873259 0.000000
0.241855 0.872618 0.000000
0.285832 0.871977 0.000000
0.328283 0.871183 0.000000
0.368994 0.870329 0.000000
0.408698 0.869352 0.000000
0.447944 0.868284 0.000000
0.485786 0.867185 0.000000
0.523339 0.865995 0.000000
0.560510 0.864683 0.000000
0.597559 0.863279 0.000000
0.634455 0.861784 0.000000
0.671290 0.860166 0.000000
0.708003 0.858457 0.000000
0.744656 0.856626 0.000000
0.781247 0.854643 0.000000
0.817777 0.852628 0.000000
0.854276 0.850431 0.000000
0.890745 0.848112 0.000000
0.926390 0.844907 0.000000
0.949340 0.830869 0.000000
0.977111 0.821653 0.000000
1.000000 0.812802 0.000000
1.000000 0.804074 0.000000
1.000000 0.796109 0.000000
0.000000 0.903899 0.000000
0.000000 0.903868 0.000000
0.000000 0.903746 0.000000
0.000000 0.903624 0.000000
0.000000 0.903410 0.000000
0.000000 0.903136 0.000000
0.110445 0.902708 0.000000
0.176303 0.902251 0.000000
0.228244 0.901701 0.000000
0.273320 0.901122 0.000000
0.315892 0.900420 0.000000
0.356756 0.899626 0.000000
0.396582 0.898772 0.000000
0.435645 0.897795 0.000000
0.474311 0.896757 0.000000
0.512352 0.895628 0.000000
0.550164 0.894347 0.000000
0.587640 0.893004 0.000000
0.624903 0.891539 0.000000
0.662043 0.890013 0.000000
0.698970 0.888334 0.000000
0.735866 0.886564 0.000000
0.772641 0.884703 0.000000
0.809354 0.882689 0.000000
0.846036 0.880583 0.000000
0.882719 0.878325 0.000000
0.919371 0.875944 0.000000
0.955474 0.873198 0.000000
0.976715 0.857847 0.000000
1.000000 0.847868 0.000000
1.000000 0.839414 0.000000
1.000000 0.831876 0.000000
0.000000 0.932403 0.000000
0.000000 0.932372 0.000000
0.000000 0.932311 0.000000
0.000000 0.932189 0.000000
0.000000 0.931975 0.000000
0.000000 0.931701 0.000000
0.000000 0.931365 0.000000
0.134096 0.930968 0.000000
0.197635 0.930449 0.000000
0.249027 0.929870 0.000000
0.295354 0.929198 0.000000
0.338689 0.928466 0.000000
0.380499 0.927642 0.000000
0.420966 0.926696 0.000000
0.460548 0.925719 0.000000
0.499519 0.924590 0.000000
