cubelut/Portrait9.cube
# Created by Adobe Lightroom plugin Export LUT (1.18.0)
# www.johnrellis.com/lightroom/exportlut.htm
# Preset: CP - INTERIOR DESIGN 13
# Color profile: /Library/Application Support/Adobe/Color/Profiles/Recommended/AdobeRGB1998.icc
LUT_3D_SIZE 32
DOMAIN_MIN 0.0 0.0 0.0
DOMAIN_MAX 1.0 1.0 1.0
0.000000 0.000000 0.000000
0.012848 0.001373 0.000641
0.029999 0.002075 0.000122
0.062287 0.004547 0.001007
0.081849 0.008911 0.001282
0.102602 0.013855 0.000855
0.127047 0.012634 0.000000
0.153719 0.005524 0.000000
0.182712 0.000000 0.000000
0.212985 0.000000 0.000000
0.244083 0.000000 0.000000
0.275731 0.000000 0.000000
0.307347 0.000000 0.000000
0.339178 0.000000 0.000000
0.371038 0.000000 0.000000
0.403082 0.000000 0.000000
0.435492 0.000000 0.000000
0.468513 0.000000 0.000000
0.502373 0.000000 0.000000
0.538659 0.000000 0.000000
0.577630 0.000000 0.000000
0.618647 0.000000 0.000000
0.663691 0.000000 0.000000
0.709102 0.000000 0.000000
0.752285 0.000000 0.000000
0.793576 0.000000 0.000000
0.833402 0.000000 0.000000
0.871672 0.000000 0.000000
0.908232 0.000000 0.000000
0.942779 0.000000 0.000000
0.974945 0.000000 0.000000
1.000000 0.000000 0.000000
0.002747 0.020508 0.003662
0.013458 0.021149 0.002258
0.032013 0.022827 0.000549
0.064057 0.023865 0.000000
0.083436 0.029236 0.000000
0.104433 0.032532 0.000000
0.128481 0.028870 0.000000
0.155276 0.018921 0.000000
0.183841 0.000580 0.000000
0.213931 0.000000 0.000000
0.244877 0.000000 0.000000
0.276158 0.000000 0.000000
0.307622 0.000000 0.000000
0.339208 0.000000 0.000000
0.370916 0.000000 0.000000
0.402747 0.000000 0.000000
0.434974 0.000000 0.000000
0.467811 0.000000 0.000000
0.501579 0.000000 0.000000
0.537713 0.000000 0.000000
0.576532 0.000000 0.000000
0.617456 0.000000 0.000000
0.662318 0.000000 0.000000
0.707149 0.000000 0.000000
0.750027 0.000000 0.000000
0.791257 0.000000 0.000000
0.831113 0.000000 0.000000
0.869535 0.000000 0.000000
0.906310 0.000000 0.000000
0.941070 0.000000 0.000000
0.973419 0.000000 0.000000
1.000000 0.000000 0.000000
0.004028 0.047913 0.008942
0.014771 0.048371 0.007507
0.030793 0.049073 0.005951
0.064546 0.052247 0.001129
0.085298 0.053956 0.000000
0.106935 0.053223 0.000000
0.130953 0.048341 0.000000
0.157290 0.036469 0.000000
0.185794 0.017670 0.000000
0.215549 0.000000 0.000000
0.246250 0.000000 0.000000
0.277317 0.000000 0.000000
0.308659 0.000000 0.000000
0.340185 0.000000 0.000000
0.371710 0.000000 0.000000
0.403326 0.000000 0.000000
0.435554 0.000000 0.000000
0.468299 0.000000 0.000000
0.501946 0.000000 0.000000
0.537957 0.000000 0.000000
0.576745 0.000000 0.000000
0.617517 0.000000 0.000000
0.662501 0.000000 0.000000
0.706874 0.000000 0.000000
0.749508 0.000000 0.000000
0.790524 0.000000 0.000000
0.830320 0.000000 0.000000
0.868742 0.000000 0.000000
0.905547 0.000000 0.000000
0.940368 0.000000 0.000000
0.972778 0.000000 0.000000
1.000000 0.000000 0.000000
0.011322 0.074250 0.021393
0.023407 0.074372 0.019959
0.041077 0.073426 0.019745
0.064607 0.074220 0.014282
0.085878 0.075288 0.004669
0.111177 0.074006 0.000000
0.136233 0.070100 0.000000
0.162448 0.065248 0.000000
0.190524 0.056519 0.000000
0.220035 0.033143 0.000000
0.250187 0.000855 0.000000
0.281010 0.000000 0.000000
0.311894 0.000000 0.000000
0.343053 0.000000 0.000000
0.374182 0.000000 0.000000
0.405554 0.000000 0.000000
0.437354 0.000000 0.000000
0.469795 0.000000 0.000000
0.503166 0.000000 0.000000
0.538903 0.000000 0.000000
0.577600 0.000000 0.000000
0.618341 0.000000 0.000000
0.663355 0.000000 0.000000
0.707271 0.000000 0.000000
0.749874 0.000000 0.000000
0.791196 0.000000 0.000000
0.831113 0.000000 0.000000
0.869627 0.000000 0.000000
0.906310 0.000000 0.000000
0.940856 0.000000 0.000000
0.972961 0.000000 0.000000
1.000000 0.000000 0.000000
0.019745 0.097444 0.039033
0.030915 0.097597 0.035462
0.047120 0.096956 0.035248
0.065919 0.095949 0.034730
0.085664 0.097414 0.024994
0.110567 0.096925 0.012604
0.138979 0.094728 0.000366
0.169162 0.089662 0.000000
0.196567 0.082948 0.000000
0.225406 0.074098 0.000000
0.255039 0.061982 0.000000
0.285344 0.030579 0.000000
0.315709 0.000000 0.000000
0.346349 0.000000 0.000000
0.377264 0.000000 0.000000
0.408545 0.000000 0.000000
0.440345 0.000000 0.000000
0.472786 0.000000 0.000000
0.506126 0.000000 0.000000
0.541741 0.000000 0.000000
0.580285 0.000000 0.000000
0.622034 0.000000 0.000000
0.666316 0.000000 0.000000
0.709773 0.000000 0.000000
0.751797 0.000000 0.000000
0.792721 0.000000 0.000000
0.832273 0.000000 0.000000
0.870390 0.000000 0.000000
0.906798 0.000000 0.000000
0.941070 0.000000 0.000000
0.972961 0.000000 0.000000
1.000000 0.000000 0.000000
0.023835 0.123995 0.053040
0.035767 0.124300 0.051881
0.047486 0.123964 0.047700
0.066499 0.123171 0.048096
0.085115 0.122499 0.045106
0.110201 0.123537 0.032044
0.139132 0.121859 0.018708
0.169619 0.118746 0.005493
0.201724 0.113252 0.000000
0.233249 0.105470 0.000000
0.262394 0.096071 0.000000
0.291905 0.084230 0.000000
0.321721 0.068727 0.000000
0.351995 0.032471 0.000000
0.382513 0.000000 0.000000
0.413581 0.000000 0.000000
0.445167 0.000000 0.000000
0.477485 0.000000 0.000000
0.510796 0.000000 0.000000
0.546471 0.000000 0.000000
0.584924 0.000000 0.000000
0.627955 0.000000 0.000000
0.688502 0.000000 0.000000
0.732387 0.000000 0.000000
0.774319 0.000000 0.000000
0.813840 0.000000 0.000000
0.851408 0.000000 0.000000
0.887236 0.000000 0.000000
0.921233 0.000000 0.000000
0.953185 0.000000 0.000000
0.982879 0.000000 0.000000
1.000000 0.000000 0.000000
0.023072 0.154879 0.063264
0.033631 0.155123 0.062654
0.046601 0.155154 0.060334
0.066316 0.154543 0.059236
0.087129 0.153384 0.059266
0.110414 0.153201 0.053834
0.139986 0.154177 0.040223
0.172244 0.151644 0.023438
0.204929 0.147341 0.008087
0.238407 0.141238 0.000000
0.272587 0.133181 0.000000
0.303807 0.122927 0.000000
0.333196 0.110994 0.000000
0.362890 0.096986 0.000000
0.392828 0.078767 0.000000
0.423163 0.047669 0.000000
0.454414 0.000000 0.000000
0.486397 0.000000 0.000000
0.519768 0.000000 0.000000
0.555810 0.000000 0.000000
0.596826 0.000000 0.000000
0.641901 0.000000 0.000000
0.687007 0.000000 0.000000
0.731380 0.000000 0.000000
0.774105 0.000000 0.000000
0.814481 0.000000 0.000000
0.852354 0.000000 0.000000
0.887846 0.000000 0.000000
0.921538 0.000000 0.000000
0.953063 0.000000 0.000000
0.982452 0.000000 0.000000
1.000000 0.000000 0.000000
0.021210 0.185306 0.072084
0.032990 0.185611 0.071565
0.049195 0.185824 0.071351
0.065675 0.185580 0.067353
0.088045 0.184421 0.067750
0.111177 0.182834 0.067994
0.137972 0.183413 0.062226
0.169650 0.184482 0.049561
0.204562 0.182345 0.029358
0.238193 0.177096 0.011170
0.272221 0.170718 0.000000
0.306432 0.162264 0.000000
0.340856 0.152041 0.000000
0.370886 0.140352 0.000000
0.400366 0.127352 0.000000
0.430335 0.112947 0.000000
0.461219 0.095094 0.000000
0.493019 0.071778 0.000000
0.526085 0.012543 0.000000
0.562768 0.000000 0.000000
0.604913 0.000000 0.000000
0.648280 0.000000 0.000000
0.691859 0.000000 0.000000
0.734829 0.000000 0.000000
0.776394 0.000000 0.000000
0.815976 0.000000 0.000000
0.853544 0.000000 0.000000
0.889036 0.000000 0.000000
0.922240 0.000000 0.000000
0.953368 0.000000 0.000000
0.982483 0.000000 0.000000
1.000000 0.000000 0.000000
0.024445 0.217136 0.083345
0.037354 0.217380 0.083192
0.055268 0.217594 0.083284
0.067628 0.217746 0.078981
0.090089 0.216953 0.079255
0.113954 0.215671 0.079744
0.138766 0.214328 0.079591
0.167453 0.215579 0.071687
0.200809 0.216464 0.061707
0.237064 0.214664 0.040467
0.271885 0.209384 0.017609
0.306096 0.202426 0.000000
0.340581 0.194217 0.000000
0.375341 0.184298 0.000000
0.409644 0.173129 0.000000
0.439338 0.161318 0.000000
0.469856 0.148836 0.000000
0.501488 0.135622 0.000000
0.535302 0.121218 0.000000
0.573541 0.106264 0.000000
0.614282 0.089448 0.000000
0.656123 0.069825 0.000000
0.698299 0.038605 0.000000
0.739956 0.000000 0.000000
0.780362 0.000000 0.000000
0.818967 0.000000 0.000000
0.855802 0.005249 0.000000
0.890837 0.055879 0.000000
0.923888 0.082979 0.000000
0.954437 0.102663 0.000000
0.982971 0.126528 0.000000
1.000000 0.152956 0.000000
0.035492 0.249821 0.096956
0.050904 0.249973 0.097078
0.062745 0.250248 0.097139
0.077119 0.250431 0.095796
0.094087 0.250034 0.092927
0.117678 0.249088 0.093233
0.142275 0.247837 0.093935
0.168338 0.247257 0.092012
0.198001 0.248722 0.083467
0.232212 0.249546 0.072602
0.269657 0.248356 0.057771
0.304967 0.242832 0.031067
0.339513 0.236057 0.004425
0.374365 0.228122 0.000000
0.409766 0.219272 0.000000
0.445808 0.209537 0.000000
0.480323 0.199100 0.000000
0.513725 0.189395 0.000000
0.548516 0.180606 0.000000
0.585870 0.172366 0.000000
0.625086 0.165194 0.000000
0.665003 0.159335 0.000000
0.705135 0.155001 0.000000
0.744869 0.152743 0.000000
0.783780 0.152773 0.000000
0.821347 0.155856 0.000000
0.857511 0.161654 0.000000
0.892180 0.170871 0.000000
0.925139 0.183352 0.000000
0.955840 0.196902 0.000000
0.984100 0.209842 0.000000
1.000000 0.226047 0.000000
0.053285 0.282567 0.111513
0.062898 0.282750 0.111788
0.071656 0.283024 0.112032
0.087770 0.283482 0.113130
0.099916 0.283482 0.107881
0.122805 0.282841 0.108339
0.146822 0.282109 0.109010
0.172152 0.280980 0.109804
0.198886 0.281468 0.105653
0.229496 0.283024 0.096559
0.264195 0.284001 0.085298
0.302281 0.283421 0.070344
0.338140 0.278111 0.053010
0.373266 0.271855 0.017975
0.408789 0.264836 0.000000
0.446235 0.258183 0.000000
0.484749 0.251102 0.000000
0.524437 0.243992 0.000000
0.560998 0.236881 0.000000
0.597467 0.231205 0.000000
0.635248 0.227054 0.000000
0.673915 0.224216 0.000000
0.712856 0.222965 0.000000
0.751461 0.223209 0.000000
0.789242 0.225101 0.000000
0.825711 0.228367 0.000000
0.860807 0.233433 0.000000
0.894530 0.240757 0.000000
0.926635 0.250156 0.000000
0.956909 0.261540 0.000000
0.985046 0.273350 0.000000
1.000000 0.285283 0.000000
0.067353 0.316777 0.126955
0.073365 0.316960 0.127382
0.081849 0.317144 0.127932
0.096803 0.317571 0.129213
0.107362 0.318181 0.123873
0.129061 0.317754 0.124392
0.152377 0.317357 0.124910
0.176913 0.316686 0.125856
0.202884 0.315801 0.126802
0.230442 0.317296 0.120089
0.261784 0.318914 0.110658
0.297002 0.320348 0.098939
0.343633 0.328588 0.086244
0.382208 0.324865 0.070161
0.419745 0.320806 0.043336
0.458076 0.315923 0.000000
0.497475 0.311009 0.000000
0.537926 0.306554 0.000000
0.579767 0.302678 0.000000
0.622889 0.299931 0.000000
0.659602 0.296422 0.000000
0.696193 0.294377 0.000000
0.732723 0.293400 0.000000
0.768917 0.293919 0.000000
0.804410 0.295598 0.000000
0.838773 0.298405 0.000000
0.871885 0.302495 0.000000
0.903593 0.307927 0.000000
0.933867 0.314977 0.000000
0.962493 0.323522 0.000000
0.989441 0.333440 0.000000
1.000000 0.343420 0.000000
0.080568 0.355383 0.144411
0.085817 0.355596 0.144747
0.093050 0.355627 0.145266
0.107362 0.355840 0.146365
0.122469 0.356207 0.145357
0.136782 0.355901 0.141329
0.159304 0.355383 0.141939
0.183383 0.354772 0.142580
0.208988 0.354467 0.143587
0.236240 0.355383 0.144503
0.266117 0.359075 0.136690
0.300023 0.362737 0.127382
0.337835 0.366125 0.115694
0.379248 0.368841 0.100649
0.418647 0.366308 0.083711
0.457069 0.363500 0.063355
0.496345 0.360510 0.008576
0.536370 0.357488 0.000000
0.577905 0.355444 0.000000
0.620508 0.354223 0.000000
0.663264 0.353643 0.000000
0.704494 0.353063 0.000000
0.739651 0.351904 0.000000
0.774624 0.351781 0.000000
0.808896 0.352911 0.000000
0.842191 0.354894 0.000000
0.874449 0.358190 0.000000
0.905364 0.362524 0.000000
0.934936 0.367834 0.000000
0.963012 0.374823 0.000000
0.989563 0.382971 0.000000
1.000000 0.392401 0.000000
0.091981 0.391974 0.160708
0.097353 0.392157 0.161135
0.103853 0.392340 0.161563
0.117037 0.392828 0.162844
0.135225 0.393561 0.164614
0.144686 0.394018 0.157870
0.166690 0.394049 0.158541
0.190433 0.394232 0.159457
0.215885 0.394568 0.160586
0.242679 0.395300 0.162081
0.270909 0.397101 0.160494
0.302159 0.400885 0.152163
0.336828 0.404486 0.142306
0.374792 0.407538 0.130007
0.415412 0.409857 0.114534
0.454902 0.408179 0.096345
0.493782 0.406256 0.075837
0.533684 0.405188 0.030457
0.575006 0.404730 0.000000
0.617334 0.405005 0.000000
0.659937 0.405768 0.000000
0.702358 0.406897 0.000000
0.743862 0.407996 0.000000
0.781338 0.408576 0.000000
0.814511 0.408728 0.000000
0.846830 0.409827 0.000000
0.878050 0.411841 0.000000
0.908110 0.414984 0.000000
0.936919 0.419257 0.000000
0.964294 0.424750 0.000000
0.990326 0.431525 0.000000
1.000000 0.439216 0.000000
0.104219 0.432959 0.178195
0.108766 0.433265 0.178561
0.114870 0.433265 0.178958
0.126894 0.433539 0.179904
0.144503 0.433936 0.181521
0.153902 0.434577 0.175448
0.173953 0.434424 0.174868
0.197147 0.434485 0.175448
0.222202 0.434852 0.176547
0.248997 0.435523 0.177829
0.276951 0.436652 0.179324
0.306493 0.439460 0.175265
0.338811 0.443183 0.166506
0.374243 0.446693 0.155856
0.412207 0.449378 0.143160
0.452064 0.451026 0.127413
0.491249 0.449897 0.108248
0.530938 0.449378 0.087251
0.572076 0.450721 0.051118
0.614130 0.452430 0.000000
0.656458 0.454261 0.000000
0.698634 0.456275 0.000000
0.739986 0.458228 0.000000
0.780240 0.460182 0.000000
0.818875 0.461982 0.000000
0.851896 0.462745 0.000000
0.882444 0.464027 0.000000
0.911925 0.466438 0.000000
0.940154 0.469978 0.000000
0.966979 0.474617 0.000000
0.992554 0.480323 0.000000
1.000000 0.486854 0.000000
0.114107 0.474067 0.195132
0.118868 0.474434 0.195529
0.124208 0.474647 0.195834
0.135836 0.475044 0.196536
0.152468 0.475624 0.197910
0.167178 0.476539 0.195895
0.180728 0.477089 0.190707
0.204105 0.477424 0.191470
0.229313 0.477913 0.192477
0.255955 0.478614 0.193606
0.284123 0.479377 0.194827
0.313268 0.480293 0.196201
0.343511 0.483101 0.189242
0.376654 0.486000 0.179660
0.412085 0.488441 0.168368
0.449683 0.490394 0.154879
0.488930 0.491768 0.138735
0.527825 0.491249 0.119173
0.569207 0.493019 0.097688
0.611536 0.496468 0.065797
0.654017 0.499855 0.000000
0.696345 0.503075 0.000000
0.737789 0.506065 0.000000
0.778042 0.508782 0.000000
0.816739 0.511345 0.000000
0.853574 0.513695 0.000000
0.888273 0.515831 0.000000
0.916686 0.517235 0.000000
0.943816 0.519585 0.000000
0.969635 0.522911 0.000000
0.994263 0.527123 0.000000
1.000000 0.532219 0.000000
0.122805 0.515007 0.211368
0.126711 0.515221 0.211460
0.132143 0.515282 0.211856
0.143191 0.515709 0.212375
0.159030 0.516442 0.213413
0.178470 0.517540 0.214725
0.185733 0.518364 0.205264
0.209323 0.518669 0.205844
0.234745 0.519158 0.206607
0.261631 0.519829 0.207706
0.289982 0.520806 0.208865
0.319402 0.521782 0.210025
0.349523 0.523033 0.210239
0.381292 0.525933 0.201602
0.415259 0.528405 0.191531
0.450935 0.530266 0.179721
0.488441 0.531762 0.165927
0.527153 0.533074 0.149660
0.564935 0.532128 0.130190
0.608148 0.536248 0.108309
0.650507 0.540887 0.077852
0.692592 0.545068 0.000000
0.733944 0.548943 0.000000
0.774289 0.552575 0.000000
0.813077 0.555810 0.000000
0.850004 0.558892 0.000000
0.884886 0.561730 0.000000
0.917449 0.564355 0.000000
0.946685 0.566674 0.000000
0.971740 0.568994 0.000000
0.995758 0.572259 0.000000
1.000000 0.576257 0.000000
0.130098 0.557244 0.227817
0.134279 0.557702 0.228000
0.141787 0.569574 0.233005
0.152804 0.569879 0.233310
0.168399 0.570459 0.233799
0.187533 0.571191 0.234409
0.197147 0.571923 0.226139
0.218021 0.571923 0.223789
0.244572 0.572015 0.224460
0.272587 0.572320 0.225254
0.301671 0.572778 0.226230
0.331884 0.573236 0.227390
0.362676 0.573480 0.228458
0.394018 0.574334 0.225895
0.426825 0.576196 0.216495
0.461280 0.577539 0.205570
0.497169 0.578668 0.193332
0.534173 0.579461 0.179049
0.572229 0.580163 0.162448
0.609888 0.579767 0.142977
0.652613 0.583825 0.121187
0.694118 0.588525 0.092653
0.734951 0.592828 0.031952
0.774563 0.596735 0.000000
0.812436 0.599969 0.000000
0.848508 0.602838 0.000000
0.882597 0.605463 0.000000
0.914611 0.608057 0.000000
0.944518 0.610651 0.000000
0.972351 0.613275 0.000000
0.997101 0.615686 0.000000
1.000000 0.618647 0.000000
0.138277 0.602167 0.245945
0.142428 0.603815 0.246708
0.148104 0.605585 0.247379
0.158816 0.607324 0.248264
0.174166 0.608972 0.248844
0.193362 0.610193 0.249516
0.208316 0.611353 0.245151
0.222171 0.611872 0.237705
0.249210 0.612055 0.238315
0.277440 0.612360 0.239200
0.306920 0.612757 0.240085
0.337530 0.613214 0.241215
0.368719 0.613428 0.242405
0.400275 0.613519 0.243473
0.432136 0.614405 0.238010
0.465339 0.615656 0.228275
0.499947 0.616632 0.217075
0.535607 0.617456 0.204623
0.572412 0.618311 0.190402
0.610010 0.619257 0.173922
0.648127 0.620020 0.154726
0.690608 0.624781 0.133364
0.731502 0.629694 0.107210
0.771145 0.634424 0.068544
0.809140 0.638453 0.000000
0.845365 0.642023 0.000000
0.879515 0.645289 0.000000
0.911589 0.648371 0.000000
0.941466 0.651545 0.000000
0.969329 0.654536 0.000000
0.995392 0.657343 0.000000
1.000000 0.659785 0.000000
0.147097 0.641932 0.262913
0.151186 0.643427 0.263645
0.156435 0.645075 0.264317
0.166781 0.646632 0.265019
0.181979 0.648127 0.265385
0.200443 0.649378 0.265660
0.221042 0.650477 0.265141
0.227054 0.651484 0.252476
0.254520 0.651667 0.253208
0.283268 0.651942 0.253910
0.313237 0.652338 0.255009
0.344091 0.652796 0.256168
0.375586 0.652949 0.257267
0.407385 0.653071 0.258427
0.439277 0.652827 0.259617
0.471504 0.653773 0.251560
0.504906 0.654658 0.241337
0.539391 0.655421 0.229984
0.574975 0.656245 0.217350
0.611444 0.657221 0.203037
0.648615 0.658259 0.187015
0.686732 0.659907 0.168185
0.728695 0.665126 0.147341
0.768276 0.669795 0.124300
0.806241 0.674495 0.092805
0.842344 0.678523 0.013458
0.876402 0.682155 0.000000
0.908385 0.685634 0.000000
0.938201 0.689021 0.000000
0.966003 0.692439 0.000000
0.992065 0.695705 0.000000
1.000000 0.698726 0.000000
0.157504 0.681086 0.281041
0.161654 0.682429 0.281651
0.166720 0.683894 0.282353
0.176913 0.685420 0.282902
0.191623 0.686732 0.283268
0.209689 0.687800 0.283330
0.230503 0.688838 0.283238
0.239628 0.689906 0.273075
0.261173 0.690272 0.269230
0.290105 0.690455 0.270115
0.320287 0.690730 0.270970
0.351354 0.690974 0.272221
0.382940 0.691127 0.273411
0.414984 0.691157 0.274693
0.447089 0.691127 0.276005
0.479194 0.691218 0.275792
0.512016 0.692470 0.266667
0.545953 0.693782 0.256657
0.581109 0.695186 0.245548
0.617121 0.696742 0.233371
0.653925 0.698390 0.219577
0.691096 0.700069 0.204044
0.729122 0.702358 0.186069
0.770413 0.708125 0.166476
0.808408 0.712490 0.146731
0.844297 0.717037 0.121675
0.878019 0.720974 0.087282
0.909575 0.724636 0.000000
0.938842 0.728145 0.000000
0.966155 0.731624 0.000000
0.991760 0.734981 0.000000
1.000000 0.738125 0.000000
0.173709 0.724056 0.303105
0.177218 0.724727 0.303471
0.181643 0.725338 0.303655
0.191196 0.726009 0.303807
0.205173 0.726680 0.303899
0.222660 0.727352 0.303746
0.243198 0.728206 0.303563
0.258122 0.729244 0.297856
0.271336 0.730220 0.288396
0.300786 0.730495 0.289403
0.331212 0.730922 0.290684
0.362554 0.731258 0.291997
0.394385 0.731380 0.293339
0.426337 0.731319 0.294835
0.458473 0.731167 0.296239
0.490578 0.730922 0.297856
0.522484 0.731167 0.295140
0.555200 0.732082 0.285679
0.588891 0.733059 0.275425
0.623438 0.734096 0.264195
0.658595 0.735195 0.251774
0.694179 0.736233 0.238010
0.729763 0.737301 0.222507
0.765835 0.739010 0.204929
0.805844 0.744808 0.186038
0.841581 0.748409 0.169131
0.875242 0.752712 0.148440
0.906676 0.756649 0.123110
0.935882 0.760403 0.087953
0.963073 0.764004 0.000000
0.988556 0.767544 0.000000
1.000000 0.770962 0.000000
0.190860 0.760494 0.324010
0.194156 0.761135 0.324376
0.198734 0.761746 0.324590
0.207889 0.762295 0.324773
0.221103 0.762875 0.324926
0.237919 0.763394 0.324743
0.257755 0.763973 0.324651
0.278264 0.764736 0.323217
0.283207 0.765957 0.308568
0.312016 0.766079 0.309392
0.342077 0.766323 0.310613
0.373083 0.766476 0.312108
0.404578 0.766476 0.313573
0.436622 0.766415 0.315251
0.468482 0.766293 0.316930
0.500389 0.766110 0.318730
0.532158 0.765927 0.320806
0.563867 0.766567 0.315557
0.596399 0.767483 0.306310
0.629816 0.768490 0.296086
0.663844 0.769528 0.284947
0.698268 0.770596 0.272801
0.732876 0.771695 0.259434
0.767269 0.772732 0.244388
0.798978 0.771725 0.225315
0.837980 0.778012 0.207279
0.871611 0.781155 0.193362
0.902983 0.785336 0.176516
0.932128 0.789242 0.157259
0.959319 0.792996 0.133608
0.984894 0.796780 0.100801
1.000000 0.800504 0.014191
0.215030 0.798795 0.349371
0.218265 0.799435 0.349828
0.222599 0.799863 0.350103
0.231022 0.800168 0.350164
0.243442 0.800351 0.350103
0.259373 0.800534 0.350042
0.278569 0.800656 0.350042
0.300633 0.800870 0.350225
0.308934 0.801541 0.338811
0.328405 0.801633 0.333532
0.357519 0.801236 0.334539
0.387457 0.800900 0.335790
0.418219 0.800534 0.337224
0.449073 0.800046 0.338781
0.480079 0.799344 0.340215
0.511009 0.798642 0.342016
0.541863 0.797971 0.343938
0.572778 0.797482 0.346136
0.603662 0.798154 0.338018
0.635554 0.799039 0.328649
0.668299 0.800015 0.318639
0.701411 0.800992 0.307713
0.734524 0.801755 0.295628
0.767391 0.802365 0.282200
0.799680 0.802792 0.267063
0.831601 0.803494 0.250248
0.869505 0.810300 0.233371
0.900481 0.812894 0.222019
0.929290 0.816556 0.208896
0.956268 0.820279 0.194156
0.981689 0.824033 0.177584
1.000000 0.827848 0.157290
0.239994 0.830655 0.373510
0.243137 0.831205 0.373999
0.247257 0.831571 0.374304
0.255161 0.831815 0.374578
0.267063 0.831907 0.374701
0.282414 0.831998 0.374884
0.301152 0.832029 0.375433
0.322637 0.832151 0.376226
0.337224 0.832670 0.370397
0.348241 0.833371 0.359838
0.376165 0.833066 0.361151
0.405432 0.832761 0.362768
0.435248 0.832456 0.364538
0.465370 0.831998 0.366400
0.495674 0.831418 0.368353
0.525994 0.830747 0.370489
0.556329 0.830076 0.372869
0.586603 0.829557 0.375586
0.616632 0.829374 0.376440
0.646693 0.830076 0.367712
0.677516 0.830747 0.358434
0.708858 0.831449 0.348302
0.740322 0.832029 0.337224
0.771664 0.832456 0.325017
0.802640 0.832761 0.311498
0.833036 0.832975 0.296574
0.862669 0.833249 0.280308
0.898039 0.839658 0.265476
0.927855 0.843259 0.256626
0.954498 0.846586 0.247501
0.979675 0.850309 0.237552
1.000000 0.854215 0.227146
0.271092 0.861418 0.401038
0.274235 0.861723 0.401495
0.277836 0.861875 0.401740
0.285313 0.861875 0.402014
0.296239 0.861753 0.402350
0.310887 0.861601 0.402899
0.328649 0.861418 0.403723
0.349767 0.861234 0.405219
0.370214 0.861265 0.404974
0.375250 0.862211 0.391455
0.399664 0.861967 0.391394
0.427497 0.861662 0.393286
0.455879 0.861265 0.395361
0.484962 0.860746 0.397620
0.513970 0.860075 0.399969
0.543206 0.859312 0.402350
0.572381 0.858518 0.404944
0.601556 0.857786 0.408026
0.630701 0.857298 0.411536
0.659297 0.857298 0.410010
0.687922 0.857847 0.401251
0.717128 0.858335 0.391852
0.746670 0.858732 0.381598
0.776181 0.859007 0.370459
0.805509 0.859190 0.358007
0.834409 0.859281 0.344457
0.862730 0.859403 0.329717
0.890227 0.859648 0.313603
0.923003 0.865751 0.300908
0.951629 0.870054 0.294438
0.976593 0.873289 0.289220
1.000000 0.877317 0.284245
0.306340 0.888609 0.430335
0.309148 0.888792 0.430701
0.312627 0.888853 0.431098
0.319646 0.888853 0.431647
0.330632 0.888762 0.432532
0.345068 0.888731 0.433997
0.363195 0.888823 0.436255
0.384710 0.888975 0.439612
0.409796 0.889128 0.444343
0.418769 0.890349 0.435767
0.435584 0.891081 0.431739
0.462226 0.891112 0.434882
0.489479 0.890990 0.438148
0.517174 0.890654 0.441352
0.544854 0.890105 0.444495
0.572442 0.889342 0.447425
0.600061 0.888487 0.450599
0.627558 0.887663 0.454108
0.655146 0.886931 0.458106
0.682460 0.886351 0.462593
0.708614 0.886442 0.458259
0.734981 0.886748 0.449744
0.761654 0.886961 0.440284
0.788602 0.887083 0.429938
0.815457 0.887114 0.418524
0.842130 0.887114 0.405921
0.868406 0.887144 0.392187
0.894072 0.887266 0.377356
0.919127 0.887510 0.361395
0.949248 0.893370 0.350988
0.976471 0.898405 0.348089
0.999634 0.901549 0.348272
0.355810 0.916533 0.469001
0.358343 0.916594 0.469429
0.361456 0.916533 0.469886
0.367895 0.916350 0.470588
0.378119 0.916045 0.471809
0.391730 0.915648 0.473793
0.408789 0.915251 0.476631
0.428992 0.914824 0.480507
0.452094 0.914366 0.485603
0.466255 0.914672 0.482826
0.474647 0.915373 0.473945
0.498085 0.914916 0.476478
0.522301 0.914397 0.479225
0.547234 0.913695 0.482155
