cubelut/Portrait9.cube
# Created by Adobe Lightroom plugin Export LUT (1.18.0)
# www.johnrellis.com/lightroom/exportlut.htm
# Preset: CP - INTERIOR DESIGN 13
# Color profile: /Library/Application Support/Adobe/Color/Profiles/Recommended/AdobeRGB1998.icc
LUT_3D_SIZE 5
DOMAIN_MIN 0.000000 0.000000 0.000000
DOMAIN_MAX 0.903226 0.903226 0.903226
0.000000 0.000000 0.000000
0.153719 0.005524 0.000000
0.371038 0.000000 0.000000
0.618647 0.000000 0.000000
0.908232 0.000000 0.000000
0.021210 0.185306 0.072084
0.169650 0.184482 0.049561
0.400366 0.127352 0.000000
0.648280 0.000000 0.000000
0.922240 0.000000 0.000000
0.104219 0.432959 0.178195
0.197147 0.434485 0.175448
0.412207 0.449378 0.143160
0.698634 0.456275 0.000000
0.940154 0.469978 0.000000
0.173709 0.724056 0.303105
0.258122 0.729244 0.297856
0.458473 0.731167 0.296239
0.694179 0.736233 0.238010
0.935882 0.760403 0.087953
0.404059 0.938354 0.506523
0.473121 0.936187 0.520653
0.596002 0.930694 0.520165
0.763912 0.926665 0.550286
0.917998 0.928923 0.486488
0.017487 0.033906 0.174105
0.183658 0.005341 0.163607
0.376379 0.000000 0.149477
0.617884 0.000000 0.130678
0.902556 0.000000 0.000000
0.058228 0.195651 0.198001
0.202548 0.197177 0.195651
0.399695 0.172641 0.174899
0.641260 0.090242 0.140475
0.911192 0.000000 0.000000
0.134401 0.433204 0.250919
0.239689 0.438361 0.263890
0.422919 0.446876 0.245396
0.699062 0.459541 0.169131
0.935058 0.471839 0.000000
0.196170 0.722286 0.359442
0.285954 0.727382 0.363043
0.473518 0.732448 0.359075
0.699886 0.737057 0.316350
0.936736 0.759701 0.224430
0.404120 0.937591 0.536370
0.472511 0.935454 0.548486
0.616083 0.932219 0.566979
0.773800 0.927306 0.594720
0.919463 0.929870 0.538231
0.000000 0.064546 0.398413
0.198398 0.037720 0.402747
0.428077 0.000000 0.375982
0.641627 0.000000 0.352270
0.895750 0.000000 0.334661
0.112551 0.203067 0.407416
0.225620 0.202823 0.411139
0.440467 0.193118 0.394751
0.650416 0.160037 0.369207
0.898863 0.000000 0.336584
0.155581 0.449226 0.435798
0.253330 0.453834 0.436774
0.470954 0.471443 0.445472
0.695308 0.452461 0.410132
0.924285 0.440864 0.351415
0.208835 0.719142 0.500206
0.295750 0.721096 0.501366
0.511070 0.734524 0.519738
0.720546 0.743648 0.508598
0.939818 0.753780 0.437903
0.413397 0.933318 0.632258
0.470954 0.932830 0.637110
0.628931 0.929839 0.657984
0.786282 0.925780 0.683803
0.919097 0.928649 0.652155
0.096010 0.078462 0.660395
0.254795 0.037507 0.665461
0.526085 0.000000 0.681270
0.710903 0.000000 0.631159
0.911070 0.000000 0.615625
0.152407 0.212070 0.663539
0.271885 0.207492 0.667567
0.523705 0.179416 0.682155
0.713771 0.145418 0.638178
0.910521 0.000000 0.616114
0.155093 0.462104 0.658198
0.254215 0.460822 0.662196
0.488808 0.454627 0.683711
0.724697 0.455299 0.664027
0.912688 0.415869 0.624109
0.232578 0.727901 0.696254
0.311833 0.728145 0.696162
0.507317 0.733974 0.701228
0.751827 0.754910 0.721187
0.922637 0.726497 0.671504
0.433997 0.929686 0.767575
0.482582 0.929046 0.768582
0.617121 0.928099 0.773007
0.793881 0.927001 0.790677
0.923095 0.930144 0.790463
0.332738 0.106752 0.903319
0.410956 0.077699 0.904021
0.606195 0.000000 0.906981
0.819577 0.000000 0.909056
0.943114 0.000000 0.868864
0.327855 0.235996 0.902251
0.404761 0.228397 0.903014
0.599115 0.200748 0.906126
0.817319 0.173495 0.909789
0.941802 0.152804 0.870207
0.292302 0.489815 0.897673
0.335454 0.464057 0.899687
0.557366 0.462715 0.902892
0.799313 0.483101 0.908568
0.937133 0.466163 0.876402
0.350134 0.759426 0.895232
0.397528 0.755612 0.894530
0.528374 0.739345 0.892882
0.757137 0.730648 0.903807
0.930144 0.743099 0.891203
0.526696 0.935027 0.913085
0.556085 0.933989 0.912871
0.650141 0.931212 0.912902
0.785946 0.927581 0.913298
0.937560 0.937011 0.925505
