cubelut/Portrait3.cube
# Created by Adobe Lightroom plugin Export LUT (1.18.0)
# www.johnrellis.com/lightroom/exportlut.htm
# Preset: Portrait Effect 1
# Color profile: /Library/Application Support/Adobe/Color/Profiles/Recommended/AdobeRGB1998.icc
LUT_3D_SIZE 32
DOMAIN_MIN 0.0 0.0 0.0
DOMAIN_MAX 1.0 1.0 1.0
0.000000 0.094606 0.330327
0.000000 0.092653 0.330449
0.088441 0.089113 0.330449
0.165499 0.083558 0.330541
0.226261 0.075502 0.330571
0.277684 0.063386 0.330388
0.322972 0.037110 0.329900
0.363012 0.001190 0.329198
0.399115 0.000000 0.328283
0.431861 0.000000 0.327214
0.462257 0.000000 0.326146
0.490944 0.000000 0.324956
0.518273 0.000000 0.324804
0.544701 0.000000 0.325933
0.570550 0.000000 0.327184
0.596429 0.000000 0.328099
0.622583 0.000000 0.328618
0.649317 0.000000 0.328740
0.676417 0.000000 0.328710
0.703517 0.000000 0.328344
0.730037 0.000000 0.327825
0.762783 0.000000 0.326909
0.794339 0.000000 0.325750
0.822904 0.000000 0.324315
0.849302 0.000000 0.322393
0.874571 0.000000 0.320134
0.899535 0.000000 0.317235
0.924773 0.000000 0.313695
0.950591 0.000000 0.309209
0.977050 0.000000 0.306401
1.000000 0.000000 0.305669
1.000000 0.000000 0.305180
0.000000 0.127291 0.331060
0.000000 0.125612 0.330816
0.092012 0.123781 0.330449
0.166506 0.118013 0.330083
0.226627 0.109743 0.330022
0.277317 0.100008 0.329839
0.322148 0.087892 0.329412
0.361822 0.075044 0.328710
0.397589 0.059052 0.327886
0.430182 0.023041 0.326879
0.460334 0.000000 0.325841
0.488716 0.000000 0.325353
0.515801 0.000000 0.325628
0.542016 0.000000 0.326818
0.567742 0.000000 0.327794
0.593378 0.000000 0.328771
0.619348 0.000000 0.329015
0.645869 0.000000 0.329076
0.672969 0.000000 0.329046
0.700191 0.000000 0.328618
0.726833 0.000000 0.328069
0.759487 0.000000 0.327123
0.790219 0.000000 0.325963
0.818418 0.000000 0.324529
0.844663 0.000000 0.322637
0.869902 0.000000 0.320439
0.895079 0.000000 0.317510
0.920500 0.000000 0.314122
0.946593 0.000000 0.309575
0.973297 0.000000 0.306371
1.000000 0.000000 0.305547
1.000000 0.000000 0.305089
0.000000 0.160159 0.332128
0.000000 0.158480 0.331640
0.095491 0.155795 0.331365
0.167544 0.149660 0.330938
0.227146 0.141207 0.330358
0.277317 0.131411 0.329747
0.321538 0.120882 0.328923
0.360723 0.109621 0.328222
0.396307 0.098390 0.327520
0.428779 0.085603 0.326940
0.458808 0.072663 0.326390
0.487068 0.061097 0.326268
0.514061 0.051728 0.326818
0.540307 0.055909 0.327794
0.565972 0.061585 0.328710
0.591669 0.063264 0.329290
0.617456 0.063661 0.329595
0.643885 0.062440 0.329503
0.671015 0.059815 0.329351
0.698329 0.055909 0.328954
0.725124 0.048524 0.328313
0.758083 0.036530 0.327367
0.788327 0.022980 0.326207
0.816190 0.000519 0.324773
0.842283 0.000000 0.322972
0.867460 0.000000 0.320684
0.892638 0.000000 0.317845
0.918181 0.000000 0.314427
0.944457 0.000000 0.309941
0.971313 0.000000 0.306188
0.998657 0.000000 0.305394
1.000000 0.000000 0.304814
0.000000 0.203738 0.334813
0.053162 0.202762 0.334478
0.109621 0.201297 0.334112
0.172519 0.197726 0.333165
0.229862 0.189639 0.332341
0.278782 0.179599 0.331426
0.321782 0.168887 0.330694
0.360357 0.158694 0.330083
0.395422 0.147982 0.329351
0.427466 0.138155 0.328832
0.457191 0.129305 0.328496
0.485298 0.121889 0.328435
0.512078 0.117739 0.328832
0.538201 0.115785 0.329686
0.563958 0.113497 0.330053
0.589563 0.111574 0.330358
0.615351 0.109651 0.330449
0.641566 0.107088 0.330297
0.668421 0.105074 0.330083
0.695521 0.102388 0.329625
0.723262 0.098817 0.328923
0.755581 0.096254 0.328008
0.785122 0.092378 0.326818
0.812985 0.086580 0.325353
0.839719 0.076997 0.323430
0.865690 0.061677 0.321202
0.891539 0.012665 0.318334
0.917540 0.000000 0.314916
0.943938 0.000000 0.310521
0.970764 0.000000 0.305608
0.997772 0.000000 0.304814
1.000000 0.000000 0.304295
0.059602 0.249149 0.337285
0.097200 0.248386 0.337041
0.130220 0.246983 0.336767
0.178988 0.243900 0.336156
0.232303 0.239170 0.335088
0.279789 0.230045 0.333928
0.321355 0.219150 0.333227
0.358923 0.208469 0.332555
0.393408 0.198062 0.331945
0.424903 0.189151 0.331609
0.454444 0.180423 0.331212
0.482399 0.173159 0.331212
0.509239 0.167208 0.331334
0.535485 0.162783 0.331518
0.561486 0.158694 0.331609
0.587396 0.155306 0.331640
0.613550 0.152041 0.331609
0.640040 0.149508 0.331426
0.667109 0.146548 0.331060
0.694301 0.143923 0.330510
0.724086 0.141512 0.329747
0.755001 0.139559 0.328771
0.783658 0.136782 0.327642
0.811093 0.132601 0.326146
0.837644 0.126497 0.324254
0.863645 0.118196 0.321996
0.889555 0.106844 0.319158
0.915526 0.089326 0.315648
0.941894 0.059815 0.311345
0.968750 0.000000 0.305821
0.995911 0.000000 0.303929
1.000000 0.000000 0.303410
0.096101 0.291478 0.338598
0.119814 0.290776 0.338445
0.145052 0.289464 0.338201
0.185794 0.286931 0.337621
0.233585 0.282689 0.336858
0.281895 0.277501 0.335821
0.324010 0.267582 0.334966
0.360204 0.256046 0.334539
0.393561 0.245151 0.334112
0.424475 0.235233 0.333806
0.453620 0.226291 0.333501
0.481392 0.218235 0.333379
0.508080 0.211307 0.333288
0.534386 0.205478 0.333288
0.560388 0.200534 0.333196
0.586419 0.196536 0.333165
0.612757 0.192813 0.333013
0.639399 0.189761 0.332708
0.666712 0.186770 0.332250
0.694118 0.183871 0.331670
0.726436 0.182742 0.330816
0.756588 0.180789 0.329870
0.812619 0.188052 0.328496
0.840269 0.185397 0.327001
0.866148 0.180941 0.325048
0.890929 0.174594 0.322667
0.915099 0.166476 0.319707
0.939239 0.155215 0.316197
0.963684 0.140383 0.311681
0.988800 0.118563 0.306065
1.000000 0.088991 0.301701
1.000000 0.037995 0.301427
0.125460 0.334356 0.340002
0.142855 0.333471 0.339849
0.162631 0.332433 0.339635
0.198001 0.330205 0.339269
0.240299 0.326757 0.338598
0.285283 0.322026 0.337743
0.330175 0.316472 0.336736
0.369238 0.306676 0.335943
0.401312 0.294102 0.335851
0.431708 0.282933 0.335698
0.460517 0.273075 0.335515
0.488075 0.264164 0.335363
0.514641 0.256535 0.335332
0.540734 0.249790 0.335241
0.566308 0.243748 0.335027
0.591852 0.238773 0.334874
0.617792 0.234501 0.334600
0.644434 0.230594 0.334112
0.671870 0.227634 0.333623
0.704433 0.226383 0.332921
0.737545 0.226139 0.332128
0.769619 0.225162 0.331121
0.800717 0.224369 0.329931
0.830716 0.222263 0.328344
0.859037 0.219364 0.326421
0.885405 0.214420 0.324071
0.910460 0.207889 0.321202
0.934966 0.199313 0.317632
0.959686 0.187930 0.313146
0.984710 0.173129 0.307652
1.000000 0.152193 0.300603
1.000000 0.134188 0.299901
0.151308 0.365728 0.341924
0.163699 0.365118 0.341741
0.178744 0.364172 0.341588
0.207431 0.362188 0.341222
0.243687 0.359289 0.340734
0.283146 0.355413 0.340093
0.324102 0.350683 0.339391
0.365148 0.345586 0.338506
0.401770 0.337163 0.337865
0.431281 0.325109 0.337774
0.459663 0.314549 0.337713
0.486915 0.305180 0.337499
0.513298 0.296818 0.337377
0.539117 0.289525 0.337255
0.564660 0.283024 0.337102
0.590112 0.277409 0.336767
0.616052 0.272618 0.336461
0.642542 0.268589 0.335912
0.673762 0.266819 0.335210
0.705837 0.265904 0.334539
0.737087 0.265019 0.333745
0.767727 0.263828 0.332769
0.797787 0.262486 0.331518
0.826932 0.260533 0.330053
0.854765 0.257511 0.328099
0.880919 0.253361 0.325750
0.905974 0.247440 0.322820
0.930602 0.239902 0.319188
0.955535 0.230838 0.314855
0.980743 0.218997 0.309392
1.000000 0.203861 0.302586
1.000000 0.187320 0.298009
0.178653 0.393988 0.344549
0.187503 0.393408 0.344518
0.199252 0.392676 0.344366
0.221714 0.391089 0.344152
0.251865 0.388708 0.343633
0.285832 0.385473 0.343114
0.322087 0.381689 0.342412
0.359411 0.377478 0.341619
0.397253 0.372808 0.340764
0.432349 0.366186 0.340032
0.460090 0.355108 0.340002
0.487007 0.345098 0.339788
0.513207 0.336431 0.339696
0.538903 0.328649 0.339513
0.564294 0.321782 0.339300
0.589593 0.315831 0.338964
0.615473 0.310643 0.338445
0.646357 0.308568 0.337865
0.677211 0.306767 0.337255
0.707515 0.305058 0.336522
0.737362 0.303624 0.335637
0.766964 0.302007 0.334630
0.796139 0.300359 0.333379
0.824613 0.298436 0.331853
0.851957 0.295628 0.329992
0.877867 0.291325 0.327611
0.902800 0.285954 0.324712
0.927398 0.279423 0.321141
0.952300 0.271397 0.316686
0.977539 0.261479 0.311376
1.000000 0.249180 0.304662
1.000000 0.233097 0.296147
0.205600 0.420111 0.347753
0.212406 0.419654 0.347723
0.220768 0.419013 0.347539
0.238590 0.417639 0.347234
0.263157 0.415686 0.346899
0.292180 0.413062 0.346349
0.323949 0.409796 0.345800
0.357305 0.406287 0.345068
0.391821 0.402472 0.344244
0.426673 0.398413 0.343297
0.460365 0.393072 0.342504
0.486824 0.382910 0.342321
0.512810 0.374090 0.342229
0.538537 0.366186 0.342046
0.564233 0.359289 0.341680
0.592584 0.355047 0.341375
0.622156 0.351781 0.340826
0.652094 0.349187 0.340124
0.681605 0.346868 0.339483
0.710384 0.344396 0.338750
0.738674 0.342107 0.337835
0.766506 0.339788 0.336797
0.794003 0.337346 0.335424
0.821012 0.334752 0.333898
0.847410 0.331487 0.331975
0.872953 0.327459 0.329625
0.898100 0.322576 0.326665
0.923217 0.316808 0.323156
0.948669 0.310002 0.318853
0.974517 0.301732 0.313481
1.000000 0.291569 0.306889
1.000000 0.278569 0.298589
0.230045 0.444312 0.351141
0.235264 0.444007 0.351049
0.242222 0.443549 0.350927
0.256382 0.442512 0.350744
0.276799 0.440955 0.350347
0.301549 0.438972 0.349950
0.329564 0.436591 0.349401
0.359319 0.433845 0.348760
0.390784 0.430701 0.347967
0.423041 0.427405 0.347143
0.455604 0.423774 0.346166
0.487526 0.419348 0.345129
0.514427 0.411383 0.345068
0.541985 0.405005 0.344823
0.569604 0.399512 0.344488
0.597467 0.394903 0.344091
0.625818 0.390906 0.343450
0.654566 0.387793 0.342718
0.682795 0.384527 0.341924
0.710536 0.381598 0.341009
0.738033 0.378912 0.340154
0.765286 0.376287 0.339055
0.792386 0.373816 0.337804
0.819089 0.371130 0.336248
0.845151 0.367956 0.334264
0.870420 0.363897 0.331914
0.895262 0.359136 0.329015
0.920134 0.353826 0.325444
0.945434 0.347723 0.321202
0.971160 0.340368 0.315953
0.997498 0.331579 0.309483
1.000000 0.320531 0.301335
0.254032 0.469276 0.354772
0.258244 0.469001 0.354711
0.263920 0.468635 0.354681
0.275425 0.467811 0.354437
0.292699 0.466621 0.354131
0.313909 0.465064 0.353674
0.338323 0.463172 0.353216
0.365087 0.461006 0.352575
0.393683 0.458564 0.351873
0.423926 0.456397 0.351080
0.456428 0.455451 0.350378
0.489265 0.454108 0.349523
0.538964 0.467018 0.349950
0.567346 0.461036 0.349462
0.595727 0.455665 0.348913
0.624384 0.450904 0.348150
0.653193 0.446815 0.347204
0.680598 0.442145 0.346319
0.706569 0.437324 0.345556
0.732357 0.432807 0.344671
0.757778 0.428626 0.343725
0.783169 0.424720 0.342596
0.808164 0.420813 0.341222
0.833005 0.416968 0.339605
0.857420 0.412726 0.337621
0.881346 0.408148 0.335180
0.905028 0.402991 0.332250
0.928679 0.397223 0.328649
0.952728 0.390906 0.324285
0.977386 0.383764 0.319036
1.000000 0.375372 0.312505
1.000000 0.365148 0.304295
0.280888 0.500755 0.359167
0.284306 0.500511 0.359075
0.288731 0.499916 0.358953
0.298253 0.498756 0.358709
0.312383 0.497169 0.358312
0.331090 0.496162 0.357916
0.353521 0.495430 0.357549
0.378637 0.494697 0.357122
0.406287 0.494209 0.356573
0.435981 0.494179 0.355962
0.467506 0.494514 0.355352
0.500328 0.495064 0.354620
0.533867 0.495521 0.353765
0.567346 0.495338 0.352667
0.596246 0.491066 0.351934
0.625025 0.486976 0.351171
0.653285 0.482765 0.350103
0.679713 0.477699 0.349126
0.704952 0.472450 0.348302
0.729885 0.467384 0.347387
0.754696 0.462837 0.346349
0.779538 0.458534 0.345159
0.804044 0.454505 0.343816
0.828489 0.450416 0.342138
0.852628 0.446143 0.340093
0.876402 0.441596 0.337652
0.900053 0.436622 0.334752
0.923766 0.431434 0.331304
0.947906 0.425635 0.327062
0.972839 0.419501 0.321904
0.998383 0.412268 0.315526
1.000000 0.403571 0.307591
0.304540 0.532891 0.363378
0.307622 0.532738 0.363256
0.311467 0.532250 0.363195
0.319890 0.531426 0.362951
0.332403 0.530175 0.362585
0.348760 0.528679 0.362158
0.368353 0.527428 0.361669
0.390784 0.526238 0.361089
0.415686 0.525444 0.360510
0.442908 0.525200 0.359899
0.472175 0.525505 0.359228
0.502861 0.526146 0.358434
0.534417 0.526574 0.357519
0.566064 0.526482 0.356420
0.597253 0.525383 0.355077
0.624811 0.520897 0.354009
0.652247 0.516594 0.352911
0.677974 0.511284 0.351995
0.702754 0.505791 0.351080
0.727291 0.500572 0.350042
0.751797 0.495888 0.349065
0.776364 0.491676 0.347875
0.800748 0.487465 0.346471
0.825071 0.483467 0.344762
0.849088 0.479347 0.342779
0.872831 0.474922 0.340429
0.896483 0.470283 0.337469
0.920226 0.465400 0.334081
0.944518 0.460273 0.329931
0.969574 0.454841 0.324926
0.995300 0.448859 0.318914
1.000000 0.441535 0.311162
0.324926 0.565637 0.367102
0.327672 0.565576 0.367041
0.330968 0.564935 0.366888
0.338384 0.563836 0.366613
0.349493 0.562158 0.366278
0.363836 0.560296 0.365759
0.381567 0.558618 0.365240
0.401953 0.557214 0.364660
0.424903 0.556390 0.364019
0.450355 0.556176 0.363378
0.477729 0.556603 0.362615
0.506767 0.557397 0.361822
0.536797 0.558068 0.360876
0.567102 0.558129 0.359747
0.597101 0.557122 0.358434
0.625971 0.554803 0.356939
0.651820 0.549554 0.355718
0.676875 0.544060 0.354681
0.701076 0.538354 0.353735
0.725154 0.533013 0.352728
0.749142 0.528069 0.351690
0.773342 0.523644 0.350469
0.797391 0.519432 0.349035
0.821561 0.515404 0.347387
0.845609 0.511467 0.345434
0.869627 0.507530 0.343084
0.893828 0.503563 0.340368
0.918334 0.499641 0.337102
0.943420 0.495613 0.333165
0.969238 0.491402 0.328405
0.995727 0.486763 0.322576
1.000000 0.480964 0.315221
0.341894 0.597864 0.370245
0.344518 0.597986 0.370214
0.347631 0.597650 0.370092
0.354620 0.596887 0.369909
0.365057 0.595697 0.369512
0.378943 0.594354 0.369085
0.395514 0.593225 0.368597
0.414893 0.592279 0.368078
0.436744 0.591516 0.367437
0.460548 0.591028 0.366735
0.486091 0.590539 0.365942
0.512840 0.590143 0.365087
0.540246 0.589410 0.364080
0.568109 0.588220 0.362921
0.596002 0.586328 0.361608
0.623468 0.583764 0.360113
0.650629 0.580682 0.358526
0.675349 0.575372 0.357244
0.699702 0.570001 0.356359
0.723995 0.565118 0.355383
0.748226 0.560571 0.354345
0.772580 0.556420 0.353246
0.796780 0.552514 0.351873
0.820981 0.548760 0.350256
0.845121 0.545098 0.348363
0.869322 0.541466 0.346136
0.893614 0.537835 0.343481
0.918181 0.534325 0.340276
0.943206 0.530816 0.336614
0.968780 0.527031 0.331975
0.994842 0.522820 0.326452
1.000000 0.517815 0.319432
0.356451 0.626307 0.373205
0.358495 0.626154 0.373083
0.361517 0.625696 0.373022
0.367895 0.624964 0.372778
0.377539 0.623926 0.372473
0.390295 0.622736 0.372045
0.405737 0.621576 0.371588
0.423835 0.620569 0.371008
0.444160 0.619684 0.370459
0.466499 0.619043 0.369757
0.490578 0.618524 0.369024
0.515862 0.618067 0.368170
0.542046 0.617395 0.367224
0.568597 0.616236 0.366217
0.595178 0.614313 0.364935
0.621485 0.611597 0.363500
0.647517 0.608453 0.361913
0.673610 0.605249 0.360235
0.698116 0.600458 0.358770
0.721889 0.595392 0.357855
0.745754 0.590784 0.356817
0.769802 0.586664 0.355657
0.793881 0.582849 0.354345
0.818082 0.579339 0.352789
0.842283 0.575952 0.350927
0.866575 0.572686 0.348852
0.891142 0.569604 0.346319
0.915984 0.566674 0.343297
0.941253 0.563745 0.339818
0.967071 0.560815 0.335546
0.993408 0.557549 0.330205
1.000000 0.553674 0.323674
0.370642 0.653803 0.376410
0.372992 0.654108 0.376440
0.386053 0.671748 0.379004
0.392004 0.670985 0.378790
0.400977 0.669764 0.378393
0.412696 0.668116 0.377905
0.427039 0.666316 0.377325
0.443671 0.664546 0.376623
0.462715 0.662928 0.375921
0.483711 0.661524 0.375158
0.506188 0.660243 0.374334
0.529870 0.658839 0.373419
0.554314 0.657038 0.372381
0.579309 0.654932 0.371191
0.604425 0.652338 0.369818
0.629511 0.649195 0.368292
0.654536 0.645594 0.366613
0.679500 0.641779 0.364813
0.704463 0.637964 0.362890
0.728725 0.633448 0.361120
0.751431 0.627832 0.360082
0.774685 0.623011 0.358953
0.798093 0.618647 0.357580
0.821408 0.614527 0.356023
0.844450 0.610285 0.354162
0.867521 0.606256 0.352026
0.890837 0.602380 0.349462
0.914733 0.599023 0.346502
0.939513 0.596063 0.343023
0.965209 0.593530 0.338933
0.991547 0.590936 0.333989
1.000000 0.587884 0.327855
0.386999 0.684108 0.380529
0.390143 0.686213 0.380896
0.394079 0.688350 0.381170
0.400793 0.689815 0.381384
0.409979 0.690455 0.381262
0.421363 0.689906 0.381018
0.434821 0.688716 0.380407
0.450385 0.687190 0.379828
0.468147 0.685817 0.379156
0.487617 0.684474 0.378393
0.508843 0.683253 0.377569
0.531212 0.681971 0.376684
0.554376 0.680262 0.375677
0.578088 0.678218 0.374395
0.602045 0.675685 0.373083
0.626123 0.672724 0.371527
0.650294 0.669398 0.369909
0.674556 0.665919 0.368109
0.699001 0.662531 0.366278
0.723842 0.659419 0.364324
0.748684 0.656214 0.362432
0.771969 0.651759 0.361303
0.795468 0.647761 0.360052
0.818936 0.644007 0.358526
0.842191 0.640192 0.356847
0.865507 0.636561 0.354742
0.889006 0.633204 0.352300
0.913054 0.630182 0.349493
0.937957 0.627771 0.346258
0.963653 0.625727 0.342473
0.989990 0.623743 0.337774
1.000000 0.621515 0.332067
0.398871 0.706996 0.383795
0.401801 0.708980 0.384161
0.405463 0.710903 0.384436
0.411536 0.712276 0.384558
0.420050 0.712886 0.384558
0.430579 0.712490 0.384283
0.443214 0.711421 0.383795
0.457710 0.710140 0.383154
0.474281 0.708919 0.382483
0.492592 0.707759 0.381750
0.512596 0.706722 0.380987
0.533806 0.705562 0.380133
0.555840 0.703975 0.379065
0.578485 0.702144 0.377935
0.601495 0.699763 0.376562
0.624720 0.697017 0.375067
0.648066 0.693996 0.373327
0.671626 0.690791 0.371649
0.695521 0.687648 0.369787
0.719875 0.684871 0.367834
0.744533 0.682368 0.365881
0.769955 0.680446 0.363836
0.793698 0.676967 0.362585
0.817136 0.673426 0.361212
0.840360 0.669886 0.359564
0.863645 0.666438 0.357549
0.887053 0.663233 0.355200
0.911009 0.660517 0.352514
0.935821 0.658381 0.349462
0.961425 0.656703 0.345830
0.987762 0.655268 0.341466
1.000000 0.653651 0.336156
0.410803 0.730190 0.387274
0.413519 0.732021 0.387640
0.416938 0.733852 0.388006
0.422675 0.735164 0.388159
0.430610 0.735775 0.388159
0.440375 0.735439 0.387884
0.451972 0.734493 0.387366
0.465492 0.733272 0.386755
0.480964 0.732082 0.386053
0.498146 0.730892 0.385382
0.516869 0.729824 0.384497
0.536889 0.728634 0.383673
0.557794 0.727169 0.382605
0.579492 0.725521 0.381445
0.601740 0.723629 0.380194
0.624506 0.721553 0.378759
0.647822 0.719509 0.377264
0.671595 0.717617 0.375677
0.695918 0.715908 0.374029
0.720790 0.714504 0.372320
0.746120 0.713405 0.370611
0.771847 0.712459 0.368750
0.798123 0.711910 0.366613
0.822812 0.709743 0.365240
0.846616 0.706813 0.363806
0.870207 0.703822 0.362127
0.893828 0.700984 0.360052
0.917876 0.698512 0.357641
0.942596 0.696559 0.354803
0.967895 0.695064 0.351446
0.993805 0.693721 0.347509
1.000000 0.692287 0.342596
0.427985 0.761349 0.393072
0.429969 0.762142 0.393256
0.432441 0.762722 0.393378
0.437110 0.762936 0.393317
0.444038 0.762722 0.393164
0.452888 0.761990 0.392737
0.463661 0.761105 0.392218
0.476387 0.760159 0.391669
0.491066 0.759335 0.391028
0.507561 0.758633 0.390387
0.525597 0.757961 0.389715
0.544793 0.757107 0.388830
0.564843 0.755886 0.387823
0.585626 0.754360 0.386664
0.606989 0.752529 0.385321
0.628901 0.750576 0.383856
0.651362 0.748531 0.382300
0.674281 0.746578 0.380621
0.697719 0.744747 0.378912
0.721614 0.743038 0.377111
0.745815 0.741482 0.375189
0.770382 0.740047 0.373236
0.795102 0.738582 0.371099
0.820371 0.737514 0.368780
0.844938 0.735653 0.366888
0.868406 0.732876 0.365301
0.892119 0.730343 0.363378
0.916228 0.728237 0.361151
0.940948 0.726680 0.358556
0.966217 0.725460 0.355413
0.991974 0.724483 0.351781
1.000000 0.723568 0.347234
0.440589 0.784665 0.397681
0.442603 0.785428 0.397894
0.444953 0.786130 0.398016
0.449348 0.786374 0.398016
0.455695 0.786221 0.397803
0.463813 0.785489 0.397406
0.473732 0.784512 0.396857
0.485451 0.783474 0.396185
0.499123 0.782559 0.395544
0.514488 0.781735 0.394873
0.531426 0.781033 0.394141
0.549554 0.780270 0.393256
0.568688 0.779202 0.392279
0.588647 0.777951 0.391150
0.609247 0.776486 0.389868
0.630518 0.774929 0.388403
0.652399 0.773373 0.386877
0.674830 0.771878 0.385321
0.697841 0.770504 0.383703
0.721340 0.769314 0.381994
0.745327 0.768307 0.380194
0.769711 0.767422 0.378302
0.794339 0.766629 0.376318
0.819181 0.765805 0.374151
0.839750 0.760250 0.370397
0.864866 0.759457 0.368109
0.888579 0.757290 0.366369
0.912718 0.755550 0.364324
0.937377 0.754330 0.361852
0.962707 0.753567 0.359106
0.988708 0.753292 0.355718
1.000000 0.753231 0.351781
0.458534 0.814298 0.405249
0.460578 0.815244 0.405554
0.462745 0.815702 0.405707
0.466529 0.815640 0.405615
0.472114 0.815061 0.405188
0.479286 0.814084 0.404639
0.488167 0.812772 0.403906
0.498695 0.811246 0.403021
0.510979 0.809720 0.402075
0.524865 0.808286 0.401129
0.540215 0.806790 0.400061
0.556878 0.805478 0.399023
0.574640 0.804013 0.397803
0.593164 0.802335 0.396460
0.612329 0.800229 0.394873
0.632136 0.798032 0.393164
0.652583 0.795834 0.391394
0.673823 0.793973 0.389654
0.695918 0.792660 0.387945
0.718929 0.791836 0.386297
0.742489 0.791318 0.384649
0.766415 0.790860 0.382849
0.790402 0.790127 0.380865
0.814328 0.789029 0.378576
0.838041 0.787594 0.376043
0.861936 0.786099 0.373114
0.887755 0.786435 0.370367
0.911406 0.784482 0.368383
0.935698 0.783230 0.366064
0.960754 0.782589 0.363470
0.986633 0.782620 0.360479
1.000000 0.783261 0.357061
0.471748 0.836515 0.411231
0.473671 0.837400 0.411627
0.475685 0.837888 0.411780
0.479316 0.837858 0.411688
0.484413 0.837369 0.411292
0.491096 0.836545 0.410742
0.499458 0.835477 0.410010
0.509300 0.834287 0.409186
0.520989 0.833127 0.408331
0.534234 0.832090 0.407446
0.548852 0.831083 0.406470
0.564904 0.830167 0.405524
0.581964 0.829160 0.404395
0.599847 0.827909 0.403143
0.618433 0.826352 0.401617
0.637568 0.824643 0.400000
0.657496 0.822904 0.398291
0.678096 0.821408 0.396521
0.699641 0.820310 0.394781
0.721920 0.819638 0.393194
0.744778 0.819211 0.391516
0.768124 0.818845 0.389715
0.791623 0.818326 0.387701
0.815122 0.817594 0.385412
0.838651 0.816526 0.382879
0.862150 0.815244 0.380072
0.885801 0.813931 0.377020
0.912871 0.815885 0.373846
0.937133 0.814908 0.371923
0.962066 0.814572 0.369665
0.988006 0.815091 0.367315
1.000000 0.815976 0.364569
0.487831 0.861082 0.419501
0.489570 0.861662 0.419776
0.491188 0.861814 0.419806
0.494179 0.861540 0.419593
0.498665 0.860807 0.419074
0.504601 0.859831 0.418341
0.512016 0.858671 0.417426
0.521141 0.857481 0.416510
0.531914 0.856382 0.415625
0.544274 0.855467 0.414649
0.558068 0.854643 0.413733
0.573297 0.854002 0.412818
0.589532 0.853269 0.411749
0.606744 0.852293 0.410529
0.624414 0.850980 0.409003
0.642786 0.849485 0.407294
0.661830 0.847898 0.405524
0.681636 0.846494 0.403662
0.702327 0.845518 0.401862
0.723842 0.844938 0.400214
0.746029 0.844633 0.398505
0.768704 0.844388 0.396704
0.791592 0.844083 0.394720
0.814633 0.843626 0.392523
0.837736 0.842893 0.389960
0.860899 0.841917 0.387091
0.884245 0.840909 0.384039
0.907744 0.839780 0.380743
0.935760 0.843168 0.377173
0.960754 0.843290 0.375402
0.986481 0.843992 0.373449
1.000000 0.845151 0.371130
0.503410 0.883757 0.428199
0.504753 0.884092 0.428382
0.506310 0.884245 0.428443
0.509148 0.884092 0.428260
0.513573 0.883726 0.427863
0.519554 0.883452 0.427466
0.527428 0.883452 0.427222
0.536980 0.883635 0.427039
0.548333 0.884062 0.427008
0.561212 0.884703 0.427039
0.575433 0.885405 0.427008
0.590814 0.886107 0.426886
0.607111 0.886564 0.426551
0.623987 0.886625 0.425849
0.641382 0.886198 0.424720
0.659052 0.885252 0.423072
0.677394 0.884062 0.421302
0.696345 0.882994 0.419348
0.716274 0.882200 0.417578
0.736965 0.881712 0.415778
0.758267 0.881468 0.414038
0.780148 0.881254 0.412207
0.802274 0.880919 0.410071
0.824613 0.880491 0.407721
0.847135 0.879850 0.405035
0.869780 0.879088 0.402045
0.892729 0.878264 0.398779
0.915984 0.877501 0.395361
0.939605 0.876860 0.391760
0.968658 0.881712 0.388128
0.993591 0.882048 0.386938
1.000000 0.882658 0.385565
0.530327 0.915099 0.445747
0.531487 0.915282 0.445869
0.532647 0.915190 0.445808
0.534905 0.914824 0.445350
0.538537 0.914275 0.444739
0.543542 0.913634 0.444038
0.550072 0.913115 0.443305
0.558160 0.912688 0.442573
0.567834 0.912413 0.441962
0.578973 0.912230 0.441505
0.591302 0.912078 0.440772
0.604883 0.911986 0.440070
0.619409 0.911742 0.439246
0.634730 0.911315 0.438117
