cubelut/Portrait2.cube
# Created by Adobe Lightroom plugin Export LUT (1.18.0)
# www.johnrellis.com/lightroom/exportlut.htm
# Preset: Portrait Effect 11
# Color profile: /Library/Application Support/Adobe/Color/Profiles/Recommended/AdobeRGB1998.icc
LUT_3D_SIZE 5
DOMAIN_MIN 0.000000 0.000000 0.000000
DOMAIN_MAX 0.903226 0.903226 0.903226
0.284428 0.252079 0.318669
0.398657 0.253086 0.320806
0.562829 0.270329 0.335912
0.768948 0.303441 0.361730
0.973114 0.344488 0.392432
0.292973 0.365484 0.324865
0.389593 0.360052 0.328283
0.551263 0.352544 0.343542
0.760861 0.374884 0.366247
0.976104 0.408545 0.397528
0.331029 0.526787 0.354955
0.393439 0.525048 0.356756
0.556542 0.533165 0.365301
0.752499 0.541772 0.378882
0.961089 0.559716 0.403662
0.368017 0.735348 0.383429
0.422522 0.736202 0.384588
0.567498 0.735225 0.387915
0.748379 0.733669 0.393530
0.953277 0.747311 0.417182
0.413581 0.949004 0.420142
0.459632 0.947692 0.420905
0.584649 0.937926 0.420294
0.759579 0.940581 0.432441
0.948425 0.943633 0.452338
0.287388 0.252811 0.406439
0.385077 0.264073 0.404150
0.540642 0.298802 0.408911
0.736965 0.323125 0.425269
0.955077 0.348638 0.442481
0.307134 0.354742 0.403174
0.387823 0.357275 0.405798
0.535271 0.364538 0.412329
0.733822 0.381323 0.425757
0.953948 0.405585 0.443824
0.341070 0.517205 0.411475
0.402014 0.513725 0.416632
0.538384 0.513909 0.419532
0.728878 0.529534 0.429084
0.951873 0.556420 0.449256
0.373144 0.727047 0.433204
0.426032 0.727321 0.435096
0.564599 0.726864 0.436469
0.741268 0.726070 0.439063
0.948577 0.743832 0.459266
0.414557 0.945922 0.462226
0.459815 0.944610 0.462654
0.590661 0.943938 0.466896
0.762325 0.943053 0.475441
0.949981 0.945251 0.493660
0.309545 0.269291 0.546532
0.383276 0.281285 0.543145
0.534447 0.301854 0.537011
0.730129 0.326421 0.553491
0.947814 0.346105 0.569757
0.339635 0.360540 0.539605
0.396918 0.363470 0.537163
0.534844 0.369390 0.537163
0.724483 0.383001 0.551415
0.947814 0.400214 0.569268
0.354070 0.510552 0.537713
0.407477 0.508873 0.536339
0.541833 0.516075 0.542870
0.722469 0.523156 0.548730
0.944701 0.546929 0.568139
0.375250 0.710658 0.553918
0.422370 0.706264 0.551812
0.551263 0.709804 0.550500
0.731502 0.715297 0.553277
0.939910 0.733791 0.571038
0.407630 0.934600 0.576745
0.453101 0.935698 0.577386
0.582330 0.936797 0.578607
0.754391 0.935058 0.583093
0.942351 0.937163 0.596521
0.338293 0.292454 0.728023
0.399664 0.298772 0.726406
0.550744 0.312871 0.725826
0.723903 0.324620 0.718471
0.939178 0.341985 0.738918
0.356573 0.370459 0.722042
0.409705 0.371923 0.721828
0.549157 0.375372 0.719356
0.717769 0.377935 0.712337
0.934661 0.389380 0.734310
0.365942 0.520012 0.714900
0.413642 0.518669 0.713100
0.541497 0.513695 0.710597
0.713863 0.510033 0.708339
0.934142 0.528191 0.730465
0.375219 0.703822 0.715846
0.418494 0.700496 0.712795
0.538293 0.699214 0.711604
0.725887 0.708858 0.720211
0.933043 0.726345 0.735317
0.400397 0.926207 0.738460
0.442664 0.926207 0.737758
0.570275 0.928252 0.738094
0.750729 0.929259 0.744961
0.936339 0.931060 0.751553
0.370306 0.322484 0.941375
0.424018 0.325414 0.940581
0.566155 0.332494 0.938048
0.744137 0.339849 0.934722
0.935729 0.345953 0.931640
0.377356 0.387396 0.939727
0.428168 0.388098 0.939055
0.566491 0.390173 0.936950
0.743282 0.392798 0.934051
0.935363 0.395544 0.931365
0.376898 0.536522 0.936431
0.422980 0.534203 0.936217
0.559991 0.532158 0.934844
0.739071 0.531151 0.932738
0.934447 0.534081 0.930632
0.387213 0.726009 0.932677
0.430732 0.724910 0.932525
0.558953 0.722072 0.932036
0.740810 0.724971 0.930755
0.932830 0.729641 0.929534
0.409461 0.926757 0.931243
0.450568 0.926757 0.931182
0.575982 0.926757 0.930999
0.751186 0.927398 0.930999
0.937194 0.932952 0.935210
