cubelut/Portrait10.cube
# Created by Adobe Lightroom plugin Export LUT (1.18.0)
# www.johnrellis.com/lightroom/exportlut.htm
# Preset: CP - INTERIOR DESIGN 19
# Color profile: /Library/Application Support/Adobe/Color/Profiles/Recommended/AdobeRGB1998.icc
LUT_3D_SIZE 5
DOMAIN_MIN 0.000000 0.000000 0.000000
DOMAIN_MAX 0.903226 0.903226 0.903226
0.025483 0.070344 0.069978
0.147982 0.080903 0.075532
0.375280 0.000000 0.070466
0.629969 0.000000 0.000000
0.843290 0.093721 0.000000
0.000000 0.205356 0.118563
0.176211 0.207401 0.097017
0.417914 0.172549 0.053742
0.655451 0.161837 0.000000
0.853086 0.255711 0.000000
0.000000 0.484016 0.223728
0.117678 0.486824 0.176913
0.485145 0.492683 0.139834
0.708583 0.467536 0.000000
0.871336 0.502922 0.000000
0.083833 0.739223 0.382971
0.225284 0.740047 0.364416
0.431556 0.738003 0.293645
0.720821 0.734554 0.259159
0.891295 0.737087 0.160708
0.396674 0.912718 0.576471
0.463539 0.909850 0.581903
0.530053 0.909545 0.523217
0.698299 0.906737 0.509056
0.886809 0.905303 0.501305
0.000000 0.076661 0.184237
0.156985 0.086671 0.179965
0.376715 0.069734 0.160586
0.627619 0.000000 0.124575
0.842283 0.134768 0.000000
0.000000 0.195499 0.223880
0.184817 0.204654 0.217594
0.414252 0.186435 0.183169
0.647272 0.168551 0.133455
0.848417 0.257786 0.000000
0.000000 0.477760 0.308385
0.203799 0.478981 0.306218
0.481819 0.481483 0.259190
0.699702 0.459052 0.178439
0.866819 0.492927 0.000000
0.128603 0.735470 0.442267
0.271855 0.735073 0.440101
0.450843 0.734432 0.376928
0.718685 0.732052 0.349371
0.887602 0.734127 0.264469
0.396216 0.911803 0.601190
0.462715 0.908965 0.605768
0.549523 0.909545 0.568353
0.700649 0.906676 0.552087
0.886412 0.905577 0.545525
0.000000 0.083253 0.421057
0.138186 0.085359 0.420356
0.431647 0.000000 0.416358
0.667231 0.000000 0.368109
0.826596 0.000000 0.293584
0.000000 0.172793 0.445563
0.180545 0.192691 0.445289
0.450843 0.191348 0.440101
0.662837 0.158633 0.378027
0.833829 0.183841 0.298558
0.000000 0.448066 0.506676
0.195712 0.454597 0.504570
0.495033 0.477394 0.502037
0.679683 0.446967 0.430793
0.853483 0.450874 0.331060
0.160067 0.727871 0.577203
0.289952 0.725521 0.575463
0.521019 0.723415 0.575311
0.714290 0.728237 0.543999
0.876249 0.719966 0.452583
0.408576 0.907073 0.676783
0.462745 0.905943 0.677424
0.596979 0.902556 0.679103
0.704982 0.903227 0.646601
0.882963 0.903258 0.639887
0.000000 0.038270 0.660426
0.184146 0.000000 0.660334
0.451331 0.000000 0.660090
0.689845 0.000000 0.655024
0.872374 0.000000 0.639002
0.000000 0.171145 0.667109
0.217136 0.169558 0.666987
0.464607 0.169070 0.666346
0.692103 0.187320 0.661097
0.867521 0.228031 0.637079
0.000000 0.367681 0.681422
0.154147 0.368322 0.680018
0.487434 0.432441 0.682887
0.697047 0.473854 0.679713
0.853025 0.446143 0.627070
0.187442 0.685634 0.717952
0.297429 0.686610 0.716609
0.509026 0.694697 0.715114
0.715267 0.723812 0.719020
0.850950 0.676478 0.636622
0.439460 0.902007 0.775967
0.483772 0.901335 0.775326
0.593500 0.900298 0.773831
0.732143 0.899809 0.769863
0.883757 0.901640 0.753017
0.279973 0.000000 0.848356
0.357244 0.000000 0.847532
0.534295 0.000000 0.845396
0.710018 0.000000 0.842008
0.872404 0.055360 0.831174
0.281651 0.114992 0.848264
0.357916 0.102785 0.847501
0.533867 0.084016 0.845518
0.708644 0.176028 0.841733
0.870665 0.240299 0.831571
0.128145 0.327123 0.850736
0.307256 0.355200 0.849302
0.518029 0.378607 0.846647
0.702815 0.429633 0.843076
0.867613 0.481544 0.835721
0.178958 0.633997 0.857755
0.265263 0.628656 0.856321
0.442695 0.607843 0.852293
0.689479 0.659785 0.849149
0.869718 0.716121 0.849485
0.443641 0.875578 0.878416
0.476997 0.875456 0.877836
0.576257 0.876890 0.877134
0.712184 0.881773 0.875700
0.892576 0.899229 0.881651
