cubelut/Portrait6.cube
# Created by Adobe Lightroom plugin Export LUT (1.18.0)
# www.johnrellis.com/lightroom/exportlut.htm
# Preset: Portrait Effect 14
# Color profile: /Library/Application Support/Adobe/Color/Profiles/Recommended/AdobeRGB1998.icc
LUT_3D_SIZE 8
DOMAIN_MIN 0.000000 0.000000 0.000000
DOMAIN_MAX 0.903226 0.903226 0.903226
0.284428 0.252079 0.318669
0.323430 0.250492 0.317815
0.410834 0.247654 0.317082
0.501732 0.252384 0.321477
0.601862 0.261479 0.329107
0.711849 0.271794 0.337194
0.841489 0.282292 0.344427
0.960327 0.296361 0.353948
0.281071 0.298466 0.315557
0.329046 0.297795 0.316045
0.419898 0.288273 0.318975
0.514824 0.286259 0.324041
0.617060 0.292058 0.332250
0.730617 0.299962 0.339788
0.855772 0.309453 0.346960
0.967620 0.321660 0.356634
0.289433 0.386145 0.321843
0.322820 0.386236 0.322637
0.414069 0.385290 0.325566
0.509789 0.374273 0.331395
0.614984 0.373022 0.338262
0.725399 0.374975 0.344182
0.839841 0.378149 0.348547
0.956573 0.386023 0.357031
0.305608 0.480507 0.334112
0.331212 0.482673 0.334905
0.406226 0.483101 0.336980
0.500175 0.474525 0.339361
0.598138 0.466346 0.343603
0.711055 0.469093 0.349248
0.838163 0.476875 0.353155
0.957610 0.483375 0.362127
0.321904 0.593103 0.346197
0.344030 0.594049 0.346654
0.410803 0.593530 0.347936
0.502190 0.588159 0.349645
0.607843 0.586725 0.352605
0.724575 0.590173 0.355200
0.848356 0.596155 0.360174
0.960327 0.596124 0.369696
0.333959 0.714870 0.354437
0.352911 0.707759 0.353826
0.415534 0.708797 0.354650
0.506584 0.709255 0.356054
0.614008 0.711513 0.358190
0.727474 0.711879 0.360723
0.844846 0.712490 0.363439
0.956756 0.710536 0.374762
0.343999 0.838132 0.360449
0.362860 0.836728 0.360266
0.424414 0.839139 0.361639
0.514641 0.839963 0.363531
0.621302 0.841917 0.366491
0.733761 0.840757 0.369604
0.848447 0.838560 0.373663
0.959899 0.833890 0.384619
0.363317 0.950164 0.374884
0.381048 0.950439 0.375433
0.436408 0.950134 0.376806
0.518456 0.947631 0.378119
0.624323 0.955230 0.387549
0.730129 0.951720 0.391882
0.838285 0.946899 0.396796
0.949859 0.945190 0.406775
0.283421 0.250309 0.357824
0.331212 0.245945 0.358221
0.423560 0.259709 0.355474
0.516716 0.271885 0.359106
0.620752 0.278202 0.362585
0.737850 0.284703 0.366369
0.862425 0.291722 0.370550
0.973510 0.304967 0.377905
0.281559 0.302525 0.359991
0.333135 0.301335 0.359228
0.423285 0.301183 0.359960
0.520073 0.302220 0.361120
0.626368 0.305974 0.364538
0.745388 0.311254 0.368475
0.871702 0.318486 0.373144
0.980468 0.330571 0.381048
0.297307 0.394965 0.355932
0.334173 0.392889 0.359503
0.419287 0.390600 0.360571
0.517845 0.384680 0.364385
0.628016 0.385077 0.368170
0.743618 0.386542 0.370825
0.864714 0.390173 0.374121
0.972778 0.395575 0.381048
0.314153 0.494270 0.362493
0.341314 0.493690 0.364385
0.414893 0.491981 0.365362
0.515221 0.490059 0.367193
0.622858 0.486519 0.370642
0.740841 0.488838 0.375006
0.864378 0.492287 0.378027
0.973236 0.493507 0.385626
0.327550 0.598627 0.369177
0.349554 0.600488 0.369726
0.417029 0.601953 0.371099
0.512657 0.601678 0.372595
0.623255 0.602716 0.375097
0.740810 0.603815 0.376654
0.861418 0.605829 0.381506
0.969726 0.603265 0.390539
0.337346 0.724941 0.374731
0.357946 0.724758 0.374823
0.422339 0.725002 0.375402
0.514641 0.723018 0.376196
0.621820 0.721736 0.377478
0.733547 0.718074 0.378607
0.851255 0.718044 0.381140
0.963317 0.716091 0.393500
0.347234 0.850431 0.380072
0.367620 0.852171 0.380865
0.429969 0.852598 0.381933
0.519951 0.850156 0.382635
0.626032 0.848936 0.384894
0.739712 0.848051 0.388006
0.856870 0.847410 0.392737
0.968505 0.842130 0.405158
0.366918 0.956298 0.393194
0.383917 0.955688 0.393103
0.439124 0.954803 0.394141
0.520958 0.951720 0.394842
0.620294 0.950439 0.398291
0.728664 0.950072 0.404303
0.839872 0.948699 0.411841
0.952972 0.948455 0.423743
0.284031 0.247898 0.433845
0.321294 0.250065 0.432959
0.417762 0.260472 0.432471
0.511833 0.275761 0.425330
0.613214 0.288518 0.426032
0.729244 0.295048 0.429297
0.854032 0.294499 0.429145
0.967376 0.304540 0.431769
0.297124 0.295506 0.434394
0.331853 0.298070 0.434424
0.420233 0.301244 0.434638
0.516533 0.309300 0.430030
0.620478 0.316808 0.430915
0.736629 0.319310 0.431708
0.860838 0.319677 0.431617
0.971008 0.328496 0.433906
0.305547 0.390845 0.433692
0.338170 0.390204 0.433326
0.418585 0.388769 0.432380
0.512688 0.388403 0.432349
0.617365 0.388373 0.432288
0.735012 0.388800 0.432197
0.860288 0.390356 0.432349
0.971008 0.395850 0.435523
0.318517 0.490486 0.427466
0.344640 0.488838 0.428016
0.416815 0.488502 0.429999
0.512322 0.486519 0.429847
0.614893 0.483589 0.432166
0.732387 0.486030 0.433082
0.857053 0.488655 0.433051
0.968658 0.490974 0.437110
0.330968 0.600397 0.428962
0.353491 0.600031 0.429694
0.419013 0.599451 0.430640
0.510704 0.596887 0.430426
0.617700 0.596643 0.431189
0.736904 0.600397 0.431861
0.858976 0.604089 0.436103
0.967987 0.602014 0.441352
0.338750 0.725582 0.432380
0.358923 0.725277 0.431830
0.421912 0.726497 0.431403
0.515923 0.727047 0.431983
0.625391 0.727108 0.432471
0.739406 0.724025 0.432074
0.855863 0.721370 0.432685
0.962554 0.715023 0.442054
0.344671 0.848356 0.433021
0.363500 0.849485 0.432593
0.426123 0.851865 0.433295
0.518791 0.852140 0.434668
0.626734 0.851926 0.436683
0.740230 0.849363 0.438300
0.854643 0.844968 0.439826
0.963287 0.836759 0.448066
0.364752 0.957000 0.441291
0.382300 0.957916 0.441779
0.439094 0.957946 0.443183
0.519829 0.953063 0.441749
0.620325 0.952117 0.445106
0.728481 0.950591 0.449805
0.839261 0.948241 0.455665
0.951446 0.946777 0.465064
0.293553 0.253086 0.526726
0.324956 0.256443 0.523156
0.409918 0.266453 0.521141
0.514885 0.276097 0.519249
0.620294 0.288365 0.514733
0.738552 0.294316 0.516686
0.864103 0.294591 0.517479
0.973999 0.304173 0.515526
0.307958 0.296849 0.519799
0.334691 0.297704 0.519158
0.412024 0.301274 0.519127
0.513878 0.305852 0.518273
0.621057 0.314977 0.515770
0.741360 0.318914 0.518395
0.867124 0.318547 0.518914
0.975402 0.327184 0.516655
0.318364 0.383642 0.521294
0.344762 0.384710 0.520989
0.418097 0.386236 0.521141
0.516594 0.386572 0.520439
0.619532 0.388891 0.516411
0.733730 0.386877 0.514549
0.854459 0.380255 0.510246
0.968444 0.387945 0.511681
0.325841 0.487861 0.517601
0.349828 0.488624 0.518303
0.419440 0.489113 0.519036
0.513573 0.486763 0.517052
0.618189 0.486915 0.517021
0.737331 0.486427 0.516228
0.860380 0.485451 0.514244
0.968750 0.487282 0.514549
0.335058 0.597559 0.513939
0.356451 0.598871 0.515099
0.420294 0.599481 0.515465
0.508659 0.595361 0.511742
0.615564 0.593744 0.510765
0.733547 0.596307 0.512596
0.856443 0.598901 0.513634
0.966552 0.598566 0.516838
0.339666 0.720241 0.515129
0.358038 0.715267 0.512413
0.417548 0.718990 0.512261
0.506004 0.720424 0.508324
0.617609 0.720577 0.508110
0.736477 0.720699 0.507958
0.855619 0.718441 0.507652
0.962158 0.713497 0.517510
0.344945 0.848875 0.516960
0.362860 0.848295 0.515892
0.419532 0.847868 0.512566
0.507103 0.847166 0.507897
0.618036 0.846708 0.509239
0.735195 0.845762 0.511131
0.853788 0.843900 0.513298
0.962799 0.835355 0.520592
0.362585 0.954376 0.517113
0.378393 0.954040 0.516320
0.431342 0.954437 0.514794
0.514702 0.953826 0.513848
0.617884 0.952972 0.517357
0.727657 0.951293 0.521477
0.838987 0.948425 0.526024
0.950652 0.945922 0.533227
0.306554 0.261051 0.627619
0.333532 0.264042 0.625025
0.410712 0.271275 0.623896
0.510613 0.279332 0.620386
0.621210 0.286229 0.618616
0.741604 0.291508 0.621057
0.865446 0.292943 0.622004
0.973419 0.304509 0.616083
0.317052 0.299474 0.624018
0.340734 0.299809 0.620111
0.412360 0.302831 0.619837
0.511559 0.307439 0.620325
0.622309 0.311925 0.619623
0.741756 0.315190 0.621149
0.865293 0.315465 0.621668
0.973571 0.326024 0.616114
0.327459 0.381903 0.621027
0.350072 0.382147 0.620233
0.418006 0.383429 0.621851
0.515007 0.384649 0.622889
0.626307 0.385809 0.623224
0.747677 0.387182 0.625269
0.868589 0.386206 0.623102
0.976104 0.395880 0.618463
0.333074 0.486610 0.621912
0.354864 0.487373 0.622644
0.419989 0.487007 0.622766
0.513359 0.484840 0.621881
0.624811 0.484535 0.621668
0.745296 0.484932 0.621973
0.866484 0.483772 0.619562
0.973083 0.490852 0.617426
0.339544 0.602472 0.621118
0.359777 0.602197 0.620935
0.422034 0.602686 0.621515
0.512749 0.602075 0.620966
0.623285 0.600977 0.619776
0.745754 0.602258 0.620539
0.865537 0.602686 0.620020
0.970520 0.605066 0.621088
0.342412 0.733120 0.626795
0.361913 0.733639 0.626917
0.423407 0.736934 0.628107
0.514336 0.738643 0.626581
0.625605 0.738308 0.621546
0.746853 0.731136 0.615625
0.860166 0.721798 0.614710
0.964294 0.717983 0.620111
0.346746 0.854002 0.622614
0.365423 0.854948 0.622889
0.423835 0.856229 0.621973
0.510918 0.855772 0.618189
0.618921 0.854032 0.614618
0.738705 0.851743 0.615473
0.859403 0.849760 0.617700
0.966461 0.840482 0.625025
0.371038 0.961303 0.619593
0.388037 0.961608 0.619715
0.442329 0.961975 0.619837
0.518242 0.957336 0.614130
0.622431 0.956237 0.617517
0.732815 0.954589 0.622065
0.843778 0.951934 0.626429
0.954192 0.949615 0.633417
0.316197 0.266575 0.734829
0.340337 0.268315 0.734096
0.412543 0.273198 0.736843
0.511589 0.278660 0.736416
0.624262 0.283391 0.737331
0.743435 0.286473 0.737850
0.863828 0.289555 0.736019
0.970550 0.303105 0.725612
0.323919 0.300755 0.744015
0.347112 0.301610 0.744045
0.417517 0.303868 0.744045
0.516167 0.306706 0.743221
0.628382 0.309178 0.742367
0.747127 0.310552 0.741421
0.866056 0.313115 0.737758
0.971832 0.325780 0.726741
0.328679 0.379461 0.737789
0.350622 0.379919 0.739223
0.418189 0.380499 0.740719
0.514641 0.380468 0.740810
0.627100 0.380499 0.741451
0.747036 0.379644 0.741390
0.865599 0.380957 0.736751
0.971344 0.390967 0.726223
0.330602 0.483711 0.737911
0.351110 0.483925 0.739528
0.413519 0.481483 0.740200
0.506645 0.476112 0.735927
0.618555 0.473854 0.734371
0.740658 0.472694 0.735012
0.860807 0.474128 0.730892
0.968048 0.483162 0.723110
0.335058 0.606104 0.742794
0.354742 0.605737 0.742794
0.415930 0.604273 0.742794
0.506126 0.600244 0.742061
0.618921 0.595605 0.742336
0.748287 0.595911 0.742580
0.865324 0.601038 0.736202
0.968261 0.611841 0.733059
0.339635 0.734371 0.744991
0.358282 0.732784 0.743496
0.418067 0.732723 0.743587
0.508141 0.733089 0.743923
0.621393 0.734157 0.744656
0.746700 0.730709 0.740932
0.859403 0.729641 0.739162
0.961425 0.731624 0.740139
0.344121 0.852964 0.736477
0.361456 0.852079 0.735500
0.419471 0.853056 0.735409
0.507561 0.853666 0.734279
0.619287 0.853422 0.733730
0.743404 0.851072 0.737697
0.859220 0.849607 0.738491
0.960235 0.843503 0.744106
0.373846 0.962371 0.729122
0.391028 0.962737 0.729519
0.446143 0.963165 0.730098
0.528710 0.961395 0.729488
0.634791 0.959014 0.733333
0.748867 0.955596 0.743130
0.851530 0.953033 0.744656
0.955657 0.951446 0.748898
0.326909 0.273320 0.866514
0.349798 0.274540 0.866331
0.418860 0.278233 0.865751
0.515953 0.282139 0.864164
0.627192 0.286656 0.863615
0.745174 0.289891 0.862882
0.866667 0.292149 0.861936
0.972290 0.309819 0.846860
0.331182 0.303593 0.866209
0.353094 0.304234 0.866087
0.420508 0.306096 0.865629
0.516777 0.308629 0.864805
0.627344 0.311101 0.863859
0.745022 0.312840 0.862852
0.866606 0.314275 0.861906
0.972137 0.330694 0.846769
0.334661 0.381506 0.865568
0.355871 0.381476 0.865446
0.421485 0.381506 0.865019
0.516136 0.381476 0.864378
0.626246 0.381476 0.863584
0.744167 0.381445 0.862608
0.866484 0.381781 0.861814
0.971527 0.395270 0.846250
0.331914 0.483101 0.863981
0.351751 0.482612 0.864469
0.414832 0.480385 0.864347
0.511192 0.479805 0.863767
0.622858 0.479103 0.863096
0.742397 0.478798 0.862242
0.866056 0.479438 0.861509
0.970214 0.491615 0.845670
0.336217 0.602045 0.862547
0.355413 0.601556 0.862547
0.415686 0.599725 0.862608
0.505882 0.596124 0.862608
0.618433 0.594690 0.862150
0.740627 0.596155 0.861357
0.865049 0.599390 0.860563
0.967041 0.612482 0.846677
0.342168 0.726253 0.860655
0.360845 0.725978 0.860685
0.419715 0.725246 0.860685
0.509026 0.724025 0.860716
0.621790 0.724483 0.860319
0.745480 0.729610 0.859312
0.863096 0.732906 0.858732
0.961913 0.741421 0.851682
0.351202 0.852628 0.859068
0.369146 0.852689 0.859068
0.426795 0.852689 0.859098
0.515770 0.852750 0.859068
0.628321 0.852720 0.858824
0.750240 0.852720 0.858274
0.861479 0.852354 0.857267
0.957702 0.854337 0.858366
0.379980 0.964569 0.847623
0.396551 0.964416 0.847532
0.450629 0.963775 0.847166
0.536004 0.962310 0.846952
0.643854 0.959564 0.848325
0.756252 0.956146 0.851804
0.860685 0.953704 0.856748
0.956634 0.953033 0.858579
0.334783 0.279576 0.964141
0.355016 0.280522 0.964050
0.417914 0.283574 0.963714
0.508934 0.288151 0.963165
0.614435 0.293400 0.962432
0.727199 0.298619 0.961639
0.844785 0.304051 0.960845
0.963409 0.311894 0.960052
0.337713 0.306279 0.963928
0.357519 0.306889 0.963836
0.419287 0.308782 0.963531
0.509453 0.311986 0.963012
0.614527 0.315770 0.962310
0.727108 0.319982 0.961547
0.844663 0.324559 0.960754
0.963287 0.332006 0.959991
0.341436 0.378729 0.963409
0.360571 0.378912 0.963317
0.420722 0.379461 0.963043
0.509545 0.380529 0.962554
0.613947 0.382055 0.961944
0.726497 0.384466 0.961212
0.844266 0.387976 0.960479
0.962982 0.394415 0.959716
0.337774 0.473945 0.962676
0.357061 0.474006 0.962615
0.417639 0.474128 0.962371
0.506889 0.474525 0.961913
0.611963 0.475471 0.961334
0.725185 0.477546 0.960662
0.843565 0.481086 0.959899
0.962219 0.488380 0.959106
0.344305 0.588281 0.960998
0.362036 0.587915 0.960998
0.418311 0.586633 0.960967
0.504326 0.585077 0.960876
0.611383 0.587182 0.960296
0.725856 0.591119 0.959503
0.844114 0.597284 0.958618
0.960693 0.607446 0.957702
0.355444 0.708522 0.959136
0.372442 0.708400 0.959106
0.427405 0.708003 0.959075
0.513390 0.708339 0.958862
0.623407 0.713741 0.958160
0.738094 0.722164 0.957122
0.849424 0.727993 0.956390
0.958373 0.735714 0.955779
0.372168 0.830594 0.957244
0.388464 0.830594 0.957214
0.441840 0.830625 0.957153
0.527184 0.831479 0.956878
0.635615 0.834958 0.956237
0.750210 0.841398 0.955322
0.857206 0.847745 0.954559
0.956207 0.851530 0.954131
0.396948 0.951446 0.955474
0.412573 0.951446 0.955444
0.464179 0.951385 0.955322
0.546990 0.951293 0.955077
0.651331 0.951141 0.954681
0.758846 0.951232 0.954223
0.862272 0.951385 0.953918
0.955200 0.952087 0.953765
