cubelut/Portrait4.cube
# Created by Adobe Lightroom plugin Export LUT (1.18.0)
# www.johnrellis.com/lightroom/exportlut.htm
# Preset: Portrait Effect 7
# Color profile: /Library/Application Support/Adobe/Color/Profiles/Recommended/AdobeRGB1998.icc
LUT_3D_SIZE 5
DOMAIN_MIN 0.000000 0.000000 0.000000
DOMAIN_MAX 0.903226 0.903226 0.903226
0.208164 0.179477 0.280064
0.391241 0.166598 0.278050
0.606928 0.177188 0.295537
0.818540 0.204501 0.319158
0.998169 0.239170 0.341619
0.215763 0.353796 0.286137
0.384161 0.346563 0.290532
0.604364 0.323156 0.307164
0.816892 0.323674 0.325811
0.997131 0.333288 0.346105
0.263157 0.569116 0.322972
0.375036 0.567254 0.324620
0.599207 0.564050 0.330144
0.812772 0.549035 0.341650
0.992462 0.532647 0.357916
0.302953 0.787381 0.350256
0.389380 0.786221 0.351080
0.584283 0.782773 0.353765
0.800626 0.778164 0.358465
0.985595 0.752041 0.371893
0.345190 0.972595 0.376776
0.409979 0.971496 0.377234
0.572778 0.967712 0.379065
0.766690 0.962707 0.383093
0.963806 0.956329 0.389075
0.206058 0.173922 0.424811
0.382574 0.186252 0.423651
0.599817 0.224674 0.418738
0.812497 0.249760 0.424689
0.993439 0.278813 0.429999
0.238926 0.347967 0.422950
0.382757 0.345037 0.422522
0.598535 0.342596 0.423102
0.811673 0.345769 0.425483
0.992462 0.357702 0.431067
0.280858 0.567071 0.419074
0.389563 0.564782 0.424567
0.597589 0.562493 0.425025
0.809110 0.552972 0.427771
0.989136 0.541894 0.434394
0.319005 0.786007 0.426520
0.403388 0.784665 0.429603
0.589014 0.781643 0.430213
0.800198 0.777676 0.431586
0.983307 0.754025 0.439185
0.368017 0.971069 0.440833
0.427436 0.970031 0.441047
0.582238 0.966949 0.442084
0.770413 0.962097 0.444129
0.963897 0.956115 0.447639
0.254795 0.192630 0.594324
0.378210 0.206302 0.593408
0.601862 0.229587 0.591272
0.811429 0.262089 0.582513
0.988830 0.319768 0.577447
0.296513 0.342779 0.591913
0.395666 0.345159 0.591333
0.601862 0.346685 0.590082
0.810056 0.359899 0.583368
0.987030 0.398932 0.581384
0.312413 0.564080 0.588312
0.405341 0.563195 0.587854
0.602686 0.562066 0.586786
0.806821 0.563531 0.585687
0.983093 0.569360 0.585931
0.342138 0.784115 0.576349
0.421973 0.782437 0.577539
0.606653 0.778683 0.583246
0.802518 0.776669 0.582544
0.978607 0.761990 0.584131
0.390845 0.969207 0.565911
0.456977 0.967529 0.570336
0.616571 0.962951 0.582727
0.785306 0.959289 0.582544
0.965393 0.954925 0.582788
0.326024 0.217563 0.744594
0.411566 0.226627 0.743923
0.602686 0.247074 0.742000
0.814633 0.270909 0.739010
0.989441 0.327916 0.719142
0.356146 0.346807 0.742275
0.428931 0.348089 0.741817
0.606867 0.353521 0.740200
0.813901 0.364904 0.737392
0.987701 0.404578 0.719387
0.376196 0.552544 0.737545
0.447486 0.554864 0.736873
0.618494 0.562463 0.734859
0.811826 0.567285 0.732357
0.982666 0.585931 0.721218
0.392676 0.776364 0.730007
0.459327 0.775875 0.729458
0.625940 0.775204 0.727932
0.811063 0.775845 0.725887
0.976776 0.778592 0.724117
0.434089 0.966705 0.707362
0.492470 0.965087 0.708522
0.641932 0.960540 0.712673
0.813321 0.955535 0.720302
0.971191 0.953704 0.719020
0.395392 0.245457 0.862333
0.454841 0.252567 0.861784
0.608850 0.273198 0.859983
0.795834 0.302983 0.857053
0.989776 0.341955 0.853056
0.419104 0.354131 0.860258
0.472328 0.356878 0.859770
0.616754 0.366766 0.858183
0.798154 0.385443 0.855375
0.988861 0.414832 0.851499
0.459937 0.551141 0.854887
0.513848 0.558312 0.854032
0.641962 0.565393 0.852415
0.807279 0.574609 0.849912
0.986114 0.590387 0.846525
0.476600 0.748470 0.847868
0.527825 0.751492 0.847135
0.664179 0.761654 0.844907
0.824399 0.775875 0.841855
0.982910 0.782773 0.839353
0.500999 0.951995 0.838071
0.546502 0.951781 0.837613
0.675502 0.951507 0.836179
0.831601 0.951720 0.834073
0.980407 0.953124 0.831846
