cubelut/Portrait10.cube
# Created by Adobe Lightroom plugin Export LUT (1.18.0)
# www.johnrellis.com/lightroom/exportlut.htm
# Preset: CP - INTERIOR DESIGN 19
# Color profile: /Library/Application Support/Adobe/Color/Profiles/Recommended/AdobeRGB1998.icc
LUT_3D_SIZE 32
DOMAIN_MIN 0.0 0.0 0.0
DOMAIN_MAX 1.0 1.0 1.0
0.025483 0.070344 0.069978
0.035615 0.070954 0.070222
0.049866 0.072053 0.070375
0.068330 0.073854 0.071321
0.084901 0.076600 0.072419
0.103609 0.078737 0.073335
0.124575 0.080323 0.074739
0.147982 0.080903 0.075532
0.173922 0.080629 0.075898
0.202274 0.078187 0.076265
0.233555 0.073426 0.076448
0.267033 0.064881 0.075807
0.302098 0.045411 0.074861
0.338415 0.004669 0.073182
0.375280 0.000000 0.070466
0.412299 0.000000 0.067567
0.449042 0.000000 0.063447
0.485298 0.000000 0.059022
0.520806 0.000000 0.048798
0.556390 0.000000 0.034607
0.591852 0.000000 0.016938
0.629969 0.000000 0.000000
0.665705 0.000000 0.000000
0.698634 0.000000 0.000000
0.729488 0.000000 0.000000
0.758877 0.000000 0.000000
0.787442 0.000000 0.000000
0.815457 0.000000 0.000000
0.843290 0.093721 0.000000
0.871366 0.140993 0.000000
0.899901 0.181979 0.000000
0.929290 0.220951 0.000000
0.026581 0.076661 0.071962
0.037385 0.077241 0.071107
0.053681 0.077729 0.070558
0.070314 0.079774 0.070405
0.086824 0.081514 0.071565
0.105379 0.083436 0.072816
0.126284 0.084535 0.073884
0.149386 0.085084 0.074678
0.175235 0.084413 0.075471
0.203616 0.082338 0.075807
0.234745 0.077516 0.075685
0.267918 0.070039 0.074983
0.302861 0.056580 0.074006
0.338933 0.020691 0.072328
0.375494 0.000000 0.069978
0.412390 0.000000 0.066682
0.448951 0.000000 0.062470
0.485054 0.000000 0.057618
0.520348 0.000000 0.046967
0.555810 0.000000 0.032258
0.591272 0.000000 0.014588
0.629175 0.000000 0.000000
0.664454 0.000000 0.000000
0.697261 0.000000 0.000000
0.728054 0.000000 0.000000
0.757504 0.000000 0.000000
0.786069 0.000000 0.000000
0.814206 0.000000 0.000000
0.842100 0.099123 0.000000
0.870268 0.144167 0.000000
0.898802 0.184360 0.000000
0.928191 0.222782 0.000000
0.025360 0.085451 0.075074
0.035004 0.086000 0.073854
0.053071 0.086397 0.072938
0.071229 0.087770 0.071748
0.089021 0.088869 0.070771
0.107790 0.089876 0.071717
0.128511 0.090181 0.072847
0.151583 0.090242 0.073671
0.177249 0.089570 0.074434
0.205539 0.087556 0.074769
0.236454 0.083040 0.075013
0.269566 0.076417 0.074250
0.304356 0.065248 0.073274
0.340368 0.039612 0.071565
0.376776 0.000000 0.069123
0.413458 0.000000 0.065858
0.449958 0.000000 0.061402
0.485786 0.000000 0.055604
0.521080 0.000000 0.043214
0.556420 0.000000 0.028382
0.591943 0.000000 0.010468
0.629511 0.000000 0.000000
0.664393 0.000000 0.000000
0.697017 0.000000 0.000000
0.727718 0.000000 0.000000
0.757107 0.000000 0.000000
0.785672 0.000000 0.000000
0.813748 0.040192 0.000000
0.841703 0.107820 0.000000
0.869810 0.150607 0.000000
0.898344 0.188998 0.000000
0.927703 0.226535 0.000000
0.026886 0.102510 0.082399
0.033326 0.103090 0.080110
0.047730 0.103609 0.079286
0.070863 0.104250 0.077546
0.091890 0.104005 0.074952
0.112886 0.103426 0.071748
0.134249 0.102876 0.070375
0.156954 0.102022 0.071260
0.182315 0.100710 0.072084
0.210544 0.098360 0.072786
0.241154 0.094545 0.072602
0.274144 0.088624 0.071809
0.308598 0.080323 0.070710
0.344305 0.067689 0.068818
0.380377 0.040681 0.066224
0.416541 0.000000 0.062623
0.452796 0.000000 0.058381
0.488319 0.000000 0.049195
0.523095 0.000000 0.035645
0.558038 0.000000 0.020844
0.593805 0.000000 0.002258
0.630335 0.000000 0.000000
0.664881 0.000000 0.000000
0.697292 0.000000 0.000000
0.728054 0.000000 0.000000
0.757565 0.000000 0.000000
0.786191 0.000000 0.000000
0.814359 0.086000 0.000000
0.842222 0.128359 0.000000
0.870207 0.165682 0.000000
0.898497 0.200961 0.000000
0.927642 0.236271 0.000000
0.024689 0.123934 0.090974
0.033631 0.124331 0.089235
0.043275 0.124941 0.086213
0.064942 0.125368 0.084779
0.091188 0.125551 0.082887
0.116609 0.124086 0.079377
0.139620 0.121828 0.075654
0.164218 0.119905 0.071901
0.189975 0.117586 0.069886
0.218204 0.115267 0.068666
0.248417 0.111574 0.068452
0.281102 0.106416 0.067933
0.315099 0.099825 0.066651
0.350347 0.091157 0.064576
0.386023 0.079164 0.061555
0.421912 0.062959 0.057618
0.457862 0.020935 0.049592
0.493111 0.000000 0.036744
0.527520 0.000000 0.023133
0.561975 0.000000 0.006806
0.597711 0.000000 0.000000
0.633448 0.000000 0.000000
0.667140 0.000000 0.000000
0.699001 0.000000 0.000000
0.729397 0.000000 0.000000
0.758694 0.017609 0.000000
0.787076 0.086000 0.000000
0.814939 0.121309 0.000000
0.842588 0.154055 0.000000
0.870420 0.186007 0.000000
0.898619 0.218173 0.000000
0.927581 0.250950 0.000000
0.017609 0.147982 0.099611
0.027100 0.148440 0.098756
0.032044 0.148898 0.093812
0.058595 0.149386 0.091402
0.083070 0.149722 0.089784
0.115297 0.149630 0.087160
0.145876 0.146975 0.083589
0.170962 0.143465 0.079957
0.198215 0.139956 0.075898
0.227481 0.136721 0.072328
0.258000 0.133028 0.069490
0.290471 0.128817 0.066468
0.324346 0.123598 0.062898
0.359319 0.117189 0.057923
0.394476 0.109255 0.051026
0.429908 0.099489 0.042267
0.465309 0.088258 0.030945
0.499916 0.074891 0.019013
0.533684 0.060365 0.003876
0.567834 0.029267 0.000000
0.603754 0.007172 0.000000
0.638605 0.004150 0.000000
0.683436 0.056611 0.000000
0.714382 0.078401 0.000000
0.743587 0.100008 0.000000
0.771542 0.122499 0.000000
0.798734 0.145663 0.000000
0.825376 0.169986 0.000000
0.851987 0.195529 0.000000
0.878874 0.222141 0.000000
0.906188 0.250217 0.000000
0.934356 0.279210 0.000000
0.004150 0.175998 0.108766
0.014923 0.176181 0.108217
0.024079 0.176608 0.104952
0.044770 0.177279 0.098543
0.074098 0.177920 0.096834
0.107210 0.178012 0.094697
0.144961 0.177493 0.091798
0.181186 0.174228 0.087984
0.209171 0.169192 0.083742
0.239261 0.164889 0.079438
0.271763 0.160739 0.074342
0.304936 0.156100 0.069673
0.338231 0.151156 0.065888
0.372656 0.145541 0.060426
0.407324 0.139376 0.050660
0.442115 0.133211 0.033326
0.476692 0.126833 0.013642
0.510887 0.120699 0.000000
0.544060 0.114137 0.000000
0.579217 0.109590 0.000000
0.614984 0.108766 0.000000
0.649897 0.112245 0.000000
0.683070 0.120302 0.000000
0.714473 0.132265 0.000000
0.744259 0.147189 0.000000
0.772457 0.164065 0.000000
0.799527 0.182681 0.000000
0.825986 0.202731 0.000000
0.852384 0.224521 0.000000
0.878965 0.248417 0.000000
0.906065 0.273320 0.000000
0.934020 0.300053 0.000000
0.000000 0.205356 0.118563
0.000000 0.205509 0.117891
0.016266 0.205722 0.117159
0.022553 0.206699 0.106783
0.066712 0.207218 0.104524
0.094881 0.207706 0.102724
0.134737 0.207797 0.100069
0.176211 0.207401 0.097017
0.218692 0.203891 0.092775
0.249088 0.198032 0.087648
0.281559 0.192966 0.082185
0.315404 0.188083 0.076417
0.350042 0.183200 0.069184
0.383917 0.177829 0.062898
0.417914 0.172549 0.053742
0.451698 0.167422 0.036622
0.485542 0.162448 0.014862
0.518853 0.158114 0.000000
0.552697 0.155489 0.000000
0.587396 0.154971 0.000000
0.622126 0.158022 0.000000
0.655451 0.161837 0.000000
0.687343 0.168765 0.000000
0.717830 0.178378 0.000000
0.746731 0.190097 0.000000
0.774319 0.203861 0.000000
0.800900 0.219364 0.000000
0.827024 0.236576 0.000000
0.853086 0.255711 0.000000
0.879393 0.276829 0.000000
0.906310 0.299657 0.000000
0.934081 0.324010 0.000000
0.000000 0.238102 0.129610
0.000000 0.238224 0.129183
0.000000 0.238468 0.128359
0.015747 0.239292 0.121035
0.053925 0.240177 0.113649
0.087984 0.240604 0.111360
0.122744 0.241062 0.109316
0.166018 0.241367 0.106111
0.211734 0.240635 0.102419
0.259648 0.238499 0.097230
0.293095 0.231662 0.091005
0.326574 0.225742 0.084596
0.361120 0.220279 0.077180
0.395880 0.215030 0.067506
0.430579 0.209751 0.056275
0.463630 0.204776 0.037293
0.496345 0.200259 0.015045
0.529931 0.197055 0.000000
0.562982 0.195193 0.000000
0.596185 0.195651 0.000000
0.629419 0.199161 0.000000
0.661830 0.204929 0.000000
0.693050 0.213657 0.000000
0.722316 0.221866 0.000000
0.750393 0.232303 0.000000
0.777218 0.243503 0.000000
0.803250 0.257115 0.000000
0.828855 0.271946 0.000000
0.854490 0.288975 0.000000
0.880430 0.307622 0.000000
0.906981 0.328313 0.000000
0.934478 0.350256 0.000000
0.000000 0.273777 0.141848
0.000000 0.273960 0.141299
0.000000 0.274296 0.140658
0.007294 0.274815 0.135988
0.021485 0.276097 0.122835
0.079774 0.276341 0.121157
0.113191 0.276921 0.118807
0.154604 0.277501 0.115785
0.201816 0.277684 0.112154
0.251164 0.277012 0.107515
0.303044 0.276188 0.101289
0.338933 0.268254 0.094331
0.372992 0.261875 0.086397
0.407324 0.255955 0.076875
0.441871 0.250645 0.065339
0.476570 0.245945 0.044251
0.510887 0.242252 0.010254
0.543206 0.238834 0.000000
0.574792 0.237369 0.000000
0.606470 0.237736 0.000000
0.637995 0.240909 0.000000
0.668513 0.246036 0.000000
0.698116 0.253239 0.000000
0.726680 0.262791 0.000000
0.753902 0.272709 0.000000
0.779965 0.283055 0.000000
0.805447 0.294560 0.000000
0.830686 0.307897 0.000000
0.856107 0.323125 0.000000
0.881834 0.340124 0.000000
0.908202 0.358831 0.000000
0.935637 0.378973 0.000000
0.000000 0.311803 0.154940
0.000000 0.311864 0.154299
0.000000 0.312139 0.153719
0.000000 0.312535 0.151888
0.009705 0.313695 0.138033
0.067628 0.314611 0.131228
0.106691 0.315312 0.128817
0.141543 0.315923 0.125795
0.190768 0.316564 0.122683
0.241520 0.316747 0.118410
0.293462 0.316014 0.112642
0.348608 0.316167 0.105135
0.386175 0.307958 0.097108
0.420996 0.301579 0.087221
0.455695 0.295842 0.075105
0.489815 0.290959 0.060487
0.523308 0.286687 0.023743
0.555627 0.283360 0.000000
0.586267 0.280919 0.000000
0.616480 0.280888 0.000000
0.646235 0.283177 0.000000
0.675471 0.287236 0.000000
0.703822 0.293553 0.000000
0.731350 0.301701 0.000000
0.758053 0.311925 0.000000
0.783963 0.323186 0.000000
0.808682 0.333379 0.000000
0.833280 0.344976 0.000000
0.858122 0.358465 0.000000
0.883391 0.373480 0.000000
0.909422 0.390112 0.000000
0.936522 0.408576 0.000000
0.000000 0.351843 0.169528
0.000000 0.352056 0.168765
0.000000 0.352331 0.168246
0.000000 0.352728 0.167239
0.004608 0.353918 0.156649
0.040345 0.355016 0.142153
0.098451 0.355810 0.139742
0.137240 0.356329 0.137118
0.178225 0.356970 0.133639
0.230991 0.357794 0.129122
0.284550 0.358160 0.124453
0.339483 0.358465 0.117769
0.405646 0.366766 0.109529
0.447456 0.359777 0.099733
0.481544 0.352697 0.086976
0.514641 0.346593 0.071839
0.546746 0.341375 0.046113
0.577447 0.337041 0.000000
0.607050 0.334264 0.000000
0.636225 0.333471 0.000000
0.663813 0.334173 0.000000
0.690608 0.336919 0.000000
0.716854 0.341497 0.000000
0.742458 0.347814 0.000000
0.767544 0.355962 0.000000
0.792172 0.365667 0.000000
0.816495 0.376959 0.000000
0.840208 0.387213 0.000000
0.864073 0.398657 0.000000
0.888548 0.411505 0.000000
0.913817 0.426093 0.000000
0.940398 0.442206 0.000000
0.000000 0.396460 0.186557
0.000000 0.396674 0.186130
0.000000 0.396643 0.185367
0.000000 0.396826 0.183993
0.000092 0.397498 0.176486
0.014740 0.398627 0.158633
0.087221 0.399084 0.151888
0.132387 0.400031 0.149050
0.172885 0.401312 0.145907
0.221592 0.403082 0.141970
0.278355 0.405035 0.137453
0.335363 0.406409 0.131655
0.392493 0.407263 0.124514
0.449012 0.407507 0.115633
0.495399 0.403693 0.102907
0.527733 0.396765 0.088472
0.558556 0.390539 0.070008
0.587732 0.384985 0.032929
0.615991 0.381292 0.000000
0.643763 0.378973 0.000000
0.670893 0.378943 0.000000
0.697261 0.380285 0.000000
0.722255 0.383307 0.000000
0.746792 0.387915 0.000000
0.771023 0.394354 0.000000
0.794888 0.402411 0.000000
0.818570 0.412024 0.000000
0.842405 0.423255 0.000000
0.866117 0.433997 0.000000
0.890196 0.445319 0.000000
0.915190 0.458289 0.000000
0.941527 0.472816 0.000000
0.000000 0.439765 0.204440
0.000000 0.440009 0.204013
0.000000 0.440101 0.203311
0.000000 0.440406 0.201816
0.003540 0.440833 0.198123
0.020417 0.441962 0.180514
0.072297 0.443214 0.165316
0.125887 0.443885 0.162631
0.169772 0.444709 0.159152
0.211124 0.445747 0.155367
0.267185 0.447395 0.150942
0.325444 0.449165 0.145846
0.383185 0.450263 0.139223
0.439857 0.450599 0.131472
0.494453 0.450446 0.121767
0.540795 0.447730 0.109010
0.570306 0.440345 0.091279
0.598199 0.433875 0.070924
0.625055 0.428687 0.026612
0.651362 0.425360 0.000000
0.677333 0.423713 0.000000
0.702876 0.423987 0.000000
0.727779 0.425788 0.000000
0.751949 0.429084 0.000000
0.775235 0.433753 0.000000
0.798337 0.440009 0.000000
0.821439 0.448005 0.000000
0.844724 0.457435 0.000000
0.868559 0.468910 0.000000
0.892576 0.479927 0.000000
0.917205 0.491463 0.000000
0.943267 0.504509 0.000000
0.000000 0.484016 0.223728
0.000000 0.484169 0.223209
0.000000 0.484169 0.222660
0.000000 0.484230 0.221164
0.000000 0.484352 0.219089
0.036713 0.485145 0.204074
0.056062 0.486397 0.182162
0.117678 0.486824 0.176913
0.165652 0.487251 0.173587
0.209445 0.488045 0.169955
0.254215 0.489113 0.165560
0.314061 0.490852 0.161013
0.372930 0.492073 0.155032
0.430243 0.492683 0.147799
0.485145 0.492683 0.139834
0.536828 0.492103 0.129641
0.582513 0.490517 0.116518
0.608972 0.482887 0.098421
0.634272 0.476326 0.076478
0.659449 0.471534 0.031098
0.684138 0.468757 0.000000
0.708583 0.467536 0.000000
0.732509 0.467872 0.000000
0.756100 0.469825 0.000000
0.779416 0.473274 0.000000
0.802182 0.478279 0.000000
0.824826 0.484688 0.000000
0.847776 0.492897 0.000000
0.871336 0.502922 0.000000
0.895750 0.514580 0.000000
0.920653 0.525994 0.000000
0.946624 0.537743 0.000000
0.000000 0.526482 0.243778
0.000000 0.526757 0.243412
0.000000 0.526818 0.243015
0.000000 0.527001 0.241550
0.000000 0.527123 0.239322
0.063264 0.527764 0.228824
0.070680 0.529198 0.207858
0.108431 0.530114 0.192752
0.161776 0.530541 0.190036
0.207950 0.531060 0.186313
0.251591 0.531334 0.181674
0.302434 0.531945 0.177218
0.362249 0.532586 0.171878
0.419806 0.532677 0.165255
0.475013 0.532403 0.157992
0.527001 0.531792 0.149264
0.575097 0.531029 0.139376
0.618280 0.530388 0.126406
0.643732 0.523186 0.108736
0.667781 0.517449 0.086244
0.691676 0.513634 0.051240
0.715206 0.511345 0.000000
0.738369 0.510582 0.000000
0.761196 0.511315 0.000000
0.783902 0.513573 0.000000
0.806485 0.517266 0.000000
0.829129 0.522423 0.000000
0.851621 0.529320 0.000000
0.874632 0.537713 0.000000
0.898528 0.547662 0.000000
0.923552 0.559136 0.000000
0.949340 0.570184 0.000000
0.000000 0.566522 0.264530
0.000000 0.566613 0.264256
0.000000 0.566491 0.263676
0.000000 0.566644 0.262181
0.000000 0.566796 0.260227
0.081483 0.567224 0.253849
0.088167 0.568261 0.233829
0.097810 0.569787 0.209598
0.157015 0.569940 0.206363
0.205722 0.570001 0.202762
0.250584 0.570275 0.198886
0.294011 0.570367 0.194064
0.349889 0.570642 0.189364
0.408637 0.570642 0.183932
0.464515 0.570092 0.177127
0.516564 0.569268 0.169772
0.565148 0.568261 0.161288
0.609430 0.567712 0.152041
0.650416 0.568231 0.139895
0.675837 0.562005 0.122744
0.698573 0.556909 0.101045
0.721187 0.553643 0.071138
0.743465 0.551659 0.000000
0.765591 0.551354 0.000000
0.787655 0.552392 0.000000
0.809628 0.554925 0.000000
0.831846 0.559075 0.000000
0.854459 0.564660 0.000000
0.877531 0.571832 0.000000
0.901061 0.580407 0.000000
0.925841 0.590478 0.000000
0.952148 0.601831 0.000000
0.000000 0.604486 0.286320
0.000000 0.604639 0.285893
0.000000 0.612757 0.290532
0.000000 0.612726 0.289311
0.032654 0.612726 0.287297
0.107881 0.612604 0.284337
0.115389 0.613214 0.266239
0.120882 0.614099 0.241978
0.158694 0.614374 0.228092
0.209110 0.614008 0.224979
0.255009 0.613642 0.220859
0.299290 0.613001 0.216251
0.341894 0.612116 0.210788
0.401923 0.611566 0.206088
0.458442 0.610651 0.200137
0.510918 0.609400 0.193668
0.559442 0.608301 0.186160
0.603967 0.607233 0.177798
0.644770 0.606744 0.168734
0.683680 0.608301 0.157076
0.708522 0.602686 0.141756
0.729885 0.597833 0.120760
0.751034 0.594659 0.094484
0.772152 0.592981 0.052338
0.793057 0.592523 0.000000
0.814054 0.593439 0.000000
0.835325 0.595911 0.000000
0.857145 0.600000 0.000000
0.879759 0.605768 0.000000
0.903441 0.612970 0.000000
0.928130 0.621637 0.000000
0.954101 0.631708 0.000000
0.000000 0.641871 0.309819
0.000000 0.642908 0.310399
0.000000 0.643946 0.310430
0.000000 0.644892 0.309911
0.067872 0.645502 0.308629
0.120455 0.645716 0.306462
0.138705 0.646296 0.293797
0.142885 0.647211 0.271092
0.157137 0.648157 0.247288
0.208347 0.647700 0.244419
0.254978 0.647181 0.240513
0.299199 0.646571 0.236301
0.341741 0.645655 0.231693
0.388922 0.644556 0.226139
0.446021 0.643580 0.221225
0.499489 0.642298 0.215427
0.548547 0.641077 0.208438
0.593347 0.640101 0.201358
0.634760 0.639521 0.194003
0.673182 0.639460 0.185306
0.710536 0.642176 0.174807
0.735683 0.637934 0.161959
0.756222 0.633875 0.141268
0.776608 0.631312 0.117464
0.797055 0.629969 0.085756
0.817563 0.629999 0.005768
0.838376 0.631525 0.000000
0.859800 0.634516 0.000000
0.882048 0.639155 0.000000
0.905333 0.645289 0.000000
0.929992 0.652796 0.000000
0.956207 0.661555 0.000000
0.000000 0.674617 0.332494
0.000000 0.675502 0.333043
0.000000 0.676448 0.333074
0.018677 0.677180 0.332616
0.095430 0.677729 0.331548
0.137148 0.677882 0.329564
0.164279 0.678126 0.321965
0.167788 0.679011 0.301152
0.172152 0.680232 0.275547
0.210391 0.680201 0.265293
0.256992 0.679652 0.261936
0.300877 0.678981 0.257786
0.343389 0.678004 0.253391
0.384344 0.676875 0.248325
0.434821 0.675654 0.243168
0.488685 0.674311 0.238163
0.538170 0.673152 0.232334
0.583673 0.672114 0.226108
0.625513 0.671412 0.219150
0.664271 0.671229 0.212253
0.700313 0.671595 0.204288
0.736324 0.675319 0.194888
0.761532 0.672114 0.184298
0.781308 0.668666 0.164950
0.801083 0.666468 0.143343
0.821103 0.665644 0.116365
0.841398 0.666163 0.078737
0.862364 0.668177 0.000000
0.884184 0.671717 0.000000
0.907103 0.676783 0.000000
0.931426 0.683131 0.000000
0.957397 0.690822 0.000000
0.000000 0.706081 0.355962
0.000000 0.706844 0.356512
0.037293 0.707668 0.356634
0.085725 0.708400 0.356298
0.122713 0.708766 0.355261
0.157870 0.708797 0.353948
0.191348 0.708736 0.350622
0.194491 0.709529 0.331823
0.198367 0.710567 0.308537
0.215274 0.711330 0.287816
0.261143 0.710628 0.284611
0.304631 0.709895 0.280980
0.346410 0.708888 0.276371
0.386847 0.707729 0.271916
0.425818 0.706416 0.266361
0.478798 0.705318 0.261936
0.529137 0.704311 0.257053
0.575372 0.703609 0.252049
0.617823 0.703334 0.246677
0.657252 0.703426 0.240970
0.693843 0.704067 0.234684
0.728084 0.705043 0.228367
0.763027 0.709651 0.220066
0.788296 0.707454 0.212345
0.807675 0.704646 0.193698
0.827176 0.703151 0.173648
0.847044 0.702785 0.150179
0.867582 0.703975 0.123049
0.889036 0.706538 0.084413
0.911650 0.710414 0.000000
0.935668 0.715633 0.000000
0.961303 0.722133 0.000000
0.083833 0.739223 0.382971
0.094148 0.739559 0.383246
0.105989 0.739834 0.383093
0.127413 0.739895 0.382696
0.153872 0.739925 0.381659
0.183841 0.739773 0.379980
0.215152 0.739528 0.378119
0.225284 0.740047 0.364416
0.228305 0.741207 0.343114
0.232120 0.742519 0.317235
0.270634 0.742245 0.310460
0.313268 0.741451 0.306889
0.353948 0.740536 0.303319
0.393256 0.739376 0.298711
0.431556 0.738003 0.293645
0.471626 0.736660 0.288762
0.522148 0.735561 0.284550
0.568536 0.734707 0.279789
0.610925 0.734127 0.275273
0.650324 0.733913 0.270024
0.686824 0.734096 0.264714
0.720821 0.734554 0.259159
0.752956 0.735378 0.252934
0.786404 0.740078 0.244816
0.811582 0.738277 0.239841
0.830564 0.736080 0.222446
0.850065 0.735042 0.203555
0.870207 0.735378 0.183536
0.891295 0.737087 0.160708
0.913573 0.740017 0.132509
0.937255 0.744350 0.095369
0.962615 0.749905 0.000000
0.132235 0.767697 0.408057
0.139193 0.768032 0.408118
0.146822 0.768307 0.408331
0.163027 0.768429 0.408057
0.184604 0.768338 0.407324
0.210147 0.768093 0.406134
0.238804 0.767666 0.404669
0.256352 0.767788 0.396368
0.258762 0.768734 0.376867
0.261784 0.769955 0.353368
0.281346 0.770504 0.336461
0.321996 0.769711 0.333074
0.361364 0.768795 0.329717
0.399634 0.767636 0.325383
0.436774 0.766445 0.321172
0.472633 0.765194 0.315984
0.514641 0.764034 0.311589
0.560937 0.763180 0.307683
0.603723 0.762631 0.303807
0.643244 0.762356 0.299535
0.679988 0.762478 0.295018
0.714229 0.762844 0.290440
0.746487 0.763546 0.285496
0.776883 0.764553 0.280308
0.806943 0.766659 0.271244
0.832914 0.766629 0.268009
0.852445 0.765103 0.252628
0.872190 0.764767 0.235874
0.892973 0.765682 0.217472
0.914916 0.767819 0.198337
0.938354 0.771359 0.176577
0.963470 0.776181 0.152316
0.178103 0.797116 0.436255
0.183505 0.797452 0.436530
0.190311 0.797574 0.436683
0.202457 0.797482 0.436286
0.220645 0.797208 0.435523
0.242344 0.796780 0.434699
0.268162 0.796170 0.433387
0.291752 0.795621 0.430030
0.293339 0.796262 0.412299
0.295537 0.797147 0.391180
0.297917 0.798215 0.365393
0.335485 0.797238 0.361944
0.372656 0.796139 0.358404
0.408942 0.794888 0.354040
0.444343 0.793454 0.349798
0.478340 0.791958 0.344732
0.511131 0.790585 0.339300
0.553674 0.789456 0.335729
0.596185 0.788724 0.332311
0.635767 0.788388 0.328893
0.672663 0.788418 0.324956
0.706966 0.788663 0.321294
0.739162 0.789151 0.317357
0.769558 0.789700 0.312505
0.798337 0.790372 0.307286
0.827054 0.792172 0.300938
0.854429 0.794095 0.298466
0.874876 0.793240 0.286412
0.895201 0.793332 0.271153
0.916747 0.794736 0.255863
0.939788 0.797452 0.240421
0.964477 0.801450 0.224979
0.218235 0.822416 0.462043
0.222293 0.822660 0.462318
0.228183 0.822782 0.462501
0.238437 0.822660 0.462348
0.254215 0.822385 0.461891
0.273838 0.821897 0.461372
0.297032 0.821286 0.460639
0.322881 0.820554 0.460029
0.328130 0.821042 0.446784
0.329747 0.821988 0.427680
0.332006 0.823117 0.405188
0.352544 0.823178 0.392035
0.387549 0.822232 0.388678
0.421942 0.821073 0.385199
0.455146 0.819883 0.381384
0.487495 0.818631 0.376898
0.518853 0.817411 0.372168
0.550011 0.816312 0.367102
0.592248 0.815518 0.364508
0.631373 0.815061 0.361608
0.667842 0.814847 0.358862
0.702052 0.814939 0.355688
0.734066 0.815213 0.352026
0.764401 0.815549 0.348180
0.793179 0.816007 0.344213
0.820920 0.816526 0.339330
0.847837 0.817166 0.334203
0.876493 0.820523 0.333104
0.898222 0.820249 0.325322
0.919463 0.821042 0.312840
0.942107 0.822995 0.301213
0.966430 0.826169 0.290501
0.259770 0.847044 0.489265
0.263554 0.847196 0.489631
0.267857 0.847166 0.489631
0.277226 0.846952 0.489570
0.290684 0.846555 0.489113
0.308110 0.845945 0.488960
0.328649 0.845243 0.488716
0.352667 0.844358 0.488411
0.364355 0.844419 0.480446
0.365850 0.845274 0.464179
0.367468 0.846403 0.444190
0.373449 0.847379 0.423621
0.405524 0.846525 0.420813
0.437385 0.845548 0.417517
0.468360 0.844450 0.413855
0.498573 0.843290 0.409888
0.527947 0.842161 0.405402
0.556542 0.841154 0.401129
0.589075 0.840360 0.397253
0.627710 0.839719 0.394934
0.663752 0.839414 0.392523
0.697597 0.839292 0.390234
0.729366 0.839322 0.387518
0.759457 0.839506 0.384497
0.788144 0.839780 0.380957
0.815702 0.840055 0.377447
0.842618 0.840452 0.373297
0.869078 0.840879 0.368505
0.898253 0.844419 0.369665
0.921263 0.844572 0.366247
0.943420 0.845914 0.356909
0.967254 0.848447 0.349615
0.301549 0.869657 0.516197
0.304509 0.869688 0.516381
0.308629 0.869688 0.516533
0.316686 0.869474 0.516503
0.328954 0.869108 0.516655
0.344976 0.868681 0.516930
0.364538 0.868193 0.517601
0.387060 0.867674 0.518700
0.405737 0.867582 0.516716
0.407660 0.868833 0.503166
0.409796 0.870207 0.486976
0.412299 0.871794 0.467292
0.433234 0.871946 0.459358
0.461952 0.871275 0.456764
0.490242 0.870451 0.454047
0.517784 0.869566 0.450629
0.544823 0.868620 0.446845
0.571313 0.867765 0.442847
0.597284 0.867002 0.438758
0.630396 0.866331 0.436378
0.665370 0.865812 0.434638
0.698238 0.865476 0.432837
0.729305 0.865293 0.430823
0.758816 0.865202 0.428748
0.787076 0.865202 0.426307
0.814359 0.865263 0.423407
0.841032 0.865354 0.420233
0.867338 0.865507 0.416632
0.893614 0.865599 0.412879
0.923247 0.868986 0.415930
0.947295 0.869444 0.418219
0.970550 0.871366 0.413794
0.351202 0.893126 0.547570
0.353918 0.893126 0.547692
0.357275 0.893004 0.547936
0.364263 0.892699 0.548119
0.374853 0.892241 0.548425
0.388891 0.891630 0.548852
0.406134 0.890959 0.549706
0.425940 0.890196 0.550958
0.448188 0.889311 0.552789
0.450080 0.890196 0.541466
0.451484 0.891264 0.527398
0.453101 0.892485 0.510674
0.460700 0.893339 0.495552
0.485847 0.892607 0.493233
