cubelut/Portrait5.cube
# Created by Adobe Lightroom plugin Export LUT (1.18.0)
# www.johnrellis.com/lightroom/exportlut.htm
# Preset: Portrait Effect 28
# Color profile: /Library/Application Support/Adobe/Color/Profiles/Recommended/AdobeRGB1998.icc
LUT_3D_SIZE 32
DOMAIN_MIN 0.0 0.0 0.0
DOMAIN_MAX 1.0 1.0 1.0
0.139071 0.153841 0.305821
0.164187 0.153231 0.305882
0.189425 0.152224 0.305943
0.236912 0.150179 0.305913
0.289769 0.146609 0.305699
0.337255 0.142367 0.305394
0.379797 0.138338 0.304997
0.419165 0.134401 0.304540
0.457099 0.129946 0.304295
0.493965 0.127260 0.304051
0.530816 0.123415 0.304295
0.567651 0.120943 0.304387
0.604334 0.118502 0.304448
0.640558 0.116213 0.304601
0.674525 0.114717 0.304967
0.706294 0.113100 0.305272
0.736385 0.111086 0.305669
0.764584 0.110079 0.306065
0.794583 0.109194 0.306554
0.834104 0.108339 0.307225
0.867948 0.108827 0.308019
0.897398 0.109316 0.308873
0.923033 0.108980 0.309697
0.945769 0.109926 0.310399
0.966430 0.108888 0.310887
0.985992 0.107546 0.311467
1.000000 0.106844 0.311864
1.000000 0.105959 0.312505
1.000000 0.105165 0.313329
1.000000 0.106233 0.314397
1.000000 0.109834 0.315923
1.000000 0.116152 0.317967
0.140291 0.170779 0.305913
0.163088 0.170413 0.306188
0.188876 0.169162 0.306126
0.235935 0.167666 0.306035
0.288487 0.164279 0.305669
0.335058 0.159548 0.305364
0.377325 0.154299 0.305058
0.416114 0.149722 0.304601
0.453620 0.145113 0.304265
0.490272 0.141085 0.304143
0.526574 0.138247 0.304265
0.562860 0.134676 0.304448
0.598962 0.132326 0.304509
0.634913 0.129885 0.304814
0.668666 0.128237 0.305058
0.700496 0.126589 0.305394
0.730434 0.124636 0.305699
0.758846 0.122805 0.306065
0.789609 0.122072 0.306432
0.827543 0.120882 0.307042
0.860533 0.120180 0.307774
0.889677 0.119661 0.308537
0.915251 0.119356 0.309209
0.938231 0.118654 0.309789
0.959228 0.117220 0.310307
0.979248 0.115572 0.310796
0.999268 0.113558 0.311131
1.000000 0.112215 0.311803
1.000000 0.110811 0.312474
1.000000 0.111116 0.313481
1.000000 0.113313 0.314885
1.000000 0.118563 0.316808
0.140780 0.189670 0.306249
0.163607 0.189487 0.306188
0.189090 0.188937 0.306188
0.235264 0.188144 0.306126
0.286870 0.184390 0.305760
0.333165 0.179324 0.305333
0.374792 0.173220 0.304997
0.413336 0.167391 0.304631
0.450568 0.162387 0.304234
0.486976 0.157961 0.304204
0.523247 0.154635 0.304265
0.559350 0.151400 0.304265
0.595422 0.148287 0.304601
0.631312 0.145754 0.304936
0.665064 0.143923 0.305180
0.696834 0.141726 0.305364
0.726833 0.139620 0.305760
0.755367 0.137728 0.306035
0.787228 0.135988 0.306493
0.824063 0.134920 0.306950
0.856596 0.133761 0.307683
0.885588 0.132692 0.308354
0.911192 0.132204 0.308965
0.934203 0.130617 0.309483
0.955352 0.128847 0.310063
0.975586 0.126223 0.310399
0.995819 0.124117 0.310765
1.000000 0.122194 0.311376
1.000000 0.120516 0.312047
1.000000 0.120424 0.312963
1.000000 0.121462 0.314244
1.000000 0.125368 0.316136
0.142306 0.228000 0.305974
0.165194 0.227878 0.305943
0.190860 0.227390 0.305882
0.236149 0.226139 0.306004
0.286412 0.221683 0.305577
0.331975 0.214847 0.305303
0.373144 0.207004 0.304814
0.411292 0.199924 0.304601
0.448005 0.193729 0.304082
0.484108 0.188235 0.304173
0.519982 0.183902 0.304326
0.555779 0.180484 0.304417
0.591394 0.177279 0.304784
0.626856 0.174838 0.304997
0.660670 0.171725 0.305150
0.692378 0.168978 0.305455
0.722438 0.166171 0.305730
0.750942 0.163546 0.306035
0.784298 0.161807 0.306401
0.818784 0.160678 0.306828
0.850004 0.158511 0.307500
0.878294 0.157076 0.308019
0.904204 0.155367 0.308629
0.928252 0.153170 0.309209
0.950896 0.150668 0.309636
0.972625 0.148440 0.310063
0.994049 0.146059 0.310491
1.000000 0.144198 0.311101
1.000000 0.142061 0.311803
1.000000 0.140932 0.312779
1.000000 0.140963 0.314061
1.000000 0.142794 0.315587
0.142702 0.270054 0.305241
0.164065 0.269718 0.305333
0.188602 0.269139 0.305241
0.230991 0.267460 0.305211
0.281834 0.265141 0.305119
0.328466 0.257572 0.304417
0.368902 0.247990 0.304509
0.406378 0.239658 0.304417
0.442939 0.231693 0.304265
0.478706 0.225528 0.304173
0.514153 0.220279 0.304326
0.549615 0.216373 0.304509
0.585107 0.212497 0.304936
0.620569 0.209201 0.305241
0.654902 0.206302 0.305272
0.687465 0.203037 0.305486
0.718318 0.199710 0.305699
0.747555 0.196445 0.306004
0.783688 0.194675 0.306188
0.816678 0.192935 0.306706
0.846647 0.190585 0.307286
0.874327 0.188235 0.307805
0.899901 0.185763 0.308385
0.924041 0.183017 0.308782
0.947051 0.179965 0.309209
0.969207 0.176944 0.309789
0.990906 0.174075 0.310216
1.000000 0.170993 0.310704
1.000000 0.168795 0.311345
1.000000 0.166690 0.312169
1.000000 0.165560 0.313420
1.000000 0.166110 0.314977
0.141512 0.310887 0.304204
0.161654 0.310582 0.304143
0.184390 0.309728 0.304021
0.224460 0.308080 0.303899
0.272648 0.305547 0.303899
0.323430 0.302647 0.303532
0.367590 0.294102 0.303136
0.404669 0.283207 0.303136
0.440467 0.273991 0.303899
0.475929 0.266545 0.304173
0.511101 0.260533 0.304479
0.546471 0.255528 0.304814
0.581567 0.251347 0.305089
0.616968 0.247471 0.305303
0.651484 0.243870 0.305272
0.684352 0.239841 0.305547
0.715633 0.236210 0.305669
0.748836 0.233310 0.305913
0.784421 0.231235 0.306218
0.816556 0.228885 0.306706
0.846342 0.226261 0.307073
0.874144 0.223026 0.307713
0.945281 0.233188 0.311223
0.967437 0.230228 0.312291
0.987518 0.227085 0.313054
1.000000 0.223514 0.313878
1.000000 0.220249 0.314641
1.000000 0.217258 0.315465
1.000000 0.214694 0.316381
1.000000 0.212894 0.317540
1.000000 0.212009 0.319097
1.000000 0.212009 0.320958
0.138918 0.358526 0.302037
0.158572 0.357885 0.301946
0.181125 0.357305 0.301915
0.220645 0.355779 0.301884
0.268589 0.353613 0.301640
0.319158 0.350500 0.301305
0.369757 0.346990 0.300938
0.413825 0.338476 0.300633
0.450568 0.326146 0.300725
0.486305 0.317144 0.302861
0.521965 0.310369 0.304417
0.557885 0.304112 0.304723
0.593408 0.298650 0.305028
0.628534 0.293492 0.305028
0.661769 0.288243 0.305150
0.692897 0.282963 0.305241
0.722957 0.277989 0.305425
0.762234 0.276249 0.305699
0.797208 0.273869 0.306096
0.830137 0.271061 0.306828
0.862242 0.268589 0.307530
0.893584 0.266239 0.308354
0.923491 0.264042 0.309483
0.951232 0.261387 0.310674
0.976165 0.258701 0.311833
0.998016 0.255253 0.312688
1.000000 0.251438 0.313573
1.000000 0.247654 0.314366
1.000000 0.244053 0.315251
1.000000 0.241062 0.316350
1.000000 0.238804 0.317723
1.000000 0.237339 0.319371
0.136507 0.394079 0.300481
0.154971 0.393500 0.300328
0.175753 0.392737 0.300298
0.212924 0.391272 0.300206
0.258152 0.389166 0.300084
0.305913 0.386481 0.299870
0.354589 0.383368 0.299626
0.402869 0.380285 0.299321
0.446509 0.373083 0.299229
0.482490 0.361517 0.299351
0.517845 0.353033 0.302007
0.553063 0.346258 0.303868
0.588006 0.340368 0.304997
0.623011 0.334661 0.304845
0.656184 0.328893 0.305028
0.687495 0.322972 0.304967
0.725185 0.320226 0.305211
0.760952 0.317113 0.305364
0.793545 0.313512 0.305730
0.825071 0.309697 0.306401
0.856138 0.306218 0.307134
0.886748 0.303136 0.307897
0.916197 0.300175 0.308873
0.943725 0.296727 0.309880
0.968811 0.292912 0.310857
0.990967 0.288731 0.311803
1.000000 0.284154 0.312413
1.000000 0.279301 0.313298
1.000000 0.275120 0.314000
1.000000 0.271092 0.315038
1.000000 0.267948 0.316320
1.000000 0.265293 0.317937
0.136172 0.429267 0.299077
0.152651 0.428809 0.299077
0.172122 0.428290 0.299107
0.206973 0.426978 0.299077
0.250340 0.425055 0.298802
0.295659 0.422553 0.298650
0.342382 0.419806 0.298436
0.389044 0.417060 0.298070
0.435859 0.414252 0.297856
0.479500 0.409216 0.297734
0.515465 0.398627 0.298161
0.550683 0.389960 0.300114
0.585321 0.383215 0.302495
0.619745 0.377295 0.304173
0.652644 0.371069 0.304723
0.690822 0.368017 0.304631
0.727413 0.364263 0.304723
0.760586 0.359625 0.304906
0.791501 0.354559 0.305425
0.821927 0.349615 0.305974
0.852232 0.345495 0.306584
0.882200 0.341436 0.307347
0.911192 0.337560 0.308232
0.938384 0.333471 0.309117
0.963378 0.329046 0.310124
0.985718 0.323735 0.310918
1.000000 0.318364 0.311559
1.000000 0.312871 0.312291
1.000000 0.307744 0.313054
1.000000 0.302983 0.313909
1.000000 0.298711 0.315160
1.000000 0.295201 0.316655
0.138338 0.463935 0.298131
0.152987 0.463416 0.298161
0.171328 0.462745 0.298039
0.203403 0.461646 0.298039
0.243687 0.459785 0.297856
0.287205 0.457588 0.297765
0.331762 0.455085 0.297612
0.376928 0.452491 0.297246
0.422278 0.450111 0.296849
0.467628 0.448035 0.296391
0.511192 0.444343 0.296269
0.546746 0.434363 0.296483
0.581811 0.425971 0.297642
0.617731 0.420233 0.300359
0.657923 0.418494 0.302129
0.695125 0.415137 0.303655
0.730159 0.410193 0.303929
0.762417 0.404059 0.304295
0.792569 0.397925 0.304814
0.821836 0.391943 0.305303
0.850523 0.386175 0.305913
0.878538 0.380621 0.306706
0.905608 0.375158 0.307378
0.931304 0.369726 0.308171
0.955505 0.364080 0.308904
0.977905 0.358099 0.309575
0.999145 0.352178 0.310246
1.000000 0.346349 0.310887
1.000000 0.340734 0.311833
1.000000 0.335637 0.312810
1.000000 0.331060 0.314153
1.000000 0.327001 0.315648
0.138949 0.496284 0.297032
0.152346 0.496132 0.296910
0.169253 0.495674 0.296849
0.199588 0.494820 0.296849
0.238071 0.493507 0.296696
0.279820 0.492042 0.296452
0.323217 0.490303 0.296208
0.366949 0.488502 0.295811
0.411231 0.486793 0.295445
0.455543 0.485145 0.294987
0.499947 0.483436 0.294316
0.544274 0.481727 0.293858
0.584405 0.476448 0.293614
0.624292 0.471595 0.293217
0.661311 0.466316 0.296696
0.696071 0.460548 0.299321
0.729030 0.454322 0.301518
0.759731 0.447456 0.303410
0.788968 0.439826 0.303838
0.817716 0.432654 0.304387
0.846006 0.426032 0.305119
0.873838 0.419654 0.305791
0.900908 0.413703 0.306432
0.926665 0.407538 0.307195
0.950835 0.401129 0.307897
0.973205 0.394354 0.308568
0.994354 0.387579 0.309178
1.000000 0.380835 0.309697
1.000000 0.374517 0.310521
1.000000 0.368688 0.311498
1.000000 0.363378 0.312657
1.000000 0.358495 0.314275
0.138155 0.531212 0.295293
0.151125 0.530999 0.295171
0.167514 0.530632 0.295109
0.196139 0.529931 0.295079
0.232792 0.529076 0.294896
0.273472 0.528008 0.294652
0.315465 0.526848 0.294347
0.358709 0.525536 0.293889
0.402167 0.524407 0.293523
0.445930 0.523400 0.292851
0.493385 0.526726 0.291783
0.542351 0.530968 0.290471
0.625635 0.569543 0.285374
0.666682 0.561517 0.285618
0.704219 0.551110 0.286198
0.737819 0.540093 0.290349
0.768185 0.528801 0.295018
0.796048 0.517418 0.298955
0.822263 0.506432 0.302373
0.848173 0.496071 0.304509
0.873625 0.486091 0.305516
0.898436 0.476631 0.306554
0.922148 0.467384 0.307439
0.944915 0.458686 0.308354
0.966522 0.449928 0.309270
0.986938 0.441260 0.310063
1.000000 0.432624 0.310704
1.000000 0.424445 0.311376
1.000000 0.416632 0.312078
1.000000 0.409308 0.313085
1.000000 0.402686 0.314336
1.000000 0.396612 0.315892
0.134035 0.580743 0.291630
0.147066 0.580468 0.291630
0.163760 0.579461 0.291600
0.192874 0.577935 0.291600
0.229679 0.575738 0.291539
0.269596 0.573419 0.291386
0.311467 0.571313 0.291142
0.354040 0.570062 0.290806
0.400549 0.574792 0.289708
0.448524 0.580468 0.288426
0.498543 0.586969 0.286992
0.550286 0.593927 0.285252
0.602808 0.600610 0.283421
0.655451 0.605463 0.281651
0.696254 0.597711 0.281926
0.731136 0.586145 0.282841
0.761959 0.572686 0.286351
0.789334 0.559594 0.291905
0.815274 0.547112 0.296635
0.840482 0.535729 0.300359
0.865324 0.525444 0.303624
0.890013 0.515221 0.304845
0.913634 0.505089 0.305882
0.936431 0.495460 0.306706
0.958160 0.485878 0.307469
0.978790 0.476326 0.308141
0.998474 0.467140 0.308751
1.000000 0.458350 0.309361
1.000000 0.449836 0.310033
1.000000 0.442115 0.311101
1.000000 0.434913 0.312200
1.000000 0.428229 0.313939
0.130709 0.614343 0.289006
0.143923 0.614588 0.288884
0.159304 0.614557 0.288792
0.187869 0.614679 0.288701
0.224002 0.614679 0.288396
0.264286 0.614832 0.288060
0.306767 0.615564 0.287480
0.350256 0.616846 0.286778
0.394995 0.618921 0.286046
0.441169 0.622400 0.284947
0.488746 0.626947 0.283696
0.537835 0.632105 0.282200
0.587579 0.637049 0.280613
0.637324 0.640620 0.278965
0.686152 0.642206 0.277501
0.723323 0.631708 0.278233
0.753964 0.616693 0.279942
0.781888 0.601282 0.282078
0.807706 0.587366 0.288823
0.832944 0.574853 0.293858
0.857908 0.563531 0.298100
0.882475 0.553277 0.301396
0.906126 0.543206 0.304112
0.929259 0.532860 0.304845
0.951324 0.522606 0.305760
0.972290 0.512505 0.306493
0.992370 0.502617 0.306920
1.000000 0.493141 0.307591
1.000000 0.484230 0.308385
1.000000 0.475898 0.309209
1.000000 0.468330 0.310491
1.000000 0.461189 0.312261
0.124514 0.662898 0.284550
0.138277 0.663081 0.284428
0.154116 0.662440 0.284398
0.183444 0.661433 0.284276
0.219852 0.659907 0.284276
0.259586 0.658289 0.284062
0.301305 0.657374 0.283696
0.343694 0.657069 0.283146
0.387243 0.658015 0.282506
0.431983 0.660182 0.281590
0.477821 0.663630 0.280430
0.524895 0.667720 0.279118
0.572534 0.671565 0.277836
0.620050 0.674250 0.276310
0.666835 0.674983 0.275059
0.711879 0.673365 0.273869
0.746792 0.661616 0.274937
0.774594 0.644800 0.277134
0.801022 0.628656 0.279271
0.826200 0.614496 0.284977
0.850950 0.601862 0.290715
0.875334 0.590417 0.295140
0.898924 0.579614 0.298802
0.921965 0.569451 0.301884
0.944366 0.559136 0.303746
0.966094 0.548760 0.304448
0.987274 0.538842 0.305119
1.000000 0.529442 0.306035
1.000000 0.520592 0.306981
1.000000 0.512444 0.308324
1.000000 0.504784 0.310002
1.000000 0.497444 0.312200
0.119661 0.703151 0.280491
0.133364 0.703517 0.280491
0.148989 0.703273 0.280369
0.178592 0.702480 0.280217
0.214664 0.701442 0.280217
0.254612 0.700313 0.279942
0.295842 0.699672 0.279606
0.338201 0.699550 0.279118
0.381170 0.700069 0.278538
0.424903 0.701045 0.277806
0.469032 0.702266 0.277012
0.513603 0.703639 0.276005
0.558221 0.704524 0.274998
0.602625 0.704646 0.273991
0.646540 0.703639 0.272984
0.689601 0.701320 0.271946
0.731991 0.698207 0.271000
0.766415 0.687343 0.272007
0.793820 0.670954 0.274418
0.820554 0.655818 0.276524
0.846372 0.642329 0.280949
0.871397 0.630182 0.287205
0.895537 0.618738 0.292180
0.919036 0.607935 0.296147
0.941711 0.597498 0.299626
0.963745 0.587427 0.302495
0.985351 0.577173 0.303655
1.000000 0.567315 0.304662
1.000000 0.557885 0.305882
1.000000 0.548852 0.307225
1.000000 0.540185 0.308812
1.000000 0.531884 0.311070
0.115694 0.735439 0.277379
0.128725 0.735256 0.277440
0.144442 0.734737 0.277379
0.173373 0.733913 0.277226
0.209171 0.732784 0.277043
0.247868 0.731624 0.276982
0.288029 0.730770 0.276707
0.329259 0.730190 0.276280
0.371130 0.730098 0.275761
0.413367 0.730495 0.275059
0.456214 0.731289 0.274449
0.499489 0.732235 0.273503
0.542657 0.732937 0.272679
0.585565 0.732753 0.271794
0.628107 0.731380 0.270939
0.669581 0.728756 0.270115
0.710445 0.725338 0.269291
0.751095 0.721614 0.268315
0.785946 0.712276 0.268772
0.812650 0.696223 0.271366
0.838834 0.681361 0.273808
0.864378 0.667567 0.276738
0.888670 0.655268 0.283421
0.912444 0.643854 0.288701
0.935546 0.632929 0.293034
0.958129 0.622522 0.296696
0.980255 0.612573 0.299931
1.000000 0.603143 0.302647
1.000000 0.593469 0.303929
1.000000 0.584253 0.305425
1.000000 0.575280 0.307256
1.000000 0.566583 0.309819
0.113344 0.766018 0.274418
0.126558 0.766659 0.274327
0.144900 0.795377 0.272251
0.174502 0.794461 0.272129
0.210269 0.792935 0.272160
0.248905 0.791043 0.272068
0.289677 0.788876 0.271794
0.330694 0.786923 0.271458
0.372168 0.785367 0.271244
0.414374 0.784329 0.270787
0.456397 0.783536 0.270268
0.498787 0.782620 0.269718
0.540703 0.781094 0.269169
0.582544 0.779080 0.268528
0.623682 0.776272 0.267765
0.664332 0.772549 0.267094
0.704341 0.768124 0.266423
0.743709 0.763302 0.265660
0.783017 0.758358 0.264744
0.818265 0.749416 0.265110
0.843137 0.731838 0.267979
0.867887 0.715816 0.270726
0.892088 0.700618 0.273167
0.914824 0.686976 0.279850
0.936461 0.673823 0.285710
0.957488 0.661341 0.290440
0.978149 0.649561 0.294347
0.998810 0.638666 0.297673
1.000000 0.628748 0.300664
1.000000 0.619318 0.303319
1.000000 0.609857 0.305364
1.000000 0.600519 0.307836
0.113802 0.800870 0.271183
0.126009 0.804410 0.271031
0.142061 0.807858 0.270695
0.169528 0.810513 0.270542
0.204440 0.811826 0.270207
0.242069 0.811460 0.270146
0.281193 0.810086 0.269932
0.320958 0.808377 0.269657
0.361028 0.806973 0.269352
0.401495 0.805722 0.268956
0.442267 0.804807 0.268498
0.483223 0.803769 0.267948
0.523796 0.802121 0.267460
0.564019 0.799985 0.266911
0.603845 0.797086 0.266270
0.643214 0.793454 0.265629
0.681941 0.789273 0.264836
0.720363 0.784817 0.264164
0.758846 0.780392 0.263340
0.797665 0.776303 0.262364
0.834226 0.769863 0.262089
0.859617 0.753750 0.265080
0.884489 0.738430 0.267735
0.908446 0.723751 0.270268
0.930938 0.709865 0.275731
0.952575 0.697017 0.281956
0.973816 0.684840 0.286931
0.994934 0.673579 0.291325
1.000000 0.663294 0.295171
1.000000 0.653620 0.299077
1.000000 0.644434 0.302953
1.000000 0.634760 0.305943
0.111269 0.822843 0.268986
0.124514 0.825956 0.268772
0.139651 0.829007 0.268681
0.165927 0.831327 0.268498
0.199069 0.832578 0.268437
0.235752 0.832242 0.268101
0.273564 0.831022 0.268009
0.311925 0.829496 0.267613
0.350683 0.828214 0.267430
0.390082 0.827054 0.267033
0.429511 0.826108 0.266667
0.469245 0.825071 0.266178
0.508629 0.823423 0.265629
0.547723 0.821408 0.265110
0.586511 0.818601 0.264561
0.624811 0.815122 0.263859
0.662623 0.811246 0.263096
0.700160 0.807095 0.262394
0.737789 0.803006 0.261601
0.775845 0.799344 0.260563
0.814237 0.795926 0.259586
0.852476 0.792233 0.258701
0.877897 0.776699 0.261906
0.902281 0.761715 0.264714
0.925505 0.746883 0.267399
0.947753 0.732723 0.271305
0.969116 0.719875 0.278050
0.990417 0.708034 0.283452
1.000000 0.697139 0.288396
1.000000 0.687037 0.292943
1.000000 0.677302 0.297337
1.000000 0.667628 0.302037
0.109957 0.844175 0.266758
0.122438 0.847013 0.266514
0.137026 0.849851 0.266484
0.162753 0.851987 0.266270
0.195041 0.853086 0.266209
0.229923 0.852781 0.266087
0.266423 0.851652 0.265873
0.303380 0.850187 0.265599
0.341253 0.848783 0.265415
0.379309 0.847501 0.265080
0.417578 0.846372 0.264652
0.456123 0.845121 0.264042
0.494270 0.843503 0.263615
0.532403 0.841611 0.263188
0.570306 0.839353 0.262669
0.608179 0.836851 0.261936
0.646021 0.834348 0.261387
0.683986 0.831998 0.260594
0.722316 0.829862 0.259770
0.761196 0.828122 0.258915
0.800626 0.826627 0.257969
0.840452 0.825254 0.257053
0.880980 0.823941 0.255772
0.906950 0.809232 0.259342
0.931243 0.794247 0.262791
0.954223 0.779446 0.265965
0.976379 0.765042 0.268956
0.997711 0.752193 0.276860
1.000000 0.740200 0.283604
1.000000 0.728969 0.289769
1.000000 0.717983 0.295842
1.000000 0.707576 0.301762
0.114473 0.876707 0.264256
0.124880 0.877928 0.264256
0.138125 0.878813 0.264195
0.162234 0.879210 0.264103
0.192996 0.879026 0.263981
0.226596 0.878111 0.263859
0.262028 0.876951 0.263645
0.297917 0.875822 0.263554
0.334966 0.874876 0.263218
0.372503 0.874144 0.262821
0.409979 0.873533 0.262608
0.448005 0.872679 0.262242
0.485573 0.871244 0.261784
0.522820 0.869413 0.261326
0.560052 0.867124 0.260716
0.597101 0.864591 0.260227
0.634119 0.861936 0.259586
0.671321 0.859373 0.258854
0.708583 0.856870 0.258183
0.746242 0.854551 0.257206
0.784024 0.852232 0.256382
0.822171 0.850034 0.255497
0.860472 0.847593 0.254612
0.899229 0.845243 0.253544
0.925322 0.831327 0.256474
0.948669 0.816037 0.260044
0.971313 0.801328 0.263432
0.993439 0.787350 0.266941
1.000000 0.774624 0.273838
1.000000 0.762692 0.281498
1.000000 0.751400 0.288426
1.000000 0.741085 0.295201
0.113527 0.896727 0.262058
0.123812 0.897887 0.262150
0.136782 0.898863 0.262119
0.160159 0.899351 0.261997
0.189700 0.899138 0.261906
0.222019 0.898192 0.261845
0.255955 0.896910 0.261662
0.290867 0.895567 0.261326
0.326696 0.894408 0.261143
0.363073 0.893462 0.260838
0.399786 0.892638 0.260472
0.436500 0.891722 0.260197
0.473060 0.890440 0.259800
0.509758 0.888853 0.259281
0.546136 0.886961 0.258824
0.582574 0.884947 0.258274
0.619104 0.882841 0.257572
0.655726 0.880797 0.257023
0.692500 0.878904 0.256291
0.729641 0.877165 0.255680
0.767086 0.875547 0.254978
0.804959 0.873930 0.254185
0.843076 0.872282 0.253635
0.881315 0.870420 0.252689
0.913146 0.861967 0.250767
0.940307 0.849760 0.253147
0.963500 0.834928 0.256962
0.986084 0.820768 0.260594
1.000000 0.807279 0.264317
1.000000 0.794736 0.270298
1.000000 0.783627 0.278630
1.000000 0.773739 0.286687
0.121065 0.925017 0.260472
0.131075 0.926299 0.260502
0.142428 0.926940 0.260655
0.163882 0.926879 0.260624
0.190860 0.926116 0.260533
0.221683 0.924773 0.260288
0.254063 0.922972 0.260044
0.287633 0.920928 0.259648
0.321904 0.918883 0.259495
0.356909 0.916960 0.259098
0.392065 0.914977 0.258701
0.427375 0.913237 0.258213
0.462837 0.911284 0.257847
0.498085 0.908965 0.257328
0.533074 0.906157 0.256718
0.568048 0.903105 0.256199
0.602869 0.900114 0.255467
0.638087 0.897459 0.254887
0.673884 0.895476 0.254154
0.710292 0.894133 0.253544
0.747189 0.893095 0.252964
0.784268 0.891966 0.252384
0.821256 0.890349 0.251652
0.858091 0.888151 0.250889
0.894560 0.885252 0.249943
0.930968 0.882017 0.248661
0.959289 0.871336 0.250584
0.981567 0.856229 0.254398
1.000000 0.842130 0.258305
1.000000 0.828885 0.262669
1.000000 0.817105 0.267918
1.000000 0.807095 0.277287
0.120516 0.942138 0.258396
0.129671 0.943328 0.258610
0.141207 0.943999 0.258701
0.161532 0.943938 0.258579
0.187533 0.943267 0.258579
0.217105 0.942138 0.258366
0.248905 0.940703 0.258030
0.281468 0.939086 0.257755
0.315251 0.937499 0.257481
0.349340 0.936095 0.257206
0.383795 0.934691 0.256840
0.418677 0.933410 0.256413
0.453590 0.931975 0.256168
0.488319 0.930236 0.255741
0.522911 0.928038 0.255222
0.557305 0.925628 0.254673
0.591943 0.923095 0.253941
0.626703 0.920836 0.253330
0.661860 0.919066 0.252781
0.697597 0.917784 0.252293
0.733730 0.916655 0.251835
0.770138 0.915496 0.251316
0.806516 0.914031 0.250889
0.842741 0.912108 0.250248
0.878904 0.909575 0.249424
0.914794 0.906645 0.248478
0.950805 0.903410 0.247715
0.980682 0.894621 0.249058
1.000000 0.880034 0.253727
1.000000 0.866575 0.258732
1.000000 0.854398 0.264317
1.000000 0.843381 0.270665
0.123293 0.961913 0.256870
0.132326 0.962676 0.257023
0.142550 0.962860 0.257053
0.161257 0.962493 0.256962
0.185916 0.961486 0.256779
0.214084 0.960143 0.256535
0.244144 0.958556 0.256168
0.275944 0.956909 0.255894
0.308873 0.955352 0.255497
0.341924 0.954070 0.255161
0.375799 0.952850 0.254948
0.409857 0.951873 0.254551
0.444068 0.950713 0.254307
0.478309 0.949279 0.253941
0.512108 0.947326 0.253452
0.545892 0.945068 0.252934
0.579736 0.942657 0.252201
0.613794 0.940459 0.251774
0.648249 0.938720 0.251041
0.683223 0.937377 0.250645
0.718532 0.936278 0.250340
0.754147 0.935180 0.249882
0.789761 0.933776 0.249607
0.825315 0.932097 0.249088
0.860838 0.929870 0.248478
0.896239 0.927184 0.247684
0.931731 0.924285 0.246860
0.967132 0.921111 0.246098
0.998291 0.914153 0.247196
1.000000 0.900572 0.252659
1.000000 0.888029 0.258671
1.000000 0.876829 0.265293
0.123507 0.978546 0.255039
0.132021 0.978973 0.255100
0.141482 0.979126 0.255222
0.159548 0.978882 0.254978
0.183841 0.978424 0.255039
0.211490 0.977935 0.254917
0.241947 0.977813 0.254856
0.273686 0.977905 0.254917
0.306737 0.978302 0.255009
0.340459 0.978882 0.255253
0.374548 0.979492 0.255406
0.408759 0.980041 0.255741
0.443214 0.980224 0.255894
0.477424 0.979858 0.255985
0.511345 0.978851 0.255772
0.544945 0.977142 0.255314
0.578485 0.975128 0.255070
0.612085 0.973144 0.254490
0.646143 0.971405 0.254307
0.680598 0.969909 0.254063
0.715328 0.968536 0.253941
0.750332 0.967132 0.253971
0.785245 0.965423 0.253849
0.820188 0.963439 0.253880
0.855131 0.961059 0.253544
0.890135 0.958312 0.253178
0.925292 0.955322 0.252934
0.960662 0.952331 0.252537
0.995880 0.949279 0.252445
1.000000 0.943572 0.254490
1.000000 0.929320 0.261906
1.000000 0.916289 0.269657
0.143557 1.000000 0.256870
0.150179 1.000000 0.256870
0.157778 1.000000 0.256962
0.172946 1.000000 0.256779
0.194156 1.000000 0.256504
0.218967 1.000000 0.256291
0.246677 1.000000 0.256016
0.276127 1.000000 0.255833
0.306889 1.000000 0.255711
0.338720 1.000000 0.255619
0.370886 0.999725 0.255711
0.403571 0.999145 0.255711
0.436378 0.998413 0.255741
0.469245 0.997375 0.255497
