cubelut/Portrait3.cube
# Created by Adobe Lightroom plugin Export LUT (1.18.0)
# www.johnrellis.com/lightroom/exportlut.htm
# Preset: Portrait Effect 1
# Color profile: /Library/Application Support/Adobe/Color/Profiles/Recommended/AdobeRGB1998.icc
LUT_3D_SIZE 5
DOMAIN_MIN 0.000000 0.000000 0.000000
DOMAIN_MAX 0.903226 0.903226 0.903226
0.000000 0.094606 0.330327
0.363012 0.001190 0.329198
0.570550 0.000000 0.327184
0.762783 0.000000 0.326909
0.950591 0.000000 0.309209
0.151308 0.365728 0.341924
0.365148 0.345586 0.338506
0.564660 0.283024 0.337102
0.767727 0.263828 0.332769
0.955535 0.230838 0.314855
0.324926 0.565637 0.367102
0.401953 0.557214 0.364660
0.597101 0.557122 0.358434
0.773342 0.523644 0.350469
0.943420 0.495613 0.333165
0.427985 0.761349 0.393072
0.476387 0.760159 0.391669
0.606989 0.752529 0.385321
0.770382 0.740047 0.373236
0.940948 0.726680 0.358556
0.550408 0.938018 0.460060
0.576318 0.936522 0.457374
0.651972 0.925811 0.442084
0.783078 0.927367 0.433448
0.935698 0.928008 0.414557
0.116854 0.111330 0.407050
0.357702 0.121767 0.402319
0.553887 0.190555 0.389746
0.745449 0.212192 0.388159
0.931151 0.158602 0.368963
0.225284 0.345220 0.405097
0.375463 0.337835 0.401892
0.553704 0.325628 0.396460
0.747738 0.314549 0.390173
0.931487 0.285252 0.371710
0.348272 0.550713 0.408728
0.424323 0.542321 0.410925
0.578882 0.532708 0.404700
0.753841 0.516960 0.396735
0.933928 0.503899 0.381140
0.440833 0.754421 0.431952
0.491798 0.752285 0.434607
0.611810 0.745205 0.428138
0.766903 0.733516 0.415839
0.936431 0.724575 0.401221
0.561517 0.934356 0.496437
0.594873 0.931792 0.501549
0.673793 0.930755 0.495857
0.792660 0.929229 0.483925
0.938384 0.929534 0.464729
0.234836 0.153902 0.520806
0.357366 0.174197 0.517723
0.560388 0.199130 0.509026
0.748196 0.229557 0.501915
0.927367 0.195407 0.484596
0.330236 0.339452 0.519921
0.405341 0.340795 0.516564
0.568414 0.333745 0.512200
0.746273 0.330571 0.504936
0.927977 0.301366 0.487190
0.381903 0.543664 0.532830
0.443091 0.538476 0.529198
0.587243 0.530571 0.525292
0.750210 0.524987 0.518181
0.925994 0.514153 0.502770
0.451148 0.740169 0.543023
0.496162 0.733822 0.541344
0.624445 0.728176 0.547753
0.764126 0.723964 0.542718
0.926055 0.720974 0.526238
0.559625 0.923003 0.586999
0.594354 0.923156 0.591760
0.688594 0.921935 0.601801
0.795956 0.919829 0.590784
0.932677 0.920256 0.573602
0.310521 0.200473 0.692531
0.388617 0.211551 0.691493
0.559350 0.230228 0.690944
0.736690 0.232944 0.682216
0.921080 0.170443 0.672999
0.375921 0.346075 0.691890
0.429755 0.345037 0.691341
0.569421 0.340429 0.688289
0.733852 0.327459 0.678462
0.916594 0.277867 0.669429
0.419318 0.523980 0.694514
0.467292 0.524254 0.692500
0.589990 0.523766 0.687495
0.737392 0.512627 0.680201
0.916289 0.485298 0.671107
0.470497 0.719356 0.709071
0.510277 0.715908 0.705257
0.621057 0.713161 0.700679
0.757046 0.712490 0.696620
0.918303 0.708888 0.685451
0.562737 0.914336 0.739620
0.591211 0.913634 0.739467
0.672938 0.915099 0.738247
0.791379 0.916197 0.731044
0.927733 0.913695 0.720577
0.352148 0.236851 0.909545
0.408850 0.239109 0.908721
0.550683 0.238712 0.906004
0.718288 0.219272 0.901671
0.893675 0.149050 0.895781
0.396551 0.352209 0.908629
0.441138 0.349950 0.907988
0.564202 0.340368 0.905699
0.722133 0.317998 0.901762
0.894255 0.268193 0.896178
0.462837 0.539391 0.909148
0.503105 0.542016 0.908202
0.597131 0.530907 0.906493
0.735286 0.512932 0.903014
0.897551 0.481300 0.897612
0.520714 0.725277 0.914305
0.551598 0.726009 0.913695
0.636530 0.724361 0.911864
0.757412 0.715877 0.908232
0.905669 0.698543 0.902190
0.586603 0.909209 0.925139
0.608423 0.909545 0.924926
0.677455 0.910796 0.924193
0.783963 0.913146 0.922545
0.925994 0.915831 0.918212
