cubelut/Portrait2.cube
# Created by Adobe Lightroom plugin Export LUT (1.18.0)
# www.johnrellis.com/lightroom/exportlut.htm
# Preset: Portrait Effect 11
# Color profile: /Library/Application Support/Adobe/Color/Profiles/Recommended/AdobeRGB1998.icc
LUT_3D_SIZE 8
DOMAIN_MIN 0.000000 0.000000 0.000000
DOMAIN_MAX 0.903226 0.903226 0.903226
0.284428 0.252079 0.318669
0.330816 0.250065 0.317693
0.421607 0.254032 0.322026
0.515282 0.262394 0.329290
0.611536 0.278386 0.342382
0.734249 0.298009 0.357733
0.862547 0.319219 0.373510
0.973114 0.344488 0.392432
0.284855 0.298344 0.318578
0.328618 0.297215 0.319677
0.415198 0.290623 0.323583
0.506523 0.292851 0.331853
0.602289 0.303105 0.343816
0.720546 0.319127 0.357824
0.848203 0.337438 0.372290
0.964569 0.360479 0.390906
0.297337 0.386694 0.328405
0.328130 0.384955 0.329381
0.409522 0.380529 0.332738
0.501823 0.374456 0.340764
0.601862 0.377142 0.351324
0.723110 0.390143 0.363897
0.859525 0.408698 0.379065
0.972686 0.425544 0.397559
0.319585 0.477394 0.345983
0.341466 0.475502 0.346319
0.406378 0.472389 0.348608
0.506584 0.481209 0.354955
0.615961 0.485756 0.364172
0.731594 0.492103 0.373541
0.855497 0.502922 0.385107
0.966552 0.512078 0.401740
0.342626 0.581628 0.364172
0.360906 0.580621 0.364385
0.418524 0.579797 0.366094
0.504906 0.582330 0.369726
0.602625 0.581170 0.373663
0.713741 0.587121 0.379797
0.839475 0.600702 0.389502
0.957671 0.610834 0.406500
0.362127 0.697780 0.379095
0.380713 0.704250 0.380407
0.434821 0.702693 0.381353
0.515984 0.701747 0.383185
0.611566 0.699763 0.385687
0.717403 0.701198 0.389380
0.838468 0.712764 0.397742
0.955718 0.720912 0.415778
0.382757 0.829526 0.394720
0.399268 0.830716 0.395270
0.449928 0.827420 0.395544
0.527977 0.825315 0.396918
0.620905 0.821866 0.398749
0.724544 0.821927 0.402747
0.834287 0.823728 0.408423
0.947082 0.827481 0.422705
0.413581 0.949004 0.420142
0.427588 0.948394 0.420264
0.474372 0.947723 0.421546
0.549065 0.948852 0.425238
0.631434 0.937957 0.422583
0.732845 0.939666 0.429694
0.840970 0.943114 0.440833
0.948425 0.943633 0.452338
0.283635 0.250584 0.353887
0.326085 0.250736 0.353857
0.407599 0.266911 0.355261
0.497871 0.283177 0.364111
0.594751 0.294621 0.371496
0.710780 0.307805 0.381323
0.839445 0.322545 0.392187
0.957305 0.343542 0.406500
0.285924 0.294591 0.353399
0.327214 0.295415 0.354345
0.404974 0.300053 0.358892
0.495064 0.306554 0.364660
0.590875 0.315251 0.371832
0.704494 0.326879 0.381140
0.829099 0.339727 0.390600
0.948455 0.358221 0.404303
0.304723 0.379065 0.356573
0.336187 0.376959 0.361242
0.404974 0.375647 0.362707
0.492409 0.374670 0.368017
0.589624 0.379004 0.375402
0.703395 0.388952 0.384253
0.832547 0.402564 0.394202
0.953979 0.419226 0.408881
0.326299 0.467903 0.368261
0.348241 0.466499 0.370642
0.407538 0.466255 0.372198
0.494026 0.467994 0.375708
0.591211 0.469490 0.381872
0.700954 0.476265 0.388952
0.827420 0.489448 0.397467
0.948455 0.502892 0.411414
0.348974 0.574426 0.384100
0.365545 0.572656 0.384131
0.418677 0.570184 0.384771
0.497200 0.568444 0.386694
0.587732 0.565545 0.388922
0.696864 0.574029 0.394202
0.824826 0.590967 0.402289
0.946380 0.603449 0.416876
0.364111 0.686397 0.394537
0.380072 0.686397 0.394812
0.431006 0.685634 0.395422
0.509453 0.687221 0.397345
0.603937 0.688777 0.399847
0.710719 0.694118 0.403601
0.831296 0.706569 0.410803
0.947936 0.714656 0.425879
0.380011 0.815702 0.406195
0.394873 0.813565 0.405737
0.444495 0.812253 0.406165
0.522271 0.813718 0.408179
0.615656 0.813565 0.410620
0.717708 0.813382 0.413581
0.824460 0.813443 0.417670
0.936614 0.817533 0.429358
0.409735 0.941741 0.429389
0.424292 0.942168 0.429938
0.471260 0.942138 0.431525
0.546075 0.943999 0.435431
0.636103 0.943328 0.439338
0.734554 0.941405 0.443824
0.839048 0.940856 0.451148
0.944579 0.939605 0.460029
0.289220 0.253849 0.426795
0.322637 0.256565 0.425757
0.406073 0.270024 0.422309
0.495186 0.289677 0.422095
0.590234 0.308751 0.428687
0.710079 0.325444 0.441474
0.841581 0.334539 0.449928
0.960296 0.353063 0.460456
0.305303 0.297581 0.422248
0.333593 0.300511 0.421241
0.403723 0.303929 0.420020
0.490547 0.315709 0.422217
0.586481 0.330266 0.429664
0.703517 0.342412 0.439765
0.834043 0.350988 0.447547
0.955535 0.368017 0.458564
0.314122 0.375341 0.420569
0.341100 0.374914 0.420417
0.408576 0.378454 0.423743
0.488838 0.380896 0.425971
0.589441 0.390661 0.434119
0.703456 0.399084 0.441016
0.831968 0.408698 0.448157
0.952819 0.423224 0.458900
0.331975 0.465766 0.421820
0.354406 0.464790 0.423621
0.415503 0.465797 0.428901
0.494850 0.468269 0.431495
0.591272 0.473915 0.437293
0.702937 0.482490 0.442939
0.831113 0.494820 0.449989
0.951049 0.507012 0.461189
0.352667 0.569696 0.431952
0.371801 0.568841 0.433661
0.426062 0.567010 0.437293
0.501122 0.567926 0.438819
0.589654 0.567285 0.440070
0.697536 0.576165 0.443824
0.824552 0.591974 0.450446
0.946441 0.604547 0.463081
0.367773 0.682490 0.441108
0.384497 0.682063 0.442115
0.434394 0.680018 0.443244
0.508415 0.679713 0.443885
0.599084 0.680598 0.444953
0.702724 0.685634 0.447700
0.825254 0.701411 0.454627
0.947509 0.714839 0.470100
0.382483 0.815915 0.452583
0.397375 0.814298 0.452247
0.445441 0.810971 0.451392
0.520836 0.809598 0.451728
0.612543 0.808682 0.452796
0.715480 0.810483 0.455665
0.826139 0.815000 0.460883
0.942107 0.822873 0.474617
0.410193 0.940185 0.471504
0.423255 0.938872 0.470832
0.469032 0.937804 0.471138
0.545586 0.941802 0.476631
0.634760 0.940795 0.479438
0.734096 0.940307 0.484108
0.839445 0.940978 0.491859
0.946258 0.941314 0.501274
0.300572 0.262119 0.503685
0.328985 0.267247 0.503593
0.402014 0.279545 0.500237
0.490150 0.291966 0.496681
0.586938 0.309636 0.499123
0.701045 0.324285 0.509575
0.827939 0.332128 0.519188
0.949798 0.347051 0.527428
0.320165 0.305241 0.501457
0.342412 0.306798 0.500908
0.405707 0.311254 0.498421
0.489357 0.317418 0.495796
0.586267 0.331456 0.499855
0.697414 0.342901 0.508537
0.823850 0.348821 0.517327
0.947631 0.362219 0.525902
0.331945 0.375250 0.496498
0.353796 0.376837 0.495583
0.411231 0.379706 0.494057
0.488319 0.382055 0.494575
0.585992 0.392828 0.502464
0.701198 0.401862 0.512474
0.834684 0.409735 0.522789
0.953307 0.423255 0.530968
0.341466 0.463508 0.496254
0.361334 0.463294 0.496162
0.417762 0.464088 0.496956
0.498451 0.471107 0.503166
0.585870 0.472999 0.504753
0.695521 0.479683 0.510307
0.825162 0.489723 0.518242
0.948974 0.504356 0.529900
0.358648 0.567041 0.502586
0.375830 0.565087 0.502190
0.428016 0.562982 0.503044
0.503929 0.566369 0.507469
0.590326 0.567346 0.508537
0.698787 0.577234 0.512718
0.825650 0.591241 0.519982
0.946471 0.603479 0.531426
0.371801 0.683253 0.511803
0.389105 0.687556 0.514519
0.438178 0.683497 0.513664
0.511131 0.682979 0.513176
0.602014 0.684077 0.513817
0.703792 0.686336 0.514977
0.825498 0.700618 0.521996
0.946563 0.713497 0.536919
0.383185 0.812680 0.522240
0.398352 0.813107 0.522515
0.446296 0.813169 0.522087
0.520623 0.813626 0.520806
0.614008 0.813046 0.521447
0.716945 0.813107 0.522850
0.825986 0.814725 0.525902
0.941894 0.822324 0.539513
0.413153 0.941772 0.541100
0.427436 0.941985 0.541466
0.472145 0.940978 0.541009
0.544030 0.940459 0.541802
0.633234 0.939269 0.543694
0.732815 0.938872 0.547601
0.838956 0.940154 0.555291
0.946746 0.941833 0.565606
0.318212 0.276402 0.591669
0.341161 0.280064 0.591333
0.405493 0.289464 0.587945
0.490028 0.300542 0.584344
0.586053 0.312261 0.585107
0.696895 0.324163 0.594110
0.823209 0.330785 0.606806
0.945861 0.345342 0.615503
0.332494 0.311986 0.588769
0.352331 0.313848 0.589410
0.410681 0.318151 0.586786
0.490486 0.324224 0.582544
0.584771 0.333165 0.583886
0.695918 0.342779 0.593744
0.822660 0.348211 0.606409
0.945251 0.361547 0.614832
0.349310 0.382269 0.583490
0.367987 0.384100 0.582666
0.418341 0.385016 0.580407
0.493874 0.388037 0.581140
0.580468 0.390845 0.579675
0.688350 0.396246 0.588952
0.817105 0.400000 0.602258
0.940612 0.409796 0.610254
0.356329 0.465492 0.582818
0.373602 0.465705 0.581994
0.425330 0.467231 0.581048
0.498085 0.469459 0.581201
0.581567 0.469917 0.580346
0.689357 0.473945 0.589288
0.817563 0.478309 0.599481
0.941741 0.489601 0.608301
0.364965 0.559197 0.581567
0.380835 0.558923 0.581323
0.429236 0.557549 0.580133
0.500008 0.558343 0.580865
0.587884 0.564080 0.586023
0.690517 0.564935 0.586603
0.816037 0.574456 0.594476
0.939574 0.590326 0.607813
0.372717 0.666133 0.586542
0.387274 0.665614 0.586328
0.432044 0.662593 0.584466
0.499672 0.662806 0.583856
0.584527 0.667048 0.582300
0.693019 0.674678 0.587549
0.819730 0.691463 0.599237
0.941497 0.705898 0.615259
0.381323 0.803525 0.604944
0.395117 0.802365 0.603998
0.439857 0.800809 0.602014
0.509667 0.801724 0.599481
0.599634 0.804044 0.596124
0.706905 0.805112 0.597986
0.818143 0.806363 0.600488
0.935241 0.814115 0.613703
0.405402 0.931579 0.619165
0.418311 0.931060 0.618555
0.461158 0.930022 0.616968
0.536492 0.934905 0.620630
0.625483 0.934203 0.620569
0.726314 0.933654 0.623316
0.833280 0.934752 0.629450
0.941650 0.936431 0.637690
0.335424 0.290227 0.704067
0.355901 0.292638 0.703365
0.415991 0.298833 0.698878
0.501793 0.307836 0.698360
0.598627 0.316716 0.696864
0.697414 0.324163 0.692348
0.820859 0.330083 0.706416
0.943542 0.345342 0.715816
0.344121 0.319493 0.696590
0.362371 0.320623 0.695735
0.418341 0.323980 0.693233
0.500938 0.329961 0.693629
0.595087 0.336065 0.691615
0.693324 0.341588 0.688289
0.817899 0.346136 0.703944
0.941650 0.359869 0.714107
0.359258 0.390661 0.695521
0.375525 0.390753 0.695155
0.427314 0.391730 0.694423
0.504753 0.393256 0.693324
0.594873 0.394415 0.689937
0.691707 0.395758 0.686702
0.817105 0.399176 0.702846
0.940948 0.411414 0.712886
0.365515 0.477272 0.696254
0.381384 0.476539 0.694484
0.431037 0.476081 0.692500
0.507439 0.477638 0.694789
0.598657 0.477546 0.694301
0.696712 0.476081 0.691524
0.821256 0.480018 0.705043
0.943023 0.492714 0.713405
0.369543 0.570123 0.688533
0.384436 0.569909 0.688136
0.431617 0.568933 0.686946
0.501854 0.567559 0.686610
0.588434 0.563622 0.686458
0.690120 0.561639 0.684962
0.814389 0.568963 0.695735
0.937194 0.585321 0.706783
0.374365 0.669032 0.683101
0.388586 0.670375 0.684382
0.432990 0.669581 0.683589
0.500084 0.668757 0.682918
0.584283 0.668879 0.682918
0.697047 0.678492 0.691615
0.816983 0.685969 0.698024
0.937652 0.702937 0.713039
0.380804 0.800839 0.701808
0.394873 0.801877 0.702571
0.438941 0.801114 0.701259
0.507134 0.801114 0.699397
0.596124 0.801755 0.697200
0.704067 0.803647 0.698329
0.816861 0.804929 0.700557
0.935485 0.815824 0.715755
0.402228 0.927947 0.714046
0.414618 0.927306 0.713344
0.456550 0.926238 0.711574
0.526268 0.927428 0.711177
0.616785 0.927855 0.711421
0.722194 0.928344 0.716335
0.830106 0.930571 0.722408
0.938140 0.932891 0.729000
0.349889 0.302068 0.819883
0.368505 0.303685 0.819821
0.426246 0.308293 0.819089
0.509819 0.314061 0.817868
0.605615 0.319371 0.814328
0.707393 0.323613 0.810513
0.812894 0.326726 0.807340
0.934295 0.339300 0.817319
0.355657 0.328069 0.819181
0.373327 0.328893 0.818997
0.428809 0.331395 0.818082
0.510155 0.334905 0.816037
0.605219 0.338476 0.813199
0.706966 0.341314 0.810025
0.812528 0.343084 0.806973
0.934173 0.355016 0.817075
0.363622 0.394079 0.816526
0.380041 0.394171 0.816190
0.432197 0.394415 0.815244
0.510674 0.394934 0.813443
0.604120 0.395178 0.811032
0.705470 0.395178 0.808408
0.811460 0.394629 0.805997
0.933837 0.405371 0.816403
0.365454 0.479561 0.813626
0.380224 0.478614 0.812772
0.429236 0.476783 0.811765
0.506920 0.475746 0.810361
0.600336 0.474281 0.808591
0.702602 0.472328 0.806699
0.810391 0.469795 0.804898
0.933654 0.481575 0.815061
0.368139 0.579248 0.810117
0.382605 0.578637 0.809781
0.428992 0.576440 0.808988
0.499275 0.571221 0.808072
0.591577 0.566339 0.807065
0.698054 0.564599 0.805631
0.809751 0.563745 0.804349
0.933074 0.580896 0.814176
0.371832 0.686305 0.807492
0.385443 0.685939 0.807248
0.430121 0.684535 0.806638
0.498726 0.681605 0.805905
0.588556 0.678309 0.805478
0.696223 0.677455 0.805417
0.810117 0.678584 0.804776
0.931731 0.696590 0.815518
0.376165 0.797757 0.805844
0.389380 0.797604 0.805722
0.432227 0.797177 0.805264
0.499641 0.796689 0.804776
0.590234 0.796506 0.804440
0.698665 0.797665 0.805203
0.816007 0.804166 0.810849
0.931487 0.814115 0.819577
0.394812 0.922484 0.815183
0.407691 0.922545 0.815091
0.450233 0.922881 0.814847
0.519982 0.923400 0.814572
0.611749 0.923919 0.815061
0.718441 0.924712 0.817899
0.827451 0.926848 0.822721
0.934905 0.929961 0.827909
0.370306 0.322484 0.941375
0.387182 0.323339 0.941131
0.440406 0.326390 0.940307
0.520165 0.330419 0.938903
0.614893 0.334874 0.937133
0.717617 0.338842 0.935210
0.825681 0.342229 0.933318
0.935729 0.345953 0.931640
0.373693 0.344366 0.940795
0.389929 0.344945 0.940581
0.441993 0.346746 0.939818
0.520745 0.349554 0.938506
0.614923 0.352697 0.936828
0.717403 0.355779 0.934966
0.825498 0.358373 0.933135
0.935607 0.361334 0.931579
0.378180 0.405249 0.939300
0.393683 0.405371 0.939086
0.443946 0.405768 0.938445
0.521050 0.406500 0.937346
0.614282 0.407446 0.935912
0.716487 0.408392 0.934264
0.824765 0.409247 0.932647
0.935241 0.410864 0.931273
0.375738 0.487404 0.937560
0.391211 0.487373 0.937377
0.441169 0.487160 0.936828
0.518029 0.486854 0.935973
0.611383 0.486458 0.934783
0.714137 0.486122 0.933410
0.823362 0.485817 0.932067
0.934813 0.486885 0.930907
0.379126 0.588586 0.935271
0.393133 0.588098 0.935210
0.438697 0.585901 0.934966
0.509697 0.581323 0.934813
0.605585 0.580987 0.933776
0.710780 0.581445 0.932586
0.821897 0.582696 0.931365
0.933989 0.586084 0.930327
0.385260 0.697902 0.933135
0.398749 0.697566 0.933074
0.442878 0.696223 0.932891
0.513512 0.693904 0.932677
0.606409 0.692958 0.932219
0.712337 0.694728 0.931334
0.822660 0.696925 0.930327
0.932952 0.700557 0.929564
0.394781 0.811368 0.931670
0.407691 0.811215 0.931609
0.450324 0.810544 0.931487
0.520684 0.809842 0.931243
0.612268 0.809781 0.930755
0.717586 0.811673 0.930175
0.825620 0.814115 0.929839
0.933135 0.817777 0.930236
0.409461 0.926757 0.931243
0.421942 0.926726 0.931243
0.463935 0.926726 0.931182
0.533104 0.926726 0.931060
0.623743 0.926818 0.930907
0.725216 0.927214 0.930907
0.831418 0.928344 0.931609
0.937194 0.932952 0.935210
