cubelut/Portrait9.cube
# Created by Adobe Lightroom plugin Export LUT (1.18.0)
# www.johnrellis.com/lightroom/exportlut.htm
# Preset: CP - INTERIOR DESIGN 13
# Color profile: /Library/Application Support/Adobe/Color/Profiles/Recommended/AdobeRGB1998.icc
LUT_3D_SIZE 8
DOMAIN_MIN 0.000000 0.000000 0.000000
DOMAIN_MAX 0.903226 0.903226 0.903226
0.000000 0.000000 0.000000
0.081849 0.008911 0.001282
0.182712 0.000000 0.000000
0.307347 0.000000 0.000000
0.435492 0.000000 0.000000
0.577630 0.000000 0.000000
0.752285 0.000000 0.000000
0.908232 0.000000 0.000000
0.019745 0.097444 0.039033
0.085664 0.097414 0.024994
0.196567 0.082948 0.000000
0.315709 0.000000 0.000000
0.440345 0.000000 0.000000
0.580285 0.000000 0.000000
0.751797 0.000000 0.000000
0.906798 0.000000 0.000000
0.024445 0.217136 0.083345
0.090089 0.216953 0.079255
0.200809 0.216464 0.061707
0.340581 0.194217 0.000000
0.469856 0.148836 0.000000
0.614282 0.089448 0.000000
0.780362 0.000000 0.000000
0.923888 0.082979 0.000000
0.080568 0.355383 0.144411
0.122469 0.356207 0.145357
0.208988 0.354467 0.143587
0.337835 0.366125 0.115694
0.496345 0.360510 0.008576
0.663264 0.353643 0.000000
0.808896 0.352911 0.000000
0.934936 0.367834 0.000000
0.122805 0.515007 0.211368
0.159030 0.516442 0.213413
0.234745 0.519158 0.206607
0.349523 0.523033 0.210239
0.488441 0.531762 0.165927
0.650507 0.540887 0.077852
0.813077 0.555810 0.000000
0.946685 0.566674 0.000000
0.157504 0.681086 0.281041
0.191623 0.686732 0.283268
0.261173 0.690272 0.269230
0.382940 0.691127 0.273411
0.512016 0.692470 0.266667
0.653925 0.698390 0.219577
0.808408 0.712490 0.146731
0.938842 0.728145 0.000000
0.239994 0.830655 0.373510
0.267063 0.831907 0.374701
0.337224 0.832670 0.370397
0.435248 0.832456 0.364538
0.556329 0.830076 0.372869
0.677516 0.830747 0.358434
0.802640 0.832761 0.311498
0.927855 0.843259 0.256626
0.404059 0.938354 0.506523
0.425360 0.937652 0.510307
0.494759 0.935607 0.526390
0.559960 0.935576 0.523949
0.644129 0.929259 0.527581
0.740841 0.926848 0.547051
0.830411 0.927886 0.529107
0.917998 0.928923 0.486488
0.024903 0.012848 0.087495
0.090913 0.017548 0.081941
0.188602 0.018250 0.077180
0.310491 0.000000 0.073487
0.434699 0.000000 0.050324
0.572930 0.000000 0.000000
0.744289 0.000000 0.000000
0.902556 0.000000 0.000000
0.024750 0.103914 0.097475
0.098451 0.103731 0.095430
0.201480 0.095888 0.088289
0.318853 0.054566 0.076905
0.440772 0.000000 0.055604
0.578058 0.000000 0.000000
0.744137 0.000000 0.000000
0.900786 0.000000 0.000000
0.059724 0.218021 0.124666
0.118837 0.219577 0.132753
0.212131 0.219730 0.122103
0.345525 0.201175 0.091310
0.467140 0.162875 0.065309
0.607294 0.114351 0.000000
0.765774 0.029755 0.000000
0.913909 0.066957 0.000000
0.102144 0.352422 0.174868
0.145510 0.354009 0.181033
0.224735 0.355718 0.181094
0.339757 0.361486 0.160067
0.487404 0.354833 0.113527
0.649592 0.347082 0.000000
0.792813 0.345068 0.000000
0.925505 0.360876 0.000000
0.141451 0.512657 0.235813
0.172976 0.513390 0.237064
0.245457 0.516350 0.231907
0.353063 0.516503 0.235203
0.484047 0.523461 0.197482
0.644434 0.534936 0.135714
0.807553 0.551171 0.000000
0.941283 0.562005 0.000000
0.168673 0.675563 0.298436
0.198215 0.677150 0.298650
0.264897 0.682338 0.286076
0.383825 0.684749 0.290471
0.511742 0.688106 0.287388
0.653529 0.696254 0.245548
0.806790 0.710353 0.184054
0.936339 0.724910 0.064485
0.239536 0.824155 0.383337
0.264195 0.823819 0.382879
0.343420 0.825376 0.386114
0.434394 0.827665 0.376440
0.556359 0.826902 0.386511
0.675837 0.827543 0.373907
0.798886 0.828824 0.327367
0.923949 0.839139 0.274205
0.398077 0.935851 0.510857
0.420294 0.935546 0.515160
0.490303 0.933806 0.530907
0.560693 0.933837 0.532494
0.652674 0.930846 0.545495
0.744869 0.927398 0.561273
0.830655 0.927184 0.541283
0.916716 0.927672 0.497475
0.000275 0.039460 0.207492
0.100160 0.030488 0.207797
0.218814 0.000000 0.194614
0.326268 0.000000 0.176669
0.440436 0.000000 0.175662
0.579858 0.000000 0.173678
0.748745 0.000000 0.145480
0.905516 0.000000 0.073335
0.032593 0.108797 0.214725
0.110323 0.109071 0.214878
0.224552 0.102693 0.204227
0.329473 0.097780 0.188540
0.442206 0.087495 0.187411
0.584771 0.000000 0.176699
0.749691 0.000000 0.146731
0.905394 0.000000 0.073487
0.072908 0.228305 0.231968
0.130129 0.229709 0.231479
0.239170 0.231510 0.230320
0.349889 0.222049 0.218875
0.470985 0.205112 0.205905
0.611780 0.178134 0.187625
0.766812 0.142428 0.154330
0.913085 0.126894 0.076905
0.118318 0.359869 0.251072
0.161624 0.362310 0.255222
0.260227 0.368414 0.266880
0.363806 0.373419 0.258244
0.508476 0.373083 0.230838
0.654200 0.364782 0.201602
0.795193 0.363256 0.163882
0.926207 0.372656 0.082582
0.153689 0.514733 0.295476
0.189242 0.516869 0.299199
0.278843 0.524102 0.308354
0.379767 0.529229 0.307897
0.504997 0.535698 0.285252
0.660426 0.546502 0.245487
0.816861 0.557702 0.190341
0.940307 0.563195 0.104189
0.182834 0.676356 0.353307
0.215152 0.678065 0.355444
0.299565 0.682795 0.358923
0.400305 0.687709 0.352544
0.524590 0.689754 0.356603
0.660273 0.697383 0.322026
0.811276 0.711971 0.277806
0.939391 0.725795 0.219303
0.252781 0.825345 0.432105
0.278599 0.825315 0.432715
0.355627 0.825772 0.435584
0.451362 0.828000 0.432227
0.569329 0.826871 0.442481
0.685145 0.828183 0.438911
0.805142 0.831662 0.398779
0.928038 0.842741 0.355535
0.399329 0.935607 0.542687
0.417426 0.934874 0.544060
0.486397 0.932738 0.556695
0.579644 0.932158 0.575982
0.662776 0.929808 0.583215
0.752804 0.927031 0.599237
0.835355 0.927276 0.586969
0.918212 0.928679 0.548669
0.000000 0.057527 0.333440
0.091646 0.052399 0.335546
0.235752 0.000000 0.338872
0.357214 0.000000 0.314763
0.460945 0.000000 0.288640
0.592615 0.000000 0.286107
0.742641 0.000000 0.281529
0.894713 0.000000 0.255619
0.046937 0.117433 0.339666
0.117586 0.117098 0.340642
0.242893 0.108339 0.343053
0.361456 0.090852 0.321477
0.464759 0.075349 0.297063
0.595117 0.000000 0.293095
0.742824 0.000000 0.284855
0.896269 0.000000 0.255100
0.101442 0.228214 0.344732
0.148074 0.231327 0.345892
0.251652 0.232639 0.350896
0.372198 0.230381 0.340032
0.480537 0.225925 0.323980
0.611933 0.214755 0.316716
0.763943 0.179782 0.300023
0.909422 0.124361 0.261906
0.134463 0.371496 0.367163
0.172854 0.373114 0.367193
0.267613 0.378302 0.368231
0.391791 0.387243 0.371862
0.511376 0.378149 0.356634
0.645502 0.368719 0.337957
0.787411 0.361181 0.311894
0.921569 0.361212 0.272374
0.164523 0.521843 0.390051
0.197910 0.522698 0.390936
0.286748 0.528832 0.395544
0.408972 0.543511 0.407050
0.530938 0.549981 0.398016
0.683131 0.556573 0.369024
0.823270 0.554314 0.334936
0.937102 0.552422 0.292790
0.193454 0.681361 0.438361
0.225956 0.685603 0.441840
0.311864 0.688808 0.444587
0.432532 0.696773 0.453407
0.552972 0.701076 0.458961
0.678187 0.706325 0.434821
0.822263 0.717342 0.398749
0.943633 0.723507 0.350530
0.261997 0.825132 0.503838
0.288121 0.825956 0.505180
0.366796 0.827909 0.509545
0.484016 0.830442 0.522545
0.595056 0.831785 0.529839
0.704219 0.832059 0.537041
0.813199 0.834653 0.501823
0.929625 0.844724 0.464851
0.413764 0.935912 0.601953
0.432166 0.935729 0.603723
0.488472 0.934447 0.608484
0.583764 0.931762 0.624842
0.676295 0.929351 0.638666
0.763210 0.926909 0.653346
0.841642 0.927337 0.651270
0.919829 0.929625 0.619165
0.000000 0.071199 0.466682
0.097292 0.068513 0.468696
0.241794 0.027619 0.473335
0.397406 0.000000 0.476875
0.505516 0.000000 0.443610
0.621118 0.000000 0.425696
0.760525 0.000000 0.423407
0.900664 0.000000 0.415503
0.064027 0.126284 0.470069
0.129549 0.125551 0.472419
0.252842 0.117067 0.476753
0.403418 0.078981 0.481544
0.508721 0.043732 0.448585
0.623590 0.000000 0.430640
0.762448 0.000000 0.426764
0.901122 0.000000 0.416144
0.129824 0.235752 0.475593
0.162722 0.233829 0.477607
0.267613 0.235935 0.483009
0.410895 0.232364 0.492226
0.518029 0.224674 0.463539
0.629816 0.203738 0.443702
0.766445 0.168673 0.434760
0.901122 0.095369 0.415656
0.147311 0.372625 0.484321
0.182010 0.374212 0.484596
0.270726 0.378698 0.487251
0.401892 0.381567 0.502281
0.535729 0.382330 0.490486
0.648493 0.367102 0.468055
0.777157 0.349889 0.448615
0.907408 0.319890 0.414832
0.169863 0.531945 0.509667
0.202090 0.533471 0.510399
0.288975 0.537743 0.512169
0.408026 0.546166 0.517052
0.554894 0.558831 0.525292
0.677455 0.543999 0.502281
0.804410 0.529229 0.473152
0.925383 0.517540 0.433356
0.198947 0.676997 0.536004
0.227604 0.678004 0.536461
0.308812 0.680690 0.537224
0.426673 0.688289 0.542687
0.567712 0.699611 0.557366
0.691707 0.709041 0.555444
0.830472 0.716945 0.528893
0.942596 0.711208 0.486366
0.269383 0.822202 0.591058
0.293492 0.822232 0.591150
0.368383 0.823209 0.593072
0.478706 0.825925 0.599603
0.605646 0.830137 0.613611
0.718074 0.832425 0.627680
0.819120 0.835203 0.605280
0.929198 0.842954 0.573419
0.418311 0.932067 0.668605
0.434668 0.931670 0.669184
0.487678 0.930510 0.671504
0.572625 0.930938 0.679683
0.675563 0.928435 0.693629
0.769100 0.926452 0.709590
0.846647 0.926452 0.718441
0.920043 0.929137 0.691188
0.065187 0.077913 0.624628
0.143496 0.072877 0.626032
0.277653 0.010559 0.629389
0.436164 0.000000 0.639673
0.579553 0.000000 0.634607
0.672541 0.000000 0.595087
0.786709 0.000000 0.580713
0.910735 0.000000 0.578332
0.109071 0.132540 0.622827
0.163180 0.129976 0.623896
0.284886 0.116335 0.629145
0.436225 0.063905 0.638117
0.579736 0.000000 0.635157
0.672328 0.000000 0.596338
0.786252 0.000000 0.581689
0.910246 0.000000 0.578332
0.145235 0.241672 0.630182
0.187381 0.241093 0.630884
0.295109 0.238468 0.634913
0.438239 0.230320 0.643244
0.587762 0.215610 0.646876
0.679286 0.204440 0.607630
0.789792 0.165011 0.588983
0.911803 0.107790 0.580865
0.157137 0.387213 0.628046
0.192935 0.386603 0.629572
0.285618 0.382269 0.637964
0.424109 0.381476 0.649958
0.591333 0.389746 0.663752
0.693202 0.379187 0.629541
0.797177 0.350805 0.602319
0.914916 0.331365 0.585962
0.169375 0.541527 0.636896
0.201358 0.541955 0.637415
0.287358 0.542809 0.639246
0.403815 0.543084 0.643275
0.561578 0.548119 0.661128
0.699245 0.551080 0.649348
0.801450 0.526513 0.618708
0.912139 0.510704 0.594110
0.211002 0.688991 0.658045
0.239811 0.690578 0.659358
0.320562 0.692927 0.660945
0.435492 0.697078 0.664149
0.567559 0.703914 0.669856
0.716182 0.720119 0.684596
0.822263 0.705043 0.660792
0.924926 0.689662 0.627893
0.290623 0.823484 0.693111
0.313909 0.824277 0.693996
0.383581 0.824796 0.694759
0.482521 0.826169 0.696498
0.601312 0.829465 0.701778
0.732570 0.835721 0.718532
0.830991 0.840024 0.717494
0.932128 0.843809 0.693050
0.431586 0.930419 0.747829
0.446357 0.929992 0.747921
0.494881 0.928954 0.748623
0.570977 0.928405 0.751278
0.663783 0.927398 0.755612
0.769589 0.926390 0.769772
0.854398 0.927001 0.787350
0.922454 0.930053 0.771115
0.193576 0.078798 0.775174
0.234653 0.070130 0.776455
0.341955 0.000000 0.779141
0.480446 0.000000 0.784482
0.629694 0.000000 0.791440
0.743771 0.000000 0.778103
0.823026 0.000000 0.740414
0.921447 0.000000 0.729427
0.203647 0.136324 0.773800
0.241550 0.132082 0.774990
0.343938 0.112337 0.777798
0.478920 0.032258 0.782681
0.626886 0.000000 0.789822
0.742397 0.000000 0.777676
0.821439 0.000000 0.739834
0.919677 0.000000 0.727993
0.208469 0.246464 0.775357
0.243717 0.245121 0.776089
0.342107 0.239567 0.778592
0.474372 0.228061 0.783627
0.621271 0.210758 0.790707
0.744289 0.191836 0.783413
0.824491 0.179324 0.746578
0.921019 0.137484 0.732265
0.188937 0.388678 0.774990
0.199100 0.376501 0.775937
0.309392 0.375311 0.778531
0.451911 0.376410 0.784146
0.605951 0.379461 0.791928
0.746517 0.383734 0.793545
0.828367 0.368780 0.757626
0.921111 0.340063 0.737453
0.182010 0.552514 0.766384
0.210849 0.550896 0.766110
0.298375 0.546471 0.768795
0.427771 0.541711 0.778134
0.573938 0.535607 0.788602
0.740536 0.557733 0.800717
0.828428 0.541802 0.769284
0.917296 0.512291 0.743862
0.236759 0.701503 0.779232
0.260990 0.701259 0.779294
0.334020 0.700191 0.779538
0.436805 0.698116 0.780362
0.556329 0.693935 0.781888
0.714076 0.703029 0.799039
0.833036 0.709071 0.790280
0.914794 0.683040 0.761135
0.326146 0.827543 0.796994
0.345983 0.827695 0.797299
0.406348 0.827726 0.797665
0.494453 0.828000 0.798825
0.601801 0.828702 0.800687
0.722774 0.832273 0.805783
0.845029 0.845487 0.820401
0.922118 0.831113 0.797452
0.455848 0.927947 0.828275
0.468818 0.927794 0.828397
0.512413 0.927703 0.829343
0.578882 0.927092 0.830076
0.662745 0.926055 0.831022
0.760006 0.925689 0.834928
0.858000 0.928283 0.847959
0.927642 0.932219 0.849638
0.332738 0.106752 0.903319
0.357855 0.099580 0.903716
0.434058 0.063752 0.904234
0.544335 0.000000 0.905852
0.669886 0.000000 0.908263
0.796780 0.000000 0.911528
0.881651 0.000000 0.899046
0.943114 0.000000 0.868864
0.332982 0.157412 0.902556
0.357671 0.153201 0.902953
0.432959 0.135836 0.903655
0.542321 0.095766 0.905180
0.667659 0.000000 0.907622
0.794644 0.000000 0.910948
0.880552 0.000000 0.898802
0.942260 0.000000 0.868681
0.322362 0.265080 0.901732
0.347021 0.263493 0.902037
0.422614 0.256748 0.902556
0.533776 0.246342 0.904784
0.660182 0.232029 0.907103
0.788327 0.224887 0.910246
0.878599 0.210147 0.900023
0.941161 0.203922 0.870451
0.273259 0.392035 0.900511
0.302922 0.391943 0.900908
0.388922 0.390509 0.901640
0.508904 0.389319 0.903441
0.642878 0.390173 0.906004
0.776547 0.399573 0.909300
0.875273 0.397559 0.902647
0.939147 0.382361 0.874296
0.301183 0.577935 0.893950
0.323888 0.576532 0.894560
0.393530 0.570489 0.896025
0.459113 0.532464 0.900298
0.611231 0.539635 0.902892
0.756344 0.554528 0.906554
0.869810 0.567102 0.905608
0.934997 0.549310 0.879393
0.326360 0.724849 0.892973
0.342199 0.723476 0.892699
0.392340 0.718318 0.891936
0.468147 0.707485 0.891051
0.594812 0.699611 0.895933
0.727565 0.693721 0.903258
0.864744 0.723690 0.910735
0.931060 0.707637 0.888518
0.421790 0.847959 0.901488
0.433722 0.847349 0.901305
0.472847 0.845151 0.900816
0.536431 0.841276 0.900298
0.619226 0.835233 0.899474
0.715785 0.826871 0.898558
0.841459 0.831479 0.908232
0.929015 0.836576 0.901366
0.526696 0.935027 0.913085
0.535424 0.934691 0.912963
0.565789 0.933715 0.912840
0.617670 0.932158 0.912871
0.686000 0.930083 0.912902
0.765194 0.927947 0.913085
0.849424 0.927733 0.914794
0.937560 0.937011 0.925505
