cubelut/Portrait4.cube
# Created by Adobe Lightroom plugin Export LUT (1.18.0)
# www.johnrellis.com/lightroom/exportlut.htm
# Preset: Portrait Effect 7
# Color profile: /Library/Application Support/Adobe/Color/Profiles/Recommended/AdobeRGB1998.icc
LUT_3D_SIZE 8
DOMAIN_MIN 0.000000 0.000000 0.000000
DOMAIN_MAX 0.903226 0.903226 0.903226
0.208164 0.179477 0.280064
0.291997 0.169589 0.278599
0.422583 0.166110 0.279332
0.545312 0.171023 0.288609
0.669245 0.183810 0.302525
0.789578 0.200076 0.315953
0.900084 0.218631 0.328801
0.998169 0.239170 0.341619
0.204562 0.259953 0.277012
0.290562 0.256107 0.277623
0.421057 0.236698 0.282567
0.543969 0.231205 0.293095
0.668147 0.235325 0.305791
0.788388 0.243961 0.318090
0.899016 0.255955 0.330327
0.997436 0.270634 0.342901
0.222263 0.383825 0.291539
0.281804 0.381872 0.292882
0.414374 0.376226 0.297093
0.541527 0.360967 0.305547
0.666835 0.354498 0.315068
0.787320 0.353338 0.325078
0.898314 0.354864 0.335912
0.996582 0.358495 0.347448
0.250523 0.505852 0.313451
0.293523 0.504936 0.314031
0.403693 0.502281 0.316442
0.536889 0.499702 0.320592
0.666133 0.492164 0.327001
0.785885 0.484077 0.334844
0.895995 0.477516 0.343847
0.994110 0.471931 0.354070
0.274784 0.634058 0.331365
0.309911 0.633600 0.331640
0.406500 0.632074 0.332952
0.529564 0.630060 0.335454
0.659754 0.627497 0.338872
0.782437 0.619165 0.344549
0.892302 0.606989 0.352392
0.990661 0.594720 0.361883
0.297307 0.757504 0.346532
0.326940 0.757534 0.346838
0.411963 0.756222 0.347784
0.525200 0.754299 0.349279
0.648432 0.751858 0.351629
0.774014 0.749508 0.354528
0.888640 0.738491 0.360693
0.986786 0.720546 0.369970
0.320165 0.871275 0.361059
0.344976 0.870970 0.361273
0.419013 0.869688 0.361913
0.521904 0.867674 0.363165
0.636835 0.865019 0.364965
0.755825 0.862150 0.367468
0.875151 0.859159 0.370672
0.981842 0.846098 0.377539
0.345190 0.972595 0.376776
0.365667 0.972259 0.376898
0.429236 0.971160 0.377539
0.521294 0.969390 0.378668
0.626795 0.966430 0.379919
0.738399 0.963470 0.382269
0.851499 0.960174 0.385412
0.963806 0.956329 0.389075
0.200046 0.176425 0.346838
0.288304 0.169100 0.346838
0.416724 0.189517 0.343023
0.539849 0.205570 0.349706
0.665339 0.212375 0.353979
0.786191 0.222324 0.359411
0.897276 0.236728 0.366094
0.995972 0.254673 0.373907
0.205356 0.257359 0.346929
0.288823 0.255222 0.346868
0.415167 0.252628 0.348058
0.539330 0.252110 0.350866
0.664851 0.254429 0.355016
0.785550 0.260441 0.360388
0.896483 0.270176 0.366857
0.995270 0.283421 0.374548
0.233951 0.381750 0.344640
0.294713 0.379217 0.350774
0.413001 0.375555 0.351873
0.538201 0.365972 0.354803
0.664057 0.361975 0.358618
0.784634 0.360876 0.363653
0.895598 0.362432 0.369879
0.994415 0.366155 0.377325
0.262577 0.504143 0.355138
0.305669 0.503014 0.358282
0.408026 0.501091 0.359228
0.535546 0.498573 0.360937
0.663172 0.492744 0.363989
0.783017 0.486091 0.368536
0.893492 0.480537 0.374304
0.992187 0.475898 0.381506
0.285924 0.632868 0.366400
0.318730 0.632380 0.366461
0.410986 0.630884 0.367224
0.530632 0.628840 0.368414
0.658564 0.626459 0.370184
0.780697 0.619043 0.373877
0.890715 0.607965 0.379522
0.989288 0.596551 0.386877
0.305303 0.756405 0.375189
0.333501 0.756069 0.375280
0.415869 0.754879 0.375799
0.526940 0.753201 0.376745
0.648829 0.751156 0.378271
0.773617 0.749111 0.380255
0.887663 0.738399 0.385107
0.985718 0.721157 0.392554
0.326940 0.870146 0.385229
0.350866 0.869749 0.385321
0.423011 0.868559 0.385748
0.524224 0.866819 0.386603
0.638087 0.864378 0.388067
0.756069 0.861601 0.389837
0.874632 0.858610 0.392279
0.980835 0.845731 0.398016
0.351995 0.971832 0.397528
0.371893 0.971527 0.397681
0.433967 0.970520 0.398138
0.524559 0.968811 0.399145
0.629175 0.966369 0.400427
0.739712 0.963317 0.402319
0.851926 0.959899 0.404730
0.963622 0.956085 0.407691
0.209751 0.174960 0.449805
0.276005 0.178683 0.449439
0.413367 0.193545 0.448219
0.537682 0.215213 0.441688
0.662776 0.233677 0.443488
0.783169 0.253269 0.447395
0.894163 0.268894 0.449042
0.992798 0.287968 0.451514
0.237339 0.252628 0.448432
0.292363 0.255497 0.448066
0.412909 0.257328 0.447456
0.536553 0.265202 0.443671
0.662104 0.274388 0.445228
0.782620 0.285313 0.447486
0.893584 0.296910 0.449012
0.992279 0.312291 0.451575
0.250431 0.377691 0.447211
0.302647 0.376745 0.446998
0.413611 0.374853 0.446754
0.535546 0.373297 0.446693
0.661830 0.373022 0.447089
0.782071 0.374670 0.447913
0.892668 0.378790 0.449561
0.991272 0.385595 0.452277
0.272892 0.503044 0.442023
0.315282 0.501915 0.443732
0.416388 0.499733 0.446998
0.535760 0.498360 0.447059
0.661707 0.495857 0.447333
0.781003 0.492195 0.448524
0.891142 0.489387 0.450416
0.989502 0.487800 0.453529
0.293553 0.632044 0.442756
0.328771 0.631312 0.444526
0.420447 0.629786 0.447517
0.534539 0.628260 0.447578
0.658900 0.626459 0.447761
0.779263 0.620508 0.448890
0.888640 0.611841 0.451392
0.986816 0.603174 0.455146
0.314916 0.755612 0.444648
0.345068 0.755062 0.446296
0.426947 0.753658 0.449073
0.532921 0.752102 0.449165
0.651118 0.750271 0.449378
0.773312 0.748501 0.449897
0.885771 0.738827 0.452552
0.983642 0.724086 0.457160
0.340276 0.869383 0.448707
0.366155 0.868772 0.450599
0.436652 0.867399 0.452552
0.532830 0.865660 0.452796
0.642817 0.863401 0.453223
0.758175 0.860929 0.454047
0.874754 0.858457 0.455207
0.979431 0.846281 0.459022
0.371252 0.970581 0.456489
0.392981 0.970031 0.458625
0.450446 0.969024 0.458778
0.536187 0.967559 0.459449
0.636744 0.965240 0.460060
0.744198 0.962493 0.461067
0.854032 0.959350 0.462470
0.963806 0.955840 0.464240
0.236149 0.185214 0.546777
0.287449 0.191409 0.546471
0.405646 0.205081 0.545495
0.537865 0.219150 0.544213
0.663416 0.235569 0.539940
0.782589 0.254978 0.537011
0.891997 0.281682 0.535698
0.989227 0.318059 0.537804
0.264225 0.256840 0.545586
0.305150 0.258061 0.545403
0.410681 0.261601 0.544701
0.537804 0.266850 0.543694
0.663081 0.275639 0.540368
0.782010 0.289616 0.537530
0.891325 0.311498 0.536553
0.988586 0.343511 0.539269
0.281621 0.370794 0.543938
0.321508 0.372442 0.543664
0.418860 0.374578 0.543023
0.537713 0.374243 0.542412
0.662440 0.376104 0.540887
0.781216 0.383001 0.539361
0.890257 0.397589 0.540307
0.987640 0.412757 0.541253
0.292912 0.500237 0.542107
0.328985 0.499886 0.541955
0.422858 0.498817 0.541558
0.538720 0.497963 0.541070
0.661891 0.497475 0.540429
0.779660 0.498451 0.540063
0.888457 0.501213 0.540215
0.986023 0.505669 0.541039
0.308293 0.631220 0.537652
0.340124 0.630518 0.537926
0.427710 0.629084 0.538567
0.540368 0.627558 0.539391
0.660883 0.626276 0.538872
0.778714 0.622400 0.538842
0.886625 0.617853 0.539483
0.983795 0.614069 0.540887
0.327489 0.755093 0.532280
0.355718 0.754849 0.533104
0.436500 0.753262 0.535027
0.543511 0.751247 0.537987
0.656611 0.749752 0.537652
0.774777 0.748379 0.537438
0.884154 0.740200 0.538567
0.980957 0.729549 0.540795
0.351934 0.868589 0.528069
0.376593 0.868132 0.529137
0.450355 0.866453 0.533013
0.549371 0.864164 0.538048
0.653010 0.862303 0.538048
0.763302 0.860197 0.538048
0.875822 0.858091 0.538262
0.977295 0.847196 0.540459
0.382910 0.969970 0.527062
0.404425 0.969451 0.528710
0.470832 0.967620 0.534630
0.558709 0.965332 0.540490
0.652094 0.963317 0.540673
0.753689 0.960937 0.541039
0.858854 0.958282 0.541650
0.964660 0.955383 0.542443
0.274632 0.199680 0.640711
0.313329 0.203738 0.640467
0.414496 0.214664 0.639643
0.537682 0.227451 0.638392
0.666102 0.239261 0.637171
0.784146 0.258030 0.630304
0.892088 0.284977 0.623133
0.988708 0.321599 0.617914
0.293675 0.260502 0.639765
0.327398 0.261814 0.639612
0.420417 0.265812 0.638941
0.539208 0.271611 0.637812
0.665858 0.278202 0.636683
0.783810 0.292088 0.630213
0.891661 0.314519 0.623407
0.988159 0.346838 0.618647
0.315892 0.372717 0.637812
0.347387 0.374365 0.637568
0.430671 0.374945 0.636988
0.542412 0.375463 0.636286
0.665400 0.376989 0.635157
0.782559 0.383948 0.629694
0.890013 0.398810 0.624353
0.986114 0.422827 0.621485
0.323339 0.495277 0.635523
0.353094 0.495674 0.635340
0.436622 0.496651 0.634760
0.545922 0.497688 0.633967
0.665187 0.498146 0.632929
0.781064 0.502312 0.629358
0.887388 0.512566 0.627131
0.982940 0.527947 0.627161
0.332769 0.627314 0.632288
0.360601 0.627100 0.632136
0.440650 0.626459 0.631647
0.548455 0.625788 0.630915
0.665187 0.625513 0.629877
0.779324 0.626032 0.628931
0.884886 0.627863 0.628229
0.980560 0.630915 0.627985
0.347936 0.753445 0.624079
0.373419 0.753017 0.624140
0.448585 0.751553 0.624262
0.552972 0.749569 0.625055
0.665736 0.747799 0.626612
0.777768 0.747463 0.626062
0.883268 0.742977 0.626123
0.978424 0.738186 0.626551
0.371099 0.867277 0.614221
0.393835 0.866789 0.614649
0.463264 0.865141 0.616266
0.562707 0.862516 0.620233
0.668818 0.860014 0.624598
0.771786 0.858640 0.624170
0.878172 0.857328 0.623651
0.975433 0.848905 0.624445
0.400855 0.968536 0.606073
0.420996 0.968017 0.606989
0.484169 0.966247 0.610468
0.576226 0.963561 0.617426
0.674220 0.960601 0.623987
0.767849 0.958770 0.623835
0.866361 0.956756 0.623682
0.966644 0.954589 0.623590
0.315801 0.213687 0.725368
0.345830 0.216983 0.725154
0.430732 0.226047 0.724331
0.542504 0.237888 0.723262
0.663355 0.250248 0.721889
0.786587 0.263462 0.720180
0.893950 0.289799 0.709865
0.989258 0.326696 0.699123
0.329473 0.266209 0.724361
0.356603 0.267552 0.724147
0.436530 0.271763 0.723507
0.544732 0.278386 0.722560
0.663752 0.286503 0.721218
0.786221 0.296330 0.719600
0.893492 0.318456 0.709621
0.988708 0.351324 0.699275
0.353002 0.375463 0.722408
0.376593 0.375677 0.722255
0.448646 0.376410 0.721767
0.550408 0.378210 0.720912
0.665522 0.381445 0.719692
0.785733 0.386755 0.718135
0.892180 0.401862 0.709041
0.987030 0.426520 0.700160
0.362127 0.492287 0.720089
0.386511 0.493111 0.719814
0.459602 0.496132 0.719142
0.558007 0.498665 0.718379
0.668666 0.500572 0.717281
0.785245 0.504234 0.715755
0.890043 0.514855 0.708461
0.984253 0.530480 0.702052
0.369879 0.617945 0.716487
0.393164 0.618219 0.716335
0.464027 0.619348 0.715724
0.564416 0.622248 0.714687
0.673243 0.625696 0.713375
0.783993 0.627222 0.712093
0.887022 0.632990 0.707546
0.980316 0.643122 0.704768
0.379217 0.747829 0.711849
0.401556 0.747799 0.711788
0.469886 0.747433 0.711269
0.568292 0.746944 0.710414
0.675471 0.746761 0.709316
0.783627 0.747341 0.708248
0.884611 0.748684 0.707240
0.977264 0.750790 0.706447
0.398291 0.866087 0.700740
0.418891 0.865721 0.700771
0.483436 0.864164 0.700893
0.576898 0.861723 0.701442
0.680415 0.859159 0.702571
0.784390 0.857206 0.704829
0.882689 0.856931 0.703944
0.975311 0.852811 0.703670
0.426581 0.967132 0.687190
0.445045 0.966644 0.687617
0.504234 0.964874 0.689265
0.589654 0.962341 0.692073
0.688350 0.959106 0.696803
0.786557 0.956298 0.702083
0.876890 0.955169 0.701595
0.970153 0.953887 0.700954
0.356695 0.228763 0.798734
0.380102 0.231571 0.798581
0.450965 0.239597 0.797940
0.549950 0.250980 0.796872
0.661189 0.264500 0.795438
0.777096 0.279973 0.793637
0.894102 0.297704 0.791531
0.990692 0.332525 0.778775
0.366979 0.274205 0.797848
0.388983 0.275639 0.797726
0.456428 0.280186 0.797116
0.552605 0.287633 0.796109
0.662196 0.297551 0.794736
0.777127 0.309789 0.792996
0.893584 0.325078 0.790921
0.990021 0.356115 0.778408
0.389197 0.377386 0.795895
0.408698 0.377691 0.795743
0.470008 0.379309 0.795224
0.560449 0.382452 0.794339
0.666041 0.387671 0.793027
0.778378 0.395361 0.791409
0.893004 0.406317 0.789456
0.988678 0.430365 0.777859
0.407385 0.492409 0.793210
0.427466 0.493935 0.792935
0.488228 0.497993 0.792233
0.572534 0.499916 0.791409
0.672908 0.503349 0.790188
0.781064 0.509056 0.788632
0.891905 0.517296 0.786801
0.986267 0.532555 0.776913
0.414527 0.609400 0.789700
0.434028 0.610285 0.789456
0.495644 0.613703 0.788693
0.586664 0.621210 0.787350
0.683284 0.626001 0.786038
0.784817 0.629145 0.784665
0.890196 0.634119 0.782986
0.982879 0.644556 0.775692
0.424018 0.731960 0.785245
0.442756 0.732326 0.785061
0.502770 0.733883 0.784421
0.590967 0.737026 0.783322
0.690730 0.741817 0.781857
0.791165 0.747402 0.780301
0.889097 0.749844 0.778927
0.979583 0.755306 0.774807
0.436103 0.856199 0.779812
0.454170 0.856138 0.779721
0.512322 0.855894 0.779202
0.596368 0.855619 0.778408
0.694148 0.855467 0.777279
0.793454 0.855741 0.775998
0.888487 0.856596 0.774807
0.976959 0.858305 0.773892
0.458503 0.965209 0.767117
0.475349 0.964782 0.767117
0.528862 0.963378 0.767239
0.608026 0.961059 0.767391
0.701717 0.958099 0.768093
0.797238 0.955413 0.769345
0.889036 0.953704 0.771298
0.974853 0.953429 0.770687
0.395392 0.245457 0.862333
0.414038 0.247562 0.862211
0.472847 0.254917 0.861601
0.559472 0.266209 0.860624
0.660670 0.280858 0.859251
0.768399 0.298100 0.857542
0.879454 0.317998 0.855467
0.989776 0.341955 0.853056
0.403784 0.284611 0.861631
0.421637 0.286198 0.861479
0.478157 0.290990 0.860960
0.562737 0.299443 0.860014
0.662470 0.311070 0.858671
0.769223 0.325597 0.856992
0.879637 0.343084 0.854948
0.989410 0.364904 0.852567
0.425177 0.380957 0.859617
0.441138 0.381659 0.859495
0.493019 0.383948 0.858976
0.572656 0.388647 0.858183
0.668421 0.395727 0.856931
0.772305 0.405707 0.855283
0.880613 0.418860 0.853300
0.988495 0.436316 0.850950
0.454200 0.497414 0.856443
0.468482 0.497871 0.856321
0.515251 0.499245 0.855863
0.588830 0.502373 0.855070
0.679164 0.507378 0.853880
0.778531 0.514916 0.852323
0.882811 0.524529 0.850401
0.987060 0.535729 0.848295
0.463752 0.605707 0.853178
0.480293 0.607416 0.852964
0.533806 0.613794 0.852110
0.612665 0.624048 0.850675
0.694911 0.627070 0.849607
0.787320 0.631739 0.848203
0.885863 0.638117 0.846525
0.985138 0.646448 0.844602
0.473487 0.719387 0.849027
0.489357 0.720394 0.848783
0.541039 0.724117 0.847990
0.617731 0.730220 0.846738
0.709560 0.740261 0.844968
0.799557 0.747494 0.843412
0.890532 0.751339 0.842039
0.983368 0.756374 0.840452
0.486213 0.835813 0.843931
0.501457 0.836240 0.843748
0.549950 0.837644 0.843137
0.624598 0.840482 0.842100
0.713924 0.845090 0.840635
0.806332 0.850950 0.838956
0.895964 0.856748 0.837369
0.981506 0.859831 0.835935
0.500999 0.951995 0.838071
0.515007 0.951904 0.837919
0.560876 0.951751 0.837491
0.633417 0.951537 0.836698
0.719478 0.951476 0.835630
0.809293 0.951659 0.834379
0.898619 0.952026 0.833066
0.980407 0.953124 0.831846
