cubelut/Portrait5.cube
# Created by Adobe Lightroom plugin Export LUT (1.18.0)
# www.johnrellis.com/lightroom/exportlut.htm
# Preset: Portrait Effect 28
# Color profile: /Library/Application Support/Adobe/Color/Profiles/Recommended/AdobeRGB1998.icc
LUT_3D_SIZE 8
DOMAIN_MIN 0.000000 0.000000 0.000000
DOMAIN_MAX 0.903226 0.903226 0.903226
0.139071 0.153841 0.305821
0.289769 0.146609 0.305699
0.457099 0.129946 0.304295
0.604334 0.118502 0.304448
0.736385 0.111086 0.305669
0.867948 0.108827 0.308019
0.966430 0.108888 0.310887
1.000000 0.105165 0.313329
0.142702 0.270054 0.305241
0.281834 0.265141 0.305119
0.442939 0.231693 0.304265
0.585107 0.212497 0.304936
0.718318 0.199710 0.305699
0.846647 0.190585 0.307286
0.947051 0.179965 0.309209
1.000000 0.168795 0.311345
0.136172 0.429267 0.299077
0.250340 0.425055 0.298802
0.435859 0.414252 0.297856
0.585321 0.383215 0.302495
0.727413 0.364263 0.304723
0.852232 0.345495 0.306584
0.963378 0.329046 0.310124
1.000000 0.307744 0.313054
0.134035 0.580743 0.291630
0.229679 0.575738 0.291539
0.400549 0.574792 0.289708
0.602808 0.600610 0.283421
0.761959 0.572686 0.286351
0.865324 0.525444 0.303624
0.958160 0.485878 0.307469
1.000000 0.449836 0.310033
0.115694 0.735439 0.277379
0.209171 0.732784 0.277043
0.371130 0.730098 0.275761
0.542657 0.732937 0.272679
0.710445 0.725338 0.269291
0.838834 0.681361 0.273808
0.935546 0.632929 0.293034
1.000000 0.593469 0.303929
0.109957 0.844175 0.266758
0.195041 0.853086 0.266209
0.341253 0.848783 0.265415
0.494270 0.843503 0.263615
0.646021 0.834348 0.261387
0.800626 0.826627 0.257969
0.931243 0.794247 0.262791
1.000000 0.740200 0.283604
0.120516 0.942138 0.258396
0.187533 0.943267 0.258579
0.315251 0.937499 0.257481
0.453590 0.931975 0.256168
0.591943 0.923095 0.253941
0.733730 0.916655 0.251835
0.878904 0.909575 0.249424
1.000000 0.880034 0.253727
0.147189 1.000000 0.256077
0.194736 1.000000 0.255833
0.304051 1.000000 0.255436
0.430884 1.000000 0.256413
0.549523 0.999969 0.249271
0.682521 0.996612 0.249943
0.819699 0.992645 0.252720
0.957183 0.981842 0.253147
0.149294 0.151461 0.355932
0.278630 0.139315 0.356970
0.439979 0.133547 0.343908
0.584039 0.134096 0.338476
0.716304 0.121035 0.332708
0.838407 0.117250 0.330236
0.938567 0.110384 0.328191
1.000000 0.096864 0.326116
0.145357 0.260197 0.355444
0.275456 0.256016 0.352941
0.436133 0.236942 0.345708
0.577691 0.217319 0.337560
0.708797 0.201053 0.331731
0.828489 0.190433 0.329076
0.924315 0.176791 0.326116
1.000000 0.159823 0.323552
0.130831 0.417853 0.336370
0.226871 0.419348 0.328099
0.431525 0.409796 0.324895
0.574640 0.377081 0.333318
0.710262 0.356847 0.330022
0.827420 0.336370 0.327398
0.929595 0.316258 0.325536
1.000000 0.296300 0.324224
0.111910 0.563561 0.318151
0.205417 0.563745 0.313237
0.388830 0.565820 0.311162
0.575128 0.568322 0.307317
0.718135 0.533806 0.310002
0.823270 0.497780 0.323186
0.922240 0.464912 0.321477
1.000000 0.435828 0.320195
0.054414 0.727779 0.296880
0.186496 0.723323 0.296513
0.357641 0.716518 0.295109
0.525414 0.709804 0.292485
0.687282 0.698451 0.288853
0.817136 0.659998 0.290257
0.917327 0.618616 0.308476
1.000000 0.583032 0.315221
0.065949 0.831083 0.283543
0.171664 0.830472 0.283238
0.325963 0.827207 0.282109
0.481331 0.825437 0.280247
0.635523 0.821164 0.277653
0.793820 0.818753 0.274113
0.923125 0.785855 0.277073
1.000000 0.731594 0.295109
0.077821 0.925933 0.271702
0.161471 0.922698 0.271153
0.299901 0.919310 0.270146
0.442817 0.918303 0.269017
0.584131 0.913542 0.267063
0.725185 0.906584 0.264225
0.867094 0.897154 0.260533
0.989227 0.867185 0.261692
0.117739 1.000000 0.265751
0.176974 1.000000 0.265965
0.293767 1.000000 0.265873
0.424384 1.000000 0.266911
0.554406 1.000000 0.266423
0.684230 0.998901 0.264652
0.817594 0.990478 0.263706
0.953277 0.977874 0.261295
0.175692 0.144442 0.434974
0.262516 0.134218 0.436439
0.444984 0.089540 0.437354
0.589319 0.104952 0.416358
0.723018 0.102785 0.402075
0.849546 0.137819 0.396216
0.948638 0.139742 0.386877
1.000000 0.121828 0.376745
0.152956 0.224247 0.437568
0.244907 0.211612 0.437781
0.443641 0.187320 0.435279
0.581170 0.203586 0.412848
0.719234 0.196078 0.400702
0.839322 0.202487 0.393286
0.938415 0.192782 0.383368
1.000000 0.174411 0.373999
0.142367 0.411658 0.432013
0.225681 0.412970 0.431586
0.421820 0.395544 0.416785
0.575402 0.377935 0.411505
0.725917 0.364538 0.402075
0.838041 0.345495 0.391699
0.935119 0.323735 0.381476
1.000000 0.299992 0.372015
0.117250 0.565393 0.400824
0.192325 0.570886 0.396796
0.358709 0.577173 0.376898
0.583093 0.575952 0.372412
0.729549 0.539422 0.385840
0.834440 0.507134 0.387915
0.932403 0.473915 0.378515
1.000000 0.441291 0.369329
0.064912 0.722225 0.374212
0.160189 0.723659 0.368719
0.324102 0.724147 0.351720
0.520439 0.720363 0.348882
0.698756 0.710079 0.344244
0.826535 0.660487 0.340978
0.920745 0.621973 0.366155
1.000000 0.584924 0.363317
0.008484 0.829374 0.347082
0.141176 0.830228 0.342473
0.298009 0.827848 0.332250
0.467262 0.822324 0.329839
0.627405 0.815793 0.326574
0.788785 0.811704 0.323339
0.919280 0.777646 0.323369
1.000000 0.730770 0.343786
0.012573 0.929229 0.326146
0.131685 0.927733 0.322148
0.279484 0.922606 0.316045
0.431006 0.917388 0.313848
0.576654 0.910948 0.311101
0.723018 0.905882 0.308629
0.872801 0.901427 0.306767
0.998901 0.872374 0.307897
0.075959 1.000000 0.310613
0.138827 1.000000 0.307317
0.273716 1.000000 0.305852
0.416297 1.000000 0.309178
0.549035 1.000000 0.307683
0.682521 0.998840 0.306554
0.818784 0.991302 0.306432
0.957305 0.979828 0.305150
0.207248 0.140871 0.517174
0.268620 0.134768 0.520562
0.411048 0.104067 0.522210
0.582940 0.000000 0.522026
0.721920 0.000000 0.498299
0.836973 0.072816 0.476539
0.933074 0.115572 0.458564
1.000000 0.126070 0.444343
0.186557 0.201297 0.526635
0.255558 0.196048 0.526940
0.407416 0.174594 0.525261
0.585840 0.122316 0.523217
0.723171 0.150637 0.497627
0.832395 0.172641 0.474556
0.927825 0.185367 0.457160
1.000000 0.185397 0.443977
0.156985 0.360113 0.521569
0.216037 0.352880 0.522271
0.368994 0.322972 0.521080
0.585870 0.306950 0.520226
0.724422 0.338354 0.495338
0.837888 0.349645 0.480873
0.940703 0.357214 0.471931
1.000000 0.319463 0.448981
0.124239 0.561944 0.519890
0.196048 0.563806 0.520073
0.352239 0.566796 0.518059
0.564446 0.549187 0.497902
0.711757 0.533532 0.495186
0.824125 0.510277 0.479683
0.926177 0.482246 0.462623
1.000000 0.448676 0.444190
0.078401 0.722896 0.484871
0.165316 0.720790 0.480903
0.313207 0.719387 0.467903
0.496376 0.718929 0.448463
0.701747 0.709163 0.442664
0.827512 0.662104 0.453803
0.922454 0.633051 0.460426
1.000000 0.590600 0.440589
0.071473 0.833768 0.444617
0.160372 0.841093 0.444099
0.294835 0.836851 0.431983
0.453407 0.833097 0.417029
0.628962 0.825528 0.412970
0.796384 0.816037 0.408148
0.923522 0.772335 0.400214
1.000000 0.732113 0.427436
0.065126 0.926543 0.412085
0.145327 0.927550 0.409979
0.273808 0.928374 0.401648
0.420203 0.927276 0.391913
0.575921 0.920684 0.388434
0.726986 0.912566 0.384497
0.878141 0.903319 0.380865
1.000000 0.867887 0.376165
0.113130 1.000000 0.391028
0.165438 1.000000 0.389563
0.271946 1.000000 0.382849
0.403906 1.000000 0.377508
0.542046 1.000000 0.374945
0.679683 0.998749 0.373083
0.819821 0.991241 0.373358
0.961639 0.980468 0.373724
0.237003 0.137911 0.609461
0.282078 0.132662 0.611139
0.397436 0.107393 0.610895
0.543725 0.000000 0.611475
0.719265 0.000000 0.618372
0.830991 0.000000 0.579400
0.927611 0.000000 0.548272
1.000000 0.000000 0.524224
0.221256 0.189120 0.613519
0.270817 0.184878 0.615808
0.392462 0.167086 0.614801
0.541314 0.126040 0.612146
0.719478 0.000000 0.618189
0.830655 0.101167 0.578393
0.927184 0.138247 0.547997
1.000000 0.143130 0.524102
0.166415 0.319280 0.614740
0.215335 0.310216 0.615778
0.358526 0.293584 0.614954
0.532952 0.278538 0.616266
0.715755 0.249271 0.613489
0.820645 0.287846 0.570306
0.919463 0.297978 0.544823
1.000000 0.285954 0.522118
0.149416 0.500481 0.612940
0.202823 0.497353 0.612940
0.329686 0.485756 0.613947
0.501274 0.461646 0.612055
0.709590 0.455177 0.604822
0.814786 0.484260 0.570397
0.914244 0.480201 0.552819
1.000000 0.458808 0.533349
0.092164 0.694789 0.604913
0.168307 0.696162 0.605097
0.310582 0.697414 0.603204
0.484718 0.696254 0.597101
0.676051 0.671199 0.574762
0.799222 0.654353 0.571527
0.904875 0.628138 0.553521
1.000000 0.589410 0.528618
0.059998 0.811337 0.552148
0.145785 0.811154 0.550378
0.278691 0.807370 0.541955
0.427070 0.803861 0.528985
0.595789 0.796719 0.514000
0.784146 0.795804 0.514275
0.910765 0.762081 0.524376
1.000000 0.735195 0.531456
0.061494 0.916533 0.512749
0.138460 0.915312 0.510277
0.263096 0.913634 0.503075
0.401038 0.913390 0.492409
0.555413 0.910918 0.482521
0.717311 0.903807 0.478309
0.874296 0.893675 0.472694
0.994446 0.850736 0.456519
0.071656 1.000000 0.478889
0.135775 1.000000 0.476967
0.248722 1.000000 0.470405
0.388800 1.000000 0.467048
0.527672 1.000000 0.460548
0.671168 0.994293 0.457008
0.815915 0.986175 0.455756
0.961028 0.974975 0.454353
0.260838 0.135622 0.696834
0.295659 0.130831 0.696925
0.390265 0.111482 0.694331
0.519493 0.045747 0.697780
0.665827 0.000000 0.699153
0.824002 0.000000 0.696376
0.924468 0.000000 0.653620
1.000000 0.000000 0.619348
0.247929 0.179995 0.692256
0.283604 0.176333 0.691829
0.381689 0.161929 0.690852
0.513024 0.132967 0.694148
0.659663 0.052918 0.694423
0.819272 0.000000 0.692561
0.920897 0.000000 0.650752
1.000000 0.000000 0.617487
0.192905 0.286961 0.699825
0.241581 0.284886 0.699458
0.360296 0.277806 0.699214
0.502983 0.264866 0.698787
0.655726 0.242039 0.695857
0.820615 0.203281 0.692195
0.920409 0.245640 0.648890
1.000000 0.250736 0.616663
0.179049 0.453040 0.699855
0.218662 0.448096 0.698817
0.324193 0.433387 0.699123
0.480262 0.422980 0.702541
0.652705 0.417334 0.700771
0.828336 0.405127 0.695430
0.923003 0.439673 0.651331
1.000000 0.431403 0.621515
0.147341 0.620569 0.686793
0.194705 0.619562 0.687007
0.307378 0.615076 0.687312
0.451728 0.606622 0.687098
0.622126 0.594995 0.682460
0.804532 0.592798 0.674372
0.903960 0.608331 0.644373
0.997589 0.591669 0.623590
0.065156 0.794095 0.672663
0.149050 0.797177 0.674311
0.281621 0.798917 0.673945
0.432715 0.799954 0.671687
0.601648 0.793820 0.664179
0.776608 0.776272 0.649744
0.894926 0.766110 0.649470
0.993103 0.739345 0.631037
0.072755 0.914916 0.630335
0.149172 0.916320 0.630274
0.271489 0.914946 0.626123
0.407691 0.912688 0.619409
0.560357 0.907164 0.611749
0.721431 0.898131 0.606165
0.879454 0.888853 0.599634
0.991180 0.852049 0.597742
0.062867 0.999451 0.583825
0.130220 0.998657 0.582177
0.243900 0.997070 0.577081
0.373388 0.997192 0.571191
0.518486 0.994202 0.566430
0.672663 0.988403 0.567834
0.819883 0.981231 0.567193
0.964538 0.970459 0.564355
0.275944 0.130587 0.763638
0.303410 0.126802 0.764187
0.383276 0.110414 0.764584
0.493690 0.066407 0.765133
0.619135 0.000000 0.763424
0.756527 0.000000 0.761044
0.906859 0.000000 0.758511
1.000000 0.000000 0.717403
0.267185 0.170260 0.763821
0.295476 0.167208 0.764157
0.377417 0.155459 0.764187
0.489021 0.130220 0.763516
0.615930 0.072267 0.762081
0.754452 0.000000 0.759945
0.905364 0.000000 0.757229
1.000000 0.000000 0.715755
0.229038 0.265049 0.766049
0.263310 0.263157 0.765896
0.356054 0.256565 0.765225
0.475807 0.244175 0.764126
0.608423 0.223301 0.762264
0.751461 0.188693 0.760006
0.906889 0.119234 0.757412
1.000000 0.156252 0.714778
0.181613 0.399725 0.765408
0.214237 0.394720 0.764920
0.306554 0.379370 0.765194
0.447456 0.372992 0.764004
0.593011 0.362860 0.761990
0.745418 0.348486 0.759640
0.908019 0.326940 0.756649
1.000000 0.349554 0.712367
0.160891 0.557580 0.758328
0.197543 0.555200 0.758297
0.291783 0.546593 0.758572
0.413397 0.530236 0.759091
0.567437 0.519036 0.757839
0.733181 0.515587 0.754757
0.903410 0.510979 0.750942
0.996735 0.533013 0.710079
0.116548 0.721645 0.750149
0.165560 0.721004 0.750210
0.272740 0.718257 0.750484
0.400824 0.712856 0.750729
0.553613 0.706874 0.749660
0.724697 0.705989 0.745876
0.892699 0.707118 0.740230
0.987518 0.713466 0.712795
0.000000 0.888426 0.740658
0.104891 0.888914 0.740810
0.245090 0.890074 0.740719
0.385595 0.891478 0.740261
0.545525 0.891203 0.738399
0.714992 0.886717 0.733852
0.871763 0.869200 0.721706
0.978088 0.856565 0.717678
0.000000 0.992493 0.695216
0.096223 0.992462 0.694575
0.233310 0.992889 0.692744
0.367285 0.992126 0.689113
0.517357 0.989044 0.685786
0.676875 0.982788 0.685603
0.832456 0.973419 0.690455
0.969085 0.964660 0.687404
0.290959 0.124697 0.834806
0.313542 0.120699 0.834775
0.381231 0.105531 0.834134
0.478431 0.066011 0.833371
0.591791 0.000000 0.832212
0.716396 0.000000 0.830655
0.851713 0.000000 0.828885
0.998932 0.000000 0.826474
0.283635 0.160922 0.834409
0.306798 0.158206 0.834379
0.376318 0.147219 0.833799
0.474739 0.124453 0.832975
0.589227 0.074159 0.831815
0.714626 0.000000 0.830228
0.850553 0.000000 0.828336
0.998352 0.000000 0.825956
0.254215 0.247501 0.834104
0.280613 0.245853 0.834012
0.356909 0.239475 0.833310
0.461799 0.228305 0.832853
0.580529 0.209018 0.831571
0.709102 0.176516 0.829770
0.847929 0.113252 0.827848
0.998383 0.000000 0.825406
0.178012 0.354620 0.833707
0.216495 0.353368 0.833707
0.314336 0.349432 0.833066
0.434119 0.342748 0.832273
0.562860 0.332525 0.831022
0.698726 0.317021 0.829252
0.843290 0.294469 0.827176
0.998810 0.259281 0.824552
0.156710 0.505364 0.829160
0.189670 0.502586 0.829404
0.274022 0.491341 0.829801
0.382910 0.469795 0.830625
0.533623 0.466560 0.829068
0.682246 0.461036 0.827024
0.835996 0.456184 0.824552
0.997070 0.451545 0.821592
0.122805 0.661097 0.822904
0.162753 0.659358 0.822904
0.256016 0.653193 0.823026
0.370642 0.641932 0.823484
0.511437 0.632044 0.823545
0.675502 0.637873 0.821714
0.833371 0.642725 0.819272
0.992859 0.647486 0.816068
0.020661 0.819577 0.815549
0.118624 0.818906 0.815488
0.233768 0.816526 0.815518
0.360845 0.812955 0.815610
0.509300 0.810513 0.815152
0.672419 0.812161 0.813504
0.838285 0.822446 0.809995
0.982605 0.827085 0.805997
0.000000 0.976226 0.806973
0.000000 0.976257 0.806943
0.212100 0.976593 0.806821
0.357794 0.977142 0.806607
0.513207 0.976928 0.805905
0.677211 0.974945 0.804410
0.841398 0.969421 0.801907
0.972595 0.957305 0.796963
