cubelut/Portrait6.cube
# Created by Adobe Lightroom plugin Export LUT (1.18.0)
# www.johnrellis.com/lightroom/exportlut.htm
# Preset: Portrait Effect 14
# Color profile: /Library/Application Support/Adobe/Color/Profiles/Recommended/AdobeRGB1998.icc
LUT_3D_SIZE 32
DOMAIN_MIN 0.0 0.0 0.0
DOMAIN_MAX 1.0 1.0 1.0
0.284428 0.252079 0.318669
0.284428 0.252079 0.318669
0.287327 0.251987 0.318608
0.302342 0.251255 0.318303
0.323430 0.250492 0.317815
0.345373 0.249271 0.317266
0.367102 0.248173 0.316686
0.388891 0.247288 0.316411
0.410834 0.247654 0.317082
0.433051 0.248844 0.317784
0.455756 0.249760 0.318944
0.478492 0.251041 0.320165
0.501732 0.252384 0.321477
0.525597 0.254093 0.323033
0.550225 0.256382 0.324926
0.575677 0.258793 0.326787
0.601862 0.261479 0.329107
0.628290 0.264103 0.331273
0.654841 0.266880 0.333379
0.682582 0.269413 0.335271
0.711849 0.271794 0.337194
0.742275 0.274266 0.338872
0.774441 0.276768 0.340673
0.808011 0.279515 0.342596
0.841489 0.282292 0.344427
0.873899 0.285496 0.346624
0.904448 0.288975 0.348791
0.933257 0.292668 0.351263
0.960327 0.296361 0.353948
0.985901 0.300755 0.356786
1.000000 0.305150 0.360082
1.000000 0.310063 0.363470
0.284428 0.252079 0.318669
0.284428 0.252079 0.318669
0.288701 0.253788 0.318456
0.303410 0.254948 0.318029
0.324590 0.254765 0.317510
0.346563 0.253696 0.316960
0.368750 0.252323 0.316381
0.390784 0.251774 0.316289
0.413062 0.251804 0.317235
0.435798 0.252598 0.317937
0.458747 0.253513 0.319097
0.481849 0.254612 0.320470
0.505455 0.255863 0.321752
0.529717 0.257511 0.323339
0.554742 0.259770 0.325261
0.580621 0.262333 0.327428
0.607111 0.264958 0.329717
0.633906 0.267491 0.331823
0.660853 0.270085 0.333959
0.689052 0.272587 0.335912
0.718318 0.275090 0.337652
0.748714 0.277440 0.339422
0.780880 0.280034 0.341405
0.814267 0.282536 0.343175
0.847166 0.285679 0.345129
0.879026 0.288792 0.347326
0.909026 0.292302 0.349554
0.937255 0.296147 0.352209
0.963867 0.300053 0.354894
0.989075 0.304143 0.357977
1.000000 0.308690 0.361028
1.000000 0.313634 0.364569
0.284031 0.257511 0.318334
0.286687 0.258122 0.318242
0.290776 0.258793 0.318090
0.304753 0.260624 0.317662
0.325994 0.260990 0.317082
0.348119 0.259800 0.316533
0.370520 0.258061 0.316075
0.392523 0.257786 0.316655
0.415137 0.257633 0.317388
0.437812 0.258030 0.318486
0.461036 0.258732 0.319463
0.484260 0.259525 0.320653
0.507988 0.260746 0.321996
0.532341 0.262242 0.323705
0.557488 0.264439 0.325658
0.583551 0.266636 0.327947
0.610285 0.269383 0.330205
0.637293 0.271855 0.332219
0.664393 0.274327 0.334325
0.692653 0.276646 0.336339
0.721889 0.279118 0.338231
0.752132 0.281407 0.339849
0.784207 0.284001 0.341711
0.817380 0.286564 0.343511
0.850095 0.289525 0.345708
0.881682 0.292699 0.347845
0.911376 0.296239 0.350195
0.939330 0.299931 0.352880
0.965759 0.303746 0.355535
0.990723 0.307897 0.358434
1.000000 0.312230 0.361547
1.000000 0.317266 0.365240
0.282902 0.274388 0.317266
0.287572 0.274357 0.317144
0.293462 0.274510 0.316991
0.306950 0.275120 0.316625
0.327642 0.275090 0.316075
0.349462 0.273289 0.315770
0.371374 0.271611 0.316381
0.393866 0.270512 0.316991
0.416571 0.269718 0.317845
0.439582 0.269322 0.318944
0.462959 0.269505 0.320073
0.486580 0.269871 0.321324
0.510613 0.270787 0.322728
0.535241 0.272129 0.324590
0.560693 0.273808 0.326543
0.586999 0.276158 0.328740
0.613977 0.278386 0.331029
0.641444 0.280674 0.333013
0.669123 0.282994 0.335241
0.698054 0.285344 0.337255
0.727749 0.287724 0.338903
0.758145 0.290013 0.340642
0.789761 0.292332 0.342596
0.821897 0.294865 0.344274
0.853300 0.297581 0.346288
0.883543 0.300450 0.348363
0.912383 0.303716 0.350622
0.939879 0.307225 0.353155
0.966064 0.310735 0.355779
0.991119 0.314702 0.358801
1.000000 0.319036 0.362005
1.000000 0.323827 0.365972
0.281071 0.298466 0.315557
0.286320 0.298222 0.315435
0.293400 0.298161 0.315709
0.308080 0.298070 0.315587
0.329046 0.297795 0.316045
0.351934 0.295445 0.316442
0.374151 0.292424 0.317205
0.396765 0.289952 0.317906
0.419898 0.288273 0.318975
0.443122 0.287114 0.319982
0.466743 0.286259 0.321050
0.490608 0.286076 0.322332
0.514824 0.286259 0.324041
0.539483 0.287266 0.325780
0.564660 0.288426 0.328099
0.590539 0.290196 0.330022
0.617060 0.292058 0.332250
0.644007 0.293950 0.334203
0.671656 0.295750 0.336217
0.700710 0.297856 0.337957
0.730617 0.299962 0.339788
0.761227 0.302159 0.341619
0.792935 0.304601 0.343236
0.824826 0.306981 0.345037
0.855772 0.309453 0.346960
0.885679 0.312200 0.349126
0.914183 0.315160 0.351415
0.941497 0.318273 0.353948
0.967620 0.321660 0.356634
0.992615 0.325414 0.359747
1.000000 0.329473 0.363012
1.000000 0.334142 0.366857
0.282414 0.321508 0.316381
0.287175 0.321294 0.316411
0.293736 0.321172 0.316442
0.307164 0.321080 0.316655
0.327001 0.320684 0.317021
0.350927 0.320317 0.317540
0.375128 0.317510 0.318242
0.397925 0.313878 0.319127
0.421057 0.310765 0.320073
0.444495 0.308507 0.321111
0.468269 0.307012 0.322423
0.492226 0.306035 0.323888
0.516503 0.305760 0.325566
0.541192 0.306096 0.327550
0.566369 0.306767 0.329473
0.592248 0.307836 0.331487
0.618555 0.308934 0.333471
0.645228 0.310399 0.335393
0.672663 0.311894 0.337316
0.701442 0.313695 0.339208
0.730922 0.315526 0.340764
0.761105 0.317144 0.342535
0.755215 0.311589 0.341070
0.788388 0.313939 0.342596
0.822477 0.316442 0.343969
0.855741 0.319036 0.345739
0.887755 0.321965 0.347845
0.918273 0.324865 0.349981
0.947234 0.328008 0.352575
0.974792 0.331365 0.355169
1.000000 0.335149 0.358495
1.000000 0.339483 0.362066
0.284123 0.338323 0.317449
0.288304 0.338231 0.317540
0.293706 0.338170 0.317784
0.305241 0.337896 0.318090
0.322057 0.337743 0.318395
0.343175 0.337438 0.318730
0.367285 0.337041 0.319219
0.391211 0.334661 0.320043
0.413581 0.330938 0.320958
0.436194 0.328099 0.322240
0.459022 0.325994 0.323674
0.482155 0.324346 0.325048
0.506065 0.323705 0.326726
0.530816 0.323674 0.328679
0.556573 0.324071 0.330419
0.583032 0.325048 0.332555
0.609857 0.325994 0.334447
0.636927 0.327123 0.336248
0.663844 0.328252 0.337957
0.691157 0.329412 0.339422
0.718349 0.330419 0.340948
0.745388 0.331304 0.342138
0.772885 0.332250 0.343236
0.801724 0.333501 0.344366
0.831449 0.334936 0.345769
0.861997 0.336950 0.347204
0.892485 0.339574 0.349218
0.922240 0.342229 0.351446
0.950713 0.345037 0.353918
0.978058 0.348272 0.356817
1.000000 0.351720 0.359960
1.000000 0.355779 0.363806
0.286381 0.361944 0.319463
0.290318 0.362066 0.319554
0.295293 0.361975 0.319677
0.306218 0.362005 0.319768
0.322087 0.361883 0.320165
0.342138 0.361791 0.320592
0.365240 0.361456 0.321202
0.390661 0.361181 0.321996
0.415656 0.358953 0.323064
0.438636 0.355047 0.323980
0.461402 0.352056 0.325719
0.484718 0.349767 0.327459
0.508782 0.348455 0.329168
0.533654 0.347692 0.330877
0.559564 0.347662 0.332647
0.586206 0.348058 0.334569
0.613245 0.348760 0.336400
0.640681 0.349432 0.338048
0.667933 0.350317 0.339605
0.695552 0.351019 0.341192
0.722957 0.351843 0.342412
0.750240 0.352483 0.343694
0.778103 0.353246 0.344701
0.807156 0.354192 0.345922
0.836637 0.355627 0.347021
0.866819 0.357580 0.348638
0.896818 0.359747 0.350591
0.926085 0.362066 0.352941
0.954131 0.364721 0.355413
0.981109 0.367437 0.358526
1.000000 0.370642 0.361883
1.000000 0.374395 0.365728
0.289433 0.386145 0.321843
0.293217 0.386023 0.321691
0.297795 0.386206 0.322057
0.307866 0.386145 0.322362
0.322820 0.386236 0.322637
0.341619 0.386297 0.323186
0.363867 0.386145 0.323735
0.388190 0.385901 0.324498
0.414069 0.385290 0.325566
0.439521 0.383337 0.326726
0.462531 0.379339 0.327825
0.485847 0.376165 0.329534
0.509789 0.374273 0.331395
0.534752 0.373114 0.333165
0.560662 0.372625 0.335058
0.587640 0.372656 0.336736
0.614984 0.373022 0.338262
0.642481 0.373510 0.340093
0.669856 0.374060 0.341497
0.697749 0.374517 0.342718
0.725399 0.374975 0.344182
0.752956 0.375311 0.345098
0.781216 0.375830 0.346197
0.810422 0.376867 0.347204
0.839841 0.378149 0.348547
0.869871 0.379614 0.350134
0.899657 0.381659 0.352117
0.928679 0.383795 0.354253
0.956573 0.386023 0.357031
0.983429 0.388617 0.359991
1.000000 0.391394 0.363470
1.000000 0.394903 0.367773
0.293584 0.410895 0.324681
0.296757 0.411048 0.324834
0.301274 0.411109 0.324895
0.310796 0.411292 0.325170
0.324681 0.411505 0.325566
0.342626 0.411627 0.326238
0.363806 0.411688 0.326879
0.387182 0.411566 0.327703
0.412085 0.411139 0.328679
0.438209 0.410376 0.329564
0.464088 0.408667 0.330785
0.487770 0.404883 0.331853
0.511803 0.402106 0.333532
0.536370 0.400183 0.335424
0.561883 0.398962 0.337133
0.588067 0.398444 0.338994
0.614801 0.398077 0.340276
0.641840 0.397925 0.341680
0.669001 0.398077 0.343328
0.697230 0.398413 0.344549
0.725795 0.399084 0.345617
0.754788 0.399786 0.346685
0.784573 0.400671 0.347753
0.814755 0.401770 0.349004
0.844816 0.402960 0.350286
0.874693 0.404547 0.351843
0.903899 0.406104 0.353826
0.932128 0.407721 0.355962
0.959258 0.409491 0.358770
0.985382 0.411414 0.361700
1.000000 0.413733 0.365057
1.000000 0.416480 0.369360
0.298131 0.438025 0.328435
0.301061 0.438056 0.328466
0.305455 0.438087 0.328466
0.314275 0.438025 0.328679
0.327611 0.438025 0.329107
0.344518 0.437903 0.329534
0.364385 0.437720 0.330266
0.386572 0.437354 0.330907
0.410590 0.436744 0.331518
0.436011 0.435920 0.332586
0.462104 0.435126 0.333410
0.488624 0.433875 0.334539
0.512932 0.430610 0.335821
0.537926 0.428290 0.337346
0.563378 0.426703 0.339147
0.589502 0.425757 0.340887
0.616114 0.425055 0.342351
0.643122 0.424750 0.343938
0.670680 0.424750 0.345281
0.699245 0.424933 0.346471
0.727932 0.425330 0.347509
0.757046 0.425910 0.348394
0.786893 0.426734 0.349432
0.817014 0.427649 0.350530
0.846983 0.428809 0.351873
0.876860 0.429999 0.353491
0.906035 0.431373 0.355505
0.934325 0.432959 0.357794
0.961456 0.434455 0.360571
0.987488 0.435950 0.363592
1.000000 0.437873 0.367285
1.000000 0.440253 0.371496
0.302617 0.464179 0.331762
0.305486 0.464149 0.331823
0.309483 0.464210 0.331945
0.317784 0.464118 0.332219
0.330297 0.463966 0.332555
0.346319 0.463722 0.332799
0.365332 0.463386 0.333379
0.386542 0.462867 0.333959
0.409583 0.462104 0.334630
0.433875 0.461250 0.335302
0.459266 0.460121 0.336278
0.485481 0.459327 0.337102
0.495003 0.442237 0.335973
0.518730 0.440009 0.337194
0.543236 0.438483 0.338476
0.568383 0.437598 0.340307
0.594385 0.437385 0.341833
0.620844 0.437537 0.343420
0.648005 0.437995 0.345098
0.676753 0.438911 0.346166
0.706600 0.440314 0.347021
0.737026 0.441871 0.348119
0.768612 0.443763 0.348974
0.800992 0.445960 0.350134
0.833188 0.448035 0.351202
0.864805 0.450019 0.352880
0.895598 0.451911 0.354864
0.925444 0.453773 0.356909
0.954040 0.455573 0.359869
0.981323 0.457252 0.362829
1.000000 0.459236 0.366735
1.000000 0.461433 0.370977
0.305608 0.480507 0.334112
0.308232 0.480659 0.334203
0.311772 0.481056 0.334356
0.319738 0.481758 0.334417
0.331212 0.482673 0.334905
0.346288 0.483558 0.335424
0.364263 0.483986 0.335821
0.384466 0.483833 0.336492
0.406226 0.483101 0.336980
0.429084 0.481636 0.337652
0.452430 0.479561 0.338262
0.476143 0.476936 0.338750
0.500175 0.474525 0.339361
0.524865 0.472572 0.340093
0.548089 0.469123 0.340978
0.572473 0.467292 0.342107
0.598138 0.466346 0.343603
0.624628 0.466072 0.345342
0.651911 0.466407 0.346838
0.681086 0.467536 0.348272
0.711055 0.469093 0.349248
0.741726 0.470588 0.350225
0.773617 0.472724 0.351171
0.806119 0.474891 0.352117
0.838163 0.476875 0.353155
0.869535 0.478737 0.354925
0.900023 0.480415 0.356756
0.929473 0.481971 0.359258
0.957610 0.483375 0.362127
0.984466 0.484627 0.365393
1.000000 0.486091 0.369085
1.000000 0.487800 0.373724
0.310033 0.508598 0.337499
0.312627 0.508629 0.337499
0.316106 0.509026 0.337591
0.323430 0.509697 0.337835
0.334661 0.510491 0.338231
0.349279 0.511467 0.338628
0.366674 0.511986 0.339117
0.386267 0.512016 0.339513
0.407691 0.511284 0.340032
0.430121 0.509880 0.340612
0.453254 0.507805 0.341161
0.476753 0.505241 0.341741
0.500755 0.502739 0.342138
0.525353 0.500725 0.342870
0.550866 0.499367 0.343664
0.575799 0.497383 0.344732
0.601709 0.496223 0.345617
0.628321 0.495796 0.347051
0.655940 0.495979 0.348577
0.685145 0.497078 0.349950
0.715175 0.498482 0.351171
0.745815 0.500114 0.352178
0.777737 0.502159 0.353124
0.809934 0.504356 0.354070
0.841672 0.506157 0.355138
0.872709 0.507713 0.356786
0.902892 0.509148 0.358953
0.932006 0.510369 0.361456
0.959899 0.511467 0.364355
0.986358 0.512352 0.367803
1.000000 0.513359 0.371588
1.000000 0.514611 0.376349
0.314214 0.536217 0.340429
0.316686 0.536126 0.340490
0.319799 0.536522 0.340581
0.327092 0.537285 0.340917
0.338018 0.538354 0.341222
0.352056 0.539361 0.341650
0.368933 0.540002 0.342199
0.388220 0.540002 0.342626
0.409003 0.539391 0.343175
0.431189 0.537957 0.343511
0.453956 0.535912 0.343847
0.477180 0.533440 0.344366
0.501030 0.530938 0.344915
0.525628 0.528832 0.345373
0.551080 0.527550 0.346105
0.577752 0.527062 0.347112
0.604089 0.526055 0.347967
0.631037 0.525628 0.349096
0.659113 0.525872 0.349950
0.688685 0.527123 0.351293
0.718868 0.528588 0.352605
0.749783 0.530449 0.353704
0.781857 0.532647 0.354803
0.813809 0.534691 0.355932
0.845090 0.536248 0.357305
0.875486 0.537407 0.358831
0.904845 0.538231 0.360784
0.933074 0.538811 0.363348
0.960021 0.539117 0.366033
0.985779 0.539239 0.369207
1.000000 0.539483 0.372930
1.000000 0.539940 0.377203
0.317998 0.563928 0.343389
0.320500 0.563745 0.343359
0.323491 0.563836 0.343572
0.330358 0.564141 0.343633
0.340642 0.564630 0.343908
0.354376 0.565057 0.344182
0.370367 0.565057 0.344457
0.388586 0.564935 0.345006
0.408820 0.564111 0.345312
0.430457 0.563134 0.345617
0.453193 0.561669 0.346075
0.476783 0.560235 0.346715
0.501091 0.558831 0.347173
0.526329 0.557671 0.347814
0.552270 0.556939 0.348638
0.579248 0.556756 0.349340
0.606592 0.556756 0.350561
0.633814 0.556329 0.351354
0.661952 0.556390 0.351965
0.691096 0.557244 0.352667
0.720821 0.558312 0.353826
0.751431 0.559808 0.355016
0.783078 0.561883 0.355993
0.814511 0.563684 0.357275
0.845396 0.565026 0.358770
0.875395 0.566003 0.360418
0.904448 0.566522 0.362280
0.932433 0.566857 0.364630
0.959380 0.566857 0.367498
0.985260 0.566766 0.370886
1.000000 0.566857 0.374884
1.000000 0.567285 0.379614
0.321904 0.593103 0.346197
0.324224 0.593103 0.346258
0.327245 0.593317 0.346380
0.333959 0.593622 0.346593
0.344030 0.594049 0.346654
0.357122 0.594324 0.347021
0.372869 0.594354 0.347356
0.390906 0.594141 0.347692
0.410803 0.593530 0.347936
0.432136 0.592493 0.348302
0.454658 0.591211 0.348821
0.478004 0.589624 0.349279
0.502190 0.588159 0.349645
0.527184 0.586999 0.350286
0.553246 0.586358 0.350805
0.580072 0.586389 0.351659
0.607843 0.586725 0.352605
0.636103 0.587243 0.353399
0.664942 0.587854 0.354253
0.694484 0.588861 0.354650
0.724575 0.590173 0.355200
0.755337 0.591608 0.356176
0.786862 0.593622 0.357397
0.817929 0.595087 0.358679
0.848356 0.596155 0.360174
0.877775 0.596704 0.362219
0.906279 0.596826 0.364416
0.933806 0.596612 0.366888
0.960327 0.596124 0.369696
0.985840 0.595575 0.373022
1.000000 0.595117 0.376928
1.000000 0.594965 0.381964
0.325231 0.621332 0.348730
0.327550 0.620783 0.348547
0.327703 0.603449 0.347021
0.333806 0.603876 0.347173
0.343175 0.604425 0.347295
0.355352 0.605188 0.347509
0.370092 0.606012 0.347936
0.387152 0.606531 0.348180
0.406104 0.606744 0.348760
0.426581 0.606531 0.349187
0.448371 0.606104 0.349371
0.471199 0.605585 0.349920
0.495216 0.605341 0.350561
0.520195 0.605341 0.351110
0.546166 0.605768 0.351751
0.572992 0.606592 0.352544
0.600946 0.607874 0.353368
0.629541 0.609369 0.354131
0.658625 0.610773 0.355016
0.688502 0.612604 0.355779
0.719387 0.614954 0.356176
0.750759 0.617243 0.356817
0.782986 0.619776 0.357366
0.814817 0.622034 0.358892
0.846189 0.623865 0.360754
0.876707 0.625208 0.363073
0.906188 0.625971 0.365576
0.934325 0.626184 0.368841
0.961089 0.625757 0.372045
0.986572 0.624964 0.375616
1.000000 0.624109 0.379767
1.000000 0.623560 0.384649
0.327977 0.646540 0.350256
0.329686 0.644190 0.350072
0.332219 0.641810 0.349920
0.337835 0.639948 0.349920
0.346807 0.638788 0.349737
0.358679 0.638636 0.350164
0.373388 0.639063 0.350164
0.390356 0.639551 0.350500
0.409277 0.639796 0.350866
0.429877 0.639826 0.351171
0.451728 0.639429 0.351598
0.474769 0.639185 0.351904
0.499092 0.639155 0.352667
0.524285 0.639429 0.353033
0.550622 0.640101 0.353674
0.577905 0.641138 0.354223
0.606043 0.642420 0.355261
0.634791 0.644007 0.356023
0.664088 0.645441 0.356756
0.693446 0.646571 0.357610
0.723690 0.648157 0.358282
0.754940 0.650355 0.358770
0.786740 0.652644 0.359136
0.818051 0.654292 0.360082
0.848783 0.655573 0.362005
0.878660 0.656428 0.364538
0.907652 0.656641 0.367163
0.935424 0.656397 0.370520
0.961883 0.655604 0.374060
0.987152 0.654414 0.377813
1.000000 0.653285 0.382300
1.000000 0.652430 0.387579
0.331029 0.680354 0.352331
0.332738 0.678157 0.352361
0.335363 0.675929 0.351995
0.341009 0.674159 0.351965
0.350011 0.673091 0.351965
0.361944 0.672847 0.352026
0.376623 0.673182 0.352300
0.393469 0.673579 0.352667
0.412451 0.673854 0.352789
0.432959 0.673823 0.353185
0.454994 0.673610 0.353613
0.478187 0.673396 0.353857
0.502556 0.673487 0.354406
0.528130 0.673854 0.354894
0.554650 0.674586 0.355413
0.581964 0.675715 0.356085
0.610407 0.677180 0.356725
0.639399 0.678737 0.357671
0.668788 0.680171 0.358465
0.698390 0.681239 0.359075
0.727993 0.682155 0.359869
0.758206 0.683406 0.360662
0.789639 0.685359 0.360906
0.820493 0.686641 0.362036
0.850980 0.687465 0.363348
0.880613 0.687861 0.365667
0.909300 0.687861 0.368750
0.936889 0.687282 0.372320
0.963165 0.686152 0.376196
0.988281 0.684657 0.380529
1.000000 0.683192 0.385382
1.000000 0.681971 0.391058
0.333959 0.714870 0.354437
0.335729 0.712734 0.354131
0.338415 0.710597 0.354040
0.344091 0.708919 0.353735
0.352911 0.707759 0.353826
0.365057 0.707607 0.353857
0.379553 0.707942 0.354131
0.396429 0.708461 0.354437
0.415534 0.708797 0.354650
0.436347 0.709041 0.355108
0.458473 0.709071 0.355291
0.481941 0.709102 0.355596
0.506584 0.709255 0.356054
0.532189 0.709621 0.356603
0.558801 0.710170 0.357092
0.586084 0.710933 0.357702
0.614008 0.711513 0.358190
0.642237 0.712093 0.358892
0.670680 0.712337 0.359533
0.699123 0.712215 0.359991
0.727474 0.711879 0.360723
0.755917 0.711299 0.361212
0.784970 0.711299 0.361761
0.815000 0.712062 0.362341
0.844846 0.712490 0.363439
0.874174 0.712703 0.365118
0.902739 0.712459 0.367681
0.930327 0.711727 0.371038
0.956756 0.710536 0.374762
0.982238 0.709102 0.379034
1.000000 0.707637 0.384039
1.000000 0.706386 0.389899
0.335485 0.741390 0.355200
0.337438 0.740414 0.354925
0.339940 0.739620 0.354955
0.345800 0.739162 0.355016
0.354864 0.739040 0.355077
0.366857 0.739376 0.355200
0.381384 0.739803 0.355291
0.398169 0.740078 0.355657
0.417090 0.740230 0.355779
0.437629 0.740047 0.356115
0.459510 0.739864 0.356237
0.482856 0.739620 0.356542
0.507317 0.739834 0.356878
0.532830 0.740139 0.357519
0.559289 0.740871 0.357855
0.586725 0.741665 0.358679
0.614618 0.742397 0.359106
0.642908 0.743069 0.359838
0.671534 0.743587 0.360388
0.700374 0.743893 0.361059
0.729335 0.744106 0.361913
0.758358 0.744106 0.362554
0.787625 0.744259 0.363256
0.817258 0.744564 0.364111
0.847013 0.744991 0.365484
0.876097 0.744778 0.367285
0.904326 0.744015 0.369757
0.931609 0.742885 0.372595
0.957794 0.741238 0.376654
0.983062 0.739467 0.381445
1.000000 0.737606 0.386694
1.000000 0.736019 0.393103
0.338476 0.776669 0.356786
0.340093 0.775723 0.356725
0.342748 0.774929 0.356603
0.348638 0.774380 0.356481
0.357671 0.774228 0.356634
0.369665 0.774594 0.356878
0.384222 0.775143 0.357031
0.401160 0.775662 0.357183
0.420081 0.775937 0.357702
0.440833 0.775906 0.357824
0.462928 0.775784 0.358129
0.486213 0.775601 0.358587
0.510704 0.775631 0.358770
0.536309 0.775784 0.359258
0.562768 0.776150 0.359716
0.589960 0.776547 0.360388
0.617639 0.776883 0.360967
0.645716 0.777096 0.361578
0.674067 0.777127 0.362310
0.702602 0.777005 0.362921
0.731167 0.776669 0.363561
0.759792 0.776181 0.364294
0.788418 0.775631 0.365026
0.817227 0.775143 0.365698
0.851011 0.779477 0.368109
0.879820 0.778866 0.369940
0.907622 0.777554 0.372595
0.934569 0.775845 0.375799
0.960479 0.773648 0.379736
0.985443 0.771328 0.384802
1.000000 0.768856 0.390417
1.000000 0.766598 0.397162
0.340124 0.803983 0.357671
0.341650 0.802945 0.357641
0.344305 0.802335 0.357488
0.350164 0.802213 0.357427
0.359228 0.802548 0.357580
0.370977 0.803281 0.358007
0.385504 0.804166 0.358312
0.402502 0.805234 0.358587
0.421607 0.806149 0.358953
0.442267 0.806912 0.359533
0.464668 0.807645 0.359899
0.488136 0.808103 0.360418
0.512932 0.808621 0.360967
0.538750 0.809293 0.361547
0.565515 0.810330 0.362188
0.593164 0.811398 0.363134
0.621393 0.812314 0.363897
0.649836 0.812924 0.364782
0.678279 0.813016 0.365606
0.706600 0.812497 0.366339
0.734920 0.811704 0.366888
0.763333 0.810849 0.367681
0.792081 0.810300 0.368505
0.821225 0.809995 0.369390
0.850736 0.810117 0.370520
0.880430 0.810300 0.372076
0.908354 0.808988 0.374975
0.935485 0.807248 0.378637
0.961517 0.804990 0.382788
0.986511 0.802365 0.387793
1.000000 0.799466 0.393927
1.000000 0.796689 0.400946
0.343999 0.838132 0.360449
0.345556 0.837186 0.360204
0.348241 0.836606 0.359991
0.353857 0.836484 0.360204
0.362860 0.836728 0.360266
0.374640 0.837247 0.360479
0.388952 0.837888 0.360754
0.405768 0.838560 0.361151
0.424414 0.839139 0.361639
0.444984 0.839475 0.362005
0.466957 0.839780 0.362615
0.490303 0.839872 0.362890
0.514641 0.839963 0.363531
0.540032 0.840208 0.364050
0.566400 0.840726 0.364691
0.593561 0.841367 0.365637
0.621302 0.841917 0.366491
0.649378 0.842222 0.367407
0.677516 0.842130 0.368078
0.705623 0.841611 0.368872
0.733761 0.840757 0.369604
0.762051 0.839902 0.370397
0.790524 0.839231 0.371283
0.819333 0.838743 0.372351
0.848447 0.838560 0.373663
0.877775 0.838651 0.375036
0.907256 0.838712 0.376471
0.934020 0.836454 0.380194
0.959899 0.833890 0.384619
0.984833 0.830961 0.389837
1.000000 0.827665 0.395483
1.000000 0.824552 0.402808
0.347845 0.868528 0.363226
0.349615 0.867887 0.363012
0.352209 0.867643 0.362860
0.357946 0.867796 0.363073
0.366796 0.868284 0.363317
0.378515 0.868986 0.363653
0.392676 0.869718 0.364172
0.409155 0.870420 0.364721
0.427893 0.870909 0.365057
0.448096 0.871183 0.365515
0.469795 0.871275 0.365972
0.492744 0.871183 0.366461
0.516747 0.871061 0.367041
0.541955 0.871092 0.367590
0.567956 0.871458 0.368292
0.594842 0.871916 0.369329
0.622370 0.872343 0.370245
0.650141 0.872587 0.371283
0.678035 0.872465 0.372259
0.706020 0.871916 0.373144
0.734005 0.871122 0.374090
0.762112 0.870268 0.374945
0.790372 0.869474 0.375830
0.818875 0.868894 0.377142
0.847654 0.868437 0.378515
0.876646 0.868254 0.380011
0.905730 0.868101 0.381689
0.934844 0.868040 0.383703
0.960693 0.865141 0.388128
0.985382 0.861753 0.393652
1.000000 0.858152 0.399878
1.000000 0.854826 0.407568
0.353368 0.899565 0.367193
0.355169 0.899199 0.367224
0.357580 0.898985 0.367163
0.363165 0.899016 0.367285
0.371801 0.899107 0.367437
0.382971 0.899168 0.367620
0.396582 0.898772 0.367681
0.412146 0.898222 0.367926
0.429633 0.897337 0.367864
0.448859 0.896239 0.367803
0.469398 0.894926 0.367926
0.491218 0.893675 0.367956
0.514092 0.892576 0.368017
0.538170 0.891814 0.368505
0.563348 0.891417 0.368933
0.589410 0.891539 0.369848
0.616297 0.891752 0.370703
0.643519 0.891875 0.371740
0.670893 0.891722 0.372686
0.698360 0.891295 0.373602
0.725948 0.890623 0.374487
0.753750 0.889921 0.375525
0.781735 0.889311 0.376501
0.809903 0.888823 0.377630
0.838285 0.888457 0.379278
0.866911 0.888304 0.380835
0.895537 0.888151 0.382544
0.924315 0.887999 0.384527
0.952789 0.887724 0.386572
0.978180 0.884825 0.391272
1.000000 0.881590 0.397894
1.000000 0.878599 0.405615
0.356023 0.921386 0.369085
0.357733 0.921202 0.369024
0.360174 0.921233 0.369207
0.365606 0.921477 0.369268
0.374182 0.921813 0.369512
0.385138 0.922179 0.370001
0.398596 0.922393 0.370275
0.414069 0.922454 0.370672
0.431617 0.922301 0.370977
0.450660 0.921996 0.371344
0.471351 0.921630 0.371649
0.493141 0.921202 0.372015
0.516228 0.920806 0.372503
0.540215 0.920562 0.373327
