cubelut/Portrait4.cube
# Created by Adobe Lightroom plugin Export LUT (1.18.0)
# www.johnrellis.com/lightroom/exportlut.htm
# Preset: Portrait Effect 7
# Color profile: /Library/Application Support/Adobe/Color/Profiles/Recommended/AdobeRGB1998.icc
LUT_3D_SIZE 32
DOMAIN_MIN 0.0 0.0 0.0
DOMAIN_MAX 1.0 1.0 1.0
0.208164 0.179477 0.280064
0.211185 0.178897 0.280034
0.225284 0.175906 0.279911
0.256474 0.171298 0.279423
0.291997 0.169589 0.278599
0.326268 0.168368 0.277623
0.359319 0.167300 0.277195
0.391241 0.166598 0.278050
0.422583 0.166110 0.279332
0.453315 0.166415 0.280919
0.484108 0.166964 0.283207
0.514702 0.168795 0.285863
0.545312 0.171023 0.288609
0.576135 0.173587 0.291936
0.606928 0.177188 0.295537
0.637903 0.180362 0.299107
0.669245 0.183810 0.302525
0.700313 0.187655 0.305882
0.730037 0.191592 0.309209
0.759854 0.195834 0.312657
0.789578 0.200076 0.315953
0.818540 0.204501 0.319158
0.846616 0.209018 0.322454
0.873747 0.213931 0.325628
0.900084 0.218631 0.328801
0.925658 0.223728 0.332097
0.950469 0.228794 0.335210
0.974640 0.234043 0.338384
0.998169 0.239170 0.341619
1.000000 0.244694 0.344945
1.000000 0.250156 0.348241
1.000000 0.255802 0.351690
0.207736 0.183047 0.279881
0.211948 0.183780 0.279789
0.226078 0.183322 0.279515
0.256718 0.182834 0.278874
0.292119 0.181003 0.278050
0.326238 0.179019 0.277134
0.359258 0.177066 0.277256
0.391089 0.175906 0.278202
0.422309 0.174716 0.279606
0.453193 0.174533 0.281193
0.483864 0.174990 0.283421
0.514488 0.176303 0.286229
0.545098 0.178012 0.289128
0.575891 0.180484 0.292454
0.606683 0.183536 0.295933
0.637690 0.186709 0.299596
0.668971 0.189944 0.302892
0.700069 0.193301 0.306157
0.729763 0.197024 0.309545
0.759548 0.201053 0.312840
0.789273 0.204959 0.316106
0.818235 0.208957 0.319249
0.846281 0.213504 0.322576
0.873442 0.217929 0.325811
0.899779 0.222660 0.328923
0.925414 0.227512 0.332158
0.950256 0.232273 0.335210
0.974395 0.237461 0.338567
0.997955 0.242557 0.341802
1.000000 0.247807 0.345037
1.000000 0.253208 0.348333
1.000000 0.258671 0.351690
0.205997 0.197208 0.279210
0.212894 0.197848 0.279026
0.227390 0.197574 0.278752
0.257145 0.197391 0.278111
0.292149 0.195010 0.277348
0.326207 0.192325 0.277043
0.358953 0.189548 0.277501
0.390784 0.187320 0.278721
0.422065 0.185855 0.279911
0.452857 0.185214 0.281834
0.483650 0.185092 0.284123
0.514244 0.185946 0.286809
0.544945 0.187289 0.289799
0.575708 0.189395 0.293126
0.606439 0.192203 0.296727
0.637568 0.194553 0.300023
0.668788 0.197696 0.303380
0.699855 0.200809 0.306584
0.729641 0.204074 0.309880
0.759396 0.207736 0.313085
0.789059 0.211429 0.316411
0.818051 0.215183 0.319493
0.846067 0.219394 0.322759
0.873259 0.223606 0.325933
0.899626 0.228183 0.329107
0.925200 0.232517 0.332250
0.950072 0.237278 0.335485
0.974243 0.242191 0.338720
0.997833 0.247013 0.341894
1.000000 0.252110 0.345190
1.000000 0.257145 0.348425
1.000000 0.262455 0.351812
0.202914 0.227268 0.277470
0.214572 0.226902 0.277287
0.229313 0.226413 0.277012
0.257969 0.225437 0.276738
0.292271 0.222171 0.276677
0.325963 0.217685 0.277256
0.358556 0.213504 0.278202
0.390478 0.210178 0.279393
0.421668 0.207614 0.280888
0.452461 0.205844 0.282994
0.483253 0.205203 0.285252
0.513878 0.205081 0.288029
0.544518 0.205844 0.291051
0.575280 0.207218 0.294499
0.606165 0.208804 0.297673
0.637232 0.210971 0.301091
0.668513 0.213382 0.304326
0.699580 0.215824 0.307408
0.729397 0.218509 0.310613
0.759091 0.221653 0.313878
0.788724 0.224796 0.317021
0.817624 0.228061 0.320134
0.845701 0.231785 0.323308
0.872892 0.235538 0.326574
0.899321 0.239322 0.329656
0.924987 0.243320 0.332708
0.949889 0.247501 0.335851
0.974090 0.252079 0.339117
0.997681 0.256596 0.342382
1.000000 0.261143 0.345556
1.000000 0.265843 0.348699
1.000000 0.270695 0.352056
0.204562 0.259953 0.277012
0.215335 0.259556 0.277134
0.229221 0.258915 0.277104
0.255497 0.257847 0.277409
0.290562 0.256107 0.277623
0.325444 0.251255 0.278172
0.358038 0.245335 0.279362
0.389837 0.240665 0.280827
0.421057 0.236698 0.282567
0.451820 0.234257 0.284947
0.482551 0.232395 0.287327
0.513298 0.231296 0.290013
0.543969 0.231205 0.293095
0.574762 0.231601 0.296330
0.605676 0.232425 0.299504
0.636805 0.233768 0.302617
0.668147 0.235325 0.305791
0.699214 0.237247 0.308751
0.729183 0.239078 0.311894
0.758846 0.241489 0.314977
0.788388 0.243961 0.318090
0.817319 0.246738 0.321080
0.845396 0.249699 0.324163
0.872618 0.252720 0.327245
0.899016 0.255955 0.330327
0.924712 0.259373 0.333410
0.949615 0.262943 0.336614
0.973816 0.266728 0.339696
0.997436 0.270634 0.342901
1.000000 0.274693 0.346075
1.000000 0.278782 0.349248
1.000000 0.283146 0.352544
0.206577 0.292027 0.278752
0.216312 0.291661 0.278813
0.228794 0.291112 0.278874
0.253025 0.290105 0.279088
0.285618 0.288457 0.279667
0.322484 0.286534 0.280125
0.357305 0.281559 0.281376
0.389075 0.275517 0.283085
0.420233 0.270420 0.285222
0.451087 0.266484 0.287480
0.481849 0.263737 0.289921
0.512657 0.261784 0.292729
0.543328 0.260716 0.295720
0.574243 0.260227 0.298833
0.605188 0.260197 0.301579
0.636408 0.260777 0.304692
0.667781 0.261631 0.307622
0.698817 0.262760 0.310491
0.728878 0.264042 0.313542
0.758572 0.265599 0.316503
0.788144 0.267460 0.319402
0.817105 0.269383 0.322423
0.846830 0.272190 0.325658
0.873930 0.274784 0.328679
0.900298 0.277287 0.331731
0.925841 0.279911 0.334691
0.950622 0.282811 0.337743
0.974701 0.285893 0.340978
0.998138 0.289067 0.344091
1.000000 0.292424 0.347204
1.000000 0.295964 0.350378
1.000000 0.299535 0.353582
0.210117 0.323461 0.281651
0.218997 0.323064 0.281743
0.230320 0.322637 0.281834
0.252415 0.321782 0.282414
0.282536 0.320500 0.282994
0.316930 0.318761 0.283818
0.353765 0.316838 0.284764
0.388342 0.312322 0.286229
0.419593 0.306218 0.288426
0.450599 0.301335 0.290776
0.481422 0.297673 0.293370
0.512291 0.294926 0.296025
0.543053 0.293034 0.298833
0.573999 0.291722 0.301549
0.605066 0.290867 0.304234
0.636255 0.290593 0.307073
0.667689 0.290776 0.309819
0.698939 0.291356 0.312474
0.728969 0.292058 0.315404
0.758724 0.292882 0.318273
0.788418 0.294194 0.321080
0.817502 0.295659 0.323949
0.845731 0.297215 0.326879
0.873075 0.298894 0.329870
0.899565 0.300786 0.332860
0.925200 0.302800 0.335851
0.950072 0.305089 0.338903
0.974182 0.307530 0.342016
0.997681 0.309850 0.345006
1.000000 0.312627 0.348180
1.000000 0.315373 0.351171
1.000000 0.318364 0.354406
0.215763 0.353796 0.286137
0.223270 0.353552 0.286320
0.233494 0.353185 0.286412
0.253483 0.352453 0.286687
0.281132 0.351446 0.287297
0.313207 0.349981 0.288151
0.348028 0.348302 0.289220
0.384161 0.346563 0.290532
0.418524 0.342687 0.292363
0.449531 0.337102 0.294682
0.480476 0.332616 0.297154
0.511437 0.329107 0.299535
0.542260 0.326452 0.302098
0.573297 0.324468 0.304570
0.604364 0.323156 0.307164
0.635645 0.322179 0.309667
0.667201 0.321965 0.312291
0.698451 0.321935 0.314855
0.728450 0.321935 0.317540
0.758175 0.322271 0.320317
0.787900 0.322942 0.323064
0.816892 0.323674 0.325811
0.845090 0.324620 0.328588
0.872435 0.325689 0.331487
0.898924 0.326848 0.334264
0.924620 0.328344 0.337224
0.949432 0.329778 0.340124
0.973602 0.331395 0.343114
0.997131 0.333288 0.346105
1.000000 0.335149 0.349157
1.000000 0.337346 0.352270
1.000000 0.339574 0.355444
0.222263 0.383825 0.291539
0.229099 0.383642 0.291630
0.238224 0.383398 0.291875
0.256291 0.382757 0.292302
0.281804 0.381872 0.292882
0.311528 0.380713 0.293675
0.344244 0.379370 0.294591
0.378790 0.377935 0.295598
0.414374 0.376226 0.297093
0.448615 0.373358 0.298833
0.479622 0.368322 0.300938
0.510552 0.364141 0.303258
0.541527 0.360967 0.305547
0.572656 0.358465 0.307927
0.603723 0.356542 0.310307
0.635096 0.355322 0.312657
0.666835 0.354498 0.315068
0.698054 0.354040 0.317357
0.727932 0.353429 0.320012
0.757687 0.353155 0.322545
0.787320 0.353338 0.325078
0.816342 0.353491 0.327672
0.844511 0.353765 0.330419
0.871824 0.354314 0.333104
0.898314 0.354864 0.335912
0.924010 0.355535 0.338811
0.948882 0.356359 0.341588
0.973022 0.357336 0.344488
0.996582 0.358495 0.347448
1.000000 0.359747 0.350408
1.000000 0.361212 0.353460
1.000000 0.362829 0.356542
0.229770 0.413855 0.297307
0.235904 0.413672 0.297551
0.243961 0.413458 0.297612
0.260441 0.412940 0.297917
0.283665 0.412268 0.298375
0.311498 0.411353 0.298985
0.342351 0.410193 0.299931
0.375311 0.408942 0.300908
0.409552 0.407660 0.302037
0.444434 0.406348 0.303258
0.478676 0.404059 0.304997
0.509667 0.399481 0.307042
0.540703 0.395850 0.309209
0.571862 0.392920 0.311315
0.603235 0.390692 0.313481
0.634760 0.389136 0.315709
0.666560 0.388037 0.317693
0.697597 0.386999 0.320073
0.727504 0.386023 0.322545
0.757168 0.385229 0.324987
0.786862 0.384863 0.327367
0.815732 0.384558 0.329870
0.843870 0.384283 0.332311
0.871122 0.384131 0.334936
0.897581 0.384070 0.337682
0.923247 0.384192 0.340429
0.948180 0.384405 0.343175
0.972351 0.384710 0.346014
0.995911 0.385229 0.348943
1.000000 0.385870 0.351781
1.000000 0.386725 0.354742
1.000000 0.387640 0.357763
0.236637 0.444068 0.302892
0.242374 0.443915 0.303014
0.249760 0.443763 0.303075
0.264805 0.443336 0.303380
0.286320 0.442786 0.303838
0.312474 0.442054 0.304417
0.341924 0.441138 0.305089
0.373297 0.440162 0.306035
0.406317 0.438972 0.306920
0.440345 0.437873 0.308110
0.474739 0.436652 0.309392
0.508965 0.435004 0.310735
0.539971 0.431037 0.312871
0.571313 0.427924 0.314763
0.602716 0.425483 0.316625
0.634272 0.423621 0.318822
0.666041 0.422126 0.320806
0.696956 0.420722 0.322972
0.726864 0.419135 0.325200
0.756588 0.418006 0.327398
0.786221 0.417243 0.329717
0.815122 0.416327 0.332036
0.843198 0.415625 0.334447
0.870420 0.415045 0.336950
0.896910 0.414466 0.339666
0.922576 0.413947 0.342290
0.947478 0.413550 0.344915
0.971679 0.413306 0.347692
0.995270 0.413184 0.350439
1.000000 0.413245 0.353277
1.000000 0.413458 0.356176
1.000000 0.413886 0.359258
0.243687 0.474647 0.308232
0.248600 0.474556 0.308415
0.255589 0.474403 0.308537
0.269444 0.474037 0.308782
0.289708 0.473548 0.309148
0.314366 0.472938 0.309606
0.342290 0.472267 0.310246
0.372625 0.471412 0.310918
0.404578 0.470436 0.311955
0.437568 0.469520 0.312749
0.471229 0.468513 0.313909
0.505455 0.467597 0.315038
0.540490 0.467384 0.316472
0.571923 0.464027 0.318334
0.603388 0.461372 0.320226
0.635035 0.459174 0.322118
0.666835 0.457557 0.323949
0.697658 0.455695 0.326024
0.727443 0.453742 0.328130
0.757198 0.452155 0.330236
0.786740 0.450843 0.332372
0.815457 0.449561 0.334661
0.843412 0.448219 0.336889
0.870512 0.447150 0.339361
0.896910 0.445960 0.341863
0.922484 0.444923 0.344457
0.947326 0.443946 0.346990
0.971466 0.443122 0.349645
0.994965 0.442390 0.352422
1.000000 0.441840 0.355138
1.000000 0.441474 0.358068
1.000000 0.441230 0.360906
0.250523 0.505852 0.313451
0.254978 0.505821 0.313603
0.261387 0.505638 0.313603
0.274357 0.505364 0.313817
0.293523 0.504936 0.314031
0.316777 0.504417 0.314519
0.343542 0.503838 0.315038
0.372625 0.503105 0.315648
0.403693 0.502281 0.316442
0.435950 0.501671 0.317235
0.469154 0.501030 0.318212
0.502922 0.500298 0.319371
0.536889 0.499702 0.320592
0.571099 0.499062 0.321843
0.602716 0.496284 0.323461
0.634394 0.494057 0.325292
0.666133 0.492164 0.327001
0.696864 0.489998 0.328679
0.726650 0.487617 0.330755
0.756405 0.485756 0.332769
0.785885 0.484077 0.334844
0.814572 0.482429 0.336889
0.842496 0.480812 0.339208
0.869627 0.479133 0.341527
0.895995 0.477516 0.343847
0.921569 0.475990 0.346349
0.946410 0.474556 0.348821
0.970581 0.473243 0.351507
0.994110 0.471931 0.354070
1.000000 0.470924 0.356939
1.000000 0.469917 0.359564
1.000000 0.469062 0.362463
0.256809 0.537194 0.318364
0.261387 0.537041 0.318425
0.267155 0.536950 0.318425
0.279423 0.536767 0.318639
0.297276 0.536339 0.318822
0.319646 0.535943 0.319280
0.345403 0.535485 0.319738
0.373602 0.534966 0.320287
0.403693 0.534386 0.320897
0.435096 0.533837 0.321721
0.467567 0.533257 0.322545
0.500694 0.532738 0.323491
0.534173 0.532158 0.324529
0.567926 0.531640 0.325566
0.601740 0.531121 0.326787
0.633753 0.528923 0.328130
0.665400 0.526909 0.329778
0.696010 0.524468 0.331579
0.725765 0.521782 0.333532
0.755550 0.519585 0.335302
0.785000 0.517632 0.337346
0.813687 0.515648 0.339361
0.841581 0.513603 0.341588
0.868742 0.511559 0.343694
0.895079 0.509545 0.346075
0.920684 0.507500 0.348425
0.945525 0.505577 0.350835
0.969696 0.503746 0.353338
0.993286 0.502068 0.355962
1.000000 0.500450 0.358587
1.000000 0.499062 0.361425
1.000000 0.497719 0.364202
0.263157 0.569116 0.322972
0.267216 0.569085 0.323003
0.272679 0.568963 0.323033
0.284428 0.568811 0.323156
0.301549 0.568505 0.323461
0.322972 0.568139 0.323644
0.347723 0.567742 0.324224
0.375036 0.567254 0.324620
0.404211 0.566766 0.325231
0.434974 0.566339 0.325841
0.466743 0.565820 0.326604
0.499275 0.565393 0.327306
0.532280 0.564904 0.328222
0.565698 0.564508 0.329137
0.599207 0.564050 0.330144
0.632776 0.563561 0.331273
0.664698 0.561639 0.332647
0.695155 0.558923 0.334295
0.724941 0.556085 0.336095
0.754726 0.553643 0.337926
0.784146 0.551324 0.339757
0.812772 0.549035 0.341650
0.840665 0.546654 0.343755
0.867796 0.544213 0.345861
0.894133 0.541772 0.348150
0.919738 0.539391 0.350439
0.944610 0.537011 0.352941
0.968841 0.534813 0.355413
0.992462 0.532647 0.357916
1.000000 0.530694 0.360571
1.000000 0.528740 0.363195
1.000000 0.526848 0.366033
0.268986 0.601617 0.327306
0.273198 0.601556 0.327398
0.278141 0.601526 0.327337
0.289311 0.601343 0.327489
0.305821 0.601068 0.327672
0.326452 0.600763 0.327916
0.350225 0.600427 0.328252
0.376684 0.600122 0.328710
0.405341 0.599664 0.329137
0.435340 0.599298 0.329656
0.466529 0.598871 0.330358
0.498604 0.598444 0.331060
0.530999 0.597955 0.331792
0.564019 0.597498 0.332677
0.597009 0.596948 0.333593
0.630213 0.596399 0.334417
0.663264 0.595758 0.335515
0.694240 0.593347 0.336919
0.724117 0.590326 0.338720
0.753933 0.587823 0.340459
0.783352 0.585260 0.342107
0.812009 0.582635 0.343999
0.839841 0.579919 0.346105
0.866941 0.577142 0.348089
0.893309 0.574395 0.350317
0.918914 0.571588 0.352636
0.943816 0.568811 0.354925
0.968048 0.566186 0.357366
0.991669 0.563653 0.359930
1.000000 0.561151 0.362432
1.000000 0.558740 0.365148
1.000000 0.556420 0.367956
0.274784 0.634058 0.331365
0.278508 0.634028 0.331304
0.283574 0.633936 0.331456
0.294255 0.633814 0.331456
0.309911 0.633600 0.331640
0.329717 0.633295 0.331945
0.352850 0.632929 0.332250
0.378607 0.632532 0.332555
0.406500 0.632074 0.332952
0.435737 0.631617 0.333471
0.466377 0.631128 0.334112
0.497658 0.630640 0.334661
0.529564 0.630060 0.335454
0.561883 0.629511 0.336217
0.594476 0.628870 0.336950
0.627039 0.628168 0.337896
0.659754 0.627497 0.338872
0.692409 0.626856 0.339879
0.723201 0.624659 0.341192
0.753079 0.621912 0.342809
0.782437 0.619165 0.344549
0.811002 0.616236 0.346319
0.838865 0.613214 0.348241
0.865965 0.610132 0.350347
0.892302 0.606989 0.352392
0.917906 0.603845 0.354681
0.942809 0.600702 0.357031
0.967071 0.597711 0.359411
0.990661 0.594720 0.361883
1.000000 0.591852 0.364538
1.000000 0.589044 0.367041
1.000000 0.586236 0.369879
0.280491 0.665339 0.335363
0.284092 0.665339 0.335363
0.289189 0.666255 0.335576
0.299321 0.666072 0.335698
0.314549 0.665827 0.335821
0.333532 0.665492 0.336034
0.355962 0.665126 0.336400
0.380804 0.664668 0.336553
0.407965 0.664179 0.337041
0.436591 0.663722 0.337499
0.466438 0.663172 0.337987
0.497169 0.662623 0.338598
0.528527 0.662043 0.339269
0.560357 0.661463 0.339971
0.592432 0.660822 0.340703
0.624689 0.660182 0.341375
0.657069 0.659602 0.342229
0.689448 0.658991 0.343114
0.721767 0.658381 0.343938
0.752712 0.656458 0.345159
0.781918 0.653468 0.346838
0.810422 0.650202 0.348669
0.838193 0.646815 0.350469
0.865263 0.643427 0.352453
0.891478 0.639887 0.354650
0.917021 0.636378 0.356878
0.941863 0.632837 0.359106
0.966094 0.629389 0.361456
0.989685 0.626001 0.363836
1.000000 0.622705 0.366369
1.000000 0.619471 0.368994
1.000000 0.616205 0.371801
0.286412 0.696468 0.339361
0.289677 0.696590 0.339391
0.294408 0.696620 0.339452
0.304173 0.696590 0.339574
0.318486 0.696468 0.339696
0.336950 0.696254 0.339940
0.358526 0.695949 0.340154
0.382849 0.695491 0.340368
0.409155 0.695155 0.340734
0.437018 0.694697 0.341161
0.466285 0.694179 0.341588
0.496407 0.693721 0.342107
0.527245 0.693202 0.342748
0.558618 0.692683 0.343175
0.590265 0.692134 0.343877
0.622187 0.691493 0.344549
0.654170 0.690913 0.345342
0.686183 0.690303 0.346075
0.718349 0.689723 0.346960
0.750423 0.689204 0.347784
0.780941 0.687251 0.349035
0.809415 0.683772 0.350744
0.837156 0.680140 0.352636
0.864164 0.676478 0.354528
0.890440 0.672663 0.356695
0.915984 0.668757 0.358801
0.940826 0.664912 0.360998
0.965026 0.661128 0.363409
0.988647 0.657374 0.365850
1.000000 0.653681 0.368383
1.000000 0.650019 0.370916
1.000000 0.646418 0.373724
0.291814 0.727260 0.342931
0.295171 0.727352 0.343053
0.299626 0.727413 0.343053
0.308751 0.727413 0.343145
0.322759 0.727321 0.343267
0.340398 0.727108 0.343542
0.361486 0.726772 0.343755
0.384894 0.726406 0.343969
0.410529 0.726009 0.344213
0.437812 0.725582 0.344579
0.466438 0.725154 0.345068
0.495918 0.724666 0.345495
0.526268 0.724147 0.345922
0.557122 0.723598 0.346593
0.588312 0.722988 0.347143
0.619715 0.722377 0.347723
0.651331 0.721736 0.348272
0.683040 0.721096 0.349096
0.714748 0.720455 0.349859
0.746517 0.719844 0.350683
0.778195 0.719265 0.351507
0.808377 0.717403 0.352728
0.836118 0.713558 0.354620
0.863096 0.709529 0.356603
0.889342 0.705409 0.358648
0.914885 0.701228 0.360754
0.939727 0.696986 0.362982
0.963958 0.692836 0.365332
0.987549 0.688777 0.367834
1.000000 0.684749 0.370306
1.000000 0.680720 0.372869
1.000000 0.676661 0.375677
0.297307 0.757504 0.346532
0.300359 0.757595 0.346624
0.304662 0.757656 0.346685
0.313603 0.757656 0.346746
0.326940 0.757534 0.346838
0.344121 0.757321 0.347051
0.364202 0.756985 0.347295
0.386969 0.756619 0.347478
0.411963 0.756222 0.347784
0.438544 0.755795 0.348058
0.466438 0.755337 0.348425
0.495491 0.754818 0.348821
0.525200 0.754299 0.349279
0.555474 0.753689 0.349737
0.586236 0.753109 0.350378
0.617212 0.752499 0.350958
0.648432 0.751858 0.351629
0.679805 0.751278 0.352270
0.711208 0.750637 0.352880
0.742641 0.750027 0.353735
0.774014 0.749508 0.354528
0.805417 0.748928 0.355413
0.835416 0.747127 0.356664
0.862425 0.742885 0.358618
0.888640 0.738491 0.360693
0.914122 0.734005 0.362951
0.938964 0.729458 0.365179
0.963165 0.725002 0.367529
0.986786 0.720546 0.369970
1.000000 0.716152 0.372503
1.000000 0.711757 0.375158
1.000000 0.707271 0.377966
0.302953 0.787381 0.350256
0.306004 0.787411 0.350225
0.309850 0.787381 0.350256
0.318334 0.787320 0.350347
0.331334 0.787167 0.350469
0.347753 0.786923 0.350622
0.367285 0.786587 0.350835
0.389380 0.786221 0.351080
0.413611 0.785885 0.351263
0.439551 0.785458 0.351537
0.466835 0.785000 0.351965
0.495247 0.784512 0.352331
0.524407 0.783963 0.352758
0.554131 0.783383 0.353185
0.584283 0.782773 0.353765
0.614893 0.782132 0.354314
0.645624 0.781430 0.354864
0.676600 0.780789 0.355444
0.707576 0.780148 0.356146
0.738613 0.779477 0.356878
0.769650 0.778836 0.357610
0.800626 0.778164 0.358465
0.831571 0.777584 0.359258
0.861265 0.775875 0.360540
0.887480 0.771176 0.362646
0.912963 0.766415 0.364782
0.937804 0.761563 0.367041
0.962005 0.756771 0.369421
0.985595 0.752041 0.371893
1.000000 0.747250 0.374426
1.000000 0.742489 0.377111
1.000000 0.737636 0.379919
0.308598 0.816037 0.353796
0.311345 0.816068 0.353826
0.315160 0.816068 0.353857
0.323400 0.815976 0.353887
0.335729 0.815793 0.354009
0.351537 0.815579 0.354162
0.370336 0.815274 0.354284
0.391547 0.814908 0.354528
0.415259 0.814511 0.354742
0.440467 0.814084 0.355077
0.467109 0.813657 0.355352
0.494850 0.813169 0.355749
0.523369 0.812589 0.356115
0.552636 0.812009 0.356573
0.582269 0.811398 0.357031
0.612390 0.810758 0.357580
0.642664 0.810086 0.358129
0.673152 0.809415 0.358648
0.703761 0.808743 0.359411
0.734432 0.808072 0.360082
0.765133 0.807401 0.360845
0.795773 0.806729 0.361639
0.826352 0.806088 0.362493
0.856870 0.805386 0.363348
0.886198 0.803708 0.364355
0.911681 0.798611 0.366552
0.936492 0.793515 0.368902
0.960723 0.788418 0.371283
0.984314 0.783352 0.373754
1.000000 0.778286 0.376349
1.000000 0.773159 0.378973
1.000000 0.767941 0.381811
0.314397 0.844266 0.357488
0.316991 0.844297 0.357519
0.320775 0.844266 0.357549
0.328557 0.844144 0.357671
0.340337 0.843961 0.357671
0.355505 0.843717 0.357763
0.373541 0.843412 0.357946
0.394171 0.843046 0.358129
0.417090 0.842588 0.358282
0.441596 0.842130 0.358587
0.467628 0.841611 0.358892
0.494606 0.841093 0.359228
0.522545 0.840513 0.359564
0.551141 0.839872 0.359960
0.580316 0.839231 0.360357
0.609796 0.838529 0.360876
0.639612 0.837827 0.361486
0.669673 0.837064 0.362066
0.699794 0.836423 0.362646
0.730068 0.835721 0.363256
0.760372 0.835019 0.364080
0.790616 0.834318 0.364813
0.820890 0.833616 0.365698
0.851041 0.832883 0.366430
0.881041 0.832151 0.367376
0.910521 0.830930 0.368353
0.935271 0.825467 0.370733
0.959472 0.820096 0.373144
0.983032 0.814725 0.375647
1.000000 0.809293 0.378210
1.000000 0.803861 0.380957
1.000000 0.798245 0.383764
0.320165 0.871275 0.361059
0.322637 0.871275 0.361151
0.326177 0.871275 0.361120
0.333562 0.871183 0.361242
0.344976 0.870970 0.361273
0.359472 0.870756 0.361364
0.376959 0.870451 0.361547
0.396826 0.870085 0.361700
0.419013 0.869688 0.361913
0.442878 0.869230 0.362188
0.468055 0.868772 0.362463
0.494575 0.868254 0.362799
0.521904 0.867674 0.363165
0.549920 0.867063 0.363531
0.578485 0.866392 0.363958
0.607507 0.865721 0.364355
0.636835 0.865019 0.364965
0.666377 0.864286 0.365484
0.696101 0.863584 0.366125
0.725948 0.862882 0.366766
0.755825 0.862150 0.367468
0.785763 0.861418 0.368292
0.815610 0.860685 0.369024
0.845365 0.859953 0.369757
0.875151 0.859159 0.370672
0.904753 0.858396 0.371588
0.934234 0.857572 0.372503
0.958312 0.851774 0.375006
0.981842 0.846098 0.377539
1.000000 0.840360 0.380133
1.000000 0.834562 0.382940
1.000000 0.828580 0.385931
0.326146 0.897612 0.364874
0.328649 0.897612 0.364904
0.331945 0.897581 0.364843
0.338994 0.897459 0.364965
0.349706 0.897276 0.364996
0.363653 0.897063 0.365179
0.380468 0.896727 0.365209
0.399725 0.896391 0.365362
0.421210 0.895964 0.365637
0.444282 0.895537 0.365881
0.468879 0.895048 0.366125
0.494606 0.894560 0.366430
0.521294 0.894011 0.366766
0.548791 0.893400 0.367163
0.576776 0.892760 0.367559
0.605219 0.892119 0.368048
0.634058 0.891386 0.368536
0.663142 0.890654 0.369055
0.692409 0.889921 0.369665
0.721798 0.889220 0.370245
0.751278 0.888487 0.370916
0.780789 0.887724 0.371740
0.810269 0.886961 0.372473
0.839719 0.886198 0.373297
0.869078 0.885435 0.374121
0.898405 0.884611 0.374945
0.927581 0.883787 0.375952
0.956664 0.882963 0.376837
0.980499 0.877317 0.379339
1.000000 0.871244 0.382025
1.000000 0.865110 0.384771
1.000000 0.858762 0.387793
0.332219 0.923156 0.368688
0.334569 0.923156 0.368658
0.337835 0.923095 0.368688
0.344396 0.923033 0.368688
0.354803 0.922850 0.368750
0.368078 0.922637 0.368872
0.384314 0.922393 0.369055
0.402930 0.922118 0.369207
0.423682 0.921782 0.369512
0.446174 0.921416 0.369757
0.470039 0.921050 0.370062
0.495186 0.920592 0.370367
0.521263 0.920104 0.370703
0.548119 0.919554 0.371130
0.575616 0.918944 0.371557
0.603540 0.918273 0.372015
0.631861 0.917601 0.372534
0.660426 0.916869 0.372992
0.689235 0.916136 0.373663
0.718227 0.915373 0.374212
0.747219 0.914641 0.374884
0.776333 0.913878 0.375586
0.805447 0.913085 0.376410
0.834531 0.912291 0.377142
0.863554 0.911467 0.378058
0.892485 0.910613 0.378882
0.921355 0.909758 0.379736
0.950134 0.908873 0.380652
0.978790 0.908019 0.381720
1.000000 0.902403 0.384131
1.000000 0.895903 0.387091
1.000000 0.889097 0.390082
0.338750 0.948425 0.372686
0.340948 0.948425 0.372686
0.343969 0.948363 0.372839
0.350378 0.948272 0.372869
0.360235 0.948089 0.372869
0.373053 0.947875 0.373053
0.388556 0.947601 0.373144
0.406287 0.947295 0.373205
0.426368 0.946929 0.373449
0.448157 0.946532 0.373724
0.471321 0.946105 0.373968
0.495766 0.945617 0.374243
0.521141 0.945098 0.374609
0.547448 0.944549 0.375006
