cubelut/Portrait6.cube
# Created by Adobe Lightroom plugin Export LUT (1.18.0)
# www.johnrellis.com/lightroom/exportlut.htm
# Preset: Portrait Effect 14
# Color profile: /Library/Application Support/Adobe/Color/Profiles/Recommended/AdobeRGB1998.icc
LUT_3D_SIZE 5
DOMAIN_MIN 0.000000 0.000000 0.000000
DOMAIN_MAX 0.903226 0.903226 0.903226
0.284428 0.252079 0.318669
0.388891 0.247288 0.316411
0.550225 0.256382 0.324926
0.742275 0.274266 0.338872
0.960327 0.296361 0.353948
0.286381 0.361944 0.319463
0.390661 0.361181 0.321996
0.559564 0.347662 0.332647
0.750240 0.352483 0.343694
0.954131 0.364721 0.355413
0.314214 0.536217 0.340429
0.388220 0.540002 0.342626
0.551080 0.527550 0.346105
0.749783 0.530449 0.353704
0.960021 0.539117 0.366033
0.335485 0.741390 0.355200
0.398169 0.740078 0.355657
0.559289 0.740871 0.357855
0.758358 0.744106 0.362554
0.957794 0.741238 0.376654
0.363317 0.950164 0.374884
0.419501 0.950469 0.376318
0.573388 0.956237 0.385748
0.756954 0.950439 0.392798
0.949859 0.945190 0.406775
0.282719 0.247349 0.417121
0.396887 0.255924 0.414343
0.565576 0.283635 0.408606
0.768856 0.294560 0.413489
0.972930 0.307744 0.417762
0.299870 0.368017 0.414252
0.396399 0.366155 0.413336
0.566613 0.366461 0.414038
0.770199 0.368353 0.414893
0.971466 0.376074 0.418830
0.324346 0.545678 0.409918
0.398901 0.547204 0.413458
0.567926 0.544701 0.414496
0.768978 0.545495 0.418036
0.966094 0.543847 0.422034
0.337469 0.745937 0.412024
0.399390 0.744839 0.411109
0.562036 0.745937 0.412177
0.763485 0.749386 0.415229
0.960937 0.743557 0.426642
0.360601 0.952239 0.422522
0.417914 0.952514 0.424048
0.567559 0.950469 0.427375
0.754208 0.947936 0.434882
0.948363 0.943542 0.447425
0.299809 0.256809 0.575006
0.386847 0.266819 0.572381
0.566766 0.281956 0.567071
0.771603 0.292973 0.567498
0.973846 0.304662 0.564233
0.322057 0.359228 0.568811
0.395789 0.361242 0.569207
0.568383 0.363745 0.568505
0.774716 0.366308 0.568994
0.972442 0.370184 0.562585
0.334356 0.545190 0.568719
0.402411 0.546166 0.569848
0.567742 0.542962 0.567010
0.773587 0.542138 0.565484
0.969635 0.542412 0.563867
0.340581 0.755917 0.566766
0.401587 0.760006 0.567498
0.559167 0.759182 0.557610
0.770230 0.755947 0.556207
0.966033 0.748196 0.570062
0.368597 0.959686 0.567956
0.420050 0.958312 0.565789
0.565728 0.955749 0.562524
0.758602 0.953582 0.571252
0.953979 0.949432 0.583520
0.320073 0.268956 0.779049
0.394965 0.273320 0.776333
0.570642 0.281529 0.773037
0.778439 0.286687 0.772854
0.972778 0.306920 0.757015
0.330419 0.359869 0.778561
0.400366 0.360204 0.778470
0.573144 0.360235 0.776791
0.782650 0.360082 0.777005
0.975402 0.378058 0.759609
0.333623 0.549187 0.780087
0.397742 0.547143 0.780392
0.567010 0.540246 0.780087
0.784390 0.538323 0.778866
0.972045 0.553460 0.760739
0.338842 0.763363 0.772702
0.400000 0.765652 0.775021
0.562554 0.766293 0.775540
0.778378 0.764248 0.772763
0.962158 0.768460 0.775357
0.375677 0.963226 0.758480
0.429175 0.962860 0.758175
0.578546 0.959472 0.757717
0.776272 0.953796 0.770779
0.956634 0.952605 0.778622
0.334783 0.279576 0.964141
0.398779 0.282628 0.963836
0.560418 0.290715 0.962799
0.756069 0.300145 0.961456
0.963409 0.311894 0.960052
0.340978 0.357702 0.963561
0.402319 0.358648 0.963287
0.560601 0.361212 0.962402
0.755581 0.365942 0.961151
0.963104 0.375463 0.959808
0.340276 0.529900 0.961883
0.397803 0.528191 0.961883
0.556512 0.528283 0.961242
0.753811 0.532311 0.960052
0.961578 0.545495 0.958526
0.358984 0.739010 0.958648
0.413458 0.738705 0.958587
0.568780 0.740841 0.958068
0.769619 0.755612 0.956298
0.957824 0.765805 0.955352
0.396948 0.951446 0.955474
0.448035 0.951415 0.955352
0.597620 0.951232 0.954894
0.785000 0.951263 0.954131
0.955200 0.952087 0.953765
