cubelut/Portrait2.cube
# Created by Adobe Lightroom plugin Export LUT (1.18.0)
# www.johnrellis.com/lightroom/exportlut.htm
# Preset: Portrait Effect 11
# Color profile: /Library/Application Support/Adobe/Color/Profiles/Recommended/AdobeRGB1998.icc
LUT_3D_SIZE 32
DOMAIN_MIN 0.0 0.0 0.0
DOMAIN_MAX 1.0 1.0 1.0
0.284428 0.252079 0.318669
0.284428 0.252079 0.318669
0.290776 0.251835 0.318547
0.307530 0.251072 0.318181
0.330816 0.250065 0.317693
0.353429 0.251041 0.318791
0.376165 0.251957 0.319799
0.398657 0.253086 0.320806
0.421607 0.254032 0.322026
0.444678 0.255283 0.323003
0.468147 0.256687 0.324559
0.491646 0.259342 0.326665
0.515282 0.262394 0.329290
0.539025 0.266239 0.332494
0.562829 0.270329 0.335912
0.586969 0.274357 0.339147
0.611536 0.278386 0.342382
0.636683 0.282597 0.345678
0.662440 0.286809 0.349035
0.698268 0.292302 0.353338
0.734249 0.298009 0.357733
0.768948 0.303441 0.361730
0.802213 0.308721 0.365728
0.833371 0.314122 0.369696
0.862547 0.319219 0.373510
0.890562 0.324743 0.377569
0.918181 0.330541 0.381964
0.945617 0.337163 0.386877
0.973114 0.344488 0.392432
1.000000 0.353002 0.398932
1.000000 0.362951 0.406592
1.000000 0.374701 0.415930
0.284428 0.252079 0.318669
0.284672 0.252323 0.318639
0.291173 0.254795 0.318334
0.307561 0.255650 0.317906
0.330388 0.255680 0.317784
0.352728 0.256321 0.319036
0.375128 0.256870 0.319951
0.397467 0.257603 0.321050
0.420233 0.258213 0.321996
0.443275 0.259037 0.323125
0.466438 0.260472 0.324620
0.489754 0.262669 0.326879
0.513237 0.265599 0.329473
0.536767 0.269291 0.332586
0.560449 0.273106 0.335973
0.584405 0.276982 0.339117
0.608789 0.280766 0.342321
0.633722 0.284947 0.345647
0.659388 0.288914 0.348943
0.694453 0.294285 0.353155
0.729519 0.299687 0.357244
0.763668 0.304845 0.361151
0.796536 0.309972 0.365148
0.827878 0.314977 0.368963
0.857237 0.320104 0.372686
0.885618 0.325536 0.376684
0.913634 0.331121 0.380987
0.941497 0.337713 0.385901
0.969360 0.344976 0.391241
0.997162 0.353277 0.397864
1.000000 0.363043 0.405280
1.000000 0.374487 0.414405
0.284001 0.259220 0.318242
0.287388 0.259922 0.318120
0.292485 0.260319 0.317967
0.307713 0.262028 0.317479
0.329931 0.262852 0.318059
0.352026 0.263188 0.319219
0.374212 0.263188 0.320256
0.396277 0.263432 0.321386
0.418891 0.263584 0.322240
0.441840 0.264073 0.323400
0.464973 0.265232 0.324926
0.488228 0.267430 0.327062
0.511650 0.270024 0.329808
0.535210 0.273442 0.332952
0.558770 0.277104 0.336126
0.582696 0.280583 0.339422
0.606989 0.284306 0.342535
0.631800 0.288151 0.345830
0.657557 0.292210 0.349065
0.692439 0.297459 0.353063
0.727016 0.302617 0.357183
0.760800 0.307713 0.361028
0.793576 0.312718 0.364782
0.824918 0.317479 0.368597
0.854429 0.322515 0.372412
0.882902 0.327642 0.376196
0.911101 0.333288 0.380438
0.939178 0.339696 0.385473
0.967315 0.346746 0.390784
0.995361 0.355047 0.397223
1.000000 0.364477 0.404639
1.000000 0.375799 0.413794
0.282933 0.276646 0.317144
0.287724 0.276921 0.317021
0.294530 0.276982 0.317174
0.308904 0.277195 0.317662
0.329686 0.277592 0.318608
0.351415 0.276829 0.319677
0.373144 0.276036 0.320867
0.395148 0.275334 0.321935
0.417578 0.274784 0.322820
0.440345 0.274846 0.323949
0.463294 0.275334 0.325505
0.486397 0.276982 0.327855
0.509606 0.279484 0.330602
0.533013 0.282322 0.333684
0.556634 0.285283 0.336645
0.580468 0.288487 0.339910
0.604608 0.291844 0.343084
0.629358 0.295354 0.346288
0.656153 0.299260 0.349523
0.689418 0.304082 0.353399
0.722805 0.308934 0.357244
0.755795 0.313725 0.360998
0.788510 0.318547 0.364569
0.820493 0.323339 0.368292
0.851133 0.328252 0.372137
0.880735 0.333410 0.376196
0.909758 0.339025 0.380591
0.938354 0.345342 0.385565
0.966674 0.352361 0.390967
0.994659 0.360296 0.397162
1.000000 0.369360 0.404639
1.000000 0.380102 0.413336
0.284855 0.298344 0.318578
0.289830 0.298344 0.318700
0.296300 0.298070 0.318944
0.309545 0.297826 0.319188
0.328618 0.297215 0.319677
0.349889 0.295842 0.320592
0.371313 0.293675 0.321599
0.392920 0.291997 0.322576
0.415198 0.290623 0.323583
0.437598 0.289982 0.324895
0.460395 0.289952 0.326452
0.483375 0.291051 0.328954
0.506523 0.292851 0.331853
0.529900 0.295018 0.334844
0.553674 0.297551 0.337713
0.577691 0.300237 0.340734
0.602289 0.303105 0.343816
0.627192 0.306249 0.347021
0.655879 0.310216 0.350347
0.688075 0.314763 0.354070
0.720546 0.319127 0.357824
0.752987 0.323674 0.361273
0.785245 0.328222 0.364965
0.817411 0.332769 0.368536
0.848203 0.337438 0.372290
0.878111 0.342412 0.376257
0.907378 0.347845 0.380652
0.936187 0.353674 0.385412
0.964569 0.360479 0.390906
0.992645 0.367956 0.397040
1.000000 0.376623 0.404211
1.000000 0.386999 0.412970
0.287266 0.319890 0.320500
0.291814 0.319738 0.320653
0.297673 0.319585 0.320714
0.309514 0.319036 0.321019
0.327123 0.318242 0.321355
0.348180 0.317388 0.321721
0.370092 0.315190 0.322576
0.391394 0.312383 0.323583
0.413306 0.310185 0.324865
0.435615 0.308843 0.326238
0.458289 0.308263 0.328008
0.481147 0.308659 0.330663
0.504173 0.309667 0.333532
0.527733 0.311131 0.336278
0.551537 0.312932 0.339025
0.575677 0.315068 0.342107
0.600366 0.317510 0.345129
0.625422 0.320195 0.348180
0.656031 0.324346 0.351812
0.687831 0.328649 0.355261
0.720180 0.332860 0.358740
0.752682 0.337163 0.362371
0.818296 0.350805 0.370825
0.849058 0.355444 0.374945
0.877867 0.360021 0.379034
0.905455 0.364721 0.383276
0.932158 0.369635 0.387762
0.958373 0.375128 0.392889
0.984344 0.381415 0.398444
1.000000 0.388586 0.405035
1.000000 0.397009 0.412451
1.000000 0.406897 0.421241
0.289860 0.344396 0.322515
0.294102 0.344182 0.322484
0.299504 0.343969 0.322606
0.310887 0.343481 0.322972
0.327398 0.342565 0.323278
0.347631 0.341436 0.323857
0.370489 0.340246 0.324407
0.393317 0.337774 0.325353
0.415351 0.334661 0.326879
0.437873 0.332647 0.328771
0.460792 0.331487 0.330907
0.484047 0.331090 0.333349
0.507256 0.331243 0.336065
0.530846 0.331853 0.338720
0.554498 0.332860 0.341497
0.578332 0.334203 0.344457
0.602777 0.336034 0.347234
0.631220 0.339055 0.350408
0.662593 0.343236 0.354009
0.695644 0.347509 0.357641
0.730129 0.352453 0.361456
0.765743 0.357458 0.365454
0.802090 0.362921 0.369512
0.836851 0.368261 0.373785
0.869261 0.373327 0.378332
0.899046 0.378149 0.382757
0.927001 0.383093 0.387488
0.953857 0.388220 0.392523
0.980316 0.393896 0.397894
1.000000 0.400488 0.404211
1.000000 0.408118 0.411536
1.000000 0.417365 0.420233
0.292973 0.365484 0.324865
0.296635 0.365362 0.325017
0.301457 0.364996 0.325170
0.311833 0.364446 0.325261
0.326879 0.363653 0.325780
0.345403 0.362524 0.326329
0.366674 0.361242 0.327123
0.389593 0.360052 0.328283
0.412757 0.358007 0.329564
0.435126 0.355261 0.331212
0.457832 0.353582 0.333471
0.480995 0.352544 0.335668
0.504204 0.352087 0.338201
0.527642 0.352117 0.340795
0.551263 0.352544 0.343542
0.575128 0.353246 0.346044
0.601068 0.355200 0.349035
0.630457 0.358373 0.352209
0.660426 0.361852 0.355566
0.692348 0.365759 0.358984
0.725917 0.370153 0.362432
0.760861 0.374884 0.366247
0.796567 0.380072 0.370031
0.831174 0.385016 0.374151
0.863645 0.389837 0.378302
0.893645 0.394263 0.382788
0.921935 0.398657 0.387335
0.949279 0.403265 0.392004
0.976104 0.408545 0.397528
1.000000 0.414557 0.403632
1.000000 0.421698 0.410956
1.000000 0.430243 0.419562
0.297337 0.386694 0.328405
0.300694 0.386542 0.328466
0.305028 0.386358 0.328557
0.314336 0.385718 0.328923
0.328130 0.384955 0.329381
0.345037 0.383917 0.329961
0.364721 0.382727 0.330694
0.386328 0.381689 0.331640
0.409522 0.380529 0.332738
0.432929 0.379034 0.334234
0.455604 0.376898 0.336065
0.478645 0.375402 0.338262
0.501823 0.374456 0.340764
0.525353 0.373968 0.343084
0.548791 0.373907 0.345769
0.573846 0.374792 0.348241
0.601862 0.377142 0.351324
0.629999 0.379644 0.354284
0.658900 0.382391 0.357488
0.690181 0.385901 0.360632
0.723110 0.390143 0.363897
0.757534 0.394568 0.367346
0.792782 0.399481 0.371008
0.827115 0.404303 0.374945
0.859525 0.408698 0.379065
0.889647 0.412726 0.383124
0.918151 0.416663 0.387549
0.945678 0.420874 0.392309
0.972686 0.425544 0.397559
0.999237 0.430976 0.403662
1.000000 0.437415 0.410651
1.000000 0.445289 0.419135
0.302525 0.408026 0.332250
0.305516 0.407843 0.332372
0.309392 0.407630 0.332586
0.317754 0.407050 0.332738
0.330144 0.406317 0.333196
0.345769 0.405341 0.333684
0.364111 0.404211 0.334386
0.384436 0.403113 0.335241
0.406317 0.402136 0.336248
0.429480 0.401221 0.337194
0.453010 0.400122 0.338842
0.475929 0.398322 0.341009
0.499123 0.397040 0.343267
0.522637 0.396307 0.345495
0.548241 0.397131 0.348119
0.575311 0.398840 0.350988
0.602655 0.400702 0.353887
0.630549 0.402716 0.356695
0.659174 0.405158 0.359686
0.689815 0.408331 0.362585
0.721798 0.411994 0.365606
0.754757 0.415930 0.368841
0.788540 0.420111 0.371954
0.821805 0.424262 0.375494
0.853544 0.428168 0.379339
0.883757 0.431861 0.383246
0.912779 0.435584 0.387457
0.941070 0.439521 0.392157
0.968841 0.443854 0.397528
0.996155 0.449134 0.403784
1.000000 0.455360 0.410895
1.000000 0.462837 0.419471
0.307713 0.428779 0.336492
0.310246 0.428656 0.336553
0.313909 0.428504 0.336675
0.321508 0.428138 0.336797
0.332952 0.427497 0.337194
0.347478 0.426795 0.337682
0.364630 0.426032 0.338415
0.383856 0.425147 0.339147
0.404730 0.424292 0.340032
0.426978 0.423468 0.341222
0.450141 0.422705 0.342260
0.473945 0.421759 0.343633
0.497688 0.420905 0.345983
0.523095 0.421424 0.348425
0.548913 0.422095 0.351141
0.575036 0.423072 0.353674
0.601648 0.424201 0.356359
0.628748 0.425818 0.359014
0.656855 0.427741 0.361578
0.687098 0.430640 0.364324
0.718715 0.434089 0.367132
0.751369 0.437873 0.370214
0.785031 0.442115 0.373358
0.818296 0.446204 0.376684
0.850034 0.449897 0.380194
0.880217 0.453223 0.384070
0.909178 0.456428 0.388128
0.937438 0.459937 0.392706
0.965301 0.463905 0.397833
0.992767 0.468544 0.403815
1.000000 0.474250 0.410956
1.000000 0.481178 0.419440
0.313176 0.450629 0.340917
0.315648 0.450507 0.341039
0.319005 0.450324 0.341131
0.325872 0.449989 0.341405
0.336584 0.449531 0.341619
0.350011 0.448920 0.342077
0.366125 0.448371 0.342687
0.384436 0.447700 0.343328
0.404547 0.446998 0.344182
0.426001 0.446357 0.345159
0.448646 0.445777 0.346197
0.473915 0.447242 0.347662
0.511284 0.459083 0.351690
0.537957 0.459693 0.354253
0.564843 0.460273 0.356939
0.592126 0.460883 0.359411
0.619593 0.461738 0.361944
0.647395 0.462776 0.364355
0.676173 0.464210 0.366979
0.706203 0.466468 0.369421
0.737118 0.469093 0.372320
0.768826 0.472084 0.375067
0.800717 0.475135 0.377935
0.831785 0.477943 0.381140
0.861662 0.480507 0.384649
0.890349 0.482918 0.388434
0.918059 0.485206 0.392370
0.945037 0.487800 0.396857
0.971557 0.490791 0.401984
0.997955 0.494606 0.407813
1.000000 0.499428 0.414954
1.000000 0.505516 0.423438
0.319585 0.477394 0.345983
0.321965 0.477272 0.346044
0.325017 0.476875 0.346075
0.331579 0.476326 0.346319
0.341466 0.475502 0.346319
0.354040 0.474464 0.346777
0.369512 0.473579 0.347234
0.386908 0.472816 0.347784
0.406378 0.472389 0.348608
0.428962 0.474281 0.349889
0.453468 0.476539 0.351415
0.479530 0.478859 0.353185
0.506584 0.481209 0.354955
0.534325 0.483162 0.356786
0.561639 0.484321 0.359289
0.588800 0.485145 0.361883
0.615961 0.485756 0.364172
0.643305 0.486427 0.366430
0.671595 0.487648 0.368780
0.701106 0.489601 0.371160
0.731594 0.492103 0.373541
0.762905 0.494881 0.376226
0.794553 0.497841 0.379034
0.825559 0.500572 0.381994
0.855497 0.502922 0.385107
0.884306 0.504997 0.388617
0.912261 0.507103 0.392493
0.939605 0.509392 0.396826
0.966552 0.512078 0.401740
0.993378 0.515679 0.407782
1.000000 0.520073 0.414649
1.000000 0.525811 0.423316
0.324804 0.499550 0.350286
0.327001 0.499489 0.350286
0.329931 0.499153 0.350317
0.335973 0.498604 0.350439
0.345190 0.497749 0.350469
0.357488 0.497597 0.350988
0.372534 0.497993 0.351598
0.389960 0.498451 0.352331
0.409491 0.499245 0.353246
0.431006 0.500511 0.354345
0.454353 0.502068 0.355749
0.479255 0.504051 0.357122
0.505211 0.505943 0.358740
0.531914 0.507500 0.360357
0.558556 0.508415 0.361913
0.585290 0.508934 0.364019
0.611841 0.509300 0.366217
0.638666 0.509758 0.368353
0.666712 0.510918 0.370520
0.696040 0.512932 0.372625
0.726345 0.515312 0.375097
0.757565 0.518212 0.377508
0.789242 0.521233 0.380163
0.820462 0.524071 0.382879
0.850553 0.526421 0.386023
0.879637 0.528405 0.389441
0.907866 0.530297 0.393103
0.935485 0.532341 0.397284
0.962768 0.534874 0.402167
0.989929 0.538170 0.408026
1.000000 0.542260 0.415106
1.000000 0.547692 0.423682
0.331029 0.526787 0.354955
0.333135 0.526848 0.355169
0.335821 0.526665 0.355230
0.341802 0.526390 0.355230
0.350896 0.525841 0.355535
0.362554 0.525383 0.355871
0.376898 0.525109 0.356268
0.393439 0.525048 0.356756
0.412177 0.525414 0.357519
0.432868 0.526238 0.358648
0.455360 0.527642 0.359686
0.479438 0.529351 0.360967
0.504601 0.531029 0.362463
0.530480 0.532403 0.363867
0.556542 0.533165 0.365301
0.582269 0.533013 0.366491
0.608331 0.533104 0.368536
0.634791 0.533471 0.370459
0.662379 0.534508 0.372503
0.691463 0.536461 0.374456
0.721523 0.538872 0.376654
0.752499 0.541772 0.378882
0.783993 0.544884 0.381170
0.815305 0.547692 0.383948
0.845670 0.550134 0.386969
0.875273 0.552361 0.390265
0.904265 0.554467 0.393988
0.932830 0.556939 0.398505
0.961089 0.559716 0.403662
0.989105 0.563195 0.409796
1.000000 0.567529 0.417365
1.000000 0.572961 0.426551
0.337072 0.555047 0.359838
0.339269 0.555200 0.359960
0.341833 0.555077 0.359930
0.347509 0.554894 0.360021
0.356298 0.554437 0.360266
0.367773 0.554070 0.360479
0.381659 0.553887 0.360967
0.397803 0.553918 0.361608
0.416175 0.554223 0.362310
0.436225 0.554742 0.363104
0.457984 0.555413 0.364050
0.480995 0.556298 0.364965
0.504875 0.556939 0.366247
0.529503 0.557366 0.367254
0.554437 0.557458 0.368444
0.579461 0.557000 0.369604
0.604456 0.556268 0.370581
0.630640 0.556573 0.372351
0.658534 0.558129 0.374304
0.687984 0.560662 0.376349
0.718410 0.563714 0.378332
0.749660 0.567010 0.380713
0.781613 0.570489 0.382971
0.813230 0.573602 0.385412
0.843839 0.576257 0.388434
0.873777 0.578515 0.391913
0.903136 0.580682 0.395636
0.931884 0.583001 0.400153
0.960235 0.585657 0.405432
0.988159 0.588739 0.411566
1.000000 0.592523 0.419135
1.000000 0.597345 0.428229
0.342626 0.581628 0.364172
0.344396 0.581598 0.364141
0.347021 0.581384 0.364111
0.352483 0.581018 0.364294
0.360906 0.580621 0.364385
0.371801 0.580163 0.364660
0.385321 0.579858 0.365057
0.400885 0.579706 0.365515
0.418524 0.579797 0.366094
0.437995 0.580194 0.366735
0.459144 0.580835 0.367620
0.481514 0.581628 0.368566
0.504906 0.582330 0.369726
0.529076 0.582818 0.370581
0.553582 0.582757 0.371649
0.578058 0.582116 0.372656
0.602625 0.581170 0.373663
0.627436 0.580377 0.374640
0.654383 0.581323 0.376074
0.683497 0.583978 0.377905
0.713741 0.587121 0.379797
0.744808 0.590600 0.381964
0.776791 0.594354 0.384100
0.808530 0.597864 0.386511
0.839475 0.600702 0.389502
0.869810 0.603235 0.392859
0.899596 0.605646 0.396674
0.928862 0.608148 0.401251
0.957671 0.610834 0.406500
0.985992 0.613947 0.413031
1.000000 0.617731 0.420600
1.000000 0.622400 0.430060
0.347906 0.609308 0.368200
0.349828 0.609583 0.368475
0.355840 0.625147 0.370947
0.361456 0.624750 0.371008
0.369940 0.624079 0.371191
0.381048 0.623163 0.371252
0.394507 0.622278 0.371527
0.410071 0.621454 0.371832
0.427832 0.620996 0.372290
0.447272 0.620874 0.372900
0.468360 0.620905 0.373571
0.490608 0.621057 0.374334
0.513878 0.620874 0.375036
0.537865 0.620569 0.375891
0.562158 0.619867 0.376562
0.586633 0.618799 0.377417
0.611231 0.617426 0.378180
0.635859 0.615930 0.379004
0.660731 0.614527 0.379828
0.688014 0.615229 0.381201
0.717464 0.617762 0.382879
0.748165 0.620935 0.384710
0.779660 0.624384 0.386816
0.810575 0.627222 0.389197
0.840360 0.629236 0.391821
0.869535 0.630884 0.394873
0.898192 0.632410 0.398383
0.926757 0.634180 0.402594
0.955230 0.636439 0.407752
0.983642 0.639338 0.414221
1.000000 0.642908 0.422034
1.000000 0.647272 0.431525
0.353826 0.642023 0.372869
0.356023 0.644160 0.373175
0.358953 0.646296 0.373571
0.364752 0.647974 0.373938
0.373266 0.648981 0.374212
0.384222 0.648981 0.374640
0.397406 0.648463 0.374792
0.412634 0.647761 0.375006
0.429847 0.647364 0.375525
0.448859 0.647059 0.375891
0.469368 0.647120 0.376471
0.491249 0.647089 0.377234
0.514031 0.646876 0.377905
0.537469 0.646387 0.378546
0.561303 0.645563 0.379187
0.585412 0.644434 0.379950
0.609796 0.643000 0.380652
0.634302 0.641596 0.381323
0.659236 0.640345 0.382086
0.684688 0.639521 0.382910
0.712551 0.640742 0.384131
0.743343 0.644495 0.385931
0.775051 0.648524 0.387915
0.806332 0.651881 0.390265
0.836576 0.654383 0.392889
0.866209 0.656336 0.395972
0.895293 0.658106 0.399481
0.924132 0.660029 0.403876
0.952911 0.662348 0.409094
0.981537 0.665156 0.415625
1.000000 0.668605 0.423590
1.000000 0.672847 0.433417
0.358007 0.669520 0.376043
0.360235 0.671473 0.376349
0.363104 0.673548 0.376745
0.368658 0.675135 0.377173
0.376989 0.676112 0.377447
0.387640 0.676173 0.377600
0.400549 0.675654 0.377874
0.415351 0.675013 0.378210
0.432258 0.674678 0.378393
0.450843 0.674434 0.378882
0.471046 0.674434 0.379431
0.492500 0.674464 0.380102
0.514916 0.674128 0.380682
0.538140 0.673671 0.381262
0.561730 0.672847 0.381811
0.585657 0.671656 0.382483
0.609918 0.670375 0.382971
0.634394 0.668971 0.383581
0.659297 0.667872 0.384314
0.684871 0.667140 0.385199
0.710872 0.666773 0.385992
0.739467 0.668696 0.387427
0.771359 0.673213 0.389197
0.802792 0.677028 0.391547
0.833219 0.679774 0.394141
0.862943 0.681941 0.397192
0.892180 0.683772 0.400671
0.921172 0.685725 0.404974
0.950072 0.687984 0.410224
0.978790 0.690730 0.416754
1.000000 0.694026 0.424781
1.000000 0.698085 0.434882
0.362127 0.697780 0.379095
0.364263 0.699733 0.379339
0.367102 0.701717 0.379736
0.372534 0.703273 0.380194
0.380713 0.704250 0.380407
0.391150 0.704280 0.380682
0.403693 0.703822 0.380835
0.418189 0.703182 0.381231
0.434821 0.702693 0.381353
0.453010 0.702358 0.381750
0.472816 0.702205 0.382208
0.493935 0.702052 0.382727
0.515984 0.701747 0.383185
0.538964 0.701350 0.383825
0.562585 0.700740 0.384436
0.586694 0.700191 0.385046
0.611566 0.699763 0.385687
0.636988 0.699519 0.386481
0.663050 0.699672 0.387213
0.689876 0.700191 0.388342
0.717403 0.701198 0.389380
0.745480 0.702449 0.390692
0.775296 0.705043 0.392126
0.807401 0.709468 0.394751
0.838468 0.712764 0.397742
0.868559 0.715145 0.401129
0.897978 0.717006 0.405219
0.926970 0.718868 0.409857
0.955718 0.720912 0.415778
0.984100 0.723323 0.422797
1.000000 0.726223 0.431525
1.000000 0.729854 0.442206
0.368017 0.735348 0.383429
0.369848 0.736294 0.383703
0.372351 0.737026 0.383856
0.377539 0.737453 0.383978
0.385443 0.737514 0.384222
0.395636 0.737087 0.384314
0.408057 0.736629 0.384466
0.422522 0.736202 0.384588
0.439155 0.736019 0.384924
0.457465 0.736110 0.385321
0.477394 0.736294 0.385870
0.498695 0.736416 0.386419
0.520897 0.736263 0.386816
0.543877 0.735866 0.387396
0.567498 0.735225 0.387915
0.591760 0.734554 0.388525
0.616480 0.733852 0.389136
0.641901 0.733364 0.389807
0.667781 0.733150 0.390570
0.694209 0.733120 0.391424
0.721035 0.733272 0.392462
0.748379 0.733669 0.393530
0.775998 0.734066 0.394598
0.804440 0.735225 0.396246
0.835264 0.738460 0.399115
0.865446 0.741054 0.402441
0.895109 0.743191 0.406439
0.924376 0.745205 0.411292
0.953277 0.747311 0.417182
0.981811 0.749630 0.424506
1.000000 0.752407 0.433295
1.000000 0.755947 0.444404
0.372015 0.765408 0.386511
0.374060 0.766323 0.386633
0.376410 0.767147 0.386755
0.381506 0.767605 0.387060
0.389227 0.767636 0.387304
0.399298 0.767178 0.387304
0.411444 0.766567 0.387366
0.425666 0.765896 0.387579
0.441932 0.765499 0.387884
0.459937 0.765316 0.388251
0.479591 0.765347 0.388647
0.500542 0.765347 0.389166
0.522423 0.765164 0.389563
0.545373 0.764797 0.390173
0.568902 0.764370 0.390723
0.593133 0.763882 0.391211
0.618036 0.763485 0.391943
0.643427 0.763272 0.392645
0.669459 0.763241 0.393561
0.696071 0.763424 0.394537
0.723201 0.763882 0.395544
0.750729 0.764584 0.396796
0.778622 0.765377 0.398138
0.806790 0.766201 0.399603
0.830259 0.762295 0.399725
0.860472 0.765072 0.402960
0.890410 0.767544 0.407050
0.919890 0.769833 0.411810
0.949004 0.772030 0.417823
0.977813 0.774441 0.425055
1.000000 0.777371 0.434119
1.000000 0.781186 0.445808
0.378241 0.801755 0.391211
0.380194 0.802762 0.391608
0.382696 0.803311 0.391760
0.387701 0.803403 0.391882
0.395117 0.802976 0.391913
0.404913 0.802152 0.391974
0.416785 0.801083 0.391882
0.430732 0.799893 0.391852
0.446601 0.798734 0.391943
0.464179 0.797726 0.392065
0.483192 0.796750 0.392279
0.503563 0.796048 0.392645
0.525078 0.795254 0.392981
0.547326 0.794308 0.393286
0.570214 0.792996 0.393652
0.593744 0.791653 0.393988
0.617792 0.790463 0.394354
0.642573 0.789578 0.395087
0.668238 0.789395 0.395850
0.694697 0.789761 0.396887
0.721798 0.790524 0.398108
0.749233 0.791379 0.399481
0.776822 0.791958 0.400732
0.804318 0.792264 0.402136
0.831601 0.792294 0.403296
0.858885 0.792172 0.404608
0.888457 0.794400 0.408728
0.917601 0.796353 0.413397
0.946502 0.798306 0.419379
0.975250 0.800565 0.426642
1.000000 0.803433 0.435981
1.000000 0.807218 0.447852
0.382757 0.829526 0.394720
0.384649 0.830472 0.394934
0.387091 0.831022 0.395148
0.391913 0.831113 0.395331
0.399268 0.830716 0.395270
0.408820 0.830014 0.395361
0.420539 0.829191 0.395392
0.434180 0.828275 0.395483
0.449928 0.827420 0.395544
0.467323 0.826780 0.395789
0.486183 0.826169 0.396094
0.506554 0.825772 0.396490
0.527977 0.825315 0.396918
0.550195 0.824674 0.397375
0.573144 0.823789 0.397772
0.596704 0.822843 0.398169
0.620905 0.821866 0.398749
0.645747 0.821195 0.399420
0.671321 0.821012 0.400305
0.697688 0.821317 0.401373
0.724544 0.821927 0.402747
0.751888 0.822599 0.404181
0.779416 0.823209 0.405463
0.806882 0.823575 0.406958
0.834287 0.823728 0.408423
0.861570 0.823667 0.409918
0.888975 0.823606 0.411383
0.918120 0.825498 0.416571
0.947082 0.827481 0.422705
0.975799 0.829648 0.430488
1.000000 0.832547 0.440528
1.000000 0.836088 0.453193
0.388556 0.859312 0.399237
0.390387 0.859953 0.399573
0.392676 0.860136 0.399573
0.397314 0.859892 0.399725
0.404242 0.859281 0.399634
0.413458 0.858427 0.399573
0.424689 0.857420 0.399451
0.438087 0.856413 0.399451
0.453529 0.855589 0.399481
0.470558 0.854948 0.399695
0.489204 0.854459 0.400031
0.509178 0.854276 0.400488
0.530419 0.853941 0.401038
0.552636 0.853483 0.401526
0.575341 0.852720 0.402045
0.598657 0.851774 0.402533
0.622583 0.850828 0.403082
0.647181 0.850126 0.403723
0.672541 0.849882 0.404578
0.698634 0.850065 0.405737
0.725307 0.850553 0.407080
0.752346 0.851164 0.408637
0.779599 0.851743 0.410163
0.807004 0.852140 0.411841
0.834287 0.852384 0.413367
0.861540 0.852384 0.415106
0.888884 0.852415 0.416754
0.916228 0.852384 0.418494
0.944915 0.854063 0.424628
0.973846 0.856352 0.432715
1.000000 0.859037 0.442969
1.000000 0.862364 0.455787
0.394232 0.886656 0.403754
0.395972 0.887022 0.404059
0.398138 0.887236 0.404089
0.402625 0.887114 0.404089
0.409461 0.886839 0.404181
0.418769 0.886656 0.404334
0.430304 0.886809 0.404578
0.444007 0.887144 0.405127
0.459815 0.887816 0.405982
0.477455 0.888701 0.406775
0.496681 0.889647 0.407721
0.517266 0.890623 0.408881
0.538994 0.891386 0.409888
0.561547 0.891814 0.410925
0.584680 0.891752 0.411749
0.608240 0.891173 0.412360
0.632380 0.890471 0.413123
0.657038 0.889830 0.414099
0.682429 0.889555 0.415137
0.708492 0.889586 0.416388
0.734981 0.889860 0.418036
0.761929 0.890196 0.419867
0.789029 0.890471 0.421576
0.816251 0.890684 0.423499
0.843473 0.890684 0.425360
0.870634 0.890623 0.427314
0.897856 0.890532 0.429358
0.925170 0.890471 0.431678
0.952728 0.890654 0.434272
0.980804 0.891936 0.442298
1.000000 0.893828 0.453559
1.000000 0.896239 0.467811
0.405402 0.922332 0.413245
0.407019 0.922545 0.413275
0.409033 0.922454 0.413306
0.413275 0.922118 0.413245
0.419867 0.921599 0.413153
0.428748 0.921019 0.413153
0.439643 0.920562 0.413275
0.452705 0.920256 0.413581
0.467689 0.920104 0.413886
0.484504 0.920073 0.414527
0.502770 0.920073 0.415076
0.522545 0.920134 0.415839
0.543420 0.920104 0.416785
0.565148 0.919890 0.417517
