cubelut/Portrait5.cube
# Created by Adobe Lightroom plugin Export LUT (1.18.0)
# www.johnrellis.com/lightroom/exportlut.htm
# Preset: Portrait Effect 28
# Color profile: /Library/Application Support/Adobe/Color/Profiles/Recommended/AdobeRGB1998.icc
LUT_3D_SIZE 5
DOMAIN_MIN 0.000000 0.000000 0.000000
DOMAIN_MAX 0.903226 0.903226 0.903226
0.139071 0.153841 0.305821
0.419165 0.134401 0.304540
0.674525 0.114717 0.304967
0.897398 0.109316 0.308873
1.000000 0.105165 0.313329
0.136507 0.394079 0.300481
0.402869 0.380285 0.299321
0.656184 0.328893 0.305028
0.886748 0.303136 0.307897
1.000000 0.275120 0.314000
0.124514 0.662898 0.284550
0.343694 0.657069 0.283146
0.666835 0.674983 0.275059
0.875334 0.590417 0.295140
1.000000 0.520592 0.306981
0.114473 0.876707 0.264256
0.297917 0.875822 0.263554
0.560052 0.867124 0.260716
0.822171 0.850034 0.255497
1.000000 0.774624 0.273838
0.147189 1.000000 0.256077
0.273899 1.000000 0.255467
0.484352 1.000000 0.249577
0.716579 0.996063 0.250614
0.957183 0.981842 0.253147
0.167483 0.146761 0.412451
0.405341 0.108736 0.416083
0.654170 0.114443 0.386938
0.865171 0.126680 0.372747
1.000000 0.102358 0.359167
0.147829 0.375616 0.413001
0.388495 0.361669 0.400977
0.648646 0.326757 0.385107
0.860105 0.298589 0.370306
1.000000 0.265019 0.358038
0.089143 0.649714 0.364813
0.297459 0.649622 0.344182
0.638148 0.640589 0.337194
0.849363 0.571099 0.357458
1.000000 0.515373 0.353368
0.048737 0.871672 0.324132
0.271458 0.872282 0.316747
0.551019 0.862577 0.312871
0.818265 0.844297 0.305943
1.000000 0.768276 0.318944
0.110323 1.000000 0.299290
0.258549 1.000000 0.298222
0.487343 1.000000 0.297459
0.719295 0.999725 0.296056
0.960937 0.983612 0.297917
0.223392 0.138949 0.564996
0.367529 0.115999 0.566705
0.649683 0.000000 0.568109
0.859678 0.000000 0.519371
1.000000 0.093385 0.482216
0.163333 0.296635 0.571679
0.331670 0.271611 0.571099
0.659174 0.228672 0.572717
0.852995 0.277317 0.516045
1.000000 0.280766 0.486580
0.103822 0.632380 0.564202
0.285740 0.633692 0.562036
0.621973 0.612238 0.536370
0.837827 0.580987 0.523186
1.000000 0.521843 0.486488
0.075563 0.853483 0.489265
0.247837 0.848875 0.479255
0.517357 0.847166 0.458076
0.815854 0.834379 0.450935
1.000000 0.756893 0.459510
0.081117 1.000000 0.431647
0.231418 1.000000 0.426856
0.461860 1.000000 0.415045
0.707790 0.993439 0.408515
0.958740 0.975891 0.406043
0.263218 0.134371 0.708431
0.359808 0.117922 0.709041
0.579156 0.000000 0.713832
0.842008 0.000000 0.709926
1.000000 0.000000 0.641413
0.220188 0.249485 0.710994
0.334874 0.242100 0.711543
0.567834 0.212955 0.711177
0.836851 0.122194 0.705043
1.000000 0.166537 0.636164
0.162631 0.513298 0.703700
0.276493 0.503258 0.703975
0.522667 0.473793 0.702754
0.828763 0.459998 0.694942
0.998322 0.480568 0.635828
0.065614 0.822599 0.692805
0.238102 0.820706 0.690181
0.499886 0.821714 0.686488
0.798886 0.798734 0.666560
0.985718 0.763607 0.648554
0.032319 0.997528 0.610803
0.214511 0.997223 0.607324
0.448554 0.996582 0.599542
0.717220 0.986633 0.601923
0.964416 0.968200 0.592126
0.290959 0.124697 0.834806
0.360876 0.110842 0.834318
0.533471 0.000000 0.832883
0.749203 0.000000 0.830259
0.998932 0.000000 0.826474
0.264591 0.223484 0.834348
0.341741 0.216831 0.833860
0.523430 0.191501 0.832395
0.744472 0.120546 0.829526
0.998688 0.000000 0.825772
0.166201 0.429084 0.831693
0.255528 0.415076 0.832120
0.480110 0.400763 0.830716
0.726467 0.381567 0.827481
0.998169 0.354498 0.823331
0.112337 0.701137 0.821530
0.225986 0.696345 0.821622
0.437079 0.681178 0.822049
0.715663 0.685054 0.819089
0.990845 0.694087 0.813931
0.000000 0.976226 0.806973
0.175753 0.976532 0.806821
0.434272 0.977173 0.806332
0.718624 0.973999 0.803922
0.972595 0.957305 0.796963
