cubelut/Portrait10.cube
# Created by Adobe Lightroom plugin Export LUT (1.18.0)
# www.johnrellis.com/lightroom/exportlut.htm
# Preset: CP - INTERIOR DESIGN 19
# Color profile: /Library/Application Support/Adobe/Color/Profiles/Recommended/AdobeRGB1998.icc
LUT_3D_SIZE 8
DOMAIN_MIN 0.000000 0.000000 0.000000
DOMAIN_MAX 0.903226 0.903226 0.903226
0.025483 0.070344 0.069978
0.084901 0.076600 0.072419
0.173922 0.080629 0.075898
0.302098 0.045411 0.074861
0.449042 0.000000 0.063447
0.591852 0.000000 0.016938
0.729488 0.000000 0.000000
0.843290 0.093721 0.000000
0.024689 0.123934 0.090974
0.091188 0.125551 0.082887
0.189975 0.117586 0.069886
0.315099 0.099825 0.066651
0.457862 0.020935 0.049592
0.597711 0.000000 0.000000
0.729397 0.000000 0.000000
0.842588 0.154055 0.000000
0.000000 0.238102 0.129610
0.053925 0.240177 0.113649
0.211734 0.240635 0.102419
0.361120 0.220279 0.077180
0.496345 0.200259 0.015045
0.629419 0.199161 0.000000
0.750393 0.232303 0.000000
0.854490 0.288975 0.000000
0.000000 0.396460 0.186557
0.000092 0.397498 0.176486
0.172885 0.401312 0.145907
0.392493 0.407263 0.124514
0.558556 0.390539 0.070008
0.670893 0.378943 0.000000
0.771023 0.394354 0.000000
0.866117 0.433997 0.000000
0.000000 0.566522 0.264530
0.000000 0.566796 0.260227
0.157015 0.569940 0.206363
0.349889 0.570642 0.189364
0.565148 0.568261 0.161288
0.698573 0.556909 0.101045
0.787655 0.552392 0.000000
0.877531 0.571832 0.000000
0.000000 0.706081 0.355962
0.122713 0.708766 0.355261
0.198367 0.710567 0.308537
0.346410 0.708888 0.276371
0.529137 0.704311 0.257053
0.693843 0.704067 0.234684
0.807675 0.704646 0.193698
0.889036 0.706538 0.084413
0.218235 0.822416 0.462043
0.254215 0.822385 0.461891
0.328130 0.821042 0.446784
0.387549 0.822232 0.388678
0.518853 0.817411 0.372168
0.667842 0.814847 0.358862
0.793179 0.816007 0.344213
0.898222 0.820249 0.325322
0.396674 0.912718 0.576471
0.417670 0.911833 0.577783
0.483589 0.909026 0.584222
0.496376 0.912993 0.536675
0.575402 0.908446 0.518639
0.667323 0.907103 0.509026
0.783322 0.906126 0.507378
0.886809 0.905303 0.501305
0.021607 0.072541 0.117159
0.083223 0.077241 0.113710
0.173831 0.093355 0.110170
0.305272 0.080995 0.105531
0.450477 0.000000 0.087282
0.592401 0.000000 0.037171
0.725612 0.000000 0.000000
0.839261 0.108461 0.000000
0.008728 0.121431 0.132540
0.091096 0.125429 0.129274
0.188785 0.126711 0.121431
0.317174 0.113924 0.109590
0.458961 0.072114 0.089906
0.597894 0.000000 0.040192
0.726741 0.060975 0.000000
0.838499 0.160678 0.000000
0.000000 0.234928 0.163668
0.095277 0.236149 0.165408
0.215061 0.238590 0.148379
0.359472 0.222354 0.124361
0.493233 0.203677 0.097414
0.622736 0.198581 0.042176
0.742245 0.229557 0.000000
0.849180 0.287755 0.000000
0.000000 0.391058 0.218021
0.082307 0.392218 0.217197
0.188632 0.397436 0.186893
0.387701 0.398840 0.168978
0.545556 0.380682 0.128573
0.659358 0.369268 0.051728
0.761257 0.383734 0.000000
0.860014 0.426246 0.000000
0.000000 0.562646 0.292454
0.068544 0.562402 0.288518
0.173709 0.565026 0.240391
0.348974 0.563195 0.223545
0.558740 0.560327 0.199924
0.691951 0.550286 0.152224
0.782742 0.546777 0.009613
0.873350 0.565972 0.000000
0.032746 0.701472 0.375189
0.133516 0.701564 0.372656
0.232120 0.702846 0.344121
0.350408 0.703334 0.301427
0.527153 0.700191 0.284031
0.691920 0.701564 0.265599
0.804746 0.702052 0.227512
0.886076 0.703212 0.137881
0.218326 0.817807 0.472175
0.251804 0.816739 0.470802
0.346838 0.814878 0.468177
0.390539 0.818235 0.405280
0.520165 0.814572 0.390509
0.665522 0.812070 0.377111
0.790005 0.812833 0.362036
0.894316 0.817044 0.342260
0.392279 0.910826 0.581323
0.414008 0.910185 0.583062
0.480629 0.907591 0.589319
0.507073 0.910521 0.553033
0.582208 0.909392 0.535424
0.668757 0.907286 0.523552
0.782589 0.905394 0.519249
0.885191 0.904234 0.511955
0.000000 0.078248 0.213077
0.068727 0.082795 0.211185
0.189639 0.086671 0.208408
0.328923 0.060182 0.192355
0.449409 0.009491 0.178439
0.594141 0.000000 0.162478
0.726986 0.000000 0.123476
0.843992 0.127871 0.000000
0.000000 0.116030 0.227115
0.086641 0.125765 0.225895
0.199252 0.129305 0.220401
0.331060 0.115602 0.200992
0.458137 0.100221 0.186557
0.598901 0.052888 0.165927
0.728145 0.068269 0.125368
0.843992 0.171908 0.000000
0.000000 0.225620 0.261051
0.086702 0.229038 0.259220
0.224155 0.237613 0.254032
0.356909 0.228458 0.232151
0.493996 0.214878 0.207492
0.622705 0.207797 0.178408
0.740352 0.226444 0.134615
0.849424 0.282261 0.000000
0.000000 0.391638 0.302831
0.086519 0.393347 0.303716
0.239017 0.396643 0.302556
0.398505 0.399115 0.278630
0.546990 0.381689 0.242466
0.658442 0.370825 0.202121
0.760250 0.381994 0.154330
0.859342 0.418097 0.035431
0.000000 0.559960 0.364782
0.091249 0.560388 0.365118
0.253941 0.561486 0.362799
0.369482 0.563622 0.323705
0.565026 0.561761 0.307530
0.690120 0.549706 0.267796
0.780789 0.544182 0.204227
0.871397 0.560388 0.115602
0.081758 0.699489 0.435004
0.158724 0.699306 0.435248
0.288518 0.698238 0.432441
0.376287 0.700069 0.384649
0.529351 0.696712 0.368719
0.689723 0.698634 0.355505
0.799710 0.698939 0.322271
0.883787 0.700771 0.250187
0.235203 0.817044 0.517052
0.269261 0.816068 0.516808
0.361089 0.813504 0.515373
0.428412 0.814389 0.478676
0.533135 0.811978 0.455268
0.665461 0.810605 0.443336
0.789120 0.813291 0.433783
0.892912 0.818326 0.415198
0.392706 0.910246 0.607263
0.411139 0.909361 0.607202
0.477058 0.906554 0.611872
0.547967 0.905943 0.609033
0.592828 0.907530 0.574670
0.674159 0.906157 0.564202
0.782437 0.905089 0.560266
0.884977 0.904509 0.555108
0.000000 0.082795 0.346929
0.000000 0.085969 0.347448
0.181155 0.089021 0.345678
0.346532 0.013458 0.342687
0.509697 0.000000 0.326848
0.614679 0.000000 0.280705
0.713069 0.000000 0.255070
0.833890 0.000000 0.209812
0.000000 0.123140 0.360327
0.031708 0.125032 0.359594
0.195407 0.128023 0.356390
0.354437 0.107301 0.352026
0.510582 0.016266 0.332311
0.613306 0.000000 0.285130
0.715724 0.000000 0.259709
0.835111 0.092164 0.210513
0.000000 0.197543 0.383154
0.000000 0.200839 0.382635
0.223850 0.228641 0.383185
0.375280 0.233738 0.378302
0.513725 0.220859 0.350134
0.612238 0.219364 0.314977
0.733059 0.218662 0.278904
0.844175 0.244358 0.220890
0.000000 0.371435 0.427161
0.006622 0.374029 0.426154
0.233097 0.382177 0.423896
0.407630 0.396033 0.421393
0.533379 0.378943 0.386603
0.645869 0.368322 0.348547
0.750210 0.369909 0.303075
0.853300 0.393408 0.242924
0.000000 0.558526 0.471229
0.093385 0.558465 0.469825
0.261540 0.558495 0.468391
0.422431 0.560174 0.467567
0.569574 0.561151 0.444434
0.683589 0.545434 0.402625
0.774289 0.535882 0.346075
0.865965 0.545800 0.284459
0.108064 0.698939 0.521080
0.176150 0.700526 0.522759
0.304326 0.698421 0.521233
0.445747 0.696407 0.519677
0.541711 0.696864 0.486366
0.689845 0.698878 0.476875
0.792935 0.695613 0.440833
0.879026 0.693629 0.369238
0.250767 0.814817 0.579706
0.283574 0.814511 0.579797
0.373571 0.813016 0.580041
0.488777 0.810483 0.581445
0.558984 0.811612 0.548119
0.667506 0.810391 0.535760
0.787320 0.813077 0.528222
0.887968 0.817014 0.505638
0.405982 0.909545 0.652918
0.423957 0.909117 0.653285
0.477058 0.907408 0.653315
0.559625 0.904417 0.656947
0.607996 0.905699 0.630304
0.683284 0.904692 0.620722
0.781491 0.904448 0.616022
0.884489 0.904479 0.612573
0.000000 0.081849 0.493263
0.000000 0.081849 0.493629
0.179599 0.074922 0.492958
0.340764 0.023285 0.491371
0.514855 0.000000 0.490089
0.671473 0.000000 0.492805
0.754574 0.000000 0.435187
0.841886 0.000000 0.372839
0.000000 0.119692 0.500755
0.000000 0.119905 0.501274
0.194766 0.117403 0.500298
0.349401 0.107485 0.497658
0.519371 0.000000 0.495949
0.670802 0.000000 0.495094
0.753292 0.000000 0.436530
0.840391 0.000000 0.371923
0.000000 0.193515 0.516838
0.027131 0.208957 0.517998
0.225376 0.218845 0.517266
0.373938 0.227817 0.516197
0.531853 0.225315 0.513176
0.665766 0.226596 0.500298
0.746975 0.198825 0.439399
0.832364 0.172854 0.373693
0.000000 0.328313 0.541314
0.000000 0.330724 0.540703
0.209842 0.337316 0.540093
0.403815 0.376104 0.543328
0.551080 0.393072 0.541558
0.658778 0.382788 0.509483
0.735897 0.347723 0.444099
0.837797 0.344121 0.388098
0.000000 0.522820 0.577417
0.059785 0.524590 0.577111
0.252598 0.529656 0.575677
0.416052 0.538872 0.574548
0.570977 0.554986 0.574304
0.663600 0.531304 0.532860
0.755154 0.512535 0.481178
0.852689 0.508537 0.417639
0.124514 0.687922 0.610895
0.184176 0.688167 0.610163
0.309331 0.688106 0.607050
0.446418 0.687556 0.604791
0.574212 0.688014 0.603540
0.686824 0.694057 0.588861
0.781460 0.684199 0.548913
0.869749 0.674037 0.480720
0.272892 0.810391 0.649836
0.301122 0.809628 0.649531
0.382940 0.807797 0.648798
0.488380 0.806058 0.648157
0.593744 0.805478 0.646571
0.666468 0.807004 0.621515
0.784115 0.810513 0.616297
0.880674 0.810758 0.587213
0.415686 0.905577 0.703914
0.431525 0.905028 0.703792
0.480201 0.903532 0.703304
0.551720 0.903380 0.703456
0.634577 0.901335 0.702876
0.691157 0.902678 0.680446
0.777401 0.902739 0.673335
0.882963 0.903044 0.671077
0.000000 0.060060 0.631830
0.000000 0.051881 0.631800
0.210269 0.000000 0.630640
0.367163 0.000000 0.630060
0.520592 0.000000 0.629267
0.660334 0.000000 0.626337
0.783200 0.000000 0.630121
0.867308 0.000000 0.593957
0.000000 0.105989 0.632776
0.000000 0.103822 0.632654
0.220584 0.092866 0.632074
0.372625 0.063722 0.631830
0.522576 0.000000 0.630793
0.660792 0.000000 0.627893
0.782681 0.084504 0.631464
0.865660 0.088746 0.593256
0.000000 0.203769 0.642725
0.113039 0.204257 0.642420
0.248722 0.205753 0.642084
0.392218 0.209262 0.641840
0.534051 0.223758 0.641108
0.665980 0.229740 0.637354
0.783261 0.267124 0.639002
0.861540 0.242496 0.591852
0.000000 0.288792 0.651637
0.000000 0.293217 0.651911
0.231266 0.322118 0.654078
0.414862 0.358709 0.656428
0.552422 0.383154 0.657099
0.674617 0.402014 0.653956
0.779538 0.419471 0.645563
0.854429 0.371313 0.586389
0.000000 0.479164 0.669612
0.000000 0.480293 0.669398
0.237797 0.483589 0.668421
0.392798 0.488441 0.667201
0.561975 0.529015 0.669368
0.678706 0.554406 0.669215
0.764248 0.539147 0.639796
0.838865 0.480018 0.566522
0.142367 0.654017 0.691707
0.193820 0.655360 0.691920
0.307988 0.657740 0.691341
0.440192 0.662684 0.690333
0.568200 0.672328 0.689937
0.690181 0.693111 0.693477
0.763241 0.666346 0.652125
0.851957 0.643915 0.597925
0.290745 0.802853 0.726711
0.318456 0.803067 0.726650
0.395636 0.802731 0.725063
0.496071 0.803067 0.722438
0.595575 0.804257 0.719478
0.692561 0.805814 0.717678
0.784756 0.810086 0.705409
0.874174 0.801389 0.668238
0.435950 0.903044 0.761349
0.449287 0.902586 0.761105
0.492409 0.901366 0.760433
0.555444 0.900633 0.759548
0.628626 0.900084 0.756985
0.711360 0.899504 0.755001
0.773953 0.901366 0.737118
0.883543 0.902098 0.736385
0.111971 0.000000 0.746548
0.167453 0.000000 0.746944
0.282414 0.000000 0.746334
0.415076 0.000000 0.745571
0.545800 0.000000 0.744320
0.665644 0.000000 0.741573
0.772030 0.000000 0.736172
0.877012 0.117678 0.739528
0.125521 0.063355 0.745418
0.175418 0.051118 0.745785
0.285771 0.000000 0.745327
0.415625 0.000000 0.744381
0.545068 0.000000 0.743069
0.663722 0.000000 0.740200
0.769589 0.014832 0.734554
0.874327 0.168185 0.737667
0.157412 0.185885 0.749844
0.198154 0.185031 0.749691
0.299779 0.182864 0.748836
0.425391 0.181064 0.748013
0.551019 0.193210 0.746487
0.666529 0.221286 0.744472
0.771511 0.249454 0.739742
0.875486 0.302281 0.742519
0.000000 0.285924 0.755154
0.142153 0.296605 0.754635
0.307103 0.323400 0.753811
0.433509 0.331792 0.753445
0.558282 0.351232 0.752560
0.670680 0.386755 0.752071
0.773617 0.409400 0.747890
0.875486 0.443671 0.749142
0.000000 0.431250 0.758724
0.000000 0.430030 0.757900
0.209720 0.425574 0.755978
0.380255 0.443275 0.757015
0.555596 0.493904 0.756649
0.671138 0.529198 0.757137
0.771939 0.552605 0.754696
0.871000 0.570672 0.752316
0.139101 0.620478 0.770779
0.184329 0.620417 0.770504
0.289006 0.620172 0.769375
0.409522 0.619318 0.767758
0.532921 0.619165 0.765072
0.674891 0.660670 0.767544
0.776761 0.690211 0.769833
0.858274 0.670924 0.744381
0.295628 0.770077 0.787381
0.319036 0.770565 0.787472
0.387121 0.771481 0.786893
0.478584 0.773861 0.786221
0.577661 0.778286 0.785153
0.680262 0.787961 0.785245
0.787350 0.807950 0.790555
0.856229 0.777279 0.746944
0.432471 0.895262 0.822568
0.445869 0.895171 0.822354
0.490089 0.895720 0.822232
0.553124 0.896117 0.820859
0.628809 0.897032 0.818265
0.709743 0.898466 0.815640
0.794339 0.899138 0.814206
0.886442 0.900938 0.806119
0.279973 0.000000 0.848356
0.305333 0.000000 0.848386
0.379248 0.000000 0.847227
0.480873 0.000000 0.846128
0.586877 0.000000 0.844450
0.686397 0.000000 0.842405
0.783352 0.000000 0.839353
0.872404 0.055360 0.831174
0.280644 0.000000 0.847684
0.305852 0.000000 0.847715
0.379553 0.000000 0.846769
0.480262 0.000000 0.845487
0.586023 0.000000 0.843900
0.685542 0.000000 0.841855
0.781918 0.000000 0.838621
0.870970 0.138430 0.830472
0.279698 0.154360 0.848020
0.304540 0.152316 0.847898
0.377539 0.145602 0.846677
0.480140 0.141268 0.846433
0.585565 0.153964 0.844602
0.684657 0.199008 0.842222
0.780148 0.235996 0.839200
0.869810 0.272770 0.831418
0.258915 0.294713 0.849393
0.286778 0.295140 0.849454
0.365789 0.296147 0.848478
0.472328 0.301610 0.847532
0.581476 0.318090 0.846067
0.682918 0.351965 0.844022
0.777768 0.387732 0.841398
0.868864 0.412512 0.834287
0.000000 0.381048 0.851499
0.000000 0.381323 0.851682
0.234897 0.390845 0.851011
0.442573 0.441321 0.848631
0.565270 0.457710 0.846921
0.675380 0.488624 0.845060
0.772854 0.529747 0.843503
0.867094 0.550774 0.838254
0.120150 0.585657 0.855100
0.162753 0.583520 0.854582
0.257267 0.576074 0.852995
0.365881 0.560479 0.850767
0.498848 0.559350 0.849577
0.664454 0.620386 0.848112
0.771389 0.662104 0.849241
0.869017 0.685267 0.846952
0.301640 0.754971 0.864500
0.319219 0.754391 0.864134
0.373053 0.752316 0.863066
0.452094 0.749264 0.861631
0.543206 0.744839 0.859312
0.640284 0.739193 0.855955
0.768734 0.774289 0.856565
0.873960 0.801816 0.858976
0.443641 0.875578 0.878416
0.453834 0.875456 0.878172
0.487770 0.875486 0.877775
0.543084 0.876249 0.877379
0.612207 0.877775 0.876738
0.690974 0.880674 0.875853
0.780850 0.886351 0.875608
0.892576 0.899229 0.881651
