cubelut/Portrait3.cube
# Created by Adobe Lightroom plugin Export LUT (1.18.0)
# www.johnrellis.com/lightroom/exportlut.htm
# Preset: Portrait Effect 1
# Color profile: /Library/Application Support/Adobe/Color/Profiles/Recommended/AdobeRGB1998.icc
LUT_3D_SIZE 8
DOMAIN_MIN 0.000000 0.000000 0.000000
DOMAIN_MAX 0.903226 0.903226 0.903226
0.000000 0.094606 0.330327
0.226261 0.075502 0.330571
0.399115 0.000000 0.328283
0.518273 0.000000 0.324804
0.622583 0.000000 0.328618
0.730037 0.000000 0.327825
0.849302 0.000000 0.322393
0.950591 0.000000 0.309209
0.059602 0.249149 0.337285
0.232303 0.239170 0.335088
0.393408 0.198062 0.331945
0.509239 0.167208 0.331334
0.613550 0.152041 0.331609
0.724086 0.141512 0.329747
0.837644 0.126497 0.324254
0.941894 0.059815 0.311345
0.178653 0.393988 0.344549
0.251865 0.388708 0.343633
0.397253 0.372808 0.340764
0.513207 0.336431 0.339696
0.615473 0.310643 0.338445
0.737362 0.303624 0.335637
0.851957 0.295628 0.329992
0.952300 0.271397 0.316686
0.280888 0.500755 0.359167
0.312383 0.497169 0.358312
0.406287 0.494209 0.356573
0.533867 0.495521 0.353765
0.653285 0.482765 0.350103
0.754696 0.462837 0.346349
0.852628 0.446143 0.340093
0.947906 0.425635 0.327062
0.356451 0.626307 0.373205
0.377539 0.623926 0.372473
0.444160 0.619684 0.370459
0.542046 0.617395 0.367224
0.647517 0.608453 0.361913
0.745754 0.590784 0.356817
0.842283 0.575952 0.350927
0.941253 0.563745 0.339818
0.410803 0.730190 0.387274
0.430610 0.735775 0.388159
0.480964 0.732082 0.386053
0.557794 0.727169 0.382605
0.647822 0.719509 0.377264
0.746120 0.713405 0.370611
0.846616 0.706813 0.363806
0.942596 0.696559 0.354803
0.471748 0.836515 0.411231
0.484413 0.837369 0.411292
0.520989 0.833127 0.408331
0.581964 0.829160 0.404395
0.657496 0.822904 0.398291
0.744778 0.819211 0.391516
0.838651 0.816526 0.382879
0.937133 0.814908 0.371923
0.550408 0.938018 0.460060
0.557916 0.937377 0.459052
0.585443 0.936492 0.456977
0.634546 0.937285 0.455512
0.685481 0.925475 0.439521
0.762173 0.926574 0.434546
0.847715 0.929107 0.428321
0.935698 0.928008 0.414557
0.000000 0.100679 0.367285
0.224491 0.088014 0.364996
0.384497 0.126131 0.359716
0.501488 0.151583 0.359167
0.606622 0.146456 0.355779
0.716640 0.132662 0.351446
0.829374 0.109926 0.344732
0.933715 0.000000 0.330571
0.102449 0.240543 0.366583
0.237613 0.233402 0.364965
0.386084 0.224125 0.362676
0.500114 0.214176 0.359869
0.603876 0.203220 0.356634
0.714778 0.191836 0.352361
0.820951 0.173617 0.345312
0.924773 0.124269 0.331426
0.208133 0.383124 0.365911
0.282109 0.377020 0.369116
0.396918 0.366735 0.366339
0.504570 0.342687 0.363622
0.606958 0.325231 0.360540
0.720699 0.316472 0.356573
0.826963 0.304601 0.349645
0.932158 0.282200 0.336095
0.296849 0.488899 0.374762
0.334539 0.486763 0.377203
0.413642 0.484199 0.375616
0.518944 0.477943 0.372015
0.623438 0.463233 0.367926
0.726101 0.449714 0.362982
0.826230 0.437324 0.356085
0.928618 0.422736 0.343297
0.366613 0.617762 0.387793
0.385748 0.614191 0.387060
0.445991 0.608118 0.384680
0.533837 0.601007 0.380896
0.631800 0.590600 0.375463
0.730343 0.577935 0.370367
0.828794 0.567437 0.364416
0.929534 0.558038 0.353338
0.412848 0.719661 0.398383
0.428138 0.718929 0.398047
0.476417 0.716030 0.396124
0.551995 0.713588 0.393286
0.641779 0.709377 0.388830
0.741176 0.706996 0.383124
0.840238 0.700801 0.376410
0.934691 0.690242 0.366491
0.468605 0.823331 0.419013
0.478279 0.821012 0.417609
0.515221 0.818601 0.415412
0.577325 0.817899 0.412970
0.653742 0.814817 0.408148
0.739223 0.810727 0.401221
0.829923 0.806088 0.391852
0.926604 0.803799 0.380224
0.548882 0.930236 0.467079
0.557519 0.930602 0.467201
0.585321 0.930388 0.465736
0.634333 0.931884 0.465064
0.695399 0.930724 0.459815
0.766445 0.928161 0.450904
0.846738 0.926513 0.440101
0.932097 0.923430 0.424048
0.139315 0.115663 0.421851
0.235538 0.121187 0.420417
0.392523 0.135409 0.415412
0.506035 0.173526 0.404273
0.608850 0.207248 0.401740
0.723751 0.228519 0.403906
0.833066 0.222171 0.398627
0.936767 0.187076 0.385046
0.206760 0.235416 0.419043
0.271031 0.238651 0.417487
0.393835 0.234104 0.413672
0.502342 0.242985 0.405737
0.604273 0.256321 0.403815
0.719814 0.261723 0.403998
0.827024 0.252079 0.397711
0.932158 0.223575 0.384649
0.257023 0.373266 0.418097
0.309911 0.370825 0.416938
0.409979 0.366217 0.414557
0.507500 0.359899 0.411597
0.615015 0.356512 0.410040
0.725216 0.350500 0.406439
0.827817 0.341527 0.399542
0.930907 0.322698 0.386603
0.323308 0.489570 0.417090
0.357916 0.488319 0.418708
0.436255 0.483528 0.420569
0.528161 0.479591 0.418097
0.630823 0.472999 0.414649
0.731685 0.464271 0.410132
0.831113 0.455726 0.403449
0.931701 0.442786 0.390997
0.377447 0.612543 0.426001
0.400122 0.610864 0.426978
0.461402 0.606317 0.427497
0.544671 0.602502 0.424384
0.639643 0.594568 0.419348
0.733700 0.582055 0.414221
0.829831 0.573114 0.408148
0.930053 0.565332 0.397192
0.422827 0.716609 0.435218
0.440223 0.715633 0.436347
0.489601 0.711330 0.437110
0.558465 0.707118 0.433906
0.642420 0.702296 0.429236
0.737087 0.699794 0.424231
0.835416 0.696681 0.418799
0.934569 0.692866 0.410224
0.478859 0.823972 0.456245
0.491951 0.821958 0.457008
0.533623 0.816739 0.459480
0.588281 0.813535 0.455421
0.658930 0.809781 0.449775
0.741939 0.807858 0.443885
0.833463 0.807950 0.437140
0.932189 0.810300 0.427802
0.554650 0.928710 0.499947
0.564630 0.927001 0.500938
0.599878 0.924498 0.507103
0.648066 0.928344 0.509300
0.704494 0.927031 0.503716
0.773098 0.926238 0.496834
0.850919 0.926146 0.487953
0.934874 0.925109 0.473884
0.204929 0.139437 0.480964
0.261784 0.148379 0.481025
0.382300 0.167239 0.477424
0.506126 0.182162 0.471962
0.608942 0.207797 0.461616
0.721584 0.227146 0.462287
0.824308 0.230106 0.457679
0.927825 0.199496 0.445197
0.266178 0.244724 0.481086
0.303136 0.245853 0.480293
0.397345 0.247227 0.476814
0.508476 0.247684 0.471778
0.609888 0.257481 0.463661
0.719814 0.265415 0.463416
0.821073 0.262821 0.457740
0.925689 0.234775 0.445136
0.313146 0.362158 0.479347
0.347112 0.364721 0.478035
0.423346 0.366217 0.474861
0.514885 0.361089 0.472084
0.619501 0.361395 0.471687
0.728084 0.361334 0.471473
0.832975 0.359411 0.467292
0.932189 0.343481 0.454170
0.353857 0.486793 0.487007
0.379217 0.485084 0.485847
0.446784 0.480964 0.483467
0.534356 0.477882 0.482307
0.630488 0.471351 0.478920
0.728023 0.466957 0.475013
0.826871 0.463111 0.469459
0.929900 0.452399 0.457527
0.393561 0.610681 0.494850
0.412543 0.607477 0.493721
0.469825 0.602167 0.492317
0.553063 0.600671 0.493202
0.645319 0.595453 0.489418
0.736782 0.586114 0.484688
0.831327 0.580468 0.478828
0.930083 0.572381 0.466285
0.435920 0.718105 0.500816
0.455238 0.721553 0.504143
0.503960 0.715236 0.503868
0.578515 0.709682 0.506889
0.657038 0.705379 0.504845
0.742061 0.701076 0.498848
0.835264 0.698878 0.493416
0.932921 0.696773 0.483955
0.486275 0.821164 0.515862
0.500450 0.821042 0.517449
0.545647 0.819059 0.522118
0.613855 0.815854 0.530755
0.678981 0.812741 0.527703
0.752956 0.809873 0.520836
0.835966 0.807736 0.512657
0.930968 0.811002 0.503471
0.564782 0.930236 0.558679
0.575830 0.930114 0.560632
0.608545 0.928222 0.563928
0.663813 0.925750 0.573388
0.715602 0.924437 0.567956
0.779965 0.924071 0.561669
0.854612 0.924865 0.554437
0.936614 0.925475 0.543481
0.260929 0.167849 0.567742
0.298863 0.174380 0.567773
0.394202 0.189334 0.564416
0.505669 0.203311 0.560266
0.618921 0.213138 0.557702
0.722347 0.226871 0.550591
0.822782 0.226596 0.543023
0.926757 0.190463 0.531273
0.303319 0.251560 0.567407
0.332555 0.253696 0.568322
0.411353 0.256474 0.565332
0.511162 0.258305 0.559808
0.620417 0.260349 0.558434
0.722469 0.265110 0.551720
0.822660 0.260807 0.544060
0.926207 0.228031 0.531609
0.354803 0.368566 0.567376
0.378882 0.370886 0.566705
0.438880 0.368750 0.564294
0.525444 0.365057 0.563043
0.622065 0.358495 0.558709
0.718563 0.353399 0.551141
0.818845 0.345953 0.544305
0.921721 0.318547 0.530053
0.379919 0.479561 0.575250
0.400031 0.479133 0.573968
0.458808 0.478035 0.571832
0.538964 0.475013 0.569360
0.629206 0.468147 0.564691
0.723354 0.462501 0.557671
0.820645 0.456489 0.549767
0.923156 0.436286 0.533806
0.407233 0.597040 0.581750
0.424567 0.596246 0.581231
0.476722 0.592401 0.578424
0.552850 0.588128 0.575433
0.640650 0.584955 0.571801
0.727138 0.579797 0.565545
0.820096 0.577783 0.560693
0.920958 0.570733 0.549981
0.438605 0.702296 0.580133
0.453132 0.701076 0.579706
0.497688 0.695644 0.576806
0.567437 0.690669 0.575372
0.648554 0.687373 0.574487
0.735103 0.689662 0.577081
0.828428 0.693477 0.576074
0.926360 0.693477 0.567926
0.490364 0.812833 0.594415
0.502342 0.811215 0.594079
0.543145 0.807736 0.594598
0.605921 0.805234 0.597040
0.676600 0.803922 0.597223
0.751217 0.801846 0.595300
0.830686 0.799557 0.587915
0.923644 0.802487 0.578912
0.560082 0.919921 0.624903
0.569360 0.919066 0.625086
0.599878 0.917174 0.625757
0.653010 0.921416 0.631830
0.715145 0.919554 0.633478
0.779385 0.918608 0.629938
0.851835 0.919097 0.623011
0.932403 0.919463 0.612879
0.304570 0.196384 0.672175
0.332433 0.200961 0.671687
0.408972 0.211185 0.667659
0.508690 0.222934 0.665644
0.614862 0.231785 0.664942
0.717433 0.233433 0.659510
0.821286 0.222629 0.654994
0.925719 0.178836 0.645014
0.333562 0.261479 0.666346
0.355779 0.262608 0.665583
0.421790 0.265263 0.663325
0.514061 0.269322 0.663142
0.614252 0.270726 0.661006
0.714778 0.267887 0.656275
0.818875 0.255375 0.653162
0.923735 0.216861 0.643702
0.385199 0.376196 0.671687
0.401282 0.375402 0.670893
0.453407 0.373358 0.669368
0.531243 0.370062 0.667475
0.620996 0.364233 0.662959
0.716152 0.356481 0.657496
0.819089 0.343328 0.654963
0.923339 0.313848 0.644465
0.409339 0.479469 0.677729
0.425452 0.479072 0.675776
0.477119 0.480049 0.673396
0.551171 0.481361 0.674708
0.635065 0.477119 0.672236
0.724605 0.469490 0.666285
0.824033 0.458381 0.662379
0.925566 0.435401 0.648798
0.429267 0.583764 0.676509
0.444251 0.583703 0.676020
0.491859 0.583429 0.674250
0.564324 0.584771 0.672023
0.644312 0.584619 0.667964
0.724697 0.577691 0.662531
0.818814 0.569116 0.658381
0.919951 0.554101 0.646021
0.454902 0.691768 0.678889
0.469551 0.692775 0.680079
0.513329 0.691279 0.678523
0.580529 0.689296 0.675715
0.653346 0.686641 0.671595
0.735439 0.687800 0.671046
0.824826 0.687251 0.667689
0.922148 0.686458 0.661646
0.500023 0.810178 0.696437
0.513512 0.810513 0.697353
0.552789 0.807736 0.696040
0.609339 0.804837 0.693874
0.674220 0.802426 0.689418
0.749447 0.800778 0.683894
0.830564 0.798245 0.680934
0.923919 0.801907 0.675349
0.563378 0.916106 0.715724
0.571588 0.915221 0.715175
0.599451 0.913451 0.713832
0.645045 0.914092 0.713466
0.702327 0.914580 0.709865
0.773129 0.914916 0.706966
0.849546 0.915404 0.706813
0.929503 0.915679 0.698634
0.331670 0.216587 0.778317
0.353521 0.219303 0.778286
0.418372 0.226505 0.777768
0.507134 0.233494 0.776913
0.603510 0.236484 0.773251
0.701869 0.233524 0.768612
0.800687 0.222782 0.763607
0.914702 0.150973 0.770901
0.355291 0.271183 0.778592
0.373907 0.271977 0.778408
0.431434 0.273777 0.777615
0.513542 0.274846 0.775753
0.606317 0.273411 0.772702
0.702907 0.267460 0.768612
0.800809 0.255558 0.763668
0.914641 0.195712 0.770962
0.396612 0.374090 0.778744
0.411017 0.373541 0.778470
0.457679 0.371588 0.777462
0.528801 0.367834 0.775601
0.613916 0.361761 0.772702
0.705867 0.353094 0.768917
0.801419 0.340520 0.764248
0.914519 0.297337 0.771115
0.427039 0.476753 0.780362
0.440986 0.476905 0.779294
0.483680 0.476661 0.778073
0.546441 0.472755 0.776272
0.624353 0.466865 0.773617
0.711147 0.458717 0.770108
0.803311 0.447517 0.765560
0.914580 0.415686 0.770901
0.448798 0.579400 0.782834
0.461982 0.579767 0.782406
0.505119 0.581201 0.781033
0.571313 0.584070 0.778592
0.642542 0.580957 0.775814
0.721309 0.573968 0.772427
0.807736 0.564965 0.767971
0.914488 0.544793 0.771084
0.477852 0.687098 0.787289
0.490028 0.687251 0.786923
0.530388 0.688106 0.785702
0.589380 0.688808 0.783719
0.657008 0.687617 0.781216
0.733089 0.684749 0.777859
0.814664 0.678340 0.773342
0.916045 0.666682 0.771389
0.514916 0.793942 0.793576
0.525566 0.793881 0.793332
0.559625 0.793545 0.792416
0.609827 0.793210 0.791043
0.671626 0.792844 0.789151
0.743801 0.792752 0.786648
0.825986 0.793454 0.783871
0.919127 0.792630 0.778012
0.561120 0.910521 0.817288
0.569360 0.910460 0.817197
0.596338 0.910338 0.816617
0.639368 0.910552 0.815244
0.696010 0.911192 0.812741
0.763455 0.912261 0.808042
0.841855 0.913115 0.800748
0.925841 0.912413 0.798795
0.352148 0.236851 0.909545
0.370031 0.237522 0.909300
0.425757 0.239628 0.908446
0.505730 0.239963 0.906981
0.597375 0.235935 0.904906
0.693782 0.223911 0.902373
0.792508 0.199344 0.899321
0.893675 0.149050 0.895781
0.370031 0.281987 0.909117
0.386053 0.281926 0.908904
0.436866 0.281132 0.908141
0.512444 0.278538 0.906767
0.600855 0.271916 0.904784
0.695338 0.258976 0.902342
0.793118 0.235904 0.899351
0.893828 0.194064 0.895903
0.405402 0.377539 0.908568
0.418433 0.376776 0.908385
0.461311 0.373999 0.907683
0.528099 0.368780 0.906493
0.609796 0.360143 0.904784
0.699886 0.347021 0.902495
0.795071 0.327123 0.899687
0.894469 0.295903 0.896330
0.442451 0.483864 0.908659
0.453346 0.483131 0.908476
0.489876 0.480415 0.907897
0.548638 0.475502 0.906859
0.623072 0.467689 0.905241
0.707546 0.456184 0.903136
0.798856 0.439582 0.900450
0.896117 0.415045 0.897154
0.477119 0.591516 0.910246
0.489052 0.592309 0.909941
0.527489 0.594537 0.909056
0.579736 0.591821 0.907927
0.644404 0.584955 0.906462
0.720851 0.575372 0.904479
0.806271 0.562493 0.901823
0.899321 0.545434 0.898405
0.511620 0.698634 0.913298
0.521721 0.699031 0.913085
0.554040 0.699763 0.912413
0.602594 0.699031 0.911345
0.663935 0.696040 0.909819
0.734676 0.689296 0.907713
0.815152 0.680049 0.904875
0.904143 0.668086 0.901183
0.548455 0.804410 0.917967
0.556573 0.804532 0.917845
0.583001 0.804623 0.917388
0.625574 0.804349 0.916625
0.681910 0.803494 0.915435
0.749264 0.801480 0.913573
0.827176 0.797757 0.910582
0.911864 0.791775 0.906920
0.586603 0.909209 0.925139
0.593194 0.909300 0.925078
0.615503 0.909636 0.924865
0.653376 0.910307 0.924468
0.704585 0.911345 0.923857
0.766812 0.912749 0.922881
0.840787 0.914244 0.921111
0.925994 0.915831 0.918212
