cubelut/Reds_Oranges_Yellows.cube
# Created by Adobe Lightroom plugin Export LUT (1.18.0)
# www.johnrellis.com/lightroom/exportlut.htm
# Preset: Reds/Oranges/Yellows
# Color profile: /Library/Application Support/Adobe/Color/Profiles/Recommended/AdobeRGB1998.icc
LUT_3D_SIZE 32
0.207431 0.204410 0.203098
0.207431 0.204410 0.203098
0.207431 0.204410 0.203098
0.207431 0.204410 0.203098
0.207431 0.204410 0.203098
0.207431 0.204410 0.203098
0.207431 0.204410 0.203098
0.211490 0.203830 0.203342
0.225559 0.202426 0.203159
0.252750 0.199161 0.203708
0.283391 0.195682 0.204410
0.325475 0.188754 0.205325
0.383612 0.176272 0.206058
0.455024 0.154971 0.207004
0.528283 0.120699 0.207584
0.603632 0.041260 0.208225
0.681636 0.000000 0.209445
0.755062 0.000000 0.210971
0.819303 0.000000 0.212345
0.873564 0.000000 0.213779
0.918914 0.000000 0.216403
0.957244 0.000000 0.221103
0.989441 0.000000 0.227329
1.000000 0.000000 0.235172
1.000000 0.000000 0.245396
1.000000 0.000000 0.257206
1.000000 0.000000 0.272038
1.000000 0.000000 0.289647
1.000000 0.148287 0.309972
1.000000 0.223148 0.332952
1.000000 0.281071 0.359014
1.000000 0.332677 0.388251
0.207431 0.204410 0.203098
0.207431 0.204410 0.203098
0.207431 0.204410 0.203098
0.207431 0.204410 0.203098
0.207431 0.204410 0.203098
0.207431 0.204410 0.203098
0.207431 0.204410 0.203098
0.211490 0.203830 0.203342
0.225559 0.202426 0.203159
0.252750 0.199161 0.203708
0.283391 0.195682 0.204410
0.325475 0.188754 0.205325
0.383612 0.176272 0.206058
0.455024 0.154971 0.207004
0.528283 0.120699 0.207584
0.603479 0.044556 0.208194
0.681331 0.000000 0.209720
0.754696 0.000000 0.210971
0.818662 0.000000 0.211948
0.873014 0.000000 0.214054
0.918456 0.000000 0.217014
0.956695 0.000000 0.221012
0.988952 0.000000 0.227420
1.000000 0.000000 0.235325
1.000000 0.000000 0.245090
1.000000 0.000000 0.257206
1.000000 0.000000 0.272251
1.000000 0.000000 0.289677
1.000000 0.152743 0.309667
1.000000 0.226352 0.333104
1.000000 0.282872 0.358923
1.000000 0.333959 0.388037
0.207431 0.204410 0.203098
0.207431 0.204410 0.203098
0.207431 0.204410 0.203098
0.207431 0.204410 0.203098
0.207431 0.204410 0.203098
0.207431 0.204410 0.203098
0.207431 0.204410 0.203098
0.211490 0.203830 0.203342
0.225895 0.202365 0.203159
0.252750 0.199161 0.203708
0.283665 0.195590 0.204410
0.325475 0.188754 0.205325
0.383612 0.176272 0.206058
0.455024 0.154971 0.207004
0.527947 0.120577 0.207523
0.603326 0.035096 0.208408
0.681025 0.000000 0.209476
0.754116 0.000000 0.211368
0.818112 0.000000 0.212284
0.872251 0.000000 0.213687
0.917693 0.000000 0.216526
0.956054 0.000000 0.221286
0.988373 0.000000 0.227176
1.000000 0.000000 0.234653
1.000000 0.000000 0.244755
1.000000 0.000000 0.257053
1.000000 0.000000 0.271855
1.000000 0.000000 0.289311
1.000000 0.159915 0.309758
1.000000 0.230350 0.333074
1.000000 0.285832 0.359014
1.000000 0.336553 0.388525
0.207431 0.204410 0.203098
0.207431 0.204410 0.203098
0.207431 0.204410 0.203098
0.207431 0.204410 0.203098
0.207431 0.204410 0.203098
0.207431 0.204410 0.203098
0.207431 0.204410 0.203098
0.211795 0.203891 0.203037
0.226322 0.202396 0.203250
0.253574 0.198978 0.203708
0.284215 0.195102 0.204440
0.326390 0.189181 0.205264
0.384283 0.176791 0.205997
0.455604 0.153994 0.206821
0.528893 0.121553 0.207401
0.603784 0.042786 0.208286
0.681514 0.000000 0.209628
0.754269 0.000000 0.211276
0.817929 0.000000 0.212222
0.871824 0.000000 0.213687
0.917510 0.000000 0.216709
0.955718 0.000000 0.221103
0.988067 0.000000 0.227146
1.000000 0.000000 0.234897
1.000000 0.000000 0.245335
1.000000 0.000000 0.257847
1.000000 0.000000 0.272465
1.000000 0.076600 0.290532
1.000000 0.176181 0.310155
1.000000 0.241032 0.334203
1.000000 0.293828 0.360113
1.000000 0.343053 0.389929
0.207431 0.204410 0.203098
0.207431 0.204410 0.203098
0.207431 0.204410 0.203098
0.207431 0.204410 0.203098
0.207431 0.204410 0.203098
0.207431 0.204410 0.203098
0.207431 0.204410 0.203098
0.212284 0.203799 0.203006
0.226963 0.202487 0.203311
0.254307 0.199374 0.203647
0.284825 0.195315 0.204196
0.326848 0.188663 0.205264
0.384863 0.176516 0.206180
0.456092 0.154971 0.206729
0.528618 0.122438 0.207675
0.603113 0.057496 0.208408
0.680262 0.000000 0.209506
0.752407 0.000000 0.210727
0.816220 0.000000 0.211887
0.870390 0.000000 0.213901
0.915892 0.000000 0.216464
0.954253 0.000000 0.221012
0.986664 0.000000 0.227237
1.000000 0.000000 0.234897
1.000000 0.000000 0.245212
1.000000 0.000000 0.257664
1.000000 0.000000 0.272801
1.000000 0.119173 0.290623
1.000000 0.196109 0.310582
1.000000 0.254215 0.334752
1.000000 0.303624 0.360693
1.000000 0.350469 0.390295
0.207431 0.204410 0.203098
0.207431 0.204410 0.203098
0.207431 0.204410 0.203098
0.207431 0.204410 0.203098
0.207431 0.204410 0.203098
0.207431 0.204410 0.203098
0.207553 0.204379 0.203098
0.212711 0.203830 0.203220
0.228244 0.201907 0.203342
0.255589 0.198856 0.203738
0.286168 0.194949 0.204471
0.328649 0.188602 0.205295
0.386755 0.176272 0.206180
0.457527 0.156100 0.206973
0.529290 0.126436 0.207950
0.603174 0.075410 0.208347
0.679774 0.000000 0.210086
0.751614 0.000000 0.210758
0.815305 0.000000 0.211948
0.869596 0.000000 0.213779
0.915373 0.000000 0.216556
0.954314 0.000000 0.220951
0.987793 0.000000 0.227817
1.000000 0.000000 0.235843
1.000000 0.000000 0.246616
1.000000 0.000000 0.259739
1.000000 0.081086 0.274693
1.000000 0.169558 0.293462
1.000000 0.227207 0.314183
1.000000 0.276097 0.337835
1.000000 0.320317 0.363592
1.000000 0.363928 0.393256
0.207370 0.204654 0.203189
0.207370 0.204654 0.203189
0.207370 0.204654 0.203189
0.207370 0.204654 0.203189
0.207340 0.204990 0.203067
0.207462 0.205081 0.203037
0.207279 0.205753 0.203403
0.212955 0.204929 0.203128
0.228275 0.203250 0.203433
0.255039 0.200595 0.203616
0.284703 0.197086 0.204349
0.325261 0.191745 0.205112
0.380011 0.182193 0.206058
0.448371 0.165927 0.207309
0.518456 0.143282 0.207797
0.591394 0.108736 0.209018
0.666316 0.021332 0.210178
0.738552 0.000000 0.211032
0.802640 0.000000 0.211673
0.860014 0.000000 0.213382
0.907866 0.000000 0.216007
0.947997 0.000000 0.220829
0.981445 0.000000 0.226810
1.000000 0.000000 0.234958
1.000000 0.000000 0.245975
1.000000 0.044251 0.258854
1.000000 0.146578 0.274754
1.000000 0.204685 0.293370
1.000000 0.251743 0.314519
1.000000 0.294591 0.338323
1.000000 0.335119 0.364630
1.000000 0.375677 0.394263
0.207065 0.210941 0.202976
0.207065 0.210941 0.202976
0.207279 0.211124 0.203067
0.207187 0.211460 0.203128
0.207218 0.212222 0.203067
0.207034 0.213199 0.203189
0.206912 0.214694 0.203281
0.212741 0.216159 0.203525
0.230716 0.213596 0.204044
0.257176 0.208835 0.204105
0.286473 0.205386 0.205081
0.327184 0.200778 0.205783
0.382208 0.192844 0.206485
0.449714 0.180087 0.207706
0.518761 0.163577 0.207950
0.590539 0.140566 0.209110
0.664393 0.108522 0.210727
0.735653 0.044434 0.211215
0.799527 0.000000 0.211460
0.856840 0.000000 0.212985
0.904479 0.000000 0.215854
0.944610 0.000000 0.220493
0.978302 0.000000 0.226627
1.000000 0.000000 0.235355
1.000000 0.089815 0.246464
1.000000 0.151156 0.259464
1.000000 0.199405 0.275669
1.000000 0.240513 0.294163
1.000000 0.278599 0.315221
1.000000 0.315435 0.339117
1.000000 0.352117 0.365667
1.000000 0.389471 0.395483
0.206210 0.229068 0.203555
0.206210 0.229068 0.203555
0.206516 0.229252 0.203006
0.206210 0.229953 0.203372
0.205905 0.231357 0.203647
0.206058 0.233066 0.203189
0.205936 0.235538 0.203464
0.211429 0.238041 0.203281
0.229679 0.239109 0.203586
0.258030 0.234714 0.204227
0.288121 0.221622 0.205966
0.328771 0.217288 0.206363
0.383459 0.211948 0.207645
0.449775 0.203555 0.208591
0.517388 0.192569 0.209018
0.587488 0.179110 0.209995
0.659876 0.162509 0.210575
0.730678 0.141634 0.211246
0.794064 0.118135 0.211246
0.851713 0.096956 0.212924
0.899626 0.088319 0.215274
0.940002 0.095705 0.220310
0.973938 0.116518 0.226322
1.000000 0.146365 0.235538
1.000000 0.179812 0.246250
1.000000 0.213443 0.260563
1.000000 0.245151 0.276219
1.000000 0.275822 0.295018
1.000000 0.306920 0.316381
1.000000 0.338354 0.340185
1.000000 0.370642 0.366796
1.000000 0.404944 0.396826
0.204837 0.255680 0.203708
0.204837 0.255680 0.203708
0.205142 0.255833 0.203281
0.204868 0.256626 0.203799
0.204868 0.257633 0.203494
0.204715 0.259251 0.203830
0.205295 0.261265 0.203799
0.210391 0.263371 0.203952
0.226383 0.264897 0.204074
0.253574 0.265721 0.205081
0.288792 0.263218 0.206607
0.330449 0.246128 0.207950
0.384985 0.239048 0.208957
0.449958 0.234348 0.209537
0.516197 0.228519 0.209751
0.585046 0.222019 0.210910
0.656245 0.213687 0.211276
0.726192 0.204318 0.211185
0.789151 0.195193 0.210941
0.846494 0.189395 0.212070
0.894621 0.189425 0.214878
0.935271 0.195224 0.219638
0.969390 0.207462 0.226688
0.998047 0.225132 0.235416
1.000000 0.244816 0.247318
1.000000 0.265843 0.261265
1.000000 0.288273 0.277592
1.000000 0.311589 0.296208
1.000000 0.336584 0.317632
1.000000 0.363500 0.342107
1.000000 0.392035 0.369055
1.000000 0.422736 0.398962
0.204135 0.285832 0.204501
0.204135 0.285832 0.204501
0.204135 0.286137 0.204776
0.204318 0.286778 0.204898
0.204227 0.287907 0.204776
0.204166 0.289769 0.204837
0.204593 0.292119 0.204837
0.210300 0.294682 0.204898
0.225376 0.296880 0.205814
0.250553 0.298985 0.206424
0.285771 0.300786 0.207767
0.329290 0.300664 0.210117
0.382818 0.285954 0.210544
0.444648 0.269535 0.211276
0.509148 0.267979 0.211734
0.575799 0.266239 0.211887
0.645197 0.263890 0.211398
0.714229 0.261112 0.210910
0.777249 0.258427 0.210575
0.835538 0.257664 0.211582
0.884581 0.260258 0.213993
0.926177 0.265476 0.219242
0.961425 0.273259 0.225834
0.991272 0.283513 0.235019
1.000000 0.295689 0.246586
1.000000 0.310033 0.261082
1.000000 0.326177 0.277501
1.000000 0.344701 0.296941
1.000000 0.364843 0.318273
1.000000 0.387579 0.342870
1.000000 0.412451 0.369757
1.000000 0.440406 0.400153
0.202518 0.326268 0.206302
0.202823 0.326360 0.205875
0.202548 0.326452 0.205966
0.202579 0.327153 0.206058
0.202457 0.328496 0.206180
0.202274 0.330541 0.206210
0.203647 0.333227 0.206394
0.210330 0.336248 0.206699
0.225834 0.339361 0.207218
0.251164 0.342626 0.208194
0.286137 0.345495 0.209354
0.330816 0.348333 0.211460
0.388434 0.354589 0.213199
0.447700 0.344945 0.212833
0.508904 0.329320 0.212497
0.571588 0.315404 0.212009
0.639246 0.317662 0.211215
0.707759 0.319982 0.210025
0.771176 0.320775 0.209903
0.828794 0.322454 0.210880
0.878141 0.323919 0.213504
0.919799 0.326482 0.218173
0.955596 0.330388 0.225925
0.986023 0.336095 0.235294
1.000000 0.343603 0.247410
1.000000 0.352972 0.261936
1.000000 0.364294 0.278538
1.000000 0.378302 0.298100
1.000000 0.394446 0.319799
1.000000 0.413306 0.344549
1.000000 0.434821 0.371649
1.000000 0.459968 0.402564
0.199741 0.371801 0.207218
0.199832 0.371405 0.207401
0.199710 0.371160 0.207126
0.199832 0.371405 0.207401
0.199435 0.372595 0.207401
0.199130 0.375097 0.206790
0.201389 0.377874 0.207095
0.209598 0.381018 0.207370
0.224979 0.384314 0.208011
0.250767 0.388922 0.209323
0.285893 0.393378 0.210025
0.330541 0.396887 0.210666
0.383185 0.399939 0.212100
0.438697 0.402289 0.213016
0.495918 0.397436 0.211521
0.557702 0.387823 0.210086
0.621332 0.374945 0.209812
0.686305 0.361700 0.209689
0.751003 0.365942 0.208713
0.811368 0.369299 0.209262
0.863279 0.371557 0.212131
0.907347 0.373419 0.217014
0.944945 0.375738 0.224094
0.976989 0.379126 0.234012
1.000000 0.383917 0.246036
1.000000 0.390234 0.260838
1.000000 0.398749 0.278538
1.000000 0.409277 0.297978
1.000000 0.422644 0.320928
1.000000 0.438239 0.345403
1.000000 0.456947 0.373083
1.000000 0.479561 0.404273
0.194217 0.425055 0.207675
0.194430 0.424537 0.207675
0.194278 0.424109 0.207858
0.194522 0.424384 0.207492
0.194217 0.425055 0.207675
0.194308 0.426947 0.207492
0.198154 0.429297 0.207553
0.207584 0.432044 0.207889
0.224949 0.434730 0.208103
0.251438 0.438727 0.208011
0.287327 0.442267 0.208865
0.331853 0.445594 0.209018
0.384161 0.448188 0.209720
0.439490 0.450233 0.210239
0.492073 0.452491 0.210788
0.546685 0.450538 0.209079
0.608942 0.445075 0.207156
0.672663 0.436683 0.206271
0.733791 0.423438 0.206607
0.791836 0.408148 0.207950
0.846525 0.411902 0.209934
0.893034 0.414099 0.214786
0.932799 0.415869 0.222324
0.966674 0.418006 0.231846
0.995605 0.421149 0.244816
1.000000 0.425269 0.259831
1.000000 0.431067 0.277501
1.000000 0.439368 0.297978
1.000000 0.449805 0.320531
1.000000 0.462806 0.345800
1.000000 0.479011 0.373693
1.000000 0.499336 0.405524
0.185092 0.475654 0.206241
0.185122 0.474983 0.206180
0.185428 0.474434 0.205966
0.185275 0.474617 0.206241
0.185122 0.474983 0.206180
0.187015 0.476661 0.206149
0.192721 0.478584 0.206119
0.204807 0.480659 0.205631
0.223789 0.483040 0.205692
0.251896 0.486580 0.205753
0.288579 0.489815 0.205936
0.333318 0.492775 0.205905
0.385901 0.494942 0.206699
0.440986 0.497200 0.206821
0.493294 0.499458 0.207034
0.544091 0.501640 0.207492
0.596155 0.501854 0.206516
0.658991 0.499641 0.202914
0.720027 0.493172 0.202548
0.778317 0.483040 0.203769
0.831144 0.468849 0.206912
0.877226 0.450660 0.212345
0.919158 0.451698 0.219791
0.955291 0.453529 0.229587
0.986114 0.455604 0.242954
1.000000 0.458350 0.258488
1.000000 0.462654 0.276707
1.000000 0.468666 0.297215
1.000000 0.477089 0.320806
1.000000 0.488167 0.346593
1.000000 0.502525 0.375647
1.000000 0.520470 0.407813
0.172152 0.526329 0.202213
0.172183 0.525963 0.202304
0.172427 0.525505 0.202426
0.172488 0.525566 0.202609
0.173587 0.526177 0.202426
0.177798 0.527581 0.202304
0.185794 0.529320 0.202396
0.200748 0.531151 0.202274
0.222782 0.533288 0.202365
0.253422 0.536431 0.202029
0.292119 0.539422 0.201755
0.338415 0.542168 0.202213
0.391424 0.544305 0.202487
0.446265 0.546227 0.202731
0.498177 0.548363 0.202884
0.548577 0.550439 0.203311
0.597589 0.552667 0.203677
0.646143 0.553429 0.202365
0.707332 0.552300 0.199374
0.765682 0.547082 0.199557
0.819242 0.537316 0.202518
0.866087 0.523308 0.208560
0.907286 0.506828 0.216617
0.943236 0.488533 0.227604
0.975647 0.487526 0.240208
1.000000 0.489418 0.256168
1.000000 0.492287 0.274968
1.000000 0.496590 0.295842
1.000000 0.503258 0.319921
1.000000 0.512322 0.346136
1.000000 0.524529 0.375555
1.000000 0.540581 0.408606
0.156588 0.574273 0.198245
0.157321 0.573816 0.198154
0.157595 0.573358 0.198276
0.158755 0.573541 0.198520
0.161593 0.574090 0.198520
0.167514 0.575280 0.198367
0.179202 0.576684 0.198215
0.196689 0.578454 0.198123
0.221622 0.580255 0.197971
0.254124 0.583124 0.197879
0.294652 0.585962 0.197604
0.341711 0.588464 0.197787
0.395514 0.590509 0.197757
0.449561 0.592584 0.197787
0.501152 0.594568 0.198245
0.551141 0.596674 0.198550
0.600000 0.598810 0.198550
0.647028 0.600305 0.199008
0.691737 0.600397 0.199313
0.750210 0.600092 0.197665
0.805234 0.594934 0.198795
0.853544 0.584771 0.204776
0.895933 0.570947 0.213962
0.932921 0.555230 0.225193
0.965270 0.538262 0.238315
0.993317 0.520836 0.253758
1.000000 0.520256 0.272557
1.000000 0.523491 0.294072
1.000000 0.528527 0.318242
1.000000 0.536065 0.345312
1.000000 0.546410 0.375158
1.000000 0.560479 0.408759
0.137575 0.623285 0.193301
0.138705 0.623438 0.193118
0.139590 0.622370 0.193454
0.142611 0.623194 0.193210
0.148043 0.624506 0.192782
0.157229 0.625849 0.193057
0.172702 0.627619 0.192660
0.194156 0.629847 0.192721
0.222995 0.632166 0.192111
0.258579 0.634638 0.192264
0.300908 0.636866 0.191867
0.349645 0.638453 0.192050
0.403693 0.639918 0.192020
0.456489 0.641260 0.192599
0.507256 0.642634 0.193118
0.555688 0.643397 0.193576
0.603082 0.644343 0.194369
0.649256 0.645350 0.195010
0.694453 0.646387 0.195895
0.737240 0.645960 0.196933
0.790188 0.644800 0.197299
0.839872 0.638025 0.201358
0.883452 0.627008 0.210849
0.921447 0.613153 0.223148
0.954864 0.597498 0.237369
0.984009 0.581476 0.253025
1.000000 0.565301 0.271092
1.000000 0.550286 0.290990
1.000000 0.552575 0.315221
1.000000 0.558526 0.342870
1.000000 0.567041 0.372930
1.000000 0.579156 0.406744
0.120180 0.665461 0.187900
0.120089 0.666041 0.188266
0.123049 0.666651 0.187778
0.127199 0.667811 0.187716
0.134951 0.669398 0.187564
0.148348 0.671138 0.187350
0.166476 0.673182 0.187564
0.191958 0.675257 0.187167
0.223789 0.677455 0.186893
0.261540 0.679500 0.186954
0.305547 0.681392 0.187198
0.354833 0.682887 0.187381
0.408698 0.684016 0.187869
0.460548 0.684993 0.188144
0.510552 0.686152 0.189090
0.558282 0.686763 0.189609
0.604791 0.687465 0.190768
0.650446 0.688350 0.191836
0.695216 0.689357 0.193637
0.738796 0.690120 0.195132
0.779751 0.688930 0.198154
0.825437 0.685328 0.201816
0.870512 0.677455 0.209537
0.910124 0.665705 0.221012
0.944732 0.651881 0.236240
0.975067 0.636866 0.253452
1.000000 0.621515 0.272770
1.000000 0.606714 0.293675
1.000000 0.593103 0.316075
1.000000 0.581537 0.340703
1.000000 0.588373 0.371191
1.000000 0.599054 0.406073
0.098787 0.711788 0.182712
0.101167 0.712184 0.182498
0.104524 0.712734 0.182712
0.111208 0.713710 0.182681
0.123232 0.714839 0.182620
0.140658 0.716335 0.182620
0.163790 0.717800 0.182467
0.192447 0.719600 0.182498
0.226505 0.721370 0.182834
0.266667 0.722988 0.182406
0.311589 0.724422 0.183200
0.361425 0.725643 0.183597
0.414618 0.726314 0.184268
0.465370 0.727169 0.184909
0.514092 0.727993 0.186160
0.560815 0.728450 0.187381
0.606348 0.728878 0.189059
0.650935 0.729335 0.190982
0.694545 0.729610 0.193301
0.737087 0.729763 0.195712
0.778653 0.729732 0.198428
0.816953 0.727626 0.202762
0.856352 0.722103 0.210086
0.897551 0.712978 0.220829
0.933806 0.701045 0.235325
0.965393 0.687221 0.253727
0.992859 0.672724 0.273869
1.000000 0.658106 0.295842
1.000000 0.644282 0.319463
1.000000 0.632105 0.345037
1.000000 0.622461 0.372473
1.000000 0.618372 0.404028
0.078981 0.755856 0.178775
0.082765 0.756222 0.178683
0.088838 0.756588 0.178714
0.099336 0.757351 0.179080
0.115785 0.758297 0.179141
0.138125 0.759457 0.179049
0.165072 0.760739 0.178958
0.195926 0.762051 0.179599
0.232425 0.763241 0.179812
0.273594 0.764431 0.180148
0.319371 0.765347 0.180911
0.370031 0.765927 0.181827
0.421057 0.766415 0.183566
0.470161 0.766659 0.184665
0.517235 0.767056 0.186282
0.562768 0.767178 0.188083
0.607233 0.767178 0.190707
0.650660 0.767239 0.193423
0.693172 0.767300 0.195804
0.734798 0.767117 0.199191
0.775570 0.766995 0.203189
0.815396 0.766842 0.207309
0.852171 0.764462 0.213169
0.886320 0.757473 0.223636
0.923949 0.747738 0.238346
0.956878 0.735439 0.255497
0.985412 0.721675 0.277012
1.000000 0.707515 0.300298
1.000000 0.693660 0.325475
1.000000 0.681300 0.352422
1.000000 0.671015 0.381659
1.000000 0.664149 0.414038
0.070527 0.799008 0.178531
0.077302 0.799374 0.178286
0.083436 0.799863 0.178347
0.098512 0.800351 0.178775
0.119203 0.800961 0.178805
0.144106 0.801724 0.179171
0.173129 0.802579 0.179446
0.206180 0.803067 0.180087
0.243229 0.803647 0.180575
0.284886 0.804013 0.181552
0.331273 0.804288 0.182559
0.381109 0.804105 0.184115
0.429389 0.803769 0.185916
0.475837 0.803433 0.187869
0.520714 0.803128 0.190158
0.564324 0.802701 0.193179
0.607233 0.802090 0.195804
0.649042 0.801602 0.198947
0.690059 0.801053 0.202335
0.730434 0.800504 0.206332
0.770016 0.800137 0.210544
0.808865 0.799680 0.215457
0.846952 0.799191 0.220676
0.881926 0.796536 0.227756
0.911345 0.788388 0.240970
0.945678 0.777981 0.258244
0.975677 0.765225 0.278569
1.000000 0.751583 0.301671
1.000000 0.738003 0.328405
1.000000 0.725399 0.356695
1.000000 0.714351 0.386908
1.000000 0.706325 0.420661
0.082094 0.834440 0.182193
0.087404 0.834775 0.182193
0.095247 0.835203 0.182589
0.109926 0.835508 0.182589
0.130282 0.835996 0.182864
0.156130 0.836484 0.183291
0.185306 0.837034 0.184421
0.218357 0.837308 0.184604
0.255924 0.837613 0.185702
0.297429 0.837583 0.187076
0.342992 0.837369 0.188571
0.390570 0.836881 0.190585
0.435950 0.836362 0.192874
0.480171 0.835721 0.195193
0.523278 0.835050 0.197787
0.565362 0.834379 0.200900
0.606592 0.833524 0.204196
0.646876 0.832792 0.207889
0.686610 0.832090 0.212039
0.725948 0.831418 0.216587
0.764309 0.830747 0.221805
0.801968 0.829984 0.227024
0.838773 0.829221 0.233005
0.874907 0.828275 0.238560
0.906737 0.824094 0.244694
0.932403 0.815396 0.259678
0.964233 0.804654 0.280217
0.991821 0.792050 0.303258
1.000000 0.778714 0.328588
1.000000 0.766049 0.358526
1.000000 0.754635 0.390661
1.000000 0.745815 0.426154
0.105684 0.866636 0.190555
0.111391 0.866941 0.190341
0.118166 0.867247 0.190860
0.131319 0.867613 0.191379
0.150484 0.868132 0.191989
0.174411 0.868284 0.192508
0.202731 0.868406 0.193057
0.235203 0.868498 0.193790
0.271672 0.868437 0.195346
0.312383 0.868070 0.196750
0.356695 0.867460 0.198520
0.400488 0.866697 0.200870
0.443427 0.865904 0.203250
0.484993 0.864988 0.205600
0.525719 0.864103 0.208988
0.566186 0.863157 0.212253
0.605615 0.862242 0.216068
0.644526 0.861265 0.220127
0.682795 0.860288 0.224826
0.720516 0.859190 0.229831
0.757412 0.858091 0.234806
0.793851 0.856992 0.240421
0.829404 0.855833 0.246525
0.864347 0.854582 0.253086
0.898558 0.853422 0.259525
0.931273 0.851438 0.267582
0.954650 0.842313 0.284489
0.982452 0.831052 0.307317
1.000000 0.818235 0.333349
1.000000 0.805325 0.361822
1.000000 0.793606 0.395209
1.000000 0.784024 0.432410
0.135714 0.895232 0.202914
0.140291 0.895506 0.203128
0.146487 0.895781 0.202976
0.158206 0.896147 0.203525
0.175296 0.896483 0.204471
0.197757 0.896513 0.204837
0.224582 0.896574 0.206149
0.255589 0.896513 0.207034
0.290898 0.896361 0.208652
0.330205 0.895720 0.210300
0.371374 0.895018 0.212833
0.411963 0.894285 0.215091
0.452064 0.893431 0.218051
0.491279 0.892485 0.220829
0.530175 0.891508 0.224369
0.568475 0.890471 0.228031
0.606287 0.889342 0.232334
0.643580 0.888243 0.236301
0.680354 0.887083 0.241611
0.716487 0.885893 0.246983
0.752224 0.884550 0.252354
0.787411 0.883268 0.258061
0.821927 0.882048 0.264866
0.855894 0.880766 0.271336
0.889097 0.879423 0.278447
0.921691 0.878080 0.286076
0.953338 0.876555 0.294102
0.974609 0.866789 0.312749
0.998657 0.855589 0.337835
1.000000 0.843198 0.368048
1.000000 0.831113 0.401190
1.000000 0.820584 0.438575
0.169253 0.921538 0.219333
0.173159 0.921721 0.219638
0.178439 0.921904 0.220005
0.189059 0.922118 0.220157
0.204532 0.922362 0.221225
0.224949 0.922301 0.221958
0.249454 0.922240 0.222873
0.278691 0.921996 0.224552
0.312505 0.921691 0.226291
0.349432 0.920958 0.228000
0.386999 0.920165 0.230594
0.424201 0.919310 0.233036
0.461341 0.918395 0.235813
0.498329 0.917388 0.239567
0.534813 0.916289 0.242893
0.571252 0.915160 0.246860
0.607202 0.913970 0.251133
0.642939 0.912749 0.255863
0.678157 0.911467 0.261112
0.713039 0.910155 0.266423
0.747402 0.908873 0.272343
0.781430 0.907561 0.278721
0.814755 0.906157 0.285771
0.847471 0.904692 0.292668
0.879515 0.903166 0.299962
0.911040 0.901610 0.307500
0.941802 0.900114 0.315618
0.972045 0.898711 0.324681
0.992248 0.889494 0.344793
1.000000 0.878721 0.373449
1.000000 0.866636 0.407599
1.000000 0.855589 0.445747
0.205447 0.945434 0.239872
0.208682 0.945617 0.240330
0.213870 0.945739 0.240238
0.222538 0.945892 0.240970
0.237003 0.946044 0.241917
0.255558 0.946044 0.243198
0.278782 0.945983 0.244388
0.306584 0.945769 0.246311
0.338506 0.945373 0.248112
0.371801 0.944854 0.250553
0.405768 0.944244 0.253483
0.440101 0.943542 0.256687
0.474586 0.942809 0.260105
0.509056 0.941802 0.263462
0.543359 0.940734 0.267643
0.577691 0.939605 0.271733
0.611841 0.938445 0.276493
0.646021 0.937316 0.281926
0.679744 0.936065 0.287602
0.713130 0.934752 0.293553
0.746059 0.933349 0.299504
0.778622 0.931945 0.306462
0.810666 0.930480 0.313634
0.842069 0.928923 0.320775
0.872984 0.927306 0.328679
0.903471 0.925841 0.337407
0.933257 0.924376 0.346105
0.962402 0.922789 0.355688
0.990631 0.921233 0.365240
1.000000 0.912718 0.387762
1.000000 0.902800 0.420630
1.000000 0.891722 0.462318
0.248447 0.968963 0.267033
0.251041 0.968933 0.267155
0.254643 0.968841 0.267399
0.262425 0.968780 0.267674
0.274907 0.968658 0.268742
0.291325 0.968353 0.269505
0.312413 0.967956 0.270634
0.337469 0.967407 0.272160
0.365209 0.966796 0.274327
0.394263 0.966094 0.276493
0.424445 0.965301 0.279179
0.455421 0.964477 0.281834
0.487068 0.963561 0.285374
0.519005 0.962585 0.289158
0.551232 0.961486 0.293523
