cubelut/Reds_Oranges_Yellows.cube
# Created by Adobe Lightroom plugin Export LUT (1.18.0)
# www.johnrellis.com/lightroom/exportlut.htm
# Preset: Reds/Oranges/Yellows
# Color profile: /Library/Application Support/Adobe/Color/Profiles/Recommended/AdobeRGB1998.icc
LUT_3D_SIZE 8
DOMAIN_MIN 0.000000 0.000000 0.000000
DOMAIN_MAX 0.903226 0.903226 0.903226
0.207431 0.204410 0.203098
0.207431 0.204410 0.203098
0.225559 0.202426 0.203159
0.383612 0.176272 0.206058
0.681636 0.000000 0.209445
0.918914 0.000000 0.216403
1.000000 0.000000 0.245396
1.000000 0.148287 0.309972
0.207431 0.204410 0.203098
0.207431 0.204410 0.203098
0.226963 0.202487 0.203311
0.384863 0.176516 0.206180
0.680262 0.000000 0.209506
0.915892 0.000000 0.216464
1.000000 0.000000 0.245212
1.000000 0.196109 0.310582
0.206210 0.229068 0.203555
0.205905 0.231357 0.203647
0.229679 0.239109 0.203586
0.383459 0.211948 0.207645
0.659876 0.162509 0.210575
0.899626 0.088319 0.215274
1.000000 0.179812 0.246250
1.000000 0.306920 0.316381
0.199741 0.371801 0.207218
0.199435 0.372595 0.207401
0.224979 0.384314 0.208011
0.383185 0.399939 0.212100
0.621332 0.374945 0.209812
0.863279 0.371557 0.212131
1.000000 0.383917 0.246036
1.000000 0.422644 0.320928
0.156588 0.574273 0.198245
0.161593 0.574090 0.198520
0.221622 0.580255 0.197971
0.395514 0.590509 0.197757
0.600000 0.598810 0.198550
0.805234 0.594934 0.198795
0.965270 0.538262 0.238315
1.000000 0.528527 0.318242
0.078981 0.755856 0.178775
0.115785 0.758297 0.179141
0.232425 0.763241 0.179812
0.421057 0.766415 0.183566
0.607233 0.767178 0.190707
0.775570 0.766995 0.203189
0.923949 0.747738 0.238346
1.000000 0.693660 0.325475
0.135714 0.895232 0.202914
0.175296 0.896483 0.204471
0.290898 0.896361 0.208652
0.452064 0.893431 0.218051
0.606287 0.889342 0.232334
0.752224 0.884550 0.252354
0.889097 0.879423 0.278447
0.998657 0.855589 0.337835
0.287877 0.988098 0.294804
0.311711 0.987671 0.296239
0.392004 0.985779 0.302647
0.501854 0.982605 0.314458
0.621118 0.977783 0.331762
0.742397 0.972412 0.357214
0.859159 0.966278 0.390112
0.967559 0.959960 0.431586
0.207431 0.204410 0.203098
0.207431 0.204410 0.203098
0.225895 0.202365 0.203159
0.379309 0.177523 0.205905
0.670588 0.000000 0.209201
0.911467 0.000000 0.216434
1.000000 0.000000 0.243839
1.000000 0.157931 0.309606
0.207431 0.204410 0.203098
0.207431 0.204410 0.203098
0.227939 0.202304 0.203525
0.381720 0.177340 0.205783
0.671351 0.000000 0.209842
0.909575 0.000000 0.215732
1.000000 0.000000 0.244907
1.000000 0.204135 0.311772
0.206394 0.227115 0.203006
0.206210 0.229953 0.203372
0.234012 0.237491 0.203922
0.385657 0.216281 0.207767
0.658198 0.178256 0.210758
0.896025 0.128542 0.215335
1.000000 0.194614 0.246128
1.000000 0.308202 0.317174
0.199741 0.370153 0.207279
0.199710 0.373205 0.207004
0.234592 0.384802 0.208530
0.387274 0.396979 0.212497
0.616876 0.374426 0.210208
0.856748 0.372320 0.212528
1.000000 0.385077 0.248569
1.000000 0.423957 0.325048
0.159426 0.570581 0.199466
0.167758 0.572625 0.199344
0.233677 0.579217 0.199527
0.402502 0.586389 0.200168
0.597253 0.592615 0.202670
0.801938 0.591150 0.203738
0.962982 0.536370 0.244450
1.000000 0.529839 0.325566
0.088228 0.754482 0.185916
0.125429 0.756283 0.186496
0.241703 0.760159 0.187778
0.426337 0.762936 0.191928
0.608392 0.764126 0.200565
0.775021 0.764645 0.213840
0.923156 0.745907 0.249607
1.000000 0.692500 0.335119
0.142641 0.894957 0.216648
0.182406 0.895811 0.218204
0.297642 0.895750 0.222721
0.456550 0.893065 0.232181
0.609064 0.889220 0.246677
0.754025 0.884703 0.267002
0.890318 0.879850 0.293492
0.999298 0.855833 0.352636
0.291020 0.987274 0.308293
0.315221 0.986938 0.310155
0.395056 0.985260 0.316625
0.504082 0.982147 0.328344
0.623316 0.977691 0.346349
0.743771 0.972229 0.371252
0.859739 0.966003 0.403510
0.967590 0.959747 0.444862
0.201450 0.204349 0.231266
0.201572 0.204349 0.230625
0.233249 0.199710 0.231968
0.394629 0.158297 0.224216
0.679652 0.000000 0.220401
0.917418 0.000000 0.253696
1.000000 0.000000 0.296666
1.000000 0.252842 0.370062
0.201724 0.204349 0.230014
0.201450 0.204349 0.231266
0.235782 0.199161 0.232456
0.395514 0.160525 0.227909
0.681727 0.000000 0.229435
0.915068 0.000000 0.256413
1.000000 0.000000 0.297765
1.000000 0.279240 0.371466
0.199130 0.228428 0.235325
0.198856 0.231754 0.235508
0.242496 0.237827 0.236667
0.403571 0.231357 0.240269
0.673243 0.195254 0.243748
0.900114 0.178866 0.258335
1.000000 0.252262 0.301976
1.000000 0.357702 0.378515
0.192966 0.371496 0.236088
0.196078 0.374456 0.238865
0.244968 0.386267 0.241062
0.402441 0.397436 0.244450
0.629541 0.373541 0.244388
0.863127 0.387396 0.260410
1.000000 0.408667 0.307866
1.000000 0.456641 0.388495
0.151156 0.570245 0.244297
0.163424 0.572869 0.245182
0.239475 0.580652 0.241306
0.419043 0.586694 0.244663
0.606073 0.593133 0.251225
0.809171 0.589899 0.259342
0.964965 0.535790 0.303349
1.000000 0.550500 0.388067
0.071443 0.754910 0.251835
0.119020 0.757412 0.251804
0.250675 0.761624 0.249454
0.439673 0.763302 0.255741
0.615534 0.764065 0.265782
0.779080 0.764340 0.280430
0.925933 0.744533 0.315129
1.000000 0.694484 0.396796
0.145998 0.895262 0.289036
0.189151 0.896025 0.290379
0.311498 0.895506 0.294591
0.465095 0.892821 0.302922
0.614405 0.889006 0.316045
0.757321 0.884520 0.334722
0.891997 0.879759 0.359380
0.999115 0.855314 0.416083
0.306249 0.986664 0.371771
0.332799 0.986145 0.375341
0.408850 0.984314 0.381415
0.515068 0.981567 0.393591
0.631006 0.977020 0.410071
0.749111 0.971618 0.433906
0.862791 0.965515 0.465034
0.967651 0.959472 0.504356
0.147066 0.203738 0.373175
0.147066 0.203738 0.373175
0.198795 0.197940 0.373266
0.384680 0.152926 0.378363
0.598810 0.000000 0.392370
0.866300 0.000000 0.420630
1.000000 0.000000 0.429572
1.000000 0.382086 0.524315
0.147463 0.203738 0.372534
0.147585 0.203586 0.374243
0.208682 0.196628 0.374578
0.387304 0.156710 0.378973
0.600580 0.000000 0.395483
0.868559 0.000000 0.422187
1.000000 0.000000 0.435981
1.000000 0.455451 0.556847
0.143252 0.225834 0.377661
0.151186 0.229465 0.377783
0.227481 0.235752 0.378790
0.396429 0.222599 0.383917
0.618372 0.177127 0.401251
0.883085 0.148348 0.425757
1.000000 0.390448 0.498909
1.000000 0.548211 0.594903
0.134432 0.377630 0.386908
0.152468 0.380377 0.386664
0.228519 0.391211 0.390143
0.410254 0.397314 0.394263
0.662745 0.415656 0.415534
0.879973 0.450416 0.452399
1.000000 0.511345 0.511345
1.000000 0.595178 0.592401
0.063966 0.575006 0.400275
0.105684 0.576684 0.400885
0.224277 0.584100 0.401495
0.415839 0.591760 0.397345
0.613123 0.596124 0.403418
0.821347 0.580346 0.419715
0.969482 0.583795 0.477180
1.000000 0.638666 0.569024
0.000000 0.756527 0.414221
0.016480 0.758755 0.415137
0.239506 0.763272 0.414191
0.431281 0.766415 0.408698
0.615320 0.766293 0.417151
0.781704 0.765621 0.428443
0.929320 0.742794 0.459358
1.000000 0.710292 0.540124
0.123140 0.894804 0.433875
0.179843 0.895659 0.435157
0.315557 0.895232 0.437476
0.469520 0.892607 0.443854
0.618250 0.888518 0.453223
0.759762 0.883787 0.467414
0.891630 0.879057 0.486732
0.995544 0.856077 0.538872
0.313787 0.985657 0.477119
0.343023 0.985046 0.480476
0.429175 0.982452 0.492836
0.539055 0.978363 0.511070
0.648066 0.973907 0.524285
0.759945 0.968811 0.543420
0.867430 0.963317 0.567803
0.966339 0.958251 0.597894
0.000000 0.202396 0.554009
0.000000 0.201572 0.553552
0.132509 0.190188 0.553063
0.379126 0.131167 0.555749
0.580377 0.000000 0.561791
0.761929 0.000000 0.572259
0.949706 0.000000 0.589471
1.000000 0.284977 0.610803
0.000000 0.201785 0.550805
0.000000 0.200168 0.552056
0.158083 0.187686 0.552239
0.384863 0.138216 0.554711
0.580774 0.000000 0.561456
0.762509 0.000000 0.572625
0.951965 0.000000 0.591760
1.000000 0.344060 0.620417
0.000000 0.229770 0.555200
0.000000 0.231693 0.555322
0.193515 0.230137 0.555505
0.398444 0.209537 0.559503
0.587366 0.175296 0.566033
0.767147 0.155093 0.574853
0.962493 0.277317 0.607263
1.000000 0.520226 0.670069
0.000000 0.381384 0.561700
0.000000 0.383948 0.561791
0.184512 0.388556 0.566033
0.402319 0.385443 0.574304
0.603693 0.388861 0.581262
0.802884 0.415869 0.599817
0.973053 0.559472 0.667933
1.000000 0.718502 0.760403
0.000000 0.579065 0.575799
0.000000 0.580957 0.576532
0.200473 0.586481 0.580102
0.413336 0.591302 0.585382
0.609522 0.590570 0.586023
0.837675 0.649287 0.644709
0.963592 0.716579 0.711788
1.000000 0.775296 0.770230
0.000000 0.760769 0.588098
0.000000 0.762539 0.588830
0.236362 0.765591 0.589288
0.430701 0.767880 0.587915
0.615045 0.766690 0.589776
0.782681 0.765835 0.597864
0.928801 0.752651 0.640070
1.000000 0.778042 0.717525
0.107546 0.895628 0.586206
0.181552 0.896086 0.587030
0.324193 0.895232 0.588403
0.479469 0.892058 0.593439
0.635065 0.886564 0.608850
0.768032 0.882506 0.618250
0.891600 0.879057 0.631769
0.991028 0.861936 0.675166
0.332250 0.984619 0.598016
0.360143 0.983948 0.600061
0.444617 0.981262 0.609033
0.560296 0.975952 0.627405
0.677607 0.970031 0.651392
0.777768 0.965850 0.664424
0.874815 0.961425 0.679805
0.965332 0.957671 0.699306
0.000000 0.196384 0.733425
0.000000 0.192569 0.734310
0.000000 0.171115 0.734401
0.387396 0.082124 0.735531
0.587915 0.000000 0.737972
0.762600 0.000000 0.741817
0.901976 0.000000 0.725460
1.000000 0.105653 0.707698
0.000000 0.193881 0.730343
0.000000 0.189944 0.731838
0.098482 0.169467 0.732113
0.393439 0.102510 0.733089
0.587518 0.000000 0.736019
0.762051 0.000000 0.740841
0.901244 0.000000 0.724514
1.000000 0.192599 0.709957
0.000000 0.231266 0.735134
0.000000 0.230228 0.734859
0.167605 0.221653 0.734676
0.402960 0.194644 0.733333
0.589380 0.160220 0.737179
0.764889 0.141970 0.743160
0.901762 0.210300 0.725765
1.000000 0.371496 0.724819
0.000000 0.387488 0.736477
0.000000 0.386450 0.735866
0.142977 0.381262 0.739162
0.399023 0.378637 0.743832
0.594385 0.381323 0.747646
0.773068 0.386877 0.751400
0.901884 0.424506 0.730404
1.000000 0.589776 0.767971
0.000000 0.578729 0.742428
0.000000 0.579278 0.743069
0.186465 0.578668 0.745602
0.404669 0.576257 0.749142
0.596582 0.576349 0.751461
0.775265 0.584497 0.753658
0.909941 0.641749 0.759884
1.000000 0.783627 0.836332
0.000000 0.754482 0.748836
0.000000 0.755978 0.750301
0.238010 0.757656 0.752255
0.431983 0.759426 0.754543
0.615900 0.760464 0.755886
0.777371 0.760128 0.755306
0.933837 0.829404 0.824887
1.000000 0.877012 0.873106
0.117220 0.893980 0.737270
0.192660 0.894438 0.738064
0.332006 0.893248 0.738308
0.486854 0.889555 0.739406
0.642603 0.883635 0.745113
0.779355 0.878019 0.757229
0.889128 0.876951 0.763180
0.985077 0.875883 0.806149
0.353765 0.982391 0.723659
0.380285 0.981689 0.724849
0.461524 0.978851 0.729946
0.572076 0.973999 0.739895
0.690944 0.967437 0.756497
0.796719 0.961944 0.775570
0.882353 0.959167 0.783780
0.963928 0.956939 0.794430
0.000000 0.179538 0.869627
0.000000 0.173007 0.869993
0.112703 0.138888 0.869841
0.389746 0.003723 0.870298
0.571710 0.000000 0.870787
0.734585 0.000000 0.871702
0.888792 0.000000 0.872984
0.992554 0.087495 0.839048
0.000000 0.177554 0.868254
0.000000 0.171176 0.868894
0.145785 0.143771 0.869108
0.394812 0.079103 0.869535
0.572320 0.000000 0.870085
0.734524 0.000000 0.871397
0.888426 0.000000 0.872679
0.991638 0.170687 0.838712
0.000000 0.225803 0.870878
0.000000 0.223362 0.870817
0.189120 0.211704 0.870298
0.400427 0.192447 0.869902
0.573083 0.176333 0.870298
0.734951 0.186374 0.871702
0.889250 0.221195 0.873655
0.989960 0.321843 0.839902
0.000000 0.378729 0.871092
0.000000 0.376501 0.870665
0.177584 0.374273 0.871305
0.400702 0.378851 0.872343
0.576440 0.386053 0.873228
0.738491 0.398840 0.874083
0.890410 0.420783 0.874968
0.985504 0.486213 0.843656
0.000000 0.559777 0.871519
0.000000 0.559442 0.871580
0.226993 0.558740 0.872068
0.417456 0.560449 0.872679
0.589807 0.569390 0.872679
0.746090 0.582818 0.872648
0.888029 0.601923 0.872801
0.976593 0.644465 0.850156
0.000000 0.722591 0.871122
0.101686 0.723201 0.871702
0.289403 0.724086 0.872190
0.456123 0.727169 0.872465
0.623163 0.736965 0.871855
0.768338 0.751766 0.871183
0.887114 0.760861 0.872190
0.975128 0.804959 0.878233
0.199954 0.874571 0.872160
0.248875 0.875120 0.872740
0.365026 0.875181 0.872892
0.507103 0.874754 0.872465
0.653651 0.874205 0.871885
0.782193 0.874418 0.871641
0.885618 0.874327 0.870970
0.986389 0.934661 0.932341
0.382422 0.979675 0.851713
0.407324 0.978912 0.852079
0.481758 0.975982 0.852781
0.585901 0.971344 0.855039
0.698573 0.965332 0.859678
0.801358 0.960113 0.866423
0.888945 0.956451 0.874998
0.961883 0.955901 0.879667
0.000000 0.149416 0.967590
0.000000 0.141482 0.967712
0.200748 0.113436 0.967498
0.391211 0.007996 0.967346
0.548638 0.000000 0.966827
0.696559 0.000000 0.966278
0.838224 0.000000 0.965301
0.972076 0.157961 0.964111
0.000000 0.154818 0.966796
0.000000 0.149508 0.967071
0.208255 0.131075 0.966888
0.391974 0.084688 0.966644
0.548547 0.000000 0.966308
0.696773 0.000000 0.965972
0.838407 0.103395 0.965057
0.971679 0.211521 0.963684
0.000000 0.218845 0.967773
0.000000 0.217044 0.967498
0.215061 0.211002 0.966857
0.393133 0.205661 0.966400
0.549950 0.211460 0.965850
0.698543 0.240330 0.965118
0.839719 0.284520 0.964477
0.971038 0.340002 0.963226
0.000000 0.371008 0.966155
0.000000 0.371283 0.965789
0.230716 0.375219 0.965637
0.405463 0.383948 0.965637
0.560204 0.397162 0.965148
0.705898 0.417334 0.964324
0.843229 0.447730 0.963104
0.969085 0.490394 0.961395
0.000000 0.540703 0.964446
0.134066 0.541436 0.964294
0.289586 0.544579 0.963806
0.442847 0.554192 0.962982
0.587030 0.567376 0.962097
0.723568 0.585565 0.960723
0.850797 0.610254 0.959228
0.965301 0.641596 0.957824
0.216709 0.692866 0.961730
0.258213 0.694179 0.961822
0.362860 0.697841 0.961364
0.496803 0.707240 0.960174
0.639216 0.726436 0.957977
0.760189 0.744503 0.956420
0.865385 0.758022 0.955718
0.962310 0.773373 0.955169
0.342321 0.833280 0.959258
0.369879 0.834226 0.959258
0.448859 0.836606 0.958679
0.556909 0.841123 0.957366
0.676326 0.849119 0.955505
0.785794 0.859068 0.953826
0.878904 0.868620 0.952544
0.959716 0.875608 0.953002
0.456580 0.955474 0.956298
0.474830 0.955322 0.956176
0.532921 0.955016 0.955779
0.620752 0.954528 0.955169
0.716396 0.954131 0.954528
0.808408 0.954101 0.954040
0.890959 0.954498 0.953857
0.959869 0.955169 0.953857
