cubelut/Reds_Oranges_Yellows.cube
# Created by Adobe Lightroom plugin Export LUT (1.18.0)
# www.johnrellis.com/lightroom/exportlut.htm
# Preset: Reds/Oranges/Yellows
# Color profile: /Library/Application Support/Adobe/Color/Profiles/Recommended/AdobeRGB1998.icc
LUT_3D_SIZE 5
DOMAIN_MIN 0.000000 0.000000 0.000000
DOMAIN_MAX 0.903226 0.903226 0.903226
0.207431 0.204410 0.203098
0.211490 0.203830 0.203342
0.528283 0.120699 0.207584
0.957244 0.000000 0.221103
1.000000 0.148287 0.309972
0.207065 0.210941 0.202976
0.212741 0.216159 0.203525
0.518761 0.163577 0.207950
0.944610 0.000000 0.220493
1.000000 0.278599 0.315221
0.185092 0.475654 0.206241
0.204807 0.480659 0.205631
0.493294 0.499458 0.207034
0.877226 0.450660 0.212345
1.000000 0.477089 0.320806
0.070527 0.799008 0.178531
0.206180 0.803067 0.180087
0.520714 0.803128 0.190158
0.808865 0.799680 0.215457
1.000000 0.738003 0.328405
0.287877 0.988098 0.294804
0.367926 0.986389 0.300420
0.560510 0.980102 0.322148
0.772335 0.970977 0.364874
0.967559 0.959960 0.431586
0.205722 0.204379 0.211673
0.214603 0.203067 0.212039
0.533928 0.087282 0.209720
0.954894 0.000000 0.241093
1.000000 0.221897 0.344976
0.204990 0.210605 0.213657
0.219913 0.215946 0.214694
0.534020 0.186374 0.224704
0.943603 0.092988 0.243320
1.000000 0.315160 0.351568
0.181491 0.474617 0.223819
0.219333 0.482063 0.223941
0.503227 0.496193 0.229129
0.877165 0.456336 0.244602
1.000000 0.494301 0.365454
0.072999 0.797360 0.231418
0.221225 0.800687 0.231144
0.530358 0.800015 0.243473
0.810697 0.797208 0.270359
1.000000 0.736965 0.377539
0.302464 0.986603 0.350225
0.380346 0.985077 0.355810
0.567926 0.979217 0.376745
0.775662 0.969940 0.417121
0.967315 0.959167 0.481666
0.023896 0.203159 0.464668
0.128420 0.198672 0.463874
0.484108 0.081331 0.470314
0.861479 0.000000 0.511345
1.000000 0.331701 0.562097
0.034455 0.212680 0.468971
0.168612 0.213016 0.467567
0.491859 0.169162 0.474830
0.876341 0.000000 0.519280
1.000000 0.521691 0.628687
0.000000 0.480232 0.481636
0.168002 0.487343 0.483436
0.511254 0.494545 0.490242
0.898558 0.575525 0.572869
1.000000 0.701503 0.696681
0.000000 0.800870 0.506432
0.205051 0.803433 0.506340
0.528618 0.803464 0.503380
0.814603 0.798947 0.521111
1.000000 0.762295 0.620447
0.322332 0.985229 0.536492
0.410925 0.982818 0.546166
0.610193 0.974517 0.582788
0.794827 0.966430 0.609277
0.966003 0.958129 0.649409
0.000000 0.193240 0.770932
0.000000 0.174594 0.771267
0.490669 0.000000 0.773098
0.798642 0.000000 0.778592
0.998810 0.000000 0.734981
0.000000 0.208774 0.771633
0.000000 0.201572 0.771206
0.497780 0.134127 0.773190
0.801114 0.000000 0.780636
0.997101 0.276432 0.738125
0.000000 0.483680 0.776303
0.023133 0.480659 0.777676
0.495583 0.474678 0.783139
0.807706 0.489174 0.787320
1.000000 0.650874 0.799985
0.000000 0.791562 0.786679
0.217258 0.792691 0.788113
0.536767 0.793668 0.789517
0.809537 0.793698 0.789090
0.996948 0.894591 0.891112
0.360479 0.981811 0.755642
0.443061 0.979156 0.759426
0.635218 0.970367 0.775051
0.822202 0.960388 0.802701
0.963439 0.956664 0.816556
0.000000 0.149416 0.967590
0.131380 0.122469 0.967559
0.471687 0.000000 0.967132
0.732570 0.000000 0.966033
0.972076 0.157961 0.964111
0.000000 0.195926 0.967559
0.158450 0.186099 0.967010
0.471931 0.163333 0.965881
0.733730 0.202029 0.965148
0.971466 0.305638 0.963561
0.000000 0.459419 0.965637
0.211276 0.460517 0.964721
0.494850 0.474281 0.964111
0.746670 0.506615 0.962463
0.967559 0.567742 0.959960
0.253788 0.730159 0.961608
0.357031 0.733455 0.961212
0.579736 0.749538 0.958526
0.794278 0.779782 0.955077
0.961364 0.800626 0.954253
0.456580 0.955474 0.956298
0.514855 0.955077 0.955901
0.668421 0.954314 0.954803
0.830045 0.954162 0.953948
0.959869 0.955169 0.953857
