cubelut/Xiaomi_Monochrome_LUT.cube
TITLE "Photo Curves LUT"
LUT_3D_SIZE 33
0.12941176470588237 0.12941176470588237 0.12941176470588237
0.12941176470588237 0.12941176470588237 0.12941176470588237
0.12941176470588237 0.12941176470588237 0.12941176470588237
0.12941176470588237 0.12941176470588237 0.12941176470588237
0.12941176470588237 0.12941176470588237 0.12941176470588237
0.12941176470588237 0.12941176470588237 0.12941176470588237
0.13333333333333333 0.13333333333333333 0.13333333333333333
0.13725490196078433 0.13725490196078433 0.13725490196078433
0.13725490196078433 0.13725490196078433 0.13725490196078433
0.1450980392156863 0.1450980392156863 0.1450980392156863
0.1450980392156863 0.1450980392156863 0.1450980392156863
0.15294117647058825 0.15294117647058825 0.15294117647058825
0.1607843137254902 0.1607843137254902 0.1607843137254902
0.17254901960784313 0.17254901960784313 0.17254901960784313
0.1843137254901961 0.1843137254901961 0.1843137254901961
0.19607843137254902 0.19607843137254902 0.19607843137254902
0.21176470588235294 0.21176470588235294 0.21176470588235294
0.2235294117647059 0.2235294117647059 0.2235294117647059
0.23921568627450981 0.23921568627450981 0.23921568627450981
0.25098039215686274 0.25098039215686274 0.25098039215686274
0.25882352941176473 0.25882352941176473 0.25882352941176473
0.26666666666666666 0.26666666666666666 0.26666666666666666
0.27058823529411763 0.27058823529411763 0.27058823529411763
0.2784313725490196 0.2784313725490196 0.2784313725490196
0.28627450980392155 0.28627450980392155 0.28627450980392155
0.2901960784313726 0.2901960784313726 0.2901960784313726
0.29411764705882354 0.29411764705882354 0.29411764705882354
0.30196078431372547 0.30196078431372547 0.30196078431372547
0.3254901960784314 0.3254901960784314 0.3254901960784314
0.34509803921568627 0.34509803921568627 0.34509803921568627
0.37254901960784315 0.37254901960784315 0.37254901960784315
0.3843137254901961 0.3843137254901961 0.3843137254901961
0.4 0.4 0.4
0.13333333333333333 0.13333333333333333 0.13333333333333333
0.13333333333333333 0.13333333333333333 0.13333333333333333
0.12941176470588237 0.12941176470588237 0.12941176470588237
0.12941176470588237 0.12941176470588237 0.12941176470588237
0.12941176470588237 0.12941176470588237 0.12941176470588237
0.12941176470588237 0.12941176470588237 0.12941176470588237
0.13333333333333333 0.13333333333333333 0.13333333333333333
0.13725490196078433 0.13725490196078433 0.13725490196078433
0.1411764705882353 0.1411764705882353 0.1411764705882353
0.1450980392156863 0.1450980392156863 0.1450980392156863
0.14901960784313725 0.14901960784313725 0.14901960784313725
0.15294117647058825 0.15294117647058825 0.15294117647058825
0.1607843137254902 0.1607843137254902 0.1607843137254902
0.17254901960784313 0.17254901960784313 0.17254901960784313
0.1843137254901961 0.1843137254901961 0.1843137254901961
0.19607843137254902 0.19607843137254902 0.19607843137254902
0.21176470588235294 0.21176470588235294 0.21176470588235294
0.2235294117647059 0.2235294117647059 0.2235294117647059
0.23921568627450981 0.23921568627450981 0.23921568627450981
0.25098039215686274 0.25098039215686274 0.25098039215686274
0.25882352941176473 0.25882352941176473 0.25882352941176473
0.26666666666666666 0.26666666666666666 0.26666666666666666
0.27058823529411763 0.27058823529411763 0.27058823529411763
0.2784313725490196 0.2784313725490196 0.2784313725490196
0.28627450980392155 0.28627450980392155 0.28627450980392155
0.2901960784313726 0.2901960784313726 0.2901960784313726
0.29411764705882354 0.29411764705882354 0.29411764705882354
0.30196078431372547 0.30196078431372547 0.30196078431372547
0.3176470588235294 0.3176470588235294 0.3176470588235294
0.35294117647058826 0.35294117647058826 0.35294117647058826
0.3686274509803922 0.3686274509803922 0.3686274509803922
0.3843137254901961 0.3843137254901961 0.3843137254901961
0.396078431372549 0.396078431372549 0.396078431372549
0.13725490196078433 0.13725490196078433 0.13725490196078433
0.13725490196078433 0.13725490196078433 0.13725490196078433
0.13333333333333333 0.13333333333333333 0.13333333333333333
0.13333333333333333 0.13333333333333333 0.13333333333333333
0.13333333333333333 0.13333333333333333 0.13333333333333333
0.13333333333333333 0.13333333333333333 0.13333333333333333
0.13725490196078433 0.13725490196078433 0.13725490196078433
0.1411764705882353 0.1411764705882353 0.1411764705882353
0.1411764705882353 0.1411764705882353 0.1411764705882353
0.1450980392156863 0.1450980392156863 0.1450980392156863
0.1450980392156863 0.1450980392156863 0.1450980392156863
0.15294117647058825 0.15294117647058825 0.15294117647058825
0.1607843137254902 0.1607843137254902 0.1607843137254902
0.17254901960784313 0.17254901960784313 0.17254901960784313
0.1843137254901961 0.1843137254901961 0.1843137254901961
0.19607843137254902 0.19607843137254902 0.19607843137254902
0.21176470588235294 0.21176470588235294 0.21176470588235294
0.2235294117647059 0.2235294117647059 0.2235294117647059
0.23921568627450981 0.23921568627450981 0.23921568627450981
0.25098039215686274 0.25098039215686274 0.25098039215686274
0.25882352941176473 0.25882352941176473 0.25882352941176473
0.26666666666666666 0.26666666666666666 0.26666666666666666
0.27058823529411763 0.27058823529411763 0.27058823529411763
0.2784313725490196 0.2784313725490196 0.2784313725490196
0.28627450980392155 0.28627450980392155 0.28627450980392155
0.2901960784313726 0.2901960784313726 0.2901960784313726
0.29411764705882354 0.29411764705882354 0.29411764705882354
0.30196078431372547 0.30196078431372547 0.30196078431372547
0.3176470588235294 0.3176470588235294 0.3176470588235294
0.34509803921568627 0.34509803921568627 0.34509803921568627
0.36470588235294116 0.36470588235294116 0.36470588235294116
0.3764705882352941 0.3764705882352941 0.3764705882352941
0.396078431372549 0.396078431372549 0.396078431372549
0.1450980392156863 0.1450980392156863 0.1450980392156863
0.1450980392156863 0.1450980392156863 0.1450980392156863
0.1450980392156863 0.1450980392156863 0.1450980392156863
0.1411764705882353 0.1411764705882353 0.1411764705882353
0.13725490196078433 0.13725490196078433 0.13725490196078433
0.13725490196078433 0.13725490196078433 0.13725490196078433
0.1411764705882353 0.1411764705882353 0.1411764705882353
0.1411764705882353 0.1411764705882353 0.1411764705882353
0.1450980392156863 0.1450980392156863 0.1450980392156863
0.14901960784313725 0.14901960784313725 0.14901960784313725
0.15294117647058825 0.15294117647058825 0.15294117647058825
0.1568627450980392 0.1568627450980392 0.1568627450980392
0.1607843137254902 0.1607843137254902 0.1607843137254902
0.17254901960784313 0.17254901960784313 0.17254901960784313
0.1843137254901961 0.1843137254901961 0.1843137254901961
0.19607843137254902 0.19607843137254902 0.19607843137254902
0.21176470588235294 0.21176470588235294 0.21176470588235294
0.2235294117647059 0.2235294117647059 0.2235294117647059
0.23921568627450981 0.23921568627450981 0.23921568627450981
0.25098039215686274 0.25098039215686274 0.25098039215686274
0.25882352941176473 0.25882352941176473 0.25882352941176473
0.26666666666666666 0.26666666666666666 0.26666666666666666
0.27058823529411763 0.27058823529411763 0.27058823529411763
0.2784313725490196 0.2784313725490196 0.2784313725490196
0.28627450980392155 0.28627450980392155 0.28627450980392155
0.2901960784313726 0.2901960784313726 0.2901960784313726
0.29411764705882354 0.29411764705882354 0.29411764705882354
0.30196078431372547 0.30196078431372547 0.30196078431372547
0.32941176470588235 0.32941176470588235 0.32941176470588235
0.34901960784313724 0.34901960784313724 0.34901960784313724
0.36470588235294116 0.36470588235294116 0.36470588235294116
0.3843137254901961 0.3843137254901961 0.3843137254901961
0.39215686274509803 0.39215686274509803 0.39215686274509803
0.14901960784313725 0.14901960784313725 0.14901960784313725
0.15294117647058825 0.15294117647058825 0.15294117647058825
0.15294117647058825 0.15294117647058825 0.15294117647058825
0.15294117647058825 0.15294117647058825 0.15294117647058825
0.1450980392156863 0.1450980392156863 0.1450980392156863
0.1450980392156863 0.1450980392156863 0.1450980392156863
0.1450980392156863 0.1450980392156863 0.1450980392156863
0.1450980392156863 0.1450980392156863 0.1450980392156863
0.14901960784313725 0.14901960784313725 0.14901960784313725
0.15294117647058825 0.15294117647058825 0.15294117647058825
0.15294117647058825 0.15294117647058825 0.15294117647058825
0.1607843137254902 0.1607843137254902 0.1607843137254902
0.16862745098039217 0.16862745098039217 0.16862745098039217
0.17647058823529413 0.17647058823529413 0.17647058823529413
0.18823529411764706 0.18823529411764706 0.18823529411764706
0.20392156862745098 0.20392156862745098 0.20392156862745098
0.21176470588235294 0.21176470588235294 0.21176470588235294
0.22745098039215686 0.22745098039215686 0.22745098039215686
0.24313725490196078 0.24313725490196078 0.24313725490196078
0.2549019607843137 0.2549019607843137 0.2549019607843137
0.25882352941176473 0.25882352941176473 0.25882352941176473
0.26666666666666666 0.26666666666666666 0.26666666666666666
0.27058823529411763 0.27058823529411763 0.27058823529411763
0.2823529411764706 0.2823529411764706 0.2823529411764706
0.29411764705882354 0.29411764705882354 0.29411764705882354
0.2901960784313726 0.2901960784313726 0.2901960784313726
0.3176470588235294 0.3176470588235294 0.3176470588235294
0.33725490196078434 0.33725490196078434 0.33725490196078434
0.34509803921568627 0.34509803921568627 0.34509803921568627
0.36470588235294116 0.36470588235294116 0.36470588235294116
0.3803921568627451 0.3803921568627451 0.3803921568627451
0.396078431372549 0.396078431372549 0.396078431372549
0.40784313725490196 0.40784313725490196 0.40784313725490196
0.1568627450980392 0.1568627450980392 0.1568627450980392
0.1568627450980392 0.1568627450980392 0.1568627450980392
0.1568627450980392 0.1568627450980392 0.1568627450980392
0.1568627450980392 0.1568627450980392 0.1568627450980392
0.1607843137254902 0.1607843137254902 0.1607843137254902
0.15294117647058825 0.15294117647058825 0.15294117647058825
0.15294117647058825 0.15294117647058825 0.15294117647058825
0.1568627450980392 0.1568627450980392 0.1568627450980392
0.15294117647058825 0.15294117647058825 0.15294117647058825
0.1568627450980392 0.1568627450980392 0.1568627450980392
0.1607843137254902 0.1607843137254902 0.1607843137254902
0.16862745098039217 0.16862745098039217 0.16862745098039217
0.17647058823529413 0.17647058823529413 0.17647058823529413
0.1843137254901961 0.1843137254901961 0.1843137254901961
0.19607843137254902 0.19607843137254902 0.19607843137254902
0.21568627450980393 0.21568627450980393 0.21568627450980393
0.22745098039215686 0.22745098039215686 0.22745098039215686
0.24705882352941178 0.24705882352941178 0.24705882352941178
0.2549019607843137 0.2549019607843137 0.2549019607843137
0.26666666666666666 0.26666666666666666 0.26666666666666666
0.27058823529411763 0.27058823529411763 0.27058823529411763
0.28627450980392155 0.28627450980392155 0.28627450980392155
0.2901960784313726 0.2901960784313726 0.2901960784313726
0.2980392156862745 0.2980392156862745 0.2980392156862745
0.30980392156862746 0.30980392156862746 0.30980392156862746
0.3176470588235294 0.3176470588235294 0.3176470588235294
0.33725490196078434 0.33725490196078434 0.33725490196078434
0.35294117647058826 0.35294117647058826 0.35294117647058826
0.36470588235294116 0.36470588235294116 0.36470588235294116
0.37254901960784315 0.37254901960784315 0.37254901960784315
0.38823529411764707 0.38823529411764707 0.38823529411764707
0.40784313725490196 0.40784313725490196 0.40784313725490196
0.4196078431372549 0.4196078431372549 0.4196078431372549
0.1607843137254902 0.1607843137254902 0.1607843137254902
0.1607843137254902 0.1607843137254902 0.1607843137254902
0.1607843137254902 0.1607843137254902 0.1607843137254902
0.16470588235294117 0.16470588235294117 0.16470588235294117
0.16862745098039217 0.16862745098039217 0.16862745098039217
0.17254901960784313 0.17254901960784313 0.17254901960784313
0.1607843137254902 0.1607843137254902 0.1607843137254902
0.1607843137254902 0.1607843137254902 0.1607843137254902
0.1607843137254902 0.1607843137254902 0.1607843137254902
0.16862745098039217 0.16862745098039217 0.16862745098039217
0.17254901960784313 0.17254901960784313 0.17254901960784313
0.17647058823529413 0.17647058823529413 0.17647058823529413
0.1843137254901961 0.1843137254901961 0.1843137254901961
0.19607843137254902 0.19607843137254902 0.19607843137254902
0.20784313725490197 0.20784313725490197 0.20784313725490197
0.2235294117647059 0.2235294117647059 0.2235294117647059
0.23921568627450981 0.23921568627450981 0.23921568627450981
0.25882352941176473 0.25882352941176473 0.25882352941176473
0.27058823529411763 0.27058823529411763 0.27058823529411763
0.2823529411764706 0.2823529411764706 0.2823529411764706
0.28627450980392155 0.28627450980392155 0.28627450980392155
0.30196078431372547 0.30196078431372547 0.30196078431372547
0.30980392156862746 0.30980392156862746 0.30980392156862746
0.3176470588235294 0.3176470588235294 0.3176470588235294
0.32941176470588235 0.32941176470588235 0.32941176470588235
0.33725490196078434 0.33725490196078434 0.33725490196078434
0.34901960784313724 0.34901960784313724 0.34901960784313724
0.36470588235294116 0.36470588235294116 0.36470588235294116
0.37254901960784315 0.37254901960784315 0.37254901960784315
0.3843137254901961 0.3843137254901961 0.3843137254901961
0.403921568627451 0.403921568627451 0.403921568627451
0.4196078431372549 0.4196078431372549 0.4196078431372549
0.42745098039215684 0.42745098039215684 0.42745098039215684
0.16862745098039217 0.16862745098039217 0.16862745098039217
0.16862745098039217 0.16862745098039217 0.16862745098039217
0.17254901960784313 0.17254901960784313 0.17254901960784313
0.17254901960784313 0.17254901960784313 0.17254901960784313
0.17254901960784313 0.17254901960784313 0.17254901960784313
0.1803921568627451 0.1803921568627451 0.1803921568627451
0.1843137254901961 0.1843137254901961 0.1843137254901961
0.17254901960784313 0.17254901960784313 0.17254901960784313
0.17254901960784313 0.17254901960784313 0.17254901960784313
0.17647058823529413 0.17647058823529413 0.17647058823529413
0.1803921568627451 0.1803921568627451 0.1803921568627451
0.1843137254901961 0.1843137254901961 0.1843137254901961
0.19215686274509805 0.19215686274509805 0.19215686274509805
0.20392156862745098 0.20392156862745098 0.20392156862745098
0.2196078431372549 0.2196078431372549 0.2196078431372549
0.23529411764705882 0.23529411764705882 0.23529411764705882
0.2549019607843137 0.2549019607843137 0.2549019607843137
0.26666666666666666 0.26666666666666666 0.26666666666666666
0.28627450980392155 0.28627450980392155 0.28627450980392155
0.29411764705882354 0.29411764705882354 0.29411764705882354
0.30196078431372547 0.30196078431372547 0.30196078431372547
0.30980392156862746 0.30980392156862746 0.30980392156862746
0.3215686274509804 0.3215686274509804 0.3215686274509804
0.32941176470588235 0.32941176470588235 0.32941176470588235
0.34509803921568627 0.34509803921568627 0.34509803921568627
0.35294117647058826 0.35294117647058826 0.35294117647058826
0.36470588235294116 0.36470588235294116 0.36470588235294116
0.37254901960784315 0.37254901960784315 0.37254901960784315
0.38823529411764707 0.38823529411764707 0.38823529411764707
0.4 0.4 0.4
0.41568627450980394 0.41568627450980394 0.41568627450980394
0.42745098039215684 0.42745098039215684 0.42745098039215684
0.43529411764705883 0.43529411764705883 0.43529411764705883
0.17647058823529413 0.17647058823529413 0.17647058823529413
0.17647058823529413 0.17647058823529413 0.17647058823529413
0.1803921568627451 0.1803921568627451 0.1803921568627451
0.1803921568627451 0.1803921568627451 0.1803921568627451
0.1843137254901961 0.1843137254901961 0.1843137254901961
0.18823529411764706 0.18823529411764706 0.18823529411764706
0.19607843137254902 0.19607843137254902 0.19607843137254902
0.2 0.2 0.2
0.1843137254901961 0.1843137254901961 0.1843137254901961
0.18823529411764706 0.18823529411764706 0.18823529411764706
0.19215686274509805 0.19215686274509805 0.19215686274509805
0.2 0.2 0.2
0.20392156862745098 0.20392156862745098 0.20392156862745098
0.2196078431372549 0.2196078431372549 0.2196078431372549
0.23529411764705882 0.23529411764705882 0.23529411764705882
0.24705882352941178 0.24705882352941178 0.24705882352941178
0.2627450980392157 0.2627450980392157 0.2627450980392157
0.2784313725490196 0.2784313725490196 0.2784313725490196
0.29411764705882354 0.29411764705882354 0.29411764705882354
0.30196078431372547 0.30196078431372547 0.30196078431372547
0.3176470588235294 0.3176470588235294 0.3176470588235294
0.3254901960784314 0.3254901960784314 0.3254901960784314
0.33725490196078434 0.33725490196078434 0.33725490196078434
0.34509803921568627 0.34509803921568627 0.34509803921568627
0.34509803921568627 0.34509803921568627 0.34509803921568627
0.3686274509803922 0.3686274509803922 0.3686274509803922
0.3764705882352941 0.3764705882352941 0.3764705882352941
0.38823529411764707 0.38823529411764707 0.38823529411764707
0.4 0.4 0.4
0.41568627450980394 0.41568627450980394 0.41568627450980394
0.4196078431372549 0.4196078431372549 0.4196078431372549
0.4392156862745098 0.4392156862745098 0.4392156862745098
0.44313725490196076 0.44313725490196076 0.44313725490196076
0.1843137254901961 0.1843137254901961 0.1843137254901961
0.1843137254901961 0.1843137254901961 0.1843137254901961
0.18823529411764706 0.18823529411764706 0.18823529411764706
0.19215686274509805 0.19215686274509805 0.19215686274509805
0.19215686274509805 0.19215686274509805 0.19215686274509805
0.19607843137254902 0.19607843137254902 0.19607843137254902
0.20784313725490197 0.20784313725490197 0.20784313725490197
0.2196078431372549 0.2196078431372549 0.2196078431372549
0.2235294117647059 0.2235294117647059 0.2235294117647059
0.20392156862745098 0.20392156862745098 0.20392156862745098
0.20392156862745098 0.20392156862745098 0.20392156862745098
0.21176470588235294 0.21176470588235294 0.21176470588235294
0.2235294117647059 0.2235294117647059 0.2235294117647059
0.23529411764705882 0.23529411764705882 0.23529411764705882
0.25098039215686274 0.25098039215686274 0.25098039215686274
0.26666666666666666 0.26666666666666666 0.26666666666666666
0.2823529411764706 0.2823529411764706 0.2823529411764706
0.29411764705882354 0.29411764705882354 0.29411764705882354
0.30196078431372547 0.30196078431372547 0.30196078431372547
0.30980392156862746 0.30980392156862746 0.30980392156862746
0.3254901960784314 0.3254901960784314 0.3254901960784314
0.33725490196078434 0.33725490196078434 0.33725490196078434
0.34509803921568627 0.34509803921568627 0.34509803921568627
0.35294117647058826 0.35294117647058826 0.35294117647058826
0.36470588235294116 0.36470588235294116 0.36470588235294116
0.37254901960784315 0.37254901960784315 0.37254901960784315
0.3843137254901961 0.3843137254901961 0.3843137254901961
0.396078431372549 0.396078431372549 0.396078431372549
0.41568627450980394 0.41568627450980394 0.41568627450980394
0.4196078431372549 0.4196078431372549 0.4196078431372549
0.43529411764705883 0.43529411764705883 0.43529411764705883
0.4470588235294118 0.4470588235294118 0.4470588235294118
0.4588235294117647 0.4588235294117647 0.4588235294117647
0.19607843137254902 0.19607843137254902 0.19607843137254902
0.19607843137254902 0.19607843137254902 0.19607843137254902
0.20392156862745098 0.20392156862745098 0.20392156862745098
0.20392156862745098 0.20392156862745098 0.20392156862745098
0.20784313725490197 0.20784313725490197 0.20784313725490197
0.21176470588235294 0.21176470588235294 0.21176470588235294
0.2235294117647059 0.2235294117647059 0.2235294117647059
0.23529411764705882 0.23529411764705882 0.23529411764705882
0.2549019607843137 0.2549019607843137 0.2549019607843137
0.24705882352941178 0.24705882352941178 0.24705882352941178
0.2235294117647059 0.2235294117647059 0.2235294117647059
0.23529411764705882 0.23529411764705882 0.23529411764705882
0.24313725490196078 0.24313725490196078 0.24313725490196078
0.2549019607843137 0.2549019607843137 0.2549019607843137
0.26666666666666666 0.26666666666666666 0.26666666666666666
0.28627450980392155 0.28627450980392155 0.28627450980392155
0.30196078431372547 0.30196078431372547 0.30196078431372547
0.30980392156862746 0.30980392156862746 0.30980392156862746
0.3176470588235294 0.3176470588235294 0.3176470588235294
0.32941176470588235 0.32941176470588235 0.32941176470588235
0.3411764705882353 0.3411764705882353 0.3411764705882353
0.34901960784313724 0.34901960784313724 0.34901960784313724
0.3568627450980392 0.3568627450980392 0.3568627450980392
0.3686274509803922 0.3686274509803922 0.3686274509803922
0.37254901960784315 0.37254901960784315 0.37254901960784315
0.38823529411764707 0.38823529411764707 0.38823529411764707
0.4 0.4 0.4
0.40784313725490196 0.40784313725490196 0.40784313725490196
0.4196078431372549 0.4196078431372549 0.4196078431372549
0.43137254901960786 0.43137254901960786 0.43137254901960786
0.45098039215686275 0.45098039215686275 0.45098039215686275
0.4588235294117647 0.4588235294117647 0.4588235294117647
0.47058823529411764 0.47058823529411764 0.47058823529411764
0.21176470588235294 0.21176470588235294 0.21176470588235294
0.21176470588235294 0.21176470588235294 0.21176470588235294
0.2196078431372549 0.2196078431372549 0.2196078431372549
0.2196078431372549 0.2196078431372549 0.2196078431372549
0.2235294117647059 0.2235294117647059 0.2235294117647059
0.22745098039215686 0.22745098039215686 0.22745098039215686
0.23921568627450981 0.23921568627450981 0.23921568627450981
0.2549019607843137 0.2549019607843137 0.2549019607843137
0.2784313725490196 0.2784313725490196 0.2784313725490196
0.30196078431372547 0.30196078431372547 0.30196078431372547
0.28627450980392155 0.28627450980392155 0.28627450980392155
0.2549019607843137 0.2549019607843137 0.2549019607843137
0.26666666666666666 0.26666666666666666 0.26666666666666666
0.2784313725490196 0.2784313725490196 0.2784313725490196
0.2901960784313726 0.2901960784313726 0.2901960784313726
0.30196078431372547 0.30196078431372547 0.30196078431372547
0.3176470588235294 0.3176470588235294 0.3176470588235294
0.32941176470588235 0.32941176470588235 0.32941176470588235
0.33725490196078434 0.33725490196078434 0.33725490196078434
0.34509803921568627 0.34509803921568627 0.34509803921568627
0.35294117647058826 0.35294117647058826 0.35294117647058826
0.3607843137254902 0.3607843137254902 0.3607843137254902
0.3686274509803922 0.3686274509803922 0.3686274509803922
0.37254901960784315 0.37254901960784315 0.37254901960784315
0.38823529411764707 0.38823529411764707 0.38823529411764707
0.396078431372549 0.396078431372549 0.396078431372549
0.41568627450980394 0.41568627450980394 0.41568627450980394
0.4196078431372549 0.4196078431372549 0.4196078431372549
0.43529411764705883 0.43529411764705883 0.43529411764705883
0.44313725490196076 0.44313725490196076 0.44313725490196076
0.4588235294117647 0.4588235294117647 0.4588235294117647
0.47058823529411764 0.47058823529411764 0.47058823529411764
0.4745098039215686 0.4745098039215686 0.4745098039215686
0.2235294117647059 0.2235294117647059 0.2235294117647059
0.23137254901960785 0.23137254901960785 0.23137254901960785
0.23529411764705882 0.23529411764705882 0.23529411764705882
0.23921568627450981 0.23921568627450981 0.23921568627450981
0.24313725490196078 0.24313725490196078 0.24313725490196078
0.25098039215686274 0.25098039215686274 0.25098039215686274
0.2627450980392157 0.2627450980392157 0.2627450980392157
0.2823529411764706 0.2823529411764706 0.2823529411764706
0.3058823529411765 0.3058823529411765 0.3058823529411765
0.32941176470588235 0.32941176470588235 0.32941176470588235
0.3607843137254902 0.3607843137254902 0.3607843137254902
0.32941176470588235 0.32941176470588235 0.32941176470588235
0.2901960784313726 0.2901960784313726 0.2901960784313726
0.30196078431372547 0.30196078431372547 0.30196078431372547
0.3176470588235294 0.3176470588235294 0.3176470588235294
