cubelut/Xiaomi_AnalogCine_LUT.cube
TITLE "Photo Curves LUT"
LUT_3D_SIZE 33
0.0 0.0 0.0
0.0196078431372549 0.0 0.0
0.054901960784313725 0.00784313725490196 0.00392156862745098
0.08627450980392157 0.00392156862745098 0.00392156862745098
0.12156862745098039 0.011764705882352941 0.00784313725490196
0.15294117647058825 0.011764705882352941 0.011764705882352941
0.1843137254901961 0.01568627450980392 0.011764705882352941
0.20784313725490197 0.0196078431372549 0.01568627450980392
0.23137254901960785 0.0196078431372549 0.01568627450980392
0.25882352941176473 0.0196078431372549 0.0196078431372549
0.28627450980392155 0.023529411764705882 0.0196078431372549
0.30980392156862746 0.023529411764705882 0.0196078431372549
0.33725490196078434 0.023529411764705882 0.023529411764705882
0.3686274509803922 0.027450980392156862 0.023529411764705882
0.396078431372549 0.023529411764705882 0.023529411764705882
0.4235294117647059 0.027450980392156862 0.027450980392156862
0.4588235294117647 0.027450980392156862 0.0392156862745098
0.48627450980392156 0.027450980392156862 0.047058823529411764
0.5215686274509804 0.027450980392156862 0.054901960784313725
0.5529411764705883 0.027450980392156862 0.058823529411764705
0.5843137254901961 0.027450980392156862 0.054901960784313725
0.615686274509804 0.027450980392156862 0.050980392156862744
0.6549019607843137 0.027450980392156862 0.06666666666666667
0.6901960784313725 0.058823529411764705 0.07450980392156863
0.7215686274509804 0.09019607843137255 0.08627450980392157
0.7568627450980392 0.11764705882352941 0.10196078431372549
0.796078431372549 0.12941176470588237 0.12156862745098039
0.8352941176470589 0.14901960784313725 0.1411764705882353
0.8705882352941177 0.1607843137254902 0.1607843137254902
0.9098039215686274 0.16470588235294117 0.17254901960784313
0.9450980392156862 0.18823529411764706 0.19607843137254902
0.9921568627450981 0.20392156862745098 0.21568627450980393
1.0 0.2235294117647059 0.22745098039215686
0.0 0.0196078431372549 0.0
0.023529411764705882 0.0196078431372549 0.00392156862745098
0.050980392156862744 0.0196078431372549 0.00392156862745098
0.09019607843137255 0.0196078431372549 0.00784313725490196
0.11764705882352941 0.0196078431372549 0.00784313725490196
0.1568627450980392 0.0196078431372549 0.011764705882352941
0.17647058823529413 0.023529411764705882 0.01568627450980392
0.20392156862745098 0.03137254901960784 0.0196078431372549
0.23137254901960785 0.03137254901960784 0.0196078431372549
0.2627450980392157 0.023529411764705882 0.0196078431372549
0.28627450980392155 0.023529411764705882 0.0196078431372549
0.30980392156862746 0.023529411764705882 0.0196078431372549
0.33725490196078434 0.023529411764705882 0.023529411764705882
0.3686274509803922 0.027450980392156862 0.023529411764705882
0.396078431372549 0.023529411764705882 0.023529411764705882
0.42745098039215684 0.027450980392156862 0.023529411764705882
0.4588235294117647 0.027450980392156862 0.027450980392156862
0.49019607843137253 0.027450980392156862 0.023529411764705882
0.5215686274509804 0.027450980392156862 0.023529411764705882
0.5568627450980392 0.027450980392156862 0.03137254901960784
0.5882352941176471 0.027450980392156862 0.043137254901960784
0.6196078431372549 0.027450980392156862 0.050980392156862744
0.6549019607843137 0.06666666666666667 0.06274509803921569
0.6901960784313725 0.09411764705882353 0.07450980392156863
0.7215686274509804 0.11764705882352941 0.08627450980392157
0.7607843137254902 0.1450980392156863 0.10588235294117647
0.796078431372549 0.1568627450980392 0.12156862745098039
0.8392156862745098 0.17254901960784313 0.1411764705882353
0.8745098039215686 0.19215686274509805 0.1607843137254902
0.9176470588235294 0.2 0.1803921568627451
0.9529411764705882 0.2 0.19215686274509805
0.9921568627450981 0.21568627450980393 0.20392156862745098
1.0 0.2196078431372549 0.2196078431372549
0.00392156862745098 0.054901960784313725 0.00392156862745098
0.011764705882352941 0.054901960784313725 0.00784313725490196
0.054901960784313725 0.047058823529411764 0.00784313725490196
0.09019607843137255 0.03529411764705882 0.00784313725490196
0.12549019607843137 0.03529411764705882 0.011764705882352941
0.1568627450980392 0.03529411764705882 0.01568627450980392
0.1843137254901961 0.043137254901960784 0.0196078431372549
0.20392156862745098 0.047058823529411764 0.01568627450980392
0.23137254901960785 0.047058823529411764 0.01568627450980392
0.25882352941176473 0.047058823529411764 0.023529411764705882
0.28627450980392155 0.0392156862745098 0.023529411764705882
0.30980392156862746 0.0392156862745098 0.023529411764705882
0.33725490196078434 0.027450980392156862 0.023529411764705882
0.3686274509803922 0.027450980392156862 0.023529411764705882
0.4 0.027450980392156862 0.023529411764705882
0.42745098039215684 0.027450980392156862 0.023529411764705882
0.4588235294117647 0.027450980392156862 0.027450980392156862
0.48627450980392156 0.027450980392156862 0.023529411764705882
0.5215686274509804 0.027450980392156862 0.023529411764705882
0.5529411764705883 0.027450980392156862 0.027450980392156862
0.5882352941176471 0.027450980392156862 0.03529411764705882
0.6196078431372549 0.050980392156862744 0.043137254901960784
0.6549019607843137 0.10588235294117647 0.054901960784313725
0.6901960784313725 0.12941176470588237 0.06666666666666667
0.7254901960784313 0.14901960784313725 0.08235294117647059
0.7607843137254902 0.16862745098039217 0.10196078431372549
0.796078431372549 0.19215686274509805 0.11764705882352941
0.8431372549019608 0.20784313725490197 0.13725490196078433
0.8823529411764706 0.21176470588235294 0.1568627450980392
0.9176470588235294 0.21568627450980393 0.17254901960784313
0.9568627450980393 0.2235294117647059 0.18823529411764706
0.9882352941176471 0.23529411764705882 0.19607843137254902
1.0 0.24705882352941178 0.21568627450980393
0.011764705882352941 0.08627450980392157 0.011764705882352941
0.011764705882352941 0.09019607843137255 0.011764705882352941
0.054901960784313725 0.09411764705882353 0.01568627450980392
0.09411764705882353 0.0784313725490196 0.01568627450980392
0.12941176470588237 0.06666666666666667 0.01568627450980392
0.1607843137254902 0.06666666666666667 0.01568627450980392
0.1803921568627451 0.06666666666666667 0.0196078431372549
0.21176470588235294 0.06666666666666667 0.0196078431372549
0.23529411764705882 0.06666666666666667 0.023529411764705882
0.2627450980392157 0.06274509803921569 0.023529411764705882
0.28627450980392155 0.058823529411764705 0.023529411764705882
0.30980392156862746 0.058823529411764705 0.023529411764705882
0.3411764705882353 0.058823529411764705 0.0196078431372549
0.3686274509803922 0.050980392156862744 0.023529411764705882
0.4 0.047058823529411764 0.023529411764705882
0.42745098039215684 0.043137254901960784 0.023529411764705882
0.4588235294117647 0.027450980392156862 0.027450980392156862
0.49411764705882355 0.027450980392156862 0.027450980392156862
0.5215686274509804 0.03137254901960784 0.023529411764705882
0.5568627450980392 0.043137254901960784 0.027450980392156862
0.5882352941176471 0.058823529411764705 0.027450980392156862
0.6235294117647059 0.10196078431372549 0.0392156862745098
0.6588235294117647 0.12941176470588237 0.047058823529411764
0.6980392156862745 0.1568627450980392 0.06274509803921569
0.7254901960784313 0.1843137254901961 0.07450980392156863
0.7647058823529411 0.2 0.09411764705882353
0.803921568627451 0.21176470588235294 0.11372549019607843
0.8392156862745098 0.22745098039215686 0.13333333333333333
0.8862745098039215 0.23529411764705882 0.1568627450980392
0.9137254901960784 0.23921568627450981 0.16862745098039217
0.9607843137254902 0.24705882352941178 0.1843137254901961
0.996078431372549 0.2549019607843137 0.19607843137254902
1.0 0.2627450980392157 0.21176470588235294
0.01568627450980392 0.11764705882352941 0.01568627450980392
0.01568627450980392 0.12156862745098039 0.01568627450980392
0.023529411764705882 0.12549019607843137 0.01568627450980392
0.10196078431372549 0.12549019607843137 0.023529411764705882
0.12941176470588237 0.10980392156862745 0.0196078431372549
0.1607843137254902 0.10196078431372549 0.023529411764705882
0.18823529411764706 0.09411764705882353 0.023529411764705882
0.21176470588235294 0.08627450980392157 0.023529411764705882
0.23529411764705882 0.08235294117647059 0.023529411764705882
0.2627450980392157 0.08235294117647059 0.023529411764705882
0.2901960784313726 0.08235294117647059 0.023529411764705882
0.3176470588235294 0.0784313725490196 0.023529411764705882
0.34509803921568627 0.0784313725490196 0.027450980392156862
0.37254901960784315 0.07450980392156863 0.023529411764705882
0.4 0.07058823529411765 0.023529411764705882
0.43529411764705883 0.06274509803921569 0.023529411764705882
0.4627450980392157 0.06666666666666667 0.027450980392156862
0.49411764705882355 0.06274509803921569 0.023529411764705882
0.5254901960784314 0.06274509803921569 0.027450980392156862
0.5607843137254902 0.08235294117647059 0.023529411764705882
0.592156862745098 0.09019607843137255 0.023529411764705882
0.6235294117647059 0.13333333333333333 0.027450980392156862
0.6627450980392157 0.1568627450980392 0.0392156862745098
0.6901960784313725 0.1843137254901961 0.050980392156862744
0.7294117647058823 0.20784313725490197 0.07058823529411765
0.7725490196078432 0.2235294117647059 0.09019607843137255
0.807843137254902 0.23921568627450981 0.10980392156862745
0.8470588235294118 0.25098039215686274 0.13333333333333333
0.8823529411764706 0.25882352941176473 0.14901960784313725
0.9215686274509803 0.25882352941176473 0.16470588235294117
0.9607843137254902 0.26666666666666666 0.17647058823529413
0.9921568627450981 0.27450980392156865 0.18823529411764706
0.996078431372549 0.28627450980392155 0.20392156862745098
0.0196078431372549 0.1411764705882353 0.01568627450980392
0.0196078431372549 0.14901960784313725 0.0196078431372549
0.023529411764705882 0.1450980392156863 0.0196078431372549
0.09019607843137255 0.14901960784313725 0.023529411764705882
0.13333333333333333 0.15294117647058825 0.023529411764705882
0.1607843137254902 0.13725490196078433 0.023529411764705882
0.1843137254901961 0.12156862745098039 0.023529411764705882
0.21176470588235294 0.11372549019607843 0.023529411764705882
0.23921568627450981 0.10980392156862745 0.023529411764705882
0.2627450980392157 0.10588235294117647 0.027450980392156862
0.29411764705882354 0.10196078431372549 0.027450980392156862
0.3176470588235294 0.09803921568627451 0.023529411764705882
0.34509803921568627 0.09411764705882353 0.023529411764705882
0.37254901960784315 0.09411764705882353 0.027450980392156862
0.403921568627451 0.09411764705882353 0.023529411764705882
0.43529411764705883 0.09019607843137255 0.023529411764705882
0.4666666666666667 0.08627450980392157 0.027450980392156862
0.4980392156862745 0.08627450980392157 0.023529411764705882
0.5254901960784314 0.09019607843137255 0.023529411764705882
0.5607843137254902 0.10980392156862745 0.023529411764705882
0.5882352941176471 0.12156862745098039 0.023529411764705882
0.6274509803921569 0.14901960784313725 0.023529411764705882
0.6627450980392157 0.1803921568627451 0.03137254901960784
0.6980392156862745 0.20392156862745098 0.03529411764705882
0.7333333333333333 0.22745098039215686 0.058823529411764705
0.7725490196078432 0.24313725490196078 0.08235294117647059
0.8117647058823529 0.2627450980392157 0.10588235294117647
0.8470588235294118 0.27058823529411763 0.12156862745098039
0.8901960784313725 0.2784313725490196 0.1411764705882353
0.9254901960784314 0.27450980392156865 0.1568627450980392
0.9647058823529412 0.28627450980392155 0.17647058823529413
1.0 0.29411764705882354 0.19215686274509805
1.0 0.30196078431372547 0.2
0.023529411764705882 0.16470588235294117 0.023529411764705882
0.0196078431372549 0.16862745098039217 0.023529411764705882
0.03137254901960784 0.17254901960784313 0.023529411764705882
0.0784313725490196 0.17647058823529413 0.023529411764705882
0.12156862745098039 0.1843137254901961 0.027450980392156862
0.1607843137254902 0.1803921568627451 0.023529411764705882
0.1803921568627451 0.1568627450980392 0.023529411764705882
0.21176470588235294 0.15294117647058825 0.023529411764705882
0.24313725490196078 0.13725490196078433 0.023529411764705882
0.27058823529411763 0.13333333333333333 0.023529411764705882
0.29411764705882354 0.12549019607843137 0.023529411764705882
0.3215686274509804 0.12156862745098039 0.023529411764705882
0.34901960784313724 0.11764705882352941 0.023529411764705882
0.3764705882352941 0.12156862745098039 0.023529411764705882
0.40784313725490196 0.10980392156862745 0.023529411764705882
0.43529411764705883 0.11372549019607843 0.023529411764705882
0.4666666666666667 0.10980392156862745 0.023529411764705882
0.4980392156862745 0.11372549019607843 0.023529411764705882
0.5294117647058824 0.11764705882352941 0.0196078431372549
0.5607843137254902 0.12549019607843137 0.023529411764705882
0.596078431372549 0.14901960784313725 0.023529411764705882
0.6274509803921569 0.1803921568627451 0.0196078431372549
0.6627450980392157 0.20784313725490197 0.023529411764705882
0.6980392156862745 0.22745098039215686 0.03137254901960784
0.7411764705882353 0.25098039215686274 0.050980392156862744
0.7764705882352941 0.26666666666666666 0.07450980392156863
0.8156862745098039 0.2823529411764706 0.10196078431372549
0.8549019607843137 0.29411764705882354 0.11764705882352941
0.8901960784313725 0.2901960784313726 0.13725490196078433
0.9294117647058824 0.2980392156862745 0.15294117647058825
0.9647058823529412 0.30196078431372547 0.16862745098039217
1.0 0.30980392156862746 0.1803921568627451
1.0 0.3254901960784314 0.19607843137254902
0.023529411764705882 0.18823529411764706 0.023529411764705882
0.023529411764705882 0.19215686274509805 0.023529411764705882
0.023529411764705882 0.2 0.027450980392156862
0.054901960784313725 0.20784313725490197 0.023529411764705882
0.10980392156862745 0.20784313725490197 0.023529411764705882
0.15294117647058825 0.21176470588235294 0.023529411764705882
0.19607843137254902 0.21176470588235294 0.023529411764705882
0.21176470588235294 0.18823529411764706 0.023529411764705882
0.23921568627450981 0.17647058823529413 0.023529411764705882
0.26666666666666666 0.16470588235294117 0.023529411764705882
0.2980392156862745 0.15294117647058825 0.023529411764705882
0.3254901960784314 0.14901960784313725 0.027450980392156862
0.35294117647058826 0.1411764705882353 0.023529411764705882
0.3803921568627451 0.13725490196078433 0.027450980392156862
0.4117647058823529 0.12941176470588237 0.023529411764705882
0.44313725490196076 0.13333333333333333 0.023529411764705882
0.4745098039215686 0.13333333333333333 0.023529411764705882
0.5019607843137255 0.12941176470588237 0.023529411764705882
0.5333333333333333 0.13333333333333333 0.0196078431372549
0.5607843137254902 0.1450980392156863 0.0196078431372549
0.6 0.16862745098039217 0.0196078431372549
0.6313725490196078 0.18823529411764706 0.0196078431372549
0.6705882352941176 0.2235294117647059 0.0196078431372549
0.7058823529411765 0.24705882352941178 0.0196078431372549
0.7450980392156863 0.27450980392156865 0.0392156862745098
0.7843137254901961 0.2901960784313726 0.06666666666666667
0.8196078431372549 0.30196078431372547 0.08627450980392157
0.8627450980392157 0.30980392156862746 0.11372549019607843
0.8980392156862745 0.3137254901960784 0.12941176470588237
0.9294117647058824 0.3137254901960784 0.1450980392156863
0.9686274509803922 0.3176470588235294 0.1607843137254902
1.0 0.32941176470588235 0.17254901960784313
1.0 0.3411764705882353 0.1843137254901961
0.0196078431372549 0.21568627450980393 0.023529411764705882
0.027450980392156862 0.2196078431372549 0.023529411764705882
0.023529411764705882 0.22745098039215686 0.023529411764705882
0.03529411764705882 0.23529411764705882 0.023529411764705882
0.08627450980392157 0.23921568627450981 0.027450980392156862
0.1411764705882353 0.24313725490196078 0.023529411764705882
0.1843137254901961 0.24705882352941178 0.023529411764705882
0.22745098039215686 0.24313725490196078 0.023529411764705882
0.23529411764705882 0.21568627450980393 0.023529411764705882
0.27058823529411763 0.20392156862745098 0.023529411764705882
0.30196078431372547 0.19215686274509805 0.027450980392156862
0.32941176470588235 0.1803921568627451 0.023529411764705882
0.35294117647058826 0.16862745098039217 0.023529411764705882
0.3843137254901961 0.1607843137254902 0.023529411764705882
0.41568627450980394 0.1568627450980392 0.023529411764705882
0.44313725490196076 0.15294117647058825 0.023529411764705882
0.4745098039215686 0.1450980392156863 0.0196078431372549
0.5058823529411764 0.15294117647058825 0.023529411764705882
0.5372549019607843 0.1568627450980392 0.0196078431372549
0.5725490196078431 0.16470588235294117 0.023529411764705882
0.6 0.18823529411764706 0.0196078431372549
0.6352941176470588 0.20784313725490197 0.0196078431372549
0.6705882352941176 0.24313725490196078 0.01568627450980392
0.7098039215686275 0.26666666666666666 0.01568627450980392
0.7529411764705882 0.28627450980392155 0.03137254901960784
0.788235294117647 0.3137254901960784 0.058823529411764705
0.8274509803921568 0.3254901960784314 0.08235294117647059
0.8627450980392157 0.32941176470588235 0.10196078431372549
0.8980392156862745 0.32941176470588235 0.11764705882352941
0.9372549019607843 0.32941176470588235 0.13725490196078433
0.9764705882352941 0.3411764705882353 0.15294117647058825
1.0 0.34509803921568627 0.16862745098039217
1.0 0.35294117647058826 0.17647058823529413
0.027450980392156862 0.24705882352941178 0.023529411764705882
0.023529411764705882 0.25098039215686274 0.023529411764705882
0.023529411764705882 0.25882352941176473 0.023529411764705882
0.023529411764705882 0.26666666666666666 0.027450980392156862
0.07058823529411765 0.27058823529411763 0.023529411764705882
0.12549019607843137 0.27450980392156865 0.023529411764705882
0.17647058823529413 0.2784313725490196 0.023529411764705882
0.21568627450980393 0.2784313725490196 0.0196078431372549
0.2627450980392157 0.2784313725490196 0.023529411764705882
0.26666666666666666 0.24313725490196078 0.023529411764705882
0.2980392156862745 0.22745098039215686 0.023529411764705882
0.32941176470588235 0.21568627450980393 0.023529411764705882
0.3568627450980392 0.20392156862745098 0.023529411764705882
0.39215686274509803 0.19607843137254902 0.023529411764705882
0.4235294117647059 0.18823529411764706 0.023529411764705882
0.4470588235294118 0.1803921568627451 0.023529411764705882
0.47843137254901963 0.17647058823529413 0.023529411764705882
0.5098039215686274 0.17647058823529413 0.0196078431372549
0.5411764705882353 0.17254901960784313 0.0196078431372549
0.5725490196078431 0.1843137254901961 0.0196078431372549
0.6039215686274509 0.20392156862745098 0.0196078431372549
0.6392156862745098 0.23137254901960785 0.01568627450980392
0.6784313725490196 0.25882352941176473 0.01568627450980392
0.7176470588235294 0.28627450980392155 0.011764705882352941
0.7568627450980392 0.3137254901960784 0.023529411764705882
0.796078431372549 0.3254901960784314 0.043137254901960784
0.8313725490196079 0.3333333333333333 0.06666666666666667
0.8705882352941177 0.34509803921568627 0.09019607843137255
0.9098039215686274 0.34509803921568627 0.10980392156862745
0.9372549019607843 0.34509803921568627 0.12549019607843137
0.9764705882352941 0.3568627450980392 0.1450980392156863
1.0 0.3607843137254902 0.1607843137254902
1.0 0.3686274509803922 0.16862745098039217
0.023529411764705882 0.27450980392156865 0.023529411764705882
0.023529411764705882 0.2784313725490196 0.023529411764705882
0.023529411764705882 0.2901960784313726 0.027450980392156862
0.027450980392156862 0.29411764705882354 0.027450980392156862
0.043137254901960784 0.2980392156862745 0.023529411764705882
0.10980392156862745 0.30196078431372547 0.023529411764705882
0.16470588235294117 0.30980392156862746 0.023529411764705882
0.21568627450980393 0.3137254901960784 0.023529411764705882
0.25882352941176473 0.3137254901960784 0.023529411764705882
0.30196078431372547 0.3137254901960784 0.023529411764705882
0.30196078431372547 0.27058823529411763 0.0196078431372549
0.3333333333333333 0.2549019607843137 0.0196078431372549
0.3607843137254902 0.24313725490196078 0.023529411764705882
0.396078431372549 0.23137254901960785 0.023529411764705882
0.42745098039215684 0.2196078431372549 0.0196078431372549
0.4549019607843137 0.21176470588235294 0.023529411764705882
0.48627450980392156 0.20784313725490197 0.023529411764705882
0.5137254901960784 0.20392156862745098 0.023529411764705882
0.5411764705882353 0.19607843137254902 0.0196078431372549
0.5725490196078431 0.20784313725490197 0.0196078431372549
0.611764705882353 0.2235294117647059 0.01568627450980392
0.6470588235294118 0.25098039215686274 0.01568627450980392
0.6823529411764706 0.2784313725490196 0.01568627450980392
0.7254901960784313 0.30980392156862746 0.011764705882352941
0.7686274509803922 0.32941176470588235 0.00784313725490196
0.803921568627451 0.34509803921568627 0.03529411764705882
0.8431372549019608 0.35294117647058826 0.06274509803921569
0.8745098039215686 0.36470588235294116 0.08235294117647059
0.9098039215686274 0.36470588235294116 0.10196078431372549
0.9490196078431372 0.36470588235294116 0.11764705882352941
0.9803921568627451 0.3686274509803922 0.12941176470588237
1.0 0.3764705882352941 0.14901960784313725
0.996078431372549 0.3803921568627451 0.1607843137254902
0.023529411764705882 0.30196078431372547 0.023529411764705882
0.023529411764705882 0.30980392156862746 0.023529411764705882
0.023529411764705882 0.3176470588235294 0.023529411764705882
0.023529411764705882 0.3254901960784314 0.023529411764705882
0.03137254901960784 0.32941176470588235 0.023529411764705882
0.09411764705882353 0.33725490196078434 0.023529411764705882
0.1568627450980392 0.3411764705882353 0.0196078431372549
0.20392156862745098 0.34509803921568627 0.0196078431372549
0.2549019607843137 0.3411764705882353 0.0196078431372549
0.30196078431372547 0.34509803921568627 0.0196078431372549
0.34509803921568627 0.3411764705882353 0.0196078431372549
0.33725490196078434 0.30196078431372547 0.0196078431372549
0.36470588235294116 0.28627450980392155 0.0196078431372549
0.4 0.27058823529411763 0.0196078431372549
0.42745098039215684 0.2549019607843137 0.0196078431372549
0.4588235294117647 0.24705882352941178 0.0196078431372549
0.49019607843137253 0.23529411764705882 0.0196078431372549
0.5215686274509804 0.23529411764705882 0.0196078431372549
0.5529411764705883 0.23137254901960785 0.0196078431372549
0.5882352941176471 0.23137254901960785 0.01568627450980392
0.615686274509804 0.25098039215686274 0.01568627450980392
0.6549019607843137 0.27450980392156865 0.011764705882352941
0.6941176470588235 0.30196078431372547 0.011764705882352941
0.7294117647058823 0.3333333333333333 0.011764705882352941
0.7686274509803922 0.34901960784313724 0.00784313725490196
0.803921568627451 0.3607843137254902 0.0196078431372549
0.8470588235294118 0.3764705882352941 0.054901960784313725
0.8784313725490196 0.3803921568627451 0.07450980392156863
0.9176470588235294 0.3803921568627451 0.09411764705882353
0.9529411764705882 0.3764705882352941 0.10588235294117647
0.9882352941176471 0.3803921568627451 0.12156862745098039
0.9921568627450981 0.38823529411764707 0.13725490196078433
0.996078431372549 0.39215686274509803 0.1450980392156863
0.023529411764705882 0.3333333333333333 0.023529411764705882
0.027450980392156862 0.3411764705882353 0.023529411764705882
0.023529411764705882 0.34509803921568627 0.023529411764705882
0.027450980392156862 0.3568627450980392 0.023529411764705882
0.023529411764705882 0.3607843137254902 0.023529411764705882
0.08627450980392157 0.36470588235294116 0.023529411764705882
0.14901960784313725 0.3686274509803922 0.023529411764705882
0.20392156862745098 0.37254901960784315 0.0196078431372549
0.2549019607843137 0.3803921568627451 0.0196078431372549
0.2980392156862745 0.3803921568627451 0.0196078431372549
0.34901960784313724 0.3803921568627451 0.01568627450980392
0.3764705882352941 0.3686274509803922 0.01568627450980392
0.3764705882352941 0.32941176470588235 0.0196078431372549
0.403921568627451 0.3137254901960784 0.0196078431372549
