cubelut/Xiaomi_Realistic_LUT.cube
TITLE "Photo Curves LUT"
LUT_3D_SIZE 33
0.0 0.0 0.0
0.023529411764705882 0.00784313725490196 0.00784313725490196
0.06274509803921569 0.023529411764705882 0.023529411764705882
0.09411764705882353 0.03529411764705882 0.03529411764705882
0.12549019607843137 0.050980392156862744 0.050980392156862744
0.16470588235294117 0.06666666666666667 0.06666666666666667
0.2 0.07450980392156863 0.08235294117647059
0.23137254901960785 0.08235294117647059 0.08627450980392157
0.26666666666666666 0.09411764705882353 0.09411764705882353
0.29411764705882354 0.10196078431372549 0.10196078431372549
0.3254901960784314 0.10980392156862745 0.10588235294117647
0.34901960784313724 0.11372549019607843 0.11372549019607843
0.3764705882352941 0.11764705882352941 0.12156862745098039
0.396078431372549 0.12156862745098039 0.12549019607843137
0.4196078431372549 0.12549019607843137 0.13333333333333333
0.43529411764705883 0.12549019607843137 0.13333333333333333
0.4627450980392157 0.12549019607843137 0.1411764705882353
0.4823529411764706 0.12549019607843137 0.1411764705882353
0.5058823529411764 0.12549019607843137 0.1411764705882353
0.5294117647058824 0.12156862745098039 0.1450980392156863
0.5490196078431373 0.11372549019607843 0.1411764705882353
0.5725490196078431 0.10588235294117647 0.13725490196078433
0.6 0.09803921568627451 0.13333333333333333
0.6235294117647059 0.07450980392156863 0.12156862745098039
0.6509803921568628 0.058823529411764705 0.11372549019607843
0.6784313725490196 0.03529411764705882 0.09803921568627451
0.7098039215686275 0.0196078431372549 0.08627450980392157
0.7411764705882353 0.0196078431372549 0.08235294117647059
0.7686274509803922 0.0196078431372549 0.07058823529411765
0.803921568627451 0.0196078431372549 0.06666666666666667
0.8392156862745098 0.01568627450980392 0.06666666666666667
0.8745098039215686 0.03529411764705882 0.07450980392156863
0.9137254901960784 0.058823529411764705 0.0784313725490196
0.00392156862745098 0.027450980392156862 0.00392156862745098
0.03137254901960784 0.03137254901960784 0.00784313725490196
0.06274509803921569 0.0392156862745098 0.011764705882352941
0.10196078431372549 0.054901960784313725 0.03137254901960784
0.13333333333333333 0.07058823529411765 0.050980392156862744
0.16470588235294117 0.08235294117647059 0.06666666666666667
0.19607843137254902 0.09019607843137255 0.07450980392156863
0.23137254901960785 0.09803921568627451 0.08627450980392157
0.2627450980392157 0.10588235294117647 0.09019607843137255
0.29411764705882354 0.11372549019607843 0.09411764705882353
0.3254901960784314 0.12156862745098039 0.10196078431372549
0.34901960784313724 0.12549019607843137 0.10588235294117647
0.37254901960784315 0.12549019607843137 0.10980392156862745
0.396078431372549 0.12941176470588237 0.11372549019607843
0.41568627450980394 0.12941176470588237 0.11764705882352941
0.4392156862745098 0.12941176470588237 0.12156862745098039
0.4627450980392157 0.12941176470588237 0.12549019607843137
0.48627450980392156 0.12549019607843137 0.12549019607843137
0.5058823529411764 0.12549019607843137 0.12941176470588237
0.5294117647058824 0.12156862745098039 0.12941176470588237
0.5529411764705883 0.11372549019607843 0.12156862745098039
0.5725490196078431 0.10588235294117647 0.11764705882352941
0.6 0.09411764705882353 0.10980392156862745
0.6235294117647059 0.0784313725490196 0.10196078431372549
0.6509803921568628 0.054901960784313725 0.09019607843137255
0.6784313725490196 0.0392156862745098 0.0784313725490196
0.7058823529411765 0.0196078431372549 0.06274509803921569
0.7411764705882353 0.0196078431372549 0.058823529411764705
0.7686274509803922 0.0196078431372549 0.050980392156862744
0.803921568627451 0.0196078431372549 0.047058823529411764
0.8392156862745098 0.01568627450980392 0.050980392156862744
0.8784313725490196 0.043137254901960784 0.058823529411764705
0.9137254901960784 0.07450980392156863 0.06274509803921569
0.011764705882352941 0.06274509803921569 0.011764705882352941
0.0392156862745098 0.07058823529411765 0.0196078431372549
0.07058823529411765 0.07450980392156863 0.0196078431372549
0.10196078431372549 0.0784313725490196 0.023529411764705882
0.13725490196078433 0.08627450980392157 0.0392156862745098
0.16862745098039217 0.09411764705882353 0.054901960784313725
0.2 0.10588235294117647 0.07058823529411765
0.23137254901960785 0.11372549019607843 0.0784313725490196
0.26666666666666666 0.12549019607843137 0.08627450980392157
0.29411764705882354 0.12941176470588237 0.09019607843137255
0.3215686274509804 0.13725490196078433 0.09803921568627451
0.34509803921568627 0.13725490196078433 0.09803921568627451
0.3686274509803922 0.1411764705882353 0.10196078431372549
0.39215686274509803 0.1450980392156863 0.10588235294117647
0.41568627450980394 0.1450980392156863 0.10980392156862745
0.43529411764705883 0.1450980392156863 0.11764705882352941
0.4549019607843137 0.1450980392156863 0.11764705882352941
0.47843137254901963 0.1450980392156863 0.11764705882352941
0.5019607843137255 0.1411764705882353 0.12156862745098039
0.5254901960784314 0.13725490196078433 0.11764705882352941
0.5490196078431373 0.13333333333333333 0.11764705882352941
0.5725490196078431 0.12549019607843137 0.10980392156862745
0.596078431372549 0.11372549019607843 0.10196078431372549
0.6235294117647059 0.10588235294117647 0.09803921568627451
0.6509803921568628 0.09019607843137255 0.08627450980392157
0.6784313725490196 0.07058823529411765 0.07450980392156863
0.7058823529411765 0.050980392156862744 0.058823529411764705
0.7411764705882353 0.050980392156862744 0.058823529411764705
0.7686274509803922 0.043137254901960784 0.047058823529411764
0.807843137254902 0.058823529411764705 0.050980392156862744
0.8392156862745098 0.058823529411764705 0.047058823529411764
0.8784313725490196 0.07450980392156863 0.050980392156862744
0.9098039215686274 0.09803921568627451 0.058823529411764705
0.023529411764705882 0.09803921568627451 0.023529411764705882
0.050980392156862744 0.10588235294117647 0.03137254901960784
0.0784313725490196 0.10588235294117647 0.03137254901960784
0.10980392156862745 0.11372549019607843 0.0392156862745098
0.1411764705882353 0.11372549019607843 0.043137254901960784
0.16862745098039217 0.10980392156862745 0.0392156862745098
0.20392156862745098 0.12156862745098039 0.054901960784313725
0.23529411764705882 0.12941176470588237 0.06666666666666667
0.2627450980392157 0.13725490196078433 0.07450980392156863
0.29411764705882354 0.1450980392156863 0.08235294117647059
0.3176470588235294 0.14901960784313725 0.08627450980392157
0.3411764705882353 0.15294117647058825 0.08627450980392157
0.3686274509803922 0.1568627450980392 0.09411764705882353
0.38823529411764707 0.1568627450980392 0.09411764705882353
0.4117647058823529 0.1568627450980392 0.10588235294117647
0.43529411764705883 0.1568627450980392 0.10980392156862745
0.4588235294117647 0.1607843137254902 0.10980392156862745
0.4745098039215686 0.1568627450980392 0.10980392156862745
0.5019607843137255 0.1607843137254902 0.11372549019607843
0.5215686274509804 0.1568627450980392 0.11372549019607843
0.5490196078431373 0.14901960784313725 0.10980392156862745
0.5725490196078431 0.14901960784313725 0.10980392156862745
0.596078431372549 0.13725490196078433 0.09803921568627451
0.6235294117647059 0.12941176470588237 0.09019607843137255
0.6509803921568628 0.11764705882352941 0.08235294117647059
0.6784313725490196 0.10588235294117647 0.07058823529411765
0.7058823529411765 0.09019607843137255 0.058823529411764705
0.7411764705882353 0.08627450980392157 0.047058823529411764
0.7725490196078432 0.08235294117647059 0.043137254901960784
0.803921568627451 0.08627450980392157 0.0392156862745098
0.8431372549019608 0.09803921568627451 0.047058823529411764
0.8745098039215686 0.10588235294117647 0.050980392156862744
0.9137254901960784 0.12549019607843137 0.058823529411764705
0.043137254901960784 0.13333333333333333 0.043137254901960784
0.050980392156862744 0.13725490196078433 0.043137254901960784
0.0784313725490196 0.1411764705882353 0.043137254901960784
0.10980392156862745 0.1450980392156863 0.050980392156862744
0.1450980392156863 0.14901960784313725 0.047058823529411764
0.17254901960784313 0.14901960784313725 0.050980392156862744
0.20392156862745098 0.1450980392156863 0.050980392156862744
0.23529411764705882 0.14901960784313725 0.050980392156862744
0.2627450980392157 0.1568627450980392 0.058823529411764705
0.2901960784313726 0.1568627450980392 0.06274509803921569
0.3176470588235294 0.1607843137254902 0.07058823529411765
0.3411764705882353 0.16470588235294117 0.07450980392156863
0.36470588235294116 0.17254901960784313 0.0784313725490196
0.3843137254901961 0.16862745098039217 0.08235294117647059
0.403921568627451 0.16862745098039217 0.08627450980392157
0.43137254901960786 0.17254901960784313 0.09411764705882353
0.45098039215686275 0.17254901960784313 0.09803921568627451
0.4745098039215686 0.16862745098039217 0.09803921568627451
0.4980392156862745 0.16862745098039217 0.10196078431372549
0.5215686274509804 0.16862745098039217 0.10196078431372549
0.5450980392156862 0.16862745098039217 0.10196078431372549
0.5647058823529412 0.1607843137254902 0.09411764705882353
0.596078431372549 0.1568627450980392 0.08627450980392157
0.6196078431372549 0.14901960784313725 0.0784313725490196
0.6470588235294118 0.13725490196078433 0.07058823529411765
0.6745098039215687 0.12549019607843137 0.054901960784313725
0.7058823529411765 0.12156862745098039 0.050980392156862744
0.7411764705882353 0.11764705882352941 0.043137254901960784
0.7725490196078432 0.11372549019607843 0.03529411764705882
0.803921568627451 0.11764705882352941 0.03529411764705882
0.8431372549019608 0.12941176470588237 0.0392156862745098
0.8823529411764706 0.1411764705882353 0.047058823529411764
0.9176470588235294 0.15294117647058825 0.054901960784313725
0.0392156862745098 0.16862745098039217 0.047058823529411764
0.03529411764705882 0.16862745098039217 0.043137254901960784
0.07058823529411765 0.17254901960784313 0.047058823529411764
0.10196078431372549 0.17647058823529413 0.050980392156862744
0.13725490196078433 0.1803921568627451 0.047058823529411764
0.17254901960784313 0.1803921568627451 0.050980392156862744
0.20392156862745098 0.17647058823529413 0.047058823529411764
0.23137254901960785 0.17254901960784313 0.047058823529411764
0.2627450980392157 0.17254901960784313 0.043137254901960784
0.2901960784313726 0.17647058823529413 0.043137254901960784
0.3137254901960784 0.17647058823529413 0.047058823529411764
0.3411764705882353 0.17647058823529413 0.054901960784313725
0.3568627450980392 0.1803921568627451 0.058823529411764705
0.3843137254901961 0.1803921568627451 0.06666666666666667
0.403921568627451 0.1803921568627451 0.07450980392156863
0.43137254901960786 0.1843137254901961 0.08235294117647059
0.45098039215686275 0.1843137254901961 0.08235294117647059
0.47058823529411764 0.1843137254901961 0.08627450980392157
0.49411764705882355 0.1803921568627451 0.08627450980392157
0.5176470588235295 0.1843137254901961 0.09019607843137255
0.5411764705882353 0.1843137254901961 0.09019607843137255
0.5686274509803921 0.17647058823529413 0.08627450980392157
0.592156862745098 0.17254901960784313 0.08235294117647059
0.6196078431372549 0.16470588235294117 0.07058823529411765
0.6470588235294118 0.15294117647058825 0.054901960784313725
0.6745098039215687 0.14901960784313725 0.047058823529411764
0.7058823529411765 0.1450980392156863 0.0392156862745098
0.7411764705882353 0.1411764705882353 0.03137254901960784
0.7764705882352941 0.1450980392156863 0.03137254901960784
0.807843137254902 0.1450980392156863 0.03137254901960784
0.8431372549019608 0.14901960784313725 0.03529411764705882
0.8823529411764706 0.1607843137254902 0.043137254901960784
0.9137254901960784 0.16862745098039217 0.047058823529411764
0.027450980392156862 0.19607843137254902 0.047058823529411764
0.027450980392156862 0.2 0.050980392156862744
0.058823529411764705 0.2 0.043137254901960784
0.09411764705882353 0.20392156862745098 0.047058823529411764
0.12941176470588237 0.20392156862745098 0.047058823529411764
0.16470588235294117 0.20392156862745098 0.047058823529411764
0.19607843137254902 0.20392156862745098 0.043137254901960784
0.23137254901960785 0.20392156862745098 0.043137254901960784
0.25882352941176473 0.2 0.03529411764705882
0.2823529411764706 0.19215686274509805 0.03529411764705882
0.3137254901960784 0.19607843137254902 0.03137254901960784
0.3333333333333333 0.18823529411764706 0.027450980392156862
0.3568627450980392 0.19215686274509805 0.03137254901960784
0.3803921568627451 0.19607843137254902 0.043137254901960784
0.403921568627451 0.19215686274509805 0.050980392156862744
0.4235294117647059 0.19215686274509805 0.058823529411764705
0.4470588235294118 0.19607843137254902 0.06666666666666667
0.47058823529411764 0.19607843137254902 0.07058823529411765
0.49411764705882355 0.2 0.07450980392156863
0.5137254901960784 0.19607843137254902 0.07450980392156863
0.5411764705882353 0.19607843137254902 0.07058823529411765
0.5647058823529412 0.19215686274509805 0.07058823529411765
0.596078431372549 0.18823529411764706 0.06666666666666667
0.6196078431372549 0.1843137254901961 0.058823529411764705
0.6470588235294118 0.17647058823529413 0.043137254901960784
0.6823529411764706 0.16862745098039217 0.03529411764705882
0.7098039215686275 0.16470588235294117 0.027450980392156862
0.7411764705882353 0.16470588235294117 0.023529411764705882
0.7764705882352941 0.16862745098039217 0.023529411764705882
0.807843137254902 0.16470588235294117 0.0196078431372549
0.8431372549019608 0.17254901960784313 0.023529411764705882
0.8823529411764706 0.1803921568627451 0.027450980392156862
0.9215686274509803 0.19607843137254902 0.043137254901960784
0.03137254901960784 0.2235294117647059 0.043137254901960784
0.03137254901960784 0.2235294117647059 0.043137254901960784
0.054901960784313725 0.22745098039215686 0.043137254901960784
0.08627450980392157 0.22745098039215686 0.043137254901960784
0.11764705882352941 0.23137254901960785 0.043137254901960784
0.15294117647058825 0.22745098039215686 0.03529411764705882
0.1843137254901961 0.22745098039215686 0.03529411764705882
0.21568627450980393 0.22745098039215686 0.03137254901960784
0.25098039215686274 0.22745098039215686 0.03137254901960784
0.27450980392156865 0.2196078431372549 0.027450980392156862
0.30196078431372547 0.21568627450980393 0.023529411764705882
0.3254901960784314 0.21176470588235294 0.01568627450980392
0.35294117647058826 0.20784313725490197 0.01568627450980392
0.3764705882352941 0.20784313725490197 0.0196078431372549
0.396078431372549 0.20392156862745098 0.027450980392156862
0.4196078431372549 0.20784313725490197 0.03529411764705882
0.4470588235294118 0.20784313725490197 0.043137254901960784
0.4666666666666667 0.20784313725490197 0.050980392156862744
0.49019607843137253 0.20784313725490197 0.050980392156862744
0.5137254901960784 0.20784313725490197 0.050980392156862744
0.5372549019607843 0.20784313725490197 0.050980392156862744
0.5647058823529412 0.20392156862745098 0.050980392156862744
0.592156862745098 0.20392156862745098 0.047058823529411764
0.6235294117647059 0.2 0.043137254901960784
0.6470588235294118 0.19215686274509805 0.027450980392156862
0.6784313725490196 0.19215686274509805 0.0196078431372549
0.7098039215686275 0.18823529411764706 0.01568627450980392
0.7450980392156863 0.1843137254901961 0.01568627450980392
0.7725490196078432 0.1803921568627451 0.00784313725490196
0.8117647058823529 0.18823529411764706 0.011764705882352941
0.8509803921568627 0.2 0.0196078431372549
0.8862745098039215 0.20784313725490197 0.027450980392156862
0.9254901960784314 0.21568627450980393 0.03529411764705882
0.03137254901960784 0.24705882352941178 0.0392156862745098
0.03137254901960784 0.24705882352941178 0.03529411764705882
0.047058823529411764 0.24705882352941178 0.03529411764705882
0.08235294117647059 0.25098039215686274 0.03529411764705882
0.10980392156862745 0.25098039215686274 0.03529411764705882
0.1411764705882353 0.24705882352941178 0.03137254901960784
0.17254901960784313 0.25098039215686274 0.027450980392156862
0.20784313725490197 0.25098039215686274 0.027450980392156862
0.23921568627450981 0.24705882352941178 0.023529411764705882
0.26666666666666666 0.24313725490196078 0.01568627450980392
0.2980392156862745 0.23529411764705882 0.01568627450980392
0.3215686274509804 0.23137254901960785 0.0196078431372549
0.34901960784313724 0.22745098039215686 0.01568627450980392
0.37254901960784315 0.2235294117647059 0.0196078431372549
0.396078431372549 0.2235294117647059 0.01568627450980392
0.4196078431372549 0.2196078431372549 0.01568627450980392
0.44313725490196076 0.2196078431372549 0.023529411764705882
0.4627450980392157 0.2196078431372549 0.027450980392156862
0.49019607843137253 0.2235294117647059 0.03137254901960784
0.5137254901960784 0.2235294117647059 0.03529411764705882
0.5411764705882353 0.2235294117647059 0.03529411764705882
0.5686274509803921 0.2196078431372549 0.03137254901960784
0.5882352941176471 0.2196078431372549 0.027450980392156862
0.6196078431372549 0.21568627450980393 0.0196078431372549
0.6509803921568628 0.20784313725490197 0.01568627450980392
0.6784313725490196 0.20784313725490197 0.011764705882352941
0.7098039215686275 0.20392156862745098 0.011764705882352941
0.7450980392156863 0.20784313725490197 0.011764705882352941
0.7764705882352941 0.20392156862745098 0.00784313725490196
0.8156862745098039 0.21176470588235294 0.011764705882352941
0.8509803921568627 0.2196078431372549 0.00784313725490196
0.8901960784313725 0.22745098039215686 0.01568627450980392
0.9254901960784314 0.23529411764705882 0.023529411764705882
0.027450980392156862 0.27058823529411763 0.027450980392156862
0.027450980392156862 0.27058823529411763 0.027450980392156862
0.0392156862745098 0.27058823529411763 0.03137254901960784
0.07058823529411765 0.26666666666666666 0.027450980392156862
0.09803921568627451 0.27058823529411763 0.027450980392156862
0.12941176470588237 0.27058823529411763 0.023529411764705882
0.1568627450980392 0.26666666666666666 0.01568627450980392
0.19215686274509805 0.27058823529411763 0.0196078431372549
0.2235294117647059 0.26666666666666666 0.01568627450980392
0.2549019607843137 0.2627450980392157 0.01568627450980392
0.28627450980392155 0.2627450980392157 0.0196078431372549
0.3137254901960784 0.2549019607843137 0.01568627450980392
0.33725490196078434 0.24705882352941178 0.01568627450980392
0.36470588235294116 0.24313725490196078 0.01568627450980392
0.39215686274509803 0.24313725490196078 0.01568627450980392
0.4117647058823529 0.23529411764705882 0.01568627450980392
0.4392156862745098 0.23921568627450981 0.01568627450980392
0.4627450980392157 0.23529411764705882 0.01568627450980392
0.48627450980392156 0.23529411764705882 0.01568627450980392
0.5098039215686274 0.23137254901960785 0.011764705882352941
0.5333333333333333 0.23137254901960785 0.00784313725490196
0.5647058823529412 0.23529411764705882 0.011764705882352941
0.592156862745098 0.23529411764705882 0.011764705882352941
0.6196078431372549 0.23137254901960785 0.011764705882352941
0.6509803921568628 0.22745098039215686 0.00784313725490196
0.6784313725490196 0.2196078431372549 0.00784313725490196
0.7137254901960784 0.2235294117647059 0.011764705882352941
0.7490196078431373 0.2235294117647059 0.011764705882352941
0.7803921568627451 0.22745098039215686 0.00784313725490196
0.8156862745098039 0.22745098039215686 0.00392156862745098
0.8549019607843137 0.23529411764705882 0.00392156862745098
0.8901960784313725 0.24705882352941178 0.01568627450980392
0.9294117647058824 0.25882352941176473 0.023529411764705882
0.0196078431372549 0.2823529411764706 0.0196078431372549
0.0196078431372549 0.2823529411764706 0.0196078431372549
0.027450980392156862 0.28627450980392155 0.023529411764705882
0.050980392156862744 0.28627450980392155 0.01568627450980392
0.08627450980392157 0.2901960784313726 0.0196078431372549
0.11764705882352941 0.2901960784313726 0.01568627450980392
0.14901960784313725 0.2901960784313726 0.01568627450980392
0.1803921568627451 0.28627450980392155 0.01568627450980392
0.21176470588235294 0.2901960784313726 0.0196078431372549
0.24313725490196078 0.28627450980392155 0.01568627450980392
0.27058823529411763 0.2823529411764706 0.01568627450980392
0.30196078431372547 0.2823529411764706 0.01568627450980392
0.32941176470588235 0.27058823529411763 0.01568627450980392
0.3568627450980392 0.26666666666666666 0.011764705882352941
0.3843137254901961 0.2627450980392157 0.01568627450980392
0.40784313725490196 0.25882352941176473 0.011764705882352941
0.43529411764705883 0.2549019607843137 0.011764705882352941
0.4588235294117647 0.25098039215686274 0.01568627450980392
0.48627450980392156 0.25098039215686274 0.01568627450980392
0.5098039215686274 0.2549019607843137 0.011764705882352941
0.5333333333333333 0.25098039215686274 0.011764705882352941
0.5607843137254902 0.25098039215686274 0.011764705882352941
0.5882352941176471 0.25098039215686274 0.00784313725490196
0.6196078431372549 0.25098039215686274 0.011764705882352941
0.6509803921568628 0.24705882352941178 0.00784313725490196
0.6823529411764706 0.24313725490196078 0.00784313725490196
0.7176470588235294 0.24313725490196078 0.00784313725490196
0.7529411764705882 0.24313725490196078 0.00784313725490196
0.7843137254901961 0.24705882352941178 0.00784313725490196
0.8235294117647058 0.25098039215686274 0.00784313725490196
0.8549019607843137 0.25882352941176473 0.00784313725490196
0.8941176470588236 0.2627450980392157 0.01568627450980392
0.9333333333333333 0.2784313725490196 0.03137254901960784
0.0196078431372549 0.30196078431372547 0.01568627450980392
0.0196078431372549 0.30196078431372547 0.01568627450980392
0.0196078431372549 0.3058823529411765 0.0196078431372549
0.0392156862745098 0.3058823529411765 0.0196078431372549
0.07058823529411765 0.3058823529411765 0.01568627450980392
0.10196078431372549 0.30980392156862746 0.01568627450980392
0.13333333333333333 0.3058823529411765 0.01568627450980392
0.16862745098039217 0.30980392156862746 0.01568627450980392
0.2 0.3058823529411765 0.0196078431372549
0.22745098039215686 0.3058823529411765 0.01568627450980392
0.2627450980392157 0.30196078431372547 0.011764705882352941
0.29411764705882354 0.30196078431372547 0.01568627450980392
0.3254901960784314 0.2980392156862745 0.01568627450980392
0.35294117647058826 0.29411764705882354 0.01568627450980392
0.3764705882352941 0.28627450980392155 0.011764705882352941
0.403921568627451 0.2823529411764706 0.011764705882352941
0.43137254901960786 0.2784313725490196 0.01568627450980392
0.4588235294117647 0.27450980392156865 0.01568627450980392
0.4823529411764706 0.27058823529411763 0.011764705882352941
0.5058823529411764 0.26666666666666666 0.00784313725490196
0.5333333333333333 0.27058823529411763 0.011764705882352941
0.5607843137254902 0.26666666666666666 0.011764705882352941
0.5882352941176471 0.26666666666666666 0.00392156862745098
0.6196078431372549 0.26666666666666666 0.00784313725490196
0.6509803921568628 0.26666666666666666 0.011764705882352941
0.6823529411764706 0.25882352941176473 0.00784313725490196
0.7176470588235294 0.2627450980392157 0.00784313725490196
0.7568627450980392 0.27058823529411763 0.00784313725490196
0.792156862745098 0.26666666666666666 0.00784313725490196
0.8274509803921568 0.27450980392156865 0.00784313725490196
0.8588235294117647 0.2784313725490196 0.01568627450980392
0.8980392156862745 0.2901960784313726 0.023529411764705882
0.9294117647058824 0.2901960784313726 0.027450980392156862
0.0196078431372549 0.3215686274509804 0.01568627450980392
0.0196078431372549 0.3215686274509804 0.0196078431372549
0.0196078431372549 0.3215686274509804 0.0196078431372549
0.023529411764705882 0.3215686274509804 0.0196078431372549
0.050980392156862744 0.3215686274509804 0.01568627450980392
0.09019607843137255 0.3254901960784314 0.01568627450980392
0.12156862745098039 0.3254901960784314 0.01568627450980392
0.1568627450980392 0.3254901960784314 0.01568627450980392
0.18823529411764706 0.3254901960784314 0.01568627450980392
0.2196078431372549 0.3254901960784314 0.011764705882352941
0.25098039215686274 0.3254901960784314 0.01568627450980392
