cubelut/Xiaomi_OldTimes_LUT.cube
TITLE "Photo Curves LUT"
LUT_3D_SIZE 33
0.21176470588235294 0.12549019607843137 0.058823529411764705
0.21176470588235294 0.12549019607843137 0.058823529411764705
0.21176470588235294 0.12549019607843137 0.058823529411764705
0.21176470588235294 0.12549019607843137 0.058823529411764705
0.21176470588235294 0.12549019607843137 0.058823529411764705
0.2196078431372549 0.12549019607843137 0.054901960784313725
0.2196078431372549 0.12549019607843137 0.054901960784313725
0.2235294117647059 0.13333333333333333 0.06274509803921569
0.2235294117647059 0.13333333333333333 0.06274509803921569
0.23137254901960785 0.1411764705882353 0.06666666666666667
0.23529411764705882 0.1450980392156863 0.07058823529411765
0.24313725490196078 0.14901960784313725 0.07450980392156863
0.25098039215686274 0.1568627450980392 0.08235294117647059
0.2627450980392157 0.16470588235294117 0.09019607843137255
0.27450980392156865 0.17647058823529413 0.10196078431372549
0.2901960784313726 0.19215686274509805 0.11764705882352941
0.3058823529411765 0.20392156862745098 0.12941176470588237
0.3215686274509804 0.2196078431372549 0.1411764705882353
0.33725490196078434 0.23529411764705882 0.1607843137254902
0.34509803921568627 0.24705882352941178 0.16470588235294117
0.35294117647058826 0.25098039215686274 0.17647058823529413
0.3607843137254902 0.25882352941176473 0.1843137254901961
0.3686274509803922 0.26666666666666666 0.19215686274509805
0.37254901960784315 0.27058823529411763 0.19607843137254902
0.3803921568627451 0.2784313725490196 0.2
0.3843137254901961 0.2823529411764706 0.20784313725490197
0.38823529411764707 0.28627450980392155 0.21176470588235294
0.396078431372549 0.29411764705882354 0.2196078431372549
0.4117647058823529 0.30980392156862746 0.23529411764705882
0.43529411764705883 0.3333333333333333 0.2549019607843137
0.4627450980392157 0.36470588235294116 0.2901960784313726
0.4745098039215686 0.3764705882352941 0.30196078431372547
0.49019607843137253 0.39215686274509803 0.3176470588235294
0.2196078431372549 0.12549019607843137 0.054901960784313725
0.2196078431372549 0.12549019607843137 0.054901960784313725
0.21176470588235294 0.12549019607843137 0.058823529411764705
0.21176470588235294 0.12549019607843137 0.058823529411764705
0.21176470588235294 0.12549019607843137 0.058823529411764705
0.2196078431372549 0.12549019607843137 0.054901960784313725
0.2196078431372549 0.12549019607843137 0.054901960784313725
0.2235294117647059 0.13333333333333333 0.06274509803921569
0.2235294117647059 0.13333333333333333 0.06274509803921569
0.23137254901960785 0.1411764705882353 0.06666666666666667
0.23529411764705882 0.1450980392156863 0.07058823529411765
0.24313725490196078 0.14901960784313725 0.07450980392156863
0.25098039215686274 0.1568627450980392 0.08235294117647059
0.2627450980392157 0.16470588235294117 0.09019607843137255
0.27450980392156865 0.17647058823529413 0.10196078431372549
0.2901960784313726 0.19215686274509805 0.11764705882352941
0.3058823529411765 0.20784313725490197 0.12941176470588237
0.3215686274509804 0.2196078431372549 0.1411764705882353
0.33725490196078434 0.23529411764705882 0.1607843137254902
0.34509803921568627 0.24705882352941178 0.16470588235294117
0.35294117647058826 0.25098039215686274 0.17647058823529413
0.3607843137254902 0.25882352941176473 0.1843137254901961
0.3686274509803922 0.26666666666666666 0.19215686274509805
0.37254901960784315 0.27058823529411763 0.19607843137254902
0.3803921568627451 0.2784313725490196 0.2
0.3843137254901961 0.2823529411764706 0.20784313725490197
0.38823529411764707 0.28627450980392155 0.21176470588235294
0.396078431372549 0.29411764705882354 0.2196078431372549
0.40784313725490196 0.30980392156862746 0.23137254901960785
0.4470588235294118 0.34509803921568627 0.27058823529411763
0.4588235294117647 0.3568627450980392 0.2823529411764706
0.4745098039215686 0.3764705882352941 0.30196078431372547
0.48627450980392156 0.38823529411764707 0.3176470588235294
0.2235294117647059 0.13333333333333333 0.06274509803921569
0.2235294117647059 0.13333333333333333 0.06274509803921569
0.2235294117647059 0.13333333333333333 0.06274509803921569
0.2196078431372549 0.12549019607843137 0.054901960784313725
0.2196078431372549 0.12549019607843137 0.054901960784313725
0.2235294117647059 0.13333333333333333 0.06274509803921569
0.2235294117647059 0.13333333333333333 0.06274509803921569
0.2235294117647059 0.13333333333333333 0.06274509803921569
0.23137254901960785 0.1411764705882353 0.06666666666666667
0.23529411764705882 0.1450980392156863 0.07058823529411765
0.23529411764705882 0.1450980392156863 0.07058823529411765
0.24313725490196078 0.14901960784313725 0.07450980392156863
0.2549019607843137 0.1607843137254902 0.08627450980392157
0.2627450980392157 0.16470588235294117 0.09019607843137255
0.27450980392156865 0.17647058823529413 0.10196078431372549
0.2901960784313726 0.19215686274509805 0.11764705882352941
0.3058823529411765 0.20784313725490197 0.12941176470588237
0.3215686274509804 0.2196078431372549 0.1411764705882353
0.33725490196078434 0.23529411764705882 0.1607843137254902
0.34509803921568627 0.24705882352941178 0.16470588235294117
0.35294117647058826 0.25098039215686274 0.17647058823529413
0.3607843137254902 0.25882352941176473 0.1843137254901961
0.3686274509803922 0.26666666666666666 0.19215686274509805
0.37254901960784315 0.27058823529411763 0.19607843137254902
0.3803921568627451 0.2784313725490196 0.2
0.3843137254901961 0.2823529411764706 0.20784313725490197
0.38823529411764707 0.28627450980392155 0.21176470588235294
0.396078431372549 0.29411764705882354 0.2196078431372549
0.40784313725490196 0.30980392156862746 0.23137254901960785
0.43529411764705883 0.3333333333333333 0.2549019607843137
0.45098039215686275 0.34901960784313724 0.27450980392156865
0.4627450980392157 0.36470588235294116 0.29411764705882354
0.48627450980392156 0.38823529411764707 0.3176470588235294
0.23137254901960785 0.1411764705882353 0.06666666666666667
0.23137254901960785 0.1411764705882353 0.06666666666666667
0.23137254901960785 0.1411764705882353 0.06666666666666667
0.23137254901960785 0.1411764705882353 0.06666666666666667
0.2235294117647059 0.13333333333333333 0.06274509803921569
0.2235294117647059 0.13333333333333333 0.06274509803921569
0.23137254901960785 0.1411764705882353 0.06666666666666667
0.23137254901960785 0.1411764705882353 0.06666666666666667
0.23529411764705882 0.1450980392156863 0.07058823529411765
0.24313725490196078 0.14901960784313725 0.07450980392156863
0.24313725490196078 0.14901960784313725 0.07450980392156863
0.24313725490196078 0.14901960784313725 0.07450980392156863
0.2549019607843137 0.1607843137254902 0.08627450980392157
0.27058823529411763 0.17254901960784313 0.09411764705882353
0.27450980392156865 0.17647058823529413 0.10196078431372549
0.2901960784313726 0.19215686274509805 0.11764705882352941
0.3058823529411765 0.20392156862745098 0.12941176470588237
0.3215686274509804 0.2196078431372549 0.1411764705882353
0.33725490196078434 0.23529411764705882 0.1607843137254902
0.34509803921568627 0.24705882352941178 0.16470588235294117
0.35294117647058826 0.25098039215686274 0.17647058823529413
0.3607843137254902 0.25882352941176473 0.1843137254901961
0.3686274509803922 0.26666666666666666 0.19215686274509805
0.37254901960784315 0.27058823529411763 0.19607843137254902
0.3803921568627451 0.2784313725490196 0.2
0.3843137254901961 0.2823529411764706 0.20784313725490197
0.38823529411764707 0.28627450980392155 0.21176470588235294
0.396078431372549 0.29411764705882354 0.2196078431372549
0.4117647058823529 0.30980392156862746 0.23529411764705882
0.4392156862745098 0.33725490196078434 0.2627450980392157
0.45098039215686275 0.34901960784313724 0.27450980392156865
0.4745098039215686 0.3764705882352941 0.30196078431372547
0.47843137254901963 0.3803921568627451 0.3058823529411765
0.24313725490196078 0.14901960784313725 0.07450980392156863
0.24313725490196078 0.14901960784313725 0.07450980392156863
0.24313725490196078 0.14901960784313725 0.07450980392156863
0.24313725490196078 0.14901960784313725 0.07450980392156863
0.23529411764705882 0.1450980392156863 0.07058823529411765
0.23529411764705882 0.1450980392156863 0.07058823529411765
0.23529411764705882 0.1450980392156863 0.07058823529411765
0.23529411764705882 0.1450980392156863 0.07058823529411765
0.24313725490196078 0.14901960784313725 0.07450980392156863
0.24313725490196078 0.14901960784313725 0.07450980392156863
0.24313725490196078 0.14901960784313725 0.07450980392156863
0.2549019607843137 0.1607843137254902 0.08627450980392157
0.2627450980392157 0.16470588235294117 0.09019607843137255
0.27058823529411763 0.17254901960784313 0.09411764705882353
0.28627450980392155 0.18823529411764706 0.10980392156862745
0.2980392156862745 0.19607843137254902 0.12156862745098039
0.3058823529411765 0.20784313725490197 0.12941176470588237
0.3215686274509804 0.2196078431372549 0.1411764705882353
0.33725490196078434 0.23529411764705882 0.1607843137254902
0.34509803921568627 0.24705882352941178 0.16470588235294117
0.35294117647058826 0.25098039215686274 0.17647058823529413
0.3607843137254902 0.25882352941176473 0.1843137254901961
0.3686274509803922 0.26666666666666666 0.19215686274509805
0.3803921568627451 0.2784313725490196 0.2
0.38823529411764707 0.28627450980392155 0.21176470588235294
0.3843137254901961 0.2823529411764706 0.20784313725490197
0.40784313725490196 0.30980392156862746 0.23137254901960785
0.42745098039215684 0.3254901960784314 0.24705882352941178
0.4392156862745098 0.33725490196078434 0.25882352941176473
0.45098039215686275 0.34901960784313724 0.27450980392156865
0.47058823529411764 0.37254901960784315 0.2980392156862745
0.48627450980392156 0.38823529411764707 0.3176470588235294
0.4980392156862745 0.4 0.3254901960784314
0.24313725490196078 0.14901960784313725 0.07450980392156863
0.25098039215686274 0.1568627450980392 0.08235294117647059
0.25098039215686274 0.1568627450980392 0.08235294117647059
0.25098039215686274 0.1568627450980392 0.08235294117647059
0.25098039215686274 0.1568627450980392 0.08235294117647059
0.24313725490196078 0.14901960784313725 0.07450980392156863
0.24313725490196078 0.14901960784313725 0.07450980392156863
0.24313725490196078 0.14901960784313725 0.07450980392156863
0.24313725490196078 0.14901960784313725 0.07450980392156863
0.25098039215686274 0.1568627450980392 0.08235294117647059
0.25098039215686274 0.1568627450980392 0.08235294117647059
0.2627450980392157 0.16470588235294117 0.09019607843137255
0.27058823529411763 0.17254901960784313 0.09411764705882353
0.27450980392156865 0.17647058823529413 0.10196078431372549
0.2901960784313726 0.19215686274509805 0.11764705882352941
0.3137254901960784 0.21176470588235294 0.13725490196078433
0.3215686274509804 0.2196078431372549 0.1411764705882353
0.34509803921568627 0.24313725490196078 0.16862745098039217
0.34901960784313724 0.25098039215686274 0.17254901960784313
0.3607843137254902 0.25882352941176473 0.1843137254901961
0.3686274509803922 0.26666666666666666 0.19215686274509805
0.3803921568627451 0.2784313725490196 0.2
0.3843137254901961 0.2823529411764706 0.20784313725490197
0.39215686274509803 0.2901960784313726 0.21568627450980393
0.4 0.2980392156862745 0.2235294117647059
0.40784313725490196 0.30980392156862746 0.23137254901960785
0.42745098039215684 0.3254901960784314 0.24705882352941178
0.4470588235294118 0.34509803921568627 0.27058823529411763
0.45098039215686275 0.34901960784313724 0.27450980392156865
0.4627450980392157 0.36470588235294116 0.2901960784313726
0.47843137254901963 0.3803921568627451 0.3058823529411765
0.4980392156862745 0.4 0.3254901960784314
0.5058823529411764 0.40784313725490196 0.33725490196078434
0.25098039215686274 0.1568627450980392 0.08235294117647059
0.2549019607843137 0.1607843137254902 0.08627450980392157
0.2549019607843137 0.1607843137254902 0.08627450980392157
0.2549019607843137 0.1607843137254902 0.08627450980392157
0.25882352941176473 0.1607843137254902 0.08627450980392157
0.2627450980392157 0.16470588235294117 0.09019607843137255
0.25098039215686274 0.1568627450980392 0.08235294117647059
0.2549019607843137 0.1607843137254902 0.08627450980392157
0.2549019607843137 0.1607843137254902 0.08627450980392157
0.25882352941176473 0.1607843137254902 0.08627450980392157
0.2627450980392157 0.16470588235294117 0.09019607843137255
0.27058823529411763 0.17254901960784313 0.09411764705882353
0.27450980392156865 0.17647058823529413 0.10196078431372549
0.28627450980392155 0.18823529411764706 0.11372549019607843
0.30196078431372547 0.2 0.12549019607843137
0.3215686274509804 0.2196078431372549 0.1411764705882353
0.33725490196078434 0.23529411764705882 0.1607843137254902
0.35294117647058826 0.25098039215686274 0.17647058823529413
0.3686274509803922 0.26666666666666666 0.19215686274509805
0.3803921568627451 0.2784313725490196 0.2
0.3803921568627451 0.2784313725490196 0.2
0.396078431372549 0.29411764705882354 0.2196078431372549
0.4 0.2980392156862745 0.2235294117647059
0.40784313725490196 0.30980392156862746 0.23137254901960785
0.4117647058823529 0.30980392156862746 0.23529411764705882
0.42745098039215684 0.3254901960784314 0.24705882352941178
0.4392156862745098 0.33725490196078434 0.2627450980392157
0.45098039215686275 0.34901960784313724 0.27450980392156865
0.4627450980392157 0.36470588235294116 0.2901960784313726
0.4745098039215686 0.3764705882352941 0.30196078431372547
0.49019607843137253 0.39215686274509803 0.3176470588235294
0.5058823529411764 0.40784313725490196 0.33725490196078434
0.5176470588235295 0.4196078431372549 0.34509803921568627
0.2627450980392157 0.16470588235294117 0.09019607843137255
0.2627450980392157 0.16470588235294117 0.09019607843137255
0.2627450980392157 0.16470588235294117 0.09019607843137255
0.27058823529411763 0.17254901960784313 0.09411764705882353
0.27058823529411763 0.17254901960784313 0.09411764705882353
0.27058823529411763 0.17254901960784313 0.09411764705882353
0.27450980392156865 0.17647058823529413 0.10196078431372549
0.2627450980392157 0.16470588235294117 0.09019607843137255
0.27058823529411763 0.17254901960784313 0.09411764705882353
0.27058823529411763 0.17254901960784313 0.09411764705882353
0.27058823529411763 0.17254901960784313 0.09411764705882353
0.27450980392156865 0.17647058823529413 0.10196078431372549
0.28627450980392155 0.18823529411764706 0.10980392156862745
0.2980392156862745 0.19607843137254902 0.12156862745098039
0.3137254901960784 0.21176470588235294 0.13725490196078433
0.3333333333333333 0.23137254901960785 0.1568627450980392
0.34509803921568627 0.24705882352941178 0.16470588235294117
0.3607843137254902 0.25882352941176473 0.1843137254901961
0.3803921568627451 0.2784313725490196 0.2
0.38823529411764707 0.28627450980392155 0.21176470588235294
0.396078431372549 0.29411764705882354 0.2196078431372549
0.4 0.2980392156862745 0.2235294117647059
0.4117647058823529 0.30980392156862746 0.23529411764705882
0.4117647058823529 0.30980392156862746 0.23529411764705882
0.43529411764705883 0.3333333333333333 0.2549019607843137
0.4470588235294118 0.34509803921568627 0.27058823529411763
0.45098039215686275 0.34901960784313724 0.27450980392156865
0.4627450980392157 0.36470588235294116 0.2901960784313726
0.47843137254901963 0.3803921568627451 0.3058823529411765
0.49019607843137253 0.39215686274509803 0.3176470588235294
0.5019607843137255 0.403921568627451 0.32941176470588235
0.5176470588235295 0.4196078431372549 0.34509803921568627
0.5215686274509804 0.4235294117647059 0.3568627450980392
0.27058823529411763 0.17254901960784313 0.09411764705882353
0.27058823529411763 0.17254901960784313 0.09411764705882353
0.27058823529411763 0.17254901960784313 0.09411764705882353
0.27058823529411763 0.17254901960784313 0.09411764705882353
0.27450980392156865 0.17647058823529413 0.10196078431372549
0.28627450980392155 0.18823529411764706 0.10980392156862745
0.2901960784313726 0.19215686274509805 0.11764705882352941
0.2901960784313726 0.19215686274509805 0.11764705882352941
0.27450980392156865 0.17647058823529413 0.10196078431372549
0.28627450980392155 0.18823529411764706 0.10980392156862745
0.28627450980392155 0.18823529411764706 0.10980392156862745
0.2901960784313726 0.19215686274509805 0.11764705882352941
0.30196078431372547 0.2 0.12549019607843137
0.3137254901960784 0.21176470588235294 0.13725490196078433
0.3333333333333333 0.23137254901960785 0.1568627450980392
0.34509803921568627 0.24313725490196078 0.16862745098039217
0.3607843137254902 0.25882352941176473 0.1843137254901961
0.37254901960784315 0.27058823529411763 0.19607843137254902
0.38823529411764707 0.28627450980392155 0.21176470588235294
0.396078431372549 0.29411764705882354 0.2196078431372549
0.40784313725490196 0.30980392156862746 0.23137254901960785
0.4117647058823529 0.30980392156862746 0.23529411764705882
0.42745098039215684 0.3254901960784314 0.24705882352941178
0.43529411764705883 0.3333333333333333 0.2549019607843137
0.4392156862745098 0.33725490196078434 0.25882352941176473
0.4588235294117647 0.3568627450980392 0.2823529411764706
0.4627450980392157 0.36470588235294116 0.29411764705882354
0.47843137254901963 0.3803921568627451 0.3058823529411765
0.49019607843137253 0.39215686274509803 0.3176470588235294
0.5019607843137255 0.403921568627451 0.32941176470588235
0.5058823529411764 0.40784313725490196 0.33725490196078434
0.5215686274509804 0.42745098039215684 0.3568627450980392
0.5254901960784314 0.43137254901960786 0.3607843137254902
0.27450980392156865 0.17647058823529413 0.10196078431372549
0.27450980392156865 0.17647058823529413 0.10196078431372549
0.28627450980392155 0.18823529411764706 0.10980392156862745
0.28627450980392155 0.18823529411764706 0.10980392156862745
0.28627450980392155 0.18823529411764706 0.10980392156862745
0.2901960784313726 0.19215686274509805 0.11764705882352941
0.30196078431372547 0.2 0.12549019607843137
0.3137254901960784 0.21176470588235294 0.13725490196078433
0.3215686274509804 0.2196078431372549 0.1411764705882353
0.2980392156862745 0.19607843137254902 0.12156862745098039
0.30196078431372547 0.2 0.12549019607843137
0.3058823529411765 0.20784313725490197 0.12941176470588237
0.3215686274509804 0.2196078431372549 0.1411764705882353
0.3333333333333333 0.23137254901960785 0.1568627450980392
0.34509803921568627 0.24705882352941178 0.16470588235294117
0.3607843137254902 0.25882352941176473 0.1843137254901961
0.3803921568627451 0.2784313725490196 0.2
0.38823529411764707 0.28627450980392155 0.21176470588235294
0.396078431372549 0.29411764705882354 0.2196078431372549
0.4 0.2980392156862745 0.2235294117647059
0.4117647058823529 0.30980392156862746 0.23529411764705882
0.42745098039215684 0.3254901960784314 0.24705882352941178
0.43529411764705883 0.3333333333333333 0.2549019607843137
0.4470588235294118 0.34509803921568627 0.27058823529411763
0.45098039215686275 0.34901960784313724 0.27450980392156865
0.4627450980392157 0.36470588235294116 0.2901960784313726
0.4745098039215686 0.3764705882352941 0.30196078431372547
0.48627450980392156 0.38823529411764707 0.3176470588235294
0.5019607843137255 0.403921568627451 0.32941176470588235
0.5058823529411764 0.40784313725490196 0.33725490196078434
0.5215686274509804 0.4235294117647059 0.3568627450980392
0.5294117647058824 0.43529411764705883 0.36470588235294116
0.5450980392156862 0.45098039215686275 0.3803921568627451
0.2901960784313726 0.19215686274509805 0.11764705882352941
0.2901960784313726 0.19215686274509805 0.11764705882352941
0.2980392156862745 0.19607843137254902 0.12156862745098039
0.30196078431372547 0.2 0.12549019607843137
0.30196078431372547 0.2 0.12549019607843137
0.3058823529411765 0.20392156862745098 0.12941176470588237
0.3215686274509804 0.2196078431372549 0.1411764705882353
0.3333333333333333 0.23137254901960785 0.1568627450980392
0.34901960784313724 0.25098039215686274 0.17254901960784313
0.34509803921568627 0.24313725490196078 0.16862745098039217
0.3215686274509804 0.2196078431372549 0.1411764705882353
0.3333333333333333 0.23137254901960785 0.1568627450980392
0.33725490196078434 0.23529411764705882 0.1607843137254902
0.34901960784313724 0.25098039215686274 0.17254901960784313
0.3607843137254902 0.25882352941176473 0.1843137254901961
0.3803921568627451 0.2784313725490196 0.2
0.396078431372549 0.29411764705882354 0.2196078431372549
0.4 0.2980392156862745 0.2235294117647059
0.40784313725490196 0.30980392156862746 0.23137254901960785
0.4117647058823529 0.30980392156862746 0.23529411764705882
0.43137254901960786 0.32941176470588235 0.2549019607843137
0.4392156862745098 0.33725490196078434 0.2627450980392157
0.4470588235294118 0.34901960784313724 0.27058823529411763
0.4588235294117647 0.3568627450980392 0.2823529411764706
0.4627450980392157 0.36470588235294116 0.2901960784313726
0.47843137254901963 0.3803921568627451 0.3058823529411765
0.49019607843137253 0.39215686274509803 0.3176470588235294
0.4980392156862745 0.4 0.3254901960784314
0.5058823529411764 0.40784313725490196 0.33725490196078434
0.5215686274509804 0.4235294117647059 0.34901960784313724
0.5372549019607843 0.44313725490196076 0.37254901960784315
0.5450980392156862 0.45098039215686275 0.3803921568627451
0.5490196078431373 0.4549019607843137 0.3843137254901961
0.3058823529411765 0.20392156862745098 0.12941176470588237
0.3058823529411765 0.20392156862745098 0.12941176470588237
0.3137254901960784 0.21176470588235294 0.13725490196078433
0.3137254901960784 0.21176470588235294 0.13725490196078433
0.3215686274509804 0.2196078431372549 0.1411764705882353
0.3215686274509804 0.2196078431372549 0.1411764705882353
0.33725490196078434 0.23529411764705882 0.1607843137254902
0.34901960784313724 0.25098039215686274 0.17254901960784313
0.37254901960784315 0.27058823529411763 0.19607843137254902
0.396078431372549 0.29411764705882354 0.2196078431372549
0.3803921568627451 0.2784313725490196 0.2
0.34901960784313724 0.25098039215686274 0.17254901960784313
0.3607843137254902 0.25882352941176473 0.1843137254901961
0.37254901960784315 0.27058823529411763 0.19607843137254902
0.3843137254901961 0.2823529411764706 0.20784313725490197
0.396078431372549 0.29411764705882354 0.2196078431372549
0.40784313725490196 0.30980392156862746 0.23137254901960785
0.4117647058823529 0.30980392156862746 0.23529411764705882
0.42745098039215684 0.3254901960784314 0.24705882352941178
0.43529411764705883 0.3333333333333333 0.2549019607843137
0.4470588235294118 0.34509803921568627 0.27058823529411763
0.45098039215686275 0.34901960784313724 0.27450980392156865
0.4588235294117647 0.3568627450980392 0.2823529411764706
0.4627450980392157 0.36470588235294116 0.2901960784313726
0.47843137254901963 0.3803921568627451 0.3058823529411765
0.48627450980392156 0.38823529411764707 0.3176470588235294
0.5019607843137255 0.403921568627451 0.32941176470588235
0.5058823529411764 0.40784313725490196 0.33725490196078434
0.5215686274509804 0.4235294117647059 0.3568627450980392
0.5254901960784314 0.43137254901960786 0.3607843137254902
0.5450980392156862 0.45098039215686275 0.3803921568627451
0.5568627450980392 0.4627450980392157 0.39215686274509803
0.5568627450980392 0.4627450980392157 0.39215686274509803
0.3215686274509804 0.2196078431372549 0.1411764705882353
0.3215686274509804 0.2196078431372549 0.1450980392156863
0.3333333333333333 0.23137254901960785 0.1568627450980392
0.33725490196078434 0.23529411764705882 0.1607843137254902
0.33725490196078434 0.23529411764705882 0.1607843137254902
0.34509803921568627 0.24705882352941178 0.16470588235294117
0.3607843137254902 0.25882352941176473 0.1843137254901961
0.3803921568627451 0.2784313725490196 0.2
0.4 0.2980392156862745 0.2235294117647059
0.4117647058823529 0.30980392156862746 0.23529411764705882
0.45098039215686275 0.34901960784313724 0.27450980392156865
0.4117647058823529 0.30980392156862746 0.23529411764705882
0.3843137254901961 0.2823529411764706 0.20784313725490197
0.396078431372549 0.29411764705882354 0.2196078431372549
0.40784313725490196 0.30980392156862746 0.23137254901960785
0.4117647058823529 0.30980392156862746 0.23529411764705882
0.43529411764705883 0.3333333333333333 0.2549019607843137
0.4470588235294118 0.34509803921568627 0.27058823529411763
