cubelut/Xiaomi_OldTimes_LUT.cube
TITLE "Photo Curves LUT"
LUT_3D_SIZE 5
0.21176470588235294 0.12549019607843137 0.058823529411764705
0.2235294117647059 0.13333333333333333 0.06274509803921569
0.3058823529411765 0.20392156862745098 0.12941176470588237
0.3803921568627451 0.2784313725490196 0.2
0.49019607843137253 0.39215686274509803 0.3176470588235294
0.27058823529411763 0.17254901960784313 0.09411764705882353
0.27450980392156865 0.17647058823529413 0.10196078431372549
0.3607843137254902 0.25882352941176473 0.1843137254901961
0.4392156862745098 0.33725490196078434 0.25882352941176473
0.5254901960784314 0.43137254901960786 0.3607843137254902
0.4117647058823529 0.30980392156862746 0.23529411764705882
0.5058823529411764 0.40784313725490196 0.33725490196078434
0.5882352941176471 0.49019607843137253 0.4235294117647059
0.5725490196078431 0.47843137254901963 0.4117647058823529
0.6196078431372549 0.5294117647058824 0.4627450980392157
0.5803921568627451 0.48627450980392156 0.4196078431372549
0.6549019607843137 0.5686274509803921 0.5019607843137255
0.8235294117647058 0.7725490196078432 0.7333333333333333
0.788235294117647 0.7294117647058823 0.6823529411764706
0.7686274509803922 0.6980392156862745 0.6509803921568628
0.6901960784313725 0.6039215686274509 0.5411764705882353
0.7019607843137254 0.6196078431372549 0.5607843137254902
0.8588235294117647 0.8196078431372549 0.788235294117647
0.9176470588235294 0.8941176470588236 0.8784313725490196
0.8862745098039215 0.8588235294117647 0.8313725490196079
0.21176470588235294 0.12549019607843137 0.058823529411764705
0.2235294117647059 0.13333333333333333 0.06274509803921569
0.3058823529411765 0.20392156862745098 0.12941176470588237
0.3803921568627451 0.2784313725490196 0.20392156862745098
0.5019607843137255 0.403921568627451 0.32941176470588235
0.2627450980392157 0.16470588235294117 0.09019607843137255
0.28627450980392155 0.18823529411764706 0.11372549019607843
0.40784313725490196 0.30980392156862746 0.23137254901960785
0.5215686274509804 0.42745098039215684 0.3568627450980392
0.615686274509804 0.5215686274509804 0.4549019607843137
0.396078431372549 0.29411764705882354 0.2196078431372549
0.4470588235294118 0.34509803921568627 0.27058823529411763
0.615686274509804 0.5215686274509804 0.4549019607843137
0.6431372549019608 0.5529411764705883 0.48627450980392156
0.7019607843137254 0.6196078431372549 0.5607843137254902
0.5607843137254902 0.4666666666666667 0.396078431372549
0.615686274509804 0.5215686274509804 0.4549019607843137
0.803921568627451 0.7450980392156863 0.7019607843137254
0.803921568627451 0.7490196078431373 0.7058823529411765
0.788235294117647 0.7294117647058823 0.6823529411764706
0.6705882352941176 0.5803921568627451 0.5176470588235295
0.6901960784313725 0.6078431372549019 0.5450980392156862
0.8392156862745098 0.792156862745098 0.7568627450980392
0.9058823529411765 0.8862745098039215 0.8627450980392157
0.8980392156862745 0.8666666666666667 0.8470588235294118
0.21176470588235294 0.12549019607843137 0.058823529411764705
0.2235294117647059 0.13333333333333333 0.06274509803921569
0.2980392156862745 0.19607843137254902 0.12156862745098039
0.4 0.2980392156862745 0.2235294117647059
0.5372549019607843 0.44313725490196076 0.37254901960784315
0.25098039215686274 0.1568627450980392 0.08235294117647059
0.27058823529411763 0.17254901960784313 0.09411764705882353
0.4117647058823529 0.30980392156862746 0.23529411764705882
0.5490196078431373 0.4549019607843137 0.3843137254901961
0.6470588235294118 0.5607843137254902 0.49411764705882355
0.3803921568627451 0.2784313725490196 0.2
0.42745098039215684 0.3254901960784314 0.24705882352941178
0.6588235294117647 0.5686274509803921 0.5058823529411764
0.7019607843137254 0.6196078431372549 0.5607843137254902
0.7686274509803922 0.6980392156862745 0.6509803921568628
0.5490196078431373 0.4549019607843137 0.3843137254901961
0.592156862745098 0.5019607843137255 0.43529411764705883
0.7254901960784313 0.6470588235294118 0.592156862745098
0.8196078431372549 0.7647058823529411 0.7294117647058823
0.807843137254902 0.7529411764705882 0.7137254901960784
0.6627450980392157 0.5764705882352941 0.5137254901960784
0.6901960784313725 0.6039215686274509 0.5411764705882353
0.7764705882352941 0.7137254901960784 0.6627450980392157
0.8980392156862745 0.8666666666666667 0.8470588235294118
0.9058823529411765 0.8862745098039215 0.8627450980392157
0.2196078431372549 0.12549019607843137 0.054901960784313725
0.23529411764705882 0.1450980392156863 0.07058823529411765
0.34509803921568627 0.24705882352941178 0.16470588235294117
0.4392156862745098 0.33725490196078434 0.2627450980392157
0.5882352941176471 0.49019607843137253 0.4235294117647059
0.24313725490196078 0.14901960784313725 0.07450980392156863
0.27450980392156865 0.17647058823529413 0.10196078431372549
0.48627450980392156 0.38823529411764707 0.3176470588235294
0.596078431372549 0.5058823529411764 0.4392156862745098
0.7098039215686275 0.6274509803921569 0.5686274509803921
0.34901960784313724 0.25098039215686274 0.17254901960784313
0.3803921568627451 0.2784313725490196 0.2
0.5372549019607843 0.44313725490196076 0.37254901960784315
0.7450980392156863 0.6745098039215687 0.6196078431372549
0.8196078431372549 0.7647058823529411 0.7294117647058823
0.5725490196078431 0.47843137254901963 0.4117647058823529
0.6274509803921569 0.5333333333333333 0.4666666666666667
0.7568627450980392 0.6862745098039216 0.6352941176470588
0.8745098039215686 0.8392156862745098 0.8117647058823529
0.8745098039215686 0.8392156862745098 0.8117647058823529
0.6901960784313725 0.6078431372549019 0.5450980392156862
0.7176470588235294 0.6431372549019608 0.5843137254901961
0.8 0.7411764705882353 0.6980392156862745
0.8862745098039215 0.8588235294117647 0.8313725490196079
0.9294117647058824 0.9098039215686274 0.8941176470588236
0.23529411764705882 0.1450980392156863 0.07058823529411765
0.2549019607843137 0.1607843137254902 0.08627450980392157
0.40784313725490196 0.30980392156862746 0.23137254901960785
0.5372549019607843 0.44313725490196076 0.37254901960784315
0.615686274509804 0.5215686274509804 0.4549019607843137
0.25098039215686274 0.1568627450980392 0.08235294117647059
0.30196078431372547 0.2 0.12549019607843137
0.5254901960784314 0.43137254901960786 0.3607843137254902
0.6823529411764706 0.6 0.5372549019607843
0.7411764705882353 0.6666666666666666 0.615686274509804
0.3607843137254902 0.25882352941176473 0.1843137254901961
0.3843137254901961 0.2823529411764706 0.20784313725490197
0.6274509803921569 0.5333333333333333 0.4666666666666667
0.792156862745098 0.7333333333333333 0.6901960784313725
0.8392156862745098 0.792156862745098 0.7568627450980392
0.5725490196078431 0.47843137254901963 0.4117647058823529
0.6274509803921569 0.5333333333333333 0.4666666666666667
0.7411764705882353 0.6666666666666666 0.615686274509804
0.8431372549019608 0.803921568627451 0.7686274509803922
0.9176470588235294 0.8941176470588236 0.8784313725490196
0.7176470588235294 0.6431372549019608 0.5843137254901961
0.7450980392156863 0.6745098039215687 0.6196078431372549
0.8549019607843137 0.8156862745098039 0.7843137254901961
0.9450980392156862 0.9333333333333333 0.9215686274509803
0.996078431372549 1.0 0.996078431372549
