cubelut/Xiaomi_Realistic_LUT.cube
TITLE "Photo Curves LUT"
LUT_3D_SIZE 5
0.0 0.0 0.0
0.26666666666666666 0.09411764705882353 0.09411764705882353
0.4627450980392157 0.12549019607843137 0.1411764705882353
0.6509803921568628 0.058823529411764705 0.11372549019607843
0.9137254901960784 0.058823529411764705 0.0784313725490196
0.03137254901960784 0.24705882352941178 0.0392156862745098
0.23921568627450981 0.24705882352941178 0.023529411764705882
0.44313725490196076 0.2196078431372549 0.023529411764705882
0.6509803921568628 0.20784313725490197 0.01568627450980392
0.9254901960784314 0.23529411764705882 0.023529411764705882
0.0196078431372549 0.403921568627451 0.01568627450980392
0.16862745098039217 0.4235294117647059 0.01568627450980392
0.44313725490196076 0.44313725490196076 0.00784313725490196
0.6862745098039216 0.40784313725490196 0.011764705882352941
0.9450980392156862 0.396078431372549 0.058823529411764705
0.11764705882352941 0.6745098039215687 0.0784313725490196
0.16470588235294117 0.6941176470588235 0.08235294117647059
0.41568627450980394 0.7137254901960784 0.09019607843137255
0.7137254901960784 0.7098039215686275 0.08235294117647059
0.9450980392156862 0.6431372549019608 0.08235294117647059
0.11764705882352941 0.8745098039215686 0.0784313725490196
0.12156862745098039 0.8862745098039215 0.0784313725490196
0.25098039215686274 0.9019607843137255 0.06274509803921569
0.5607843137254902 0.9098039215686274 0.050980392156862744
0.8784313725490196 0.9058823529411765 0.011764705882352941
0.023529411764705882 0.0392156862745098 0.2196078431372549
0.27058823529411763 0.09803921568627451 0.27450980392156865
0.4627450980392157 0.12156862745098039 0.3058823529411765
0.6549019607843137 0.047058823529411764 0.2980392156862745
0.9176470588235294 0.07058823529411765 0.2901960784313726
0.0392156862745098 0.23137254901960785 0.23921568627450981
0.2549019607843137 0.25882352941176473 0.2549019607843137
0.4549019607843137 0.24313725490196078 0.2549019607843137
0.6862745098039216 0.2549019607843137 0.27058823529411763
0.9568627450980393 0.24705882352941178 0.25098039215686274
0.0196078431372549 0.4 0.2
0.13725490196078433 0.4470588235294118 0.1607843137254902
0.4745098039215686 0.4745098039215686 0.16470588235294117
0.7176470588235294 0.43137254901960786 0.16862745098039217
0.9725490196078431 0.43137254901960786 0.16862745098039217
0.11372549019607843 0.6705882352941176 0.20392156862745098
0.1607843137254902 0.7176470588235294 0.1568627450980392
0.403921568627451 0.7333333333333333 0.13333333333333333
0.7333333333333333 0.7333333333333333 0.12549019607843137
0.9647058823529412 0.6352941176470588 0.0784313725490196
0.12156862745098039 0.8666666666666667 0.12156862745098039
0.10980392156862745 0.9058823529411765 0.06666666666666667
0.21176470588235294 0.9176470588235294 0.058823529411764705
0.5490196078431373 0.9294117647058824 0.043137254901960784
0.9058823529411765 0.9215686274509803 0.00784313725490196
0.10588235294117647 0.10588235294117647 0.4627450980392157
0.27058823529411763 0.09803921568627451 0.49411764705882355
0.45098039215686275 0.11372549019607843 0.4745098039215686
0.6745098039215687 0.050980392156862744 0.5019607843137255
0.9450980392156862 0.11372549019607843 0.5294117647058824
0.03137254901960784 0.24313725490196078 0.43137254901960786
0.21176470588235294 0.23137254901960785 0.4627450980392157
0.4470588235294118 0.24705882352941178 0.4588235294117647
0.7019607843137254 0.26666666666666666 0.4980392156862745
0.9647058823529412 0.25882352941176473 0.4980392156862745
0.01568627450980392 0.38823529411764707 0.396078431372549
0.1607843137254902 0.43529411764705883 0.4392156862745098
0.5176470588235295 0.5215686274509804 0.5176470588235295
0.7568627450980392 0.49019607843137253 0.49411764705882355
0.996078431372549 0.4588235294117647 0.4627450980392157
0.11372549019607843 0.6666666666666666 0.4549019607843137
0.16470588235294117 0.7137254901960784 0.4470588235294118
0.37254901960784315 0.7529411764705882 0.39215686274509803
0.7529411764705882 0.7529411764705882 0.3686274509803922
0.984313725490196 0.6431372549019608 0.3058823529411765
0.11372549019607843 0.8666666666666667 0.3843137254901961
0.10196078431372549 0.9019607843137255 0.3254901960784314
0.20392156862745098 0.9372549019607843 0.24313725490196078
0.5215686274509804 0.9450980392156862 0.1843137254901961
0.9333333333333333 0.9450980392156862 0.17254901960784313
0.09019607843137255 0.058823529411764705 0.6627450980392157
0.21568627450980393 0.03529411764705882 0.6941176470588235
0.43529411764705883 0.0196078431372549 0.6941176470588235
0.6627450980392157 0.047058823529411764 0.6901960784313725
0.9725490196078431 0.1450980392156863 0.7686274509803922
0.0196078431372549 0.20392156862745098 0.6352941176470588
0.1607843137254902 0.19607843137254902 0.6666666666666666
0.40784313725490196 0.17647058823529413 0.6862745098039216
0.7058823529411765 0.27450980392156865 0.7254901960784313
0.9921568627450981 0.2784313725490196 0.7607843137254902
0.01568627450980392 0.3686274509803922 0.6
0.06274509803921569 0.3843137254901961 0.6392156862745098
0.38823529411764707 0.403921568627451 0.7019607843137254
0.7647058823529411 0.5058823529411764 0.7764705882352941
0.996078431372549 0.4627450980392157 0.7411764705882353
0.11372549019607843 0.6392156862745098 0.6588235294117647
0.18823529411764706 0.6862745098039216 0.7058823529411765
0.396078431372549 0.7333333333333333 0.7411764705882353
0.7647058823529411 0.7686274509803922 0.7647058823529411
0.9921568627450981 0.6980392156862745 0.7019607843137254
0.10588235294117647 0.8627450980392157 0.6588235294117647
0.09411764705882353 0.8980392156862745 0.6470588235294118
0.20784313725490197 0.9333333333333333 0.615686274509804
0.5372549019607843 0.9647058823529412 0.5686274509803921
0.9607843137254902 0.9686274509803922 0.5372549019607843
0.0196078431372549 0.0196078431372549 0.8470588235294118
0.08235294117647059 0.023529411764705882 0.8784313725490196
0.3568627450980392 0.0196078431372549 0.9019607843137255
0.6627450980392157 0.01568627450980392 0.9411764705882353
0.9647058823529412 0.1568627450980392 0.9921568627450981
0.0196078431372549 0.10980392156862745 0.8274509803921568
0.0196078431372549 0.08627450980392157 0.8745098039215686
0.30980392156862746 0.047058823529411764 0.8980392156862745
0.6509803921568628 0.12156862745098039 0.9529411764705882
0.984313725490196 0.27450980392156865 0.996078431372549
0.01568627450980392 0.2980392156862745 0.8
0.01568627450980392 0.29411764705882354 0.8431372549019608
0.25882352941176473 0.2980392156862745 0.8941176470588236
0.6392156862745098 0.34901960784313724 0.9764705882352941
0.996078431372549 0.4588235294117647 0.996078431372549
0.11372549019607843 0.5686274509803921 0.8588235294117647
0.12941176470588237 0.5882352941176471 0.9019607843137255
0.29411764705882354 0.611764705882353 0.9529411764705882
0.6431372549019608 0.6549019607843137 0.996078431372549
0.9882352941176471 0.6980392156862745 0.9921568627450981
0.12549019607843137 0.807843137254902 0.8627450980392157
0.11372549019607843 0.8509803921568627 0.8941176470588236
0.25098039215686274 0.8941176470588236 0.9294117647058824
0.5647058823529412 0.9372549019607843 0.9529411764705882
0.996078431372549 1.0 0.996078431372549
