cubelut/Xiaomi_Monochrome_LUT.cube
TITLE "Photo Curves LUT"
LUT_3D_SIZE 5
0.12941176470588237 0.12941176470588237 0.12941176470588237
0.13725490196078433 0.13725490196078433 0.13725490196078433
0.21176470588235294 0.21176470588235294 0.21176470588235294
0.28627450980392155 0.28627450980392155 0.28627450980392155
0.4 0.4 0.4
0.17647058823529413 0.17647058823529413 0.17647058823529413
0.1843137254901961 0.1843137254901961 0.1843137254901961
0.2627450980392157 0.2627450980392157 0.2627450980392157
0.34509803921568627 0.34509803921568627 0.34509803921568627
0.44313725490196076 0.44313725490196076 0.44313725490196076
0.3254901960784314 0.3254901960784314 0.3254901960784314
0.4196078431372549 0.4196078431372549 0.4196078431372549
0.5019607843137255 0.5019607843137255 0.5019607843137255
0.49411764705882355 0.49411764705882355 0.49411764705882355
0.5372549019607843 0.5372549019607843 0.5372549019607843
0.4980392156862745 0.4980392156862745 0.4980392156862745
0.5764705882352941 0.5764705882352941 0.5764705882352941
0.7764705882352941 0.7764705882352941 0.7764705882352941
0.7333333333333333 0.7333333333333333 0.7333333333333333
0.7058823529411765 0.7058823529411765 0.7058823529411765
0.615686274509804 0.615686274509804 0.615686274509804
0.6274509803921569 0.6274509803921569 0.6274509803921569
0.8196078431372549 0.8196078431372549 0.8196078431372549
0.8901960784313725 0.8901960784313725 0.8901960784313725
0.8549019607843137 0.8549019607843137 0.8549019607843137
0.12941176470588237 0.12941176470588237 0.12941176470588237
0.13725490196078433 0.13725490196078433 0.13725490196078433
0.21176470588235294 0.21176470588235294 0.21176470588235294
0.28627450980392155 0.28627450980392155 0.28627450980392155
0.4117647058823529 0.4117647058823529 0.4117647058823529
0.16862745098039217 0.16862745098039217 0.16862745098039217
0.19607843137254902 0.19607843137254902 0.19607843137254902
0.3176470588235294 0.3176470588235294 0.3176470588235294
0.4392156862745098 0.4392156862745098 0.4392156862745098
0.5333333333333333 0.5333333333333333 0.5333333333333333
0.30196078431372547 0.30196078431372547 0.30196078431372547
0.35294117647058826 0.35294117647058826 0.35294117647058826
0.5333333333333333 0.5333333333333333 0.5333333333333333
0.5607843137254902 0.5607843137254902 0.5607843137254902
0.6235294117647059 0.6235294117647059 0.6235294117647059
0.47843137254901963 0.47843137254901963 0.47843137254901963
0.5333333333333333 0.5333333333333333 0.5333333333333333
0.7490196078431373 0.7490196078431373 0.7490196078431373
0.7529411764705882 0.7529411764705882 0.7529411764705882
0.7333333333333333 0.7333333333333333 0.7333333333333333
0.592156862745098 0.592156862745098 0.592156862745098
0.615686274509804 0.615686274509804 0.615686274509804
0.796078431372549 0.796078431372549 0.796078431372549
0.8784313725490196 0.8784313725490196 0.8784313725490196
0.8666666666666667 0.8666666666666667 0.8666666666666667
0.12941176470588237 0.12941176470588237 0.12941176470588237
0.1411764705882353 0.1411764705882353 0.1411764705882353
0.20392156862745098 0.20392156862745098 0.20392156862745098
0.30980392156862746 0.30980392156862746 0.30980392156862746
0.45098039215686275 0.45098039215686275 0.45098039215686275
0.1568627450980392 0.1568627450980392 0.1568627450980392
0.17647058823529413 0.17647058823529413 0.17647058823529413
0.3254901960784314 0.3254901960784314 0.3254901960784314
0.4666666666666667 0.4666666666666667 0.4666666666666667
0.5686274509803921 0.5686274509803921 0.5686274509803921
0.28627450980392155 0.28627450980392155 0.28627450980392155
0.33725490196078434 0.33725490196078434 0.33725490196078434
0.5803921568627451 0.5803921568627451 0.5803921568627451
0.6235294117647059 0.6235294117647059 0.6235294117647059
0.7019607843137254 0.7019607843137254 0.7019607843137254
0.47058823529411764 0.47058823529411764 0.47058823529411764
0.5098039215686274 0.5098039215686274 0.5098039215686274
0.6549019607843137 0.6549019607843137 0.6549019607843137
0.7647058823529411 0.7647058823529411 0.7647058823529411
0.7568627450980392 0.7568627450980392 0.7568627450980392
0.5882352941176471 0.5882352941176471 0.5882352941176471
0.611764705882353 0.611764705882353 0.611764705882353
0.7176470588235294 0.7176470588235294 0.7176470588235294
0.8666666666666667 0.8666666666666667 0.8666666666666667
0.8784313725490196 0.8784313725490196 0.8784313725490196
0.13333333333333333 0.13333333333333333 0.13333333333333333
0.1450980392156863 0.1450980392156863 0.1450980392156863
0.2549019607843137 0.2549019607843137 0.2549019607843137
0.34901960784313724 0.34901960784313724 0.34901960784313724
0.5058823529411764 0.5058823529411764 0.5058823529411764
0.15294117647058825 0.15294117647058825 0.15294117647058825
0.1843137254901961 0.1843137254901961 0.1843137254901961
0.396078431372549 0.396078431372549 0.396078431372549
0.5176470588235295 0.5176470588235295 0.5176470588235295
0.6352941176470588 0.6352941176470588 0.6352941176470588
0.2549019607843137 0.2549019607843137 0.2549019607843137
0.28627450980392155 0.28627450980392155 0.28627450980392155
0.4549019607843137 0.4549019607843137 0.4549019607843137
0.6784313725490196 0.6784313725490196 0.6784313725490196
0.7647058823529411 0.7647058823529411 0.7647058823529411
0.49411764705882355 0.49411764705882355 0.49411764705882355
0.5411764705882353 0.5411764705882353 0.5411764705882353
0.6941176470588235 0.6941176470588235 0.6941176470588235
0.8352941176470589 0.8352941176470589 0.8352941176470589
0.8392156862745098 0.8392156862745098 0.8392156862745098
0.615686274509804 0.615686274509804 0.615686274509804
0.6470588235294118 0.6470588235294118 0.6470588235294118
0.7450980392156863 0.7450980392156863 0.7450980392156863
0.8549019607843137 0.8549019607843137 0.8549019607843137
0.9098039215686274 0.9098039215686274 0.9098039215686274
0.1450980392156863 0.1450980392156863 0.1450980392156863
0.1607843137254902 0.1607843137254902 0.1607843137254902
0.3176470588235294 0.3176470588235294 0.3176470588235294
0.4549019607843137 0.4549019607843137 0.4549019607843137
0.5333333333333333 0.5333333333333333 0.5333333333333333
0.1607843137254902 0.1607843137254902 0.1607843137254902
0.20392156862745098 0.20392156862745098 0.20392156862745098
0.44313725490196076 0.44313725490196076 0.44313725490196076
0.6078431372549019 0.6078431372549019 0.6078431372549019
0.6705882352941176 0.6705882352941176 0.6705882352941176
0.2627450980392157 0.2627450980392157 0.2627450980392157
0.2901960784313726 0.2901960784313726 0.2901960784313726
0.5411764705882353 0.5411764705882353 0.5411764705882353
0.7372549019607844 0.7372549019607844 0.7372549019607844
0.796078431372549 0.796078431372549 0.796078431372549
0.49411764705882355 0.49411764705882355 0.49411764705882355
0.5411764705882353 0.5411764705882353 0.5411764705882353
0.6705882352941176 0.6705882352941176 0.6705882352941176
0.803921568627451 0.803921568627451 0.803921568627451
0.8901960784313725 0.8901960784313725 0.8901960784313725
0.6470588235294118 0.6470588235294118 0.6470588235294118
0.6784313725490196 0.6784313725490196 0.6784313725490196
0.8117647058823529 0.8117647058823529 0.8117647058823529
0.9254901960784314 0.9254901960784314 0.9254901960784314
1.0 1.0 1.0
