cubelut/Xiaomi_AnalogCine_LUT.cube
TITLE "Photo Curves LUT"
LUT_3D_SIZE 5
0.0 0.0 0.0
0.23137254901960785 0.0196078431372549 0.01568627450980392
0.4588235294117647 0.027450980392156862 0.0392156862745098
0.7215686274509804 0.09019607843137255 0.08627450980392157
1.0 0.2235294117647059 0.22745098039215686
0.0196078431372549 0.21568627450980393 0.023529411764705882
0.23529411764705882 0.21568627450980393 0.023529411764705882
0.4745098039215686 0.1450980392156863 0.0196078431372549
0.7529411764705882 0.28627450980392155 0.03137254901960784
1.0 0.35294117647058826 0.17647058823529413
0.0196078431372549 0.4588235294117647 0.023529411764705882
0.25882352941176473 0.5098039215686274 0.011764705882352941
0.5333333333333333 0.44313725490196076 0.011764705882352941
0.8196078431372549 0.47843137254901963 0.06274509803921569
0.996078431372549 0.4627450980392157 0.10196078431372549
0.12549019607843137 0.7411764705882353 0.10980392156862745
0.20392156862745098 0.803921568627451 0.12156862745098039
0.5372549019607843 0.8313725490196079 0.12941176470588237
0.8392156862745098 0.796078431372549 0.12156862745098039
0.9882352941176471 0.6705882352941176 0.11764705882352941
0.1803921568627451 0.9921568627450981 0.13725490196078433
0.23921568627450981 0.996078431372549 0.12941176470588237
0.5529411764705883 0.9921568627450981 0.10980392156862745
0.8745098039215686 0.9921568627450981 0.06274509803921569
0.9882352941176471 0.9568627450980393 0.07450980392156863
0.027450980392156862 0.011764705882352941 0.21568627450980393
0.2235294117647059 0.03137254901960784 0.2235294117647059
0.4588235294117647 0.027450980392156862 0.27450980392156865
0.7215686274509804 0.0392156862745098 0.2784313725490196
1.0 0.23529411764705882 0.43137254901960786
0.023529411764705882 0.17647058823529413 0.20784313725490197
0.2235294117647059 0.22745098039215686 0.23137254901960785
0.4666666666666667 0.19607843137254902 0.2196078431372549
0.7411764705882353 0.2901960784313726 0.27450980392156865
1.0 0.3764705882352941 0.4
0.0196078431372549 0.4235294117647059 0.20784313725490197
0.09803921568627451 0.47058823529411764 0.1411764705882353
0.5215686274509804 0.4549019607843137 0.14901960784313725
0.788235294117647 0.4745098039215686 0.20784313725490197
0.9921568627450981 0.5058823529411764 0.3333333333333333
0.12156862745098039 0.6980392156862745 0.3254901960784314
0.19607843137254902 0.7568627450980392 0.24313725490196078
0.4666666666666667 0.807843137254902 0.1843137254901961
0.8274509803921568 0.788235294117647 0.1843137254901961
0.9882352941176471 0.6784313725490196 0.23137254901960785
0.17254901960784313 0.9607843137254902 0.30196078431372547
0.2196078431372549 0.9921568627450981 0.23921568627450981
0.4627450980392157 0.9882352941176471 0.19607843137254902
0.8196078431372549 0.9882352941176471 0.16862745098039217
0.9882352941176471 0.9607843137254902 0.16470588235294117
0.011764705882352941 0.011764705882352941 0.4
0.2549019607843137 0.03137254901960784 0.4392156862745098
0.4470588235294118 0.027450980392156862 0.4470588235294118
0.7098039215686275 0.10196078431372549 0.4666666666666667
1.0 0.2627450980392157 0.6
0.023529411764705882 0.13725490196078433 0.4
0.16470588235294117 0.1568627450980392 0.43137254901960786
0.4666666666666667 0.2235294117647059 0.4588235294117647
0.7411764705882353 0.2823529411764706 0.47058823529411764
0.996078431372549 0.39215686274509803 0.5764705882352941
0.0196078431372549 0.38823529411764707 0.42745098039215684
0.12156862745098039 0.42745098039215684 0.4549019607843137
0.5176470588235295 0.49411764705882355 0.49019607843137253
0.7764705882352941 0.48627450980392156 0.4745098039215686
0.9921568627450981 0.5137254901960784 0.5176470588235295
0.11372549019607843 0.6823529411764706 0.5372549019607843
0.1803921568627451 0.7137254901960784 0.5098039215686274
0.4117647058823529 0.7647058823529411 0.45098039215686275
0.807843137254902 0.7803921568627451 0.4235294117647059
0.9882352941176471 0.6745098039215687 0.4392156862745098
0.16862745098039217 0.9372549019607843 0.5058823529411764
0.20784313725490197 0.9764705882352941 0.47843137254901963
0.36470588235294116 0.9882352941176471 0.396078431372549
0.7215686274509804 0.9882352941176471 0.36470588235294116
0.9882352941176471 0.9686274509803922 0.3568627450980392
0.0196078431372549 0.0196078431372549 0.5568627450980392
0.33725490196078434 0.027450980392156862 0.6
0.5803921568627451 0.08235294117647059 0.6549019607843137
0.7058823529411765 0.12941176470588237 0.611764705882353
0.996078431372549 0.2823529411764706 0.788235294117647
0.0196078431372549 0.03137254901960784 0.5529411764705883
0.23529411764705882 0.16470588235294117 0.596078431372549
0.5450980392156862 0.2549019607843137 0.6666666666666666
0.7372549019607844 0.3058823529411765 0.6588235294117647
0.9882352941176471 0.4117647058823529 0.796078431372549
0.023529411764705882 0.27450980392156865 0.5764705882352941
0.08235294117647059 0.29411764705882354 0.6078431372549019
0.4666666666666667 0.403921568627451 0.6784313725490196
0.7725490196078432 0.4980392156862745 0.7215686274509804
0.9882352941176471 0.5333333333333333 0.7803921568627451
0.047058823529411764 0.5450980392156862 0.6549019607843137
0.19215686274509805 0.6078431372549019 0.6980392156862745
0.4235294117647059 0.6784313725490196 0.7333333333333333
0.796078431372549 0.7764705882352941 0.7725490196078432
0.9882352941176471 0.7450980392156863 0.7529411764705882
0.14901960784313725 0.9333333333333333 0.7529411764705882
0.2235294117647059 0.9607843137254902 0.7372549019607844
0.3607843137254902 0.984313725490196 0.6901960784313725
0.6470588235294118 0.9882352941176471 0.6392156862745098
0.9921568627450981 0.9803921568627451 0.6235294117647059
0.023529411764705882 0.023529411764705882 0.7725490196078432
0.3607843137254902 0.09019607843137255 0.8196078431372549
0.6235294117647059 0.18823529411764706 0.9098039215686274
0.8470588235294118 0.2627450980392157 0.9725490196078431
0.996078431372549 0.29411764705882354 0.9686274509803922
0.023529411764705882 0.11372549019607843 0.7686274509803922
0.2823529411764706 0.2235294117647059 0.8352941176470589
0.5843137254901961 0.3176470588235294 0.9098039215686274
0.8431372549019608 0.4 0.9921568627450981
0.9882352941176471 0.42745098039215684 0.9921568627450981
0.0196078431372549 0.3176470588235294 0.796078431372549
0.1568627450980392 0.33725490196078434 0.8352941176470589
0.47843137254901963 0.403921568627451 0.9215686274509803
0.8117647058823529 0.5098039215686274 0.9921568627450981
0.9882352941176471 0.5450980392156862 0.9882352941176471
0.12941176470588237 0.5607843137254902 0.8823529411764706
0.23921568627450981 0.5843137254901961 0.9215686274509803
0.403921568627451 0.5843137254901961 0.9568627450980393
0.7529411764705882 0.6901960784313725 0.9882352941176471
0.9882352941176471 0.7686274509803922 0.9882352941176471
0.17254901960784313 0.8352941176470589 0.9215686274509803
0.25098039215686274 0.8823529411764706 0.9529411764705882
0.4 0.9254901960784314 0.9803921568627451
0.6666666666666666 0.9647058823529412 0.9882352941176471
0.996078431372549 1.0 0.9921568627450981
