cubelut/Xiaomi_Vibrance_LUT.cube
TITLE "Photo Curves LUT"
LUT_3D_SIZE 5
0.0 0.0 0.0
0.24705882352941178 0.06666666666666667 0.058823529411764705
0.4627450980392157 0.07058823529411765 0.08627450980392157
0.6901960784313725 0.03137254901960784 0.08235294117647059
0.984313725490196 0.15294117647058825 0.12941176470588237
0.023529411764705882 0.23137254901960785 0.023529411764705882
0.2549019607843137 0.26666666666666666 0.023529411764705882
0.4823529411764706 0.23921568627450981 0.023529411764705882
0.7215686274509804 0.23921568627450981 0.011764705882352941
1.0 0.30980392156862746 0.07450980392156863
0.023529411764705882 0.4588235294117647 0.0196078431372549
0.22745098039215686 0.592156862745098 0.0392156862745098
0.5725490196078431 0.596078431372549 0.07058823529411765
0.8352941176470589 0.5411764705882353 0.07450980392156863
0.996078431372549 0.5058823529411764 0.08627450980392157
0.1450980392156863 0.7529411764705882 0.09803921568627451
0.17647058823529413 0.8509803921568627 0.09803921568627451
0.48627450980392156 0.8901960784313725 0.09019607843137255
0.8313725490196079 0.8745098039215686 0.08235294117647059
1.0 0.803921568627451 0.07058823529411765
0.12549019607843137 0.9647058823529412 0.08235294117647059
0.09803921568627451 1.0 0.058823529411764705
0.3568627450980392 1.0 0.06274509803921569
0.7215686274509804 1.0 0.03529411764705882
1.0 1.0 0.011764705882352941
0.03529411764705882 0.0392156862745098 0.2901960784313726
0.2549019607843137 0.07450980392156863 0.25882352941176473
0.4666666666666667 0.0784313725490196 0.2823529411764706
0.7019607843137254 0.054901960784313725 0.2980392156862745
0.9882352941176471 0.17254901960784313 0.35294117647058826
0.023529411764705882 0.2235294117647059 0.23921568627450981
0.24313725490196078 0.24313725490196078 0.24313725490196078
0.4627450980392157 0.21568627450980393 0.21568627450980393
0.7058823529411765 0.20784313725490197 0.21176470588235294
1.0 0.24705882352941178 0.22745098039215686
0.0196078431372549 0.4117647058823529 0.2196078431372549
0.11764705882352941 0.47843137254901963 0.1607843137254902
0.5450980392156862 0.5607843137254902 0.16862745098039217
0.788235294117647 0.4666666666666667 0.12549019607843137
0.996078431372549 0.44313725490196076 0.13725490196078433
0.12156862745098039 0.6862745098039216 0.24313725490196078
0.1568627450980392 0.7647058823529411 0.15294117647058825
0.40784313725490196 0.8509803921568627 0.11372549019607843
0.8117647058823529 0.8431372549019608 0.10196078431372549
1.0 0.7294117647058823 0.08627450980392157
0.13333333333333333 0.8980392156862745 0.20392156862745098
0.11372549019607843 0.9764705882352941 0.08235294117647059
0.23921568627450981 1.0 0.06666666666666667
0.6431372549019608 1.0 0.047058823529411764
1.0 1.0 0.011764705882352941
0.0196078431372549 0.03529411764705882 0.5647058823529412
0.30980392156862746 0.09019607843137255 0.5411764705882353
0.49019607843137253 0.09019607843137255 0.49411764705882355
0.7254901960784313 0.09803921568627451 0.5254901960784314
1.0 0.19215686274509805 0.5803921568627451
0.023529411764705882 0.2549019607843137 0.5490196078431373
0.1843137254901961 0.20392156862745098 0.5215686274509804
0.47843137254901963 0.23137254901960785 0.4823529411764706
0.7294117647058823 0.23529411764705882 0.4823529411764706
1.0 0.26666666666666666 0.5019607843137255
0.01568627450980392 0.43529411764705883 0.47058823529411764
0.14901960784313725 0.4627450980392157 0.48627450980392156
0.5176470588235295 0.5215686274509804 0.5176470588235295
0.7686274509803922 0.4627450980392157 0.4627450980392157
1.0 0.4549019607843137 0.44313725490196076
0.12156862745098039 0.6941176470588235 0.5019607843137255
0.14901960784313725 0.7215686274509804 0.4588235294117647
0.3607843137254902 0.7764705882352941 0.39215686274509803
0.796078431372549 0.8156862745098039 0.3686274509803922
1.0 0.6823529411764706 0.30196078431372547
0.12941176470588237 0.8823529411764706 0.4588235294117647
0.12941176470588237 0.9215686274509803 0.3686274509803922
0.22745098039215686 0.9921568627450981 0.2823529411764706
0.5882352941176471 1.0 0.2235294117647059
1.0 1.0 0.20784313725490197
0.023529411764705882 0.027450980392156862 0.8431372549019608
0.28627450980392155 0.027450980392156862 0.8235294117647058
0.5568627450980392 0.08627450980392157 0.796078431372549
0.7725490196078432 0.1450980392156863 0.7764705882352941
1.0 0.22745098039215686 0.8274509803921568
0.023529411764705882 0.2235294117647059 0.8431372549019608
0.07058823529411765 0.1568627450980392 0.807843137254902
0.49411764705882355 0.2235294117647059 0.7764705882352941
0.7764705882352941 0.2823529411764706 0.7803921568627451
1.0 0.30196078431372547 0.7803921568627451
0.06274509803921569 0.5058823529411764 0.8431372549019608
0.09803921568627451 0.4549019607843137 0.8235294117647058
0.41568627450980394 0.4196078431372549 0.788235294117647
0.796078431372549 0.5019607843137255 0.796078431372549
1.0 0.4745098039215686 0.7490196078431373
0.1411764705882353 0.7098039215686275 0.7686274509803922
0.17647058823529413 0.7294117647058823 0.7764705882352941
0.39215686274509803 0.7529411764705882 0.7803921568627451
0.7843137254901961 0.788235294117647 0.7843137254901961
1.0 0.7137254901960784 0.7098039215686275
0.12549019607843137 0.9176470588235294 0.7411764705882353
0.12156862745098039 0.9294117647058824 0.6980392156862745
0.23137254901960785 0.9490196078431372 0.6470588235294118
0.5686274509803921 1.0 0.6078431372549019
1.0 1.0 0.5843137254901961
0.023529411764705882 0.027450980392156862 0.9764705882352941
0.25882352941176473 0.027450980392156862 0.9803921568627451
0.5882352941176471 0.10196078431372549 0.9921568627450981
0.8666666666666667 0.20784313725490197 1.0
1.0 0.24313725490196078 1.0
0.023529411764705882 0.19607843137254902 0.9764705882352941
0.023529411764705882 0.0784313725490196 0.9764705882352941
0.4666666666666667 0.1803921568627451 0.984313725490196
0.8156862745098039 0.2901960784313726 1.0
0.996078431372549 0.3215686274509804 0.996078431372549
0.10980392156862745 0.49411764705882355 1.0
0.011764705882352941 0.38823529411764707 1.0
0.34901960784313724 0.36470588235294116 1.0
0.7803921568627451 0.47843137254901963 1.0
1.0 0.5019607843137255 0.996078431372549
0.1607843137254902 0.7450980392156863 0.996078431372549
0.16862745098039217 0.7137254901960784 1.0
0.3411764705882353 0.7019607843137254 0.996078431372549
0.7019607843137254 0.7058823529411765 1.0
1.0 0.7372549019607844 1.0
0.12549019607843137 0.9137254901960784 0.9882352941176471
0.11764705882352941 0.9294117647058824 0.996078431372549
0.2784313725490196 0.9490196078431372 1.0
0.6039215686274509 0.9764705882352941 1.0
0.996078431372549 1.0 0.996078431372549
